(NMJSTIMLID_STEP2_116IN)
(T3  D=1.587 CR=0. - ZMIN=-12. - FLAT END MILL)
G0 G90 G94 G17
G21
G53 G0 Z0.

(2D POCKET1 2)
M5
T3
M3 S10000
G55
M8
G0 X8.497 Y83.451
Z15.
Z5.
G1 Z1.5 F146.
Z-0.421 F437.
X8.492 Y83.455 Z-0.451
X8.48 Y83.467 Z-0.477
X8.462 Y83.486 Z-0.494
X8.441 Y83.507 Z-0.5
X8.408 Y83.532
X8.369 Y83.548
X8.328 Y83.554
X8.136
X8.084 Y83.548
X8.034 Y83.533
X7.988 Y83.509
X7.948 Y83.476
X7.812 Y83.34
X7.793 Y83.31
X7.789 Y83.275
X7.801 Y83.241
X7.825 Y83.216
X7.859 Y83.205
X7.894 Y83.208
X7.924 Y83.227
X8.067 Y83.369
X8.095 Y83.387
X8.328 Y83.474
X8.354 Y83.479
X8.379 Y83.476
X8.402 Y83.464
X8.427 Y83.447
X8.457 Y83.434
X8.49
X8.52 Y83.448
X8.542 Y83.472
X8.552 Y83.504
X8.548 Y83.536
X8.532 Y83.565
X8.505 Y83.584
X8.473 Y83.591
X8.252
X8.176
G3 X7.893 Y83.474 R0.4
G1 X7.683 Y83.264
X7.667 Y83.245
X7.404 Y82.884
X7.376 Y82.844 Z-0.492
X7.35 Y82.808 Z-0.47
X7.329 Y82.78 Z-0.435
X7.316 Y82.762 Z-0.39
X7.311 Y82.755 Z-0.341
Z1.5
X8.674 Y83.47
Z-0.452
X8.671 Y83.475 Z-0.476
X8.663 Y83.491 Z-0.494
X8.652 Y83.512 Z-0.5
X8.627 Y83.548
X8.594 Y83.575
X8.554 Y83.593
X8.511 Y83.599
X8.007
X7.807 Y83.398
X7.651 Y83.242
X7.633 Y83.215
X7.628 Y83.182
X7.636 Y83.151
X7.657 Y83.125
X7.686 Y83.11
X7.719 Y83.108
X9.08 Y83.312
X9.11 Y83.323
X9.133 Y83.345
X9.146 Y83.375
Y83.406
X9.134 Y83.436
X9.111 Y83.458
X9.081 Y83.469
X9.032 Y83.477 Z-0.508
X8.989 Y83.484 Z-0.53
X8.954 Y83.489 Z-0.565
X8.932 Y83.493 Z-0.61
X8.924 Y83.494 Z-0.659
Z-0.841
X8.916 Y83.495 Z-0.89
X8.894 Y83.499 Z-0.935
X8.859 Y83.504 Z-0.97
X8.816 Y83.511 Z-0.992
X8.767 Y83.519 Z-1.
G3 X8.328 Y83.554 R2.806
G1 X8.136
X8.084 Y83.548
X8.034 Y83.533
X7.988 Y83.509
X7.948 Y83.476
X7.812 Y83.34
X7.793 Y83.31
X7.789 Y83.275
X7.801 Y83.241
X7.825 Y83.216
X7.859 Y83.205
X7.894 Y83.208
X7.924 Y83.227
X8.067 Y83.369
X8.095 Y83.387
X8.328 Y83.474
X8.354 Y83.479
X8.379 Y83.476
X8.402 Y83.464
X8.427 Y83.447
X8.457 Y83.434
X8.49
X8.52 Y83.448
X8.542 Y83.472
X8.552 Y83.504
X8.548 Y83.536
X8.532 Y83.565
X8.505 Y83.584
X8.473 Y83.591
X8.252
X8.176
G3 X7.893 Y83.474 R0.4
G1 X7.683 Y83.264
X7.667 Y83.245
X7.404 Y82.884
X7.376 Y82.844 Z-0.992
X7.35 Y82.808 Z-0.97
X7.329 Y82.78 Z-0.935
X7.316 Y82.762 Z-0.89
X7.311 Y82.755 Z-0.841
Z1.
X8.674 Y83.47
Z-0.952
X8.671 Y83.475 Z-0.976
X8.663 Y83.491 Z-0.994
X8.652 Y83.512 Z-1.
X8.627 Y83.548
X8.594 Y83.575
X8.554 Y83.593
X8.511 Y83.599
X8.007
X7.807 Y83.398
X7.651 Y83.242
X7.633 Y83.215
X7.628 Y83.182
X7.636 Y83.151
X7.657 Y83.125
X7.686 Y83.11
X7.719 Y83.108
X9.08 Y83.312
X9.11 Y83.323
X9.133 Y83.345
X9.146 Y83.375
Y83.406
X9.134 Y83.436
X9.111 Y83.458
X9.081 Y83.469
X9.032 Y83.477 Z-1.008
X8.989 Y83.484 Z-1.03
X8.954 Y83.489 Z-1.065
X8.932 Y83.493 Z-1.11
X8.924 Y83.494 Z-1.159
Z-1.341
X8.916 Y83.495 Z-1.39
X8.894 Y83.499 Z-1.435
X8.859 Y83.504 Z-1.47
X8.816 Y83.511 Z-1.492
X8.767 Y83.519 Z-1.5
G3 X8.328 Y83.554 R2.806
G1 X8.136
X8.084 Y83.548
X8.034 Y83.533
X7.988 Y83.509
X7.948 Y83.476
X7.812 Y83.34
X7.793 Y83.31
X7.789 Y83.275
X7.801 Y83.241
X7.825 Y83.216
X7.859 Y83.205
X7.894 Y83.208
X7.924 Y83.227
X8.067 Y83.369
X8.095 Y83.387
X8.328 Y83.474
X8.354 Y83.479
X8.379 Y83.476
X8.402 Y83.464
X8.427 Y83.447
X8.457 Y83.434
X8.49
X8.52 Y83.448
X8.542 Y83.472
X8.552 Y83.504
X8.548 Y83.536
X8.532 Y83.565
X8.505 Y83.584
X8.473 Y83.591
X8.252
X8.176
G3 X7.893 Y83.474 R0.4
G1 X7.683 Y83.264
X7.667 Y83.245
X7.404 Y82.884
X7.376 Y82.844 Z-1.492
X7.35 Y82.808 Z-1.47
X7.329 Y82.78 Z-1.435
X7.316 Y82.762 Z-1.39
X7.311 Y82.755 Z-1.341
Z0.5
X8.674 Y83.47
Z-1.452
X8.671 Y83.475 Z-1.476
X8.663 Y83.491 Z-1.494
X8.652 Y83.512 Z-1.5
X8.627 Y83.548
X8.594 Y83.575
X8.554 Y83.593
X8.511 Y83.599
X8.007
X7.807 Y83.398
X7.651 Y83.242
X7.633 Y83.215
X7.628 Y83.182
X7.636 Y83.151
X7.657 Y83.125
X7.686 Y83.11
X7.719 Y83.108
X9.08 Y83.312
X9.11 Y83.323
X9.133 Y83.345
X9.146 Y83.375
Y83.406
X9.134 Y83.436
X9.111 Y83.458
X9.081 Y83.469
X9.032 Y83.477 Z-1.508
X8.989 Y83.484 Z-1.53
X8.954 Y83.489 Z-1.565
X8.932 Y83.493 Z-1.61
X8.924 Y83.494 Z-1.659
Z-1.841
X8.916 Y83.495 Z-1.89
X8.894 Y83.499 Z-1.935
X8.859 Y83.504 Z-1.97
X8.816 Y83.511 Z-1.992
X8.767 Y83.519 Z-2.
G3 X8.328 Y83.554 R2.806
G1 X8.136
X8.084 Y83.548
X8.034 Y83.533
X7.988 Y83.509
X7.948 Y83.476
X7.812 Y83.34
X7.793 Y83.31
X7.789 Y83.275
X7.801 Y83.241
X7.825 Y83.216
X7.859 Y83.205
X7.894 Y83.208
X7.924 Y83.227
X8.067 Y83.369
X8.095 Y83.387
X8.328 Y83.474
X8.354 Y83.479
X8.379 Y83.476
X8.402 Y83.464
X8.427 Y83.447
X8.457 Y83.434
X8.49
X8.52 Y83.448
X8.542 Y83.472
X8.552 Y83.504
X8.548 Y83.536
X8.532 Y83.565
X8.505 Y83.584
X8.473 Y83.591
X8.252
X8.176
G3 X7.893 Y83.474 R0.4
G1 X7.683 Y83.264
X7.667 Y83.245
X7.404 Y82.884
X7.376 Y82.844 Z-1.992
X7.35 Y82.808 Z-1.97
X7.329 Y82.78 Z-1.935
X7.316 Y82.762 Z-1.89
X7.311 Y82.755 Z-1.841
Z0.
X8.674 Y83.47
Z-1.952
X8.671 Y83.475 Z-1.976
X8.663 Y83.491 Z-1.994
X8.652 Y83.512 Z-2.
X8.627 Y83.548
X8.594 Y83.575
X8.554 Y83.593
X8.511 Y83.599
X8.007
X7.807 Y83.398
X7.651 Y83.242
X7.633 Y83.215
X7.628 Y83.182
X7.636 Y83.151
X7.657 Y83.125
X7.686 Y83.11
X7.719 Y83.108
X9.08 Y83.312
X9.11 Y83.323
X9.133 Y83.345
X9.146 Y83.375
Y83.406
X9.134 Y83.436
X9.111 Y83.458
X9.081 Y83.469
X9.032 Y83.477 Z-2.008
X8.989 Y83.484 Z-2.03
X8.954 Y83.489 Z-2.065
X8.932 Y83.493 Z-2.11
X8.924 Y83.494 Z-2.159
Z-2.341
X8.916 Y83.495 Z-2.39
X8.894 Y83.499 Z-2.435
X8.859 Y83.504 Z-2.47
X8.816 Y83.511 Z-2.492
X8.767 Y83.519 Z-2.5
G3 X8.328 Y83.554 R2.806
G1 X8.136
X8.084 Y83.548
X8.034 Y83.533
X7.988 Y83.509
X7.948 Y83.476
X7.812 Y83.34
X7.793 Y83.31
X7.789 Y83.275
X7.801 Y83.241
X7.825 Y83.216
X7.859 Y83.205
X7.894 Y83.208
X7.924 Y83.227
X8.067 Y83.369
X8.095 Y83.387
X8.328 Y83.474
X8.354 Y83.479
X8.379 Y83.476
X8.402 Y83.464
X8.427 Y83.447
X8.457 Y83.434
X8.49
X8.52 Y83.448
X8.542 Y83.472
X8.552 Y83.504
X8.548 Y83.536
X8.532 Y83.565
X8.505 Y83.584
X8.473 Y83.591
X8.252
X8.176
G3 X7.893 Y83.474 R0.4
G1 X7.683 Y83.264
X7.667 Y83.245
X7.404 Y82.884
X7.376 Y82.844 Z-2.492
X7.35 Y82.808 Z-2.47
X7.329 Y82.78 Z-2.435
X7.316 Y82.762 Z-2.39
X7.311 Y82.755 Z-2.341
Z-0.5
X8.674 Y83.47
Z-2.452
X8.671 Y83.475 Z-2.476
X8.663 Y83.491 Z-2.494
X8.652 Y83.512 Z-2.5
X8.627 Y83.548
X8.594 Y83.575
X8.554 Y83.593
X8.511 Y83.599
X8.007
X7.807 Y83.398
X7.651 Y83.242
X7.633 Y83.215
X7.628 Y83.182
X7.636 Y83.151
X7.657 Y83.125
X7.686 Y83.11
X7.719 Y83.108
X9.08 Y83.312
X9.11 Y83.323
X9.133 Y83.345
X9.146 Y83.375
Y83.406
X9.134 Y83.436
X9.111 Y83.458
X9.081 Y83.469
X9.032 Y83.477 Z-2.508
X8.989 Y83.484 Z-2.53
X8.954 Y83.489 Z-2.565
X8.932 Y83.493 Z-2.61
X8.924 Y83.494 Z-2.659
Z-2.841
X8.916 Y83.495 Z-2.89
X8.894 Y83.499 Z-2.935
X8.859 Y83.504 Z-2.97
X8.816 Y83.511 Z-2.992
X8.767 Y83.519 Z-3.
G3 X8.328 Y83.554 R2.806
G1 X8.136
X8.084 Y83.548
X8.034 Y83.533
X7.988 Y83.509
X7.948 Y83.476
X7.812 Y83.34
X7.793 Y83.31
X7.789 Y83.275
X7.801 Y83.241
X7.825 Y83.216
X7.859 Y83.205
X7.894 Y83.208
X7.924 Y83.227
X8.067 Y83.369
X8.095 Y83.387
X8.328 Y83.474
X8.354 Y83.479
X8.379 Y83.476
X8.402 Y83.464
X8.427 Y83.447
X8.457 Y83.434
X8.49
X8.52 Y83.448
X8.542 Y83.472
X8.552 Y83.504
X8.548 Y83.536
X8.532 Y83.565
X8.505 Y83.584
X8.473 Y83.591
X8.252
X8.176
G3 X7.893 Y83.474 R0.4
G1 X7.683 Y83.264
X7.667 Y83.245
X7.404 Y82.884
X7.376 Y82.844 Z-2.992
X7.35 Y82.808 Z-2.97
X7.329 Y82.78 Z-2.935
X7.316 Y82.762 Z-2.89
X7.311 Y82.755 Z-2.841
Z-1.
X8.674 Y83.47
Z-2.952
X8.671 Y83.475 Z-2.976
X8.663 Y83.491 Z-2.994
X8.652 Y83.512 Z-3.
X8.627 Y83.548
X8.594 Y83.575
X8.554 Y83.593
X8.511 Y83.599
X8.007
X7.807 Y83.398
X7.651 Y83.242
X7.633 Y83.215
X7.628 Y83.182
X7.636 Y83.151
X7.657 Y83.125
X7.686 Y83.11
X7.719 Y83.108
X9.08 Y83.312
X9.11 Y83.323
X9.133 Y83.345
X9.146 Y83.375
Y83.406
X9.134 Y83.436
X9.111 Y83.458
X9.081 Y83.469
X9.032 Y83.477 Z-3.008
X8.989 Y83.484 Z-3.03
X8.954 Y83.489 Z-3.065
X8.932 Y83.493 Z-3.11
X8.924 Y83.494 Z-3.159
Z-3.341
X8.916 Y83.495 Z-3.39
X8.894 Y83.499 Z-3.435
X8.859 Y83.504 Z-3.47
X8.816 Y83.511 Z-3.492
X8.767 Y83.519 Z-3.5
G3 X8.328 Y83.554 R2.806
G1 X8.136
X8.084 Y83.548
X8.034 Y83.533
X7.988 Y83.509
X7.948 Y83.476
X7.812 Y83.34
X7.793 Y83.31
X7.789 Y83.275
X7.801 Y83.241
X7.825 Y83.216
X7.859 Y83.205
X7.894 Y83.208
X7.924 Y83.227
X8.067 Y83.369
X8.095 Y83.387
X8.328 Y83.474
X8.354 Y83.479
X8.379 Y83.476
X8.402 Y83.464
X8.427 Y83.447
X8.457 Y83.434
X8.49
X8.52 Y83.448
X8.542 Y83.472
X8.552 Y83.504
X8.548 Y83.536
X8.532 Y83.565
X8.505 Y83.584
X8.473 Y83.591
X8.252
X8.176
G3 X7.893 Y83.474 R0.4
G1 X7.683 Y83.264
X7.667 Y83.245
X7.404 Y82.884
X7.376 Y82.844 Z-3.492
X7.35 Y82.808 Z-3.47
X7.329 Y82.78 Z-3.435
X7.316 Y82.762 Z-3.39
X7.311 Y82.755 Z-3.341
Z-1.5
X8.674 Y83.47
Z-3.452
X8.671 Y83.475 Z-3.476
X8.663 Y83.491 Z-3.494
X8.652 Y83.512 Z-3.5
X8.627 Y83.548
X8.594 Y83.575
X8.554 Y83.593
X8.511 Y83.599
X8.007
X7.807 Y83.398
X7.651 Y83.242
X7.633 Y83.215
X7.628 Y83.182
X7.636 Y83.151
X7.657 Y83.125
X7.686 Y83.11
X7.719 Y83.108
X9.08 Y83.312
X9.11 Y83.323
X9.133 Y83.345
X9.146 Y83.375
Y83.406
X9.134 Y83.436
X9.111 Y83.458
X9.081 Y83.469
X9.032 Y83.477 Z-3.508
X8.989 Y83.484 Z-3.53
X8.954 Y83.489 Z-3.565
X8.932 Y83.493 Z-3.61
X8.924 Y83.494 Z-3.659
Z-3.841
X8.916 Y83.495 Z-3.89
X8.894 Y83.499 Z-3.935
X8.859 Y83.504 Z-3.97
X8.816 Y83.511 Z-3.992
X8.767 Y83.519 Z-4.
G3 X8.328 Y83.554 R2.806
G1 X8.136
X8.084 Y83.548
X8.034 Y83.533
X7.988 Y83.509
X7.948 Y83.476
X7.812 Y83.34
X7.793 Y83.31
X7.789 Y83.275
X7.801 Y83.241
X7.825 Y83.216
X7.859 Y83.205
X7.894 Y83.208
X7.924 Y83.227
X8.067 Y83.369
X8.095 Y83.387
X8.328 Y83.474
X8.354 Y83.479
X8.379 Y83.476
X8.402 Y83.464
X8.427 Y83.447
X8.457 Y83.434
X8.49
X8.52 Y83.448
X8.542 Y83.472
X8.552 Y83.504
X8.548 Y83.536
X8.532 Y83.565
X8.505 Y83.584
X8.473 Y83.591
X8.252
X8.176
G3 X7.893 Y83.474 R0.4
G1 X7.683 Y83.264
X7.667 Y83.245
X7.404 Y82.884
X7.376 Y82.844 Z-3.992
X7.35 Y82.808 Z-3.97
X7.329 Y82.78 Z-3.935
X7.316 Y82.762 Z-3.89
X7.311 Y82.755 Z-3.841
Z-2.
X8.674 Y83.47
Z-3.952
X8.671 Y83.475 Z-3.976
X8.663 Y83.491 Z-3.994
X8.652 Y83.512 Z-4.
X8.627 Y83.548
X8.594 Y83.575
X8.554 Y83.593
X8.511 Y83.599
X8.007
X7.807 Y83.398
X7.651 Y83.242
X7.633 Y83.215
X7.628 Y83.182
X7.636 Y83.151
X7.657 Y83.125
X7.686 Y83.11
X7.719 Y83.108
X9.08 Y83.312
X9.11 Y83.323
X9.133 Y83.345
X9.146 Y83.375
Y83.406
X9.134 Y83.436
X9.111 Y83.458
X9.081 Y83.469
X9.032 Y83.477 Z-4.008
X8.989 Y83.484 Z-4.03
X8.954 Y83.489 Z-4.065
X8.932 Y83.493 Z-4.11
X8.924 Y83.494 Z-4.159
Z-4.341
X8.916 Y83.495 Z-4.39
X8.894 Y83.499 Z-4.435
X8.859 Y83.504 Z-4.47
X8.816 Y83.511 Z-4.492
X8.767 Y83.519 Z-4.5
G3 X8.328 Y83.554 R2.806
G1 X8.136
X8.084 Y83.548
X8.034 Y83.533
X7.988 Y83.509
X7.948 Y83.476
X7.812 Y83.34
X7.793 Y83.31
X7.789 Y83.275
X7.801 Y83.241
X7.825 Y83.216
X7.859 Y83.205
X7.894 Y83.208
X7.924 Y83.227
X8.067 Y83.369
X8.095 Y83.387
X8.328 Y83.474
X8.354 Y83.479
X8.379 Y83.476
X8.402 Y83.464
X8.427 Y83.447
X8.457 Y83.434
X8.49
X8.52 Y83.448
X8.542 Y83.472
X8.552 Y83.504
X8.548 Y83.536
X8.532 Y83.565
X8.505 Y83.584
X8.473 Y83.591
X8.252
X8.176
G3 X7.893 Y83.474 R0.4
G1 X7.683 Y83.264
X7.667 Y83.245
X7.404 Y82.884
X7.376 Y82.844 Z-4.492
X7.35 Y82.808 Z-4.47
X7.329 Y82.78 Z-4.435
X7.316 Y82.762 Z-4.39
X7.311 Y82.755 Z-4.341
Z-2.5
X8.674 Y83.47
Z-4.452
X8.671 Y83.475 Z-4.476
X8.663 Y83.491 Z-4.494
X8.652 Y83.512 Z-4.5
X8.627 Y83.548
X8.594 Y83.575
X8.554 Y83.593
X8.511 Y83.599
X8.007
X7.807 Y83.398
X7.651 Y83.242
X7.635 Y83.224
X7.347 Y82.827
X7.318 Y82.787 Z-4.492
X7.292 Y82.752 Z-4.47
X7.271 Y82.723 Z-4.435
X7.258 Y82.705 Z-4.39
X7.253 Y82.699 Z-4.341
G0 Z5.
X3.212 Y78.595
G1 Z1.5 F146.
Z-0.421 F437.
X3.206 Z-0.451
X3.189 Z-0.477
X3.163 Z-0.494
X3.133 Z-0.5
X3.092 Y78.589
X3.053 Y78.574
X3.02 Y78.548
X2.885 Y78.412
X2.851 Y78.372
X2.827 Y78.326
X2.812 Y78.276
X2.806 Y78.224
Y78.032
X2.814 Y77.997
X2.836 Y77.97
X2.868 Y77.954
X2.903
X2.935 Y77.969
X2.957 Y77.997
X2.965 Y78.031
X2.966 Y78.233
X2.973 Y78.265
X3.077 Y78.492
X3.091 Y78.514
X3.111 Y78.529
X3.136 Y78.538
X3.165 Y78.543
X3.196 Y78.555
X3.219 Y78.578
X3.231 Y78.609
X3.229 Y78.642
X3.214 Y78.671
X3.188 Y78.692
X3.156 Y78.7
X3.124 Y78.695
X3.096 Y78.677
X2.94 Y78.521
X2.886 Y78.467
G3 X2.769 Y78.184 R0.4
G1 Y77.887
X2.771 Y77.862
X2.841 Y77.421
X2.848 Y77.373 Z-0.492
X2.855 Y77.329 Z-0.47
X2.861 Y77.295 Z-0.435
X2.864 Y77.272 Z-0.39
X2.866 Y77.265 Z-0.341
Z1.5
X3.324 Y78.733
Z-0.452
X3.318 Y78.735 Z-0.476
X3.302 Y78.741 Z-0.494
X3.279 Y78.748 Z-0.5
X3.236 Y78.756
X3.193 Y78.751
X3.152 Y78.735
X3.118 Y78.709
X2.761 Y78.353
Y78.07
Y77.849
X2.768 Y77.817
X2.787 Y77.79
X2.816 Y77.774
X2.849 Y77.77
X2.88 Y77.78
X2.905 Y77.802
X3.723 Y78.909
X3.736 Y78.938
X3.737 Y78.97
X3.725 Y79.
X3.703 Y79.023
X3.673 Y79.035
X3.641 Y79.034
X3.612 Y79.021
X3.572 Y78.992 Z-0.508
X3.537 Y78.966 Z-0.53
X3.508 Y78.945 Z-0.565
X3.49 Y78.932 Z-0.61
X3.484 Y78.928 Z-0.659
Z-0.841
X3.477 Y78.923 Z-0.89
X3.459 Y78.91 Z-0.935
X3.431 Y78.889 Z-0.97
X3.395 Y78.863 Z-0.992
X3.355 Y78.834 Z-1.
G3 X3.02 Y78.548 R2.806
G1 X2.885 Y78.412
X2.851 Y78.372
X2.827 Y78.326
X2.812 Y78.276
X2.806 Y78.224
Y78.032
X2.814 Y77.997
X2.836 Y77.97
X2.868 Y77.954
X2.903
X2.935 Y77.969
X2.957 Y77.997
X2.965 Y78.031
X2.966 Y78.233
X2.973 Y78.265
X3.077 Y78.492
X3.091 Y78.514
X3.111 Y78.529
X3.136 Y78.538
X3.165 Y78.543
X3.196 Y78.555
X3.219 Y78.578
X3.231 Y78.609
X3.229 Y78.642
X3.214 Y78.671
X3.188 Y78.692
X3.156 Y78.7
X3.124 Y78.695
X3.096 Y78.677
X2.94 Y78.521
X2.886 Y78.467
G3 X2.769 Y78.184 R0.4
G1 Y77.887
X2.771 Y77.862
X2.841 Y77.421
X2.848 Y77.373 Z-0.992
X2.855 Y77.329 Z-0.97
X2.861 Y77.295 Z-0.935
X2.864 Y77.272 Z-0.89
X2.866 Y77.265 Z-0.841
Z1.
X3.324 Y78.733
Z-0.952
X3.318 Y78.735 Z-0.976
X3.302 Y78.741 Z-0.994
X3.279 Y78.748 Z-1.
X3.236 Y78.756
X3.193 Y78.751
X3.152 Y78.735
X3.118 Y78.709
X2.761 Y78.353
Y78.07
Y77.849
X2.768 Y77.817
X2.787 Y77.79
X2.816 Y77.774
X2.849 Y77.77
X2.88 Y77.78
X2.905 Y77.802
X3.723 Y78.909
X3.736 Y78.938
X3.737 Y78.97
X3.725 Y79.
X3.703 Y79.023
X3.673 Y79.035
X3.641 Y79.034
X3.612 Y79.021
X3.572 Y78.992 Z-1.008
X3.537 Y78.966 Z-1.03
X3.508 Y78.945 Z-1.065
X3.49 Y78.932 Z-1.11
X3.484 Y78.928 Z-1.159
Z-1.341
X3.477 Y78.923 Z-1.39
X3.459 Y78.91 Z-1.435
X3.431 Y78.889 Z-1.47
X3.395 Y78.863 Z-1.492
X3.355 Y78.834 Z-1.5
G3 X3.02 Y78.548 R2.806
G1 X2.885 Y78.412
X2.851 Y78.372
X2.827 Y78.326
X2.812 Y78.276
X2.806 Y78.224
Y78.032
X2.814 Y77.997
X2.836 Y77.97
X2.868 Y77.954
X2.903
X2.935 Y77.969
X2.957 Y77.997
X2.965 Y78.031
X2.966 Y78.233
X2.973 Y78.265
X3.077 Y78.492
X3.091 Y78.514
X3.111 Y78.529
X3.136 Y78.538
X3.165 Y78.543
X3.196 Y78.555
X3.219 Y78.578
X3.231 Y78.609
X3.229 Y78.642
X3.214 Y78.671
X3.188 Y78.692
X3.156 Y78.7
X3.124 Y78.695
X3.096 Y78.677
X2.94 Y78.521
X2.886 Y78.467
G3 X2.769 Y78.184 R0.4
G1 Y77.887
X2.771 Y77.862
X2.841 Y77.421
X2.848 Y77.373 Z-1.492
X2.855 Y77.329 Z-1.47
X2.861 Y77.295 Z-1.435
X2.864 Y77.272 Z-1.39
X2.866 Y77.265 Z-1.341
Z0.5
X3.324 Y78.733
Z-1.452
X3.318 Y78.735 Z-1.476
X3.302 Y78.741 Z-1.494
X3.279 Y78.748 Z-1.5
X3.236 Y78.756
X3.193 Y78.751
X3.152 Y78.735
X3.118 Y78.709
X2.761 Y78.353
Y78.07
Y77.849
X2.768 Y77.817
X2.787 Y77.79
X2.816 Y77.774
X2.849 Y77.77
X2.88 Y77.78
X2.905 Y77.802
X3.723 Y78.909
X3.736 Y78.938
X3.737 Y78.97
X3.725 Y79.
X3.703 Y79.023
X3.673 Y79.035
X3.641 Y79.034
X3.612 Y79.021
X3.572 Y78.992 Z-1.508
X3.537 Y78.966 Z-1.53
X3.508 Y78.945 Z-1.565
X3.49 Y78.932 Z-1.61
X3.484 Y78.928 Z-1.659
Z-1.841
X3.477 Y78.923 Z-1.89
X3.459 Y78.91 Z-1.935
X3.431 Y78.889 Z-1.97
X3.395 Y78.863 Z-1.992
X3.355 Y78.834 Z-2.
G3 X3.02 Y78.548 R2.806
G1 X2.885 Y78.412
X2.851 Y78.372
X2.827 Y78.326
X2.812 Y78.276
X2.806 Y78.224
Y78.032
X2.814 Y77.997
X2.836 Y77.97
X2.868 Y77.954
X2.903
X2.935 Y77.969
X2.957 Y77.997
X2.965 Y78.031
X2.966 Y78.233
X2.973 Y78.265
X3.077 Y78.492
X3.091 Y78.514
X3.111 Y78.529
X3.136 Y78.538
X3.165 Y78.543
X3.196 Y78.555
X3.219 Y78.578
X3.231 Y78.609
X3.229 Y78.642
X3.214 Y78.671
X3.188 Y78.692
X3.156 Y78.7
X3.124 Y78.695
X3.096 Y78.677
X2.94 Y78.521
X2.886 Y78.467
G3 X2.769 Y78.184 R0.4
G1 Y77.887
X2.771 Y77.862
X2.841 Y77.421
X2.848 Y77.373 Z-1.992
X2.855 Y77.329 Z-1.97
X2.861 Y77.295 Z-1.935
X2.864 Y77.272 Z-1.89
X2.866 Y77.265 Z-1.841
Z0.
X3.324 Y78.733
Z-1.952
X3.318 Y78.735 Z-1.976
X3.302 Y78.741 Z-1.994
X3.279 Y78.748 Z-2.
X3.236 Y78.756
X3.193 Y78.751
X3.152 Y78.735
X3.118 Y78.709
X2.761 Y78.353
Y78.07
Y77.849
X2.768 Y77.817
X2.787 Y77.79
X2.816 Y77.774
X2.849 Y77.77
X2.88 Y77.78
X2.905 Y77.802
X3.723 Y78.909
X3.736 Y78.938
X3.737 Y78.97
X3.725 Y79.
X3.703 Y79.023
X3.673 Y79.035
X3.641 Y79.034
X3.612 Y79.021
X3.572 Y78.992 Z-2.008
X3.537 Y78.966 Z-2.03
X3.508 Y78.945 Z-2.065
X3.49 Y78.932 Z-2.11
X3.484 Y78.928 Z-2.159
Z-2.341
X3.477 Y78.923 Z-2.39
X3.459 Y78.91 Z-2.435
X3.431 Y78.889 Z-2.47
X3.395 Y78.863 Z-2.492
X3.355 Y78.834 Z-2.5
G3 X3.02 Y78.548 R2.806
G1 X2.885 Y78.412
X2.851 Y78.372
X2.827 Y78.326
X2.812 Y78.276
X2.806 Y78.224
Y78.032
X2.814 Y77.997
X2.836 Y77.97
X2.868 Y77.954
X2.903
X2.935 Y77.969
X2.957 Y77.997
X2.965 Y78.031
X2.966 Y78.233
X2.973 Y78.265
X3.077 Y78.492
X3.091 Y78.514
X3.111 Y78.529
X3.136 Y78.538
X3.165 Y78.543
X3.196 Y78.555
X3.219 Y78.578
X3.231 Y78.609
X3.229 Y78.642
X3.214 Y78.671
X3.188 Y78.692
X3.156 Y78.7
X3.124 Y78.695
X3.096 Y78.677
X2.94 Y78.521
X2.886 Y78.467
G3 X2.769 Y78.184 R0.4
G1 Y77.887
X2.771 Y77.862
X2.841 Y77.421
X2.848 Y77.373 Z-2.492
X2.855 Y77.329 Z-2.47
X2.861 Y77.295 Z-2.435
X2.864 Y77.272 Z-2.39
X2.866 Y77.265 Z-2.341
Z-0.5
X3.324 Y78.733
Z-2.452
X3.318 Y78.735 Z-2.476
X3.302 Y78.741 Z-2.494
X3.279 Y78.748 Z-2.5
X3.236 Y78.756
X3.193 Y78.751
X3.152 Y78.735
X3.118 Y78.709
X2.761 Y78.353
Y78.07
Y77.849
X2.768 Y77.817
X2.787 Y77.79
X2.816 Y77.774
X2.849 Y77.77
X2.88 Y77.78
X2.905 Y77.802
X3.723 Y78.909
X3.736 Y78.938
X3.737 Y78.97
X3.725 Y79.
X3.703 Y79.023
X3.673 Y79.035
X3.641 Y79.034
X3.612 Y79.021
X3.572 Y78.992 Z-2.508
X3.537 Y78.966 Z-2.53
X3.508 Y78.945 Z-2.565
X3.49 Y78.932 Z-2.61
X3.484 Y78.928 Z-2.659
Z-2.841
X3.477 Y78.923 Z-2.89
X3.459 Y78.91 Z-2.935
X3.431 Y78.889 Z-2.97
X3.395 Y78.863 Z-2.992
X3.355 Y78.834 Z-3.
G3 X3.02 Y78.548 R2.806
G1 X2.885 Y78.412
X2.851 Y78.372
X2.827 Y78.326
X2.812 Y78.276
X2.806 Y78.224
Y78.032
X2.814 Y77.997
X2.836 Y77.97
X2.868 Y77.954
X2.903
X2.935 Y77.969
X2.957 Y77.997
X2.965 Y78.031
X2.966 Y78.233
X2.973 Y78.265
X3.077 Y78.492
X3.091 Y78.514
X3.111 Y78.529
X3.136 Y78.538
X3.165 Y78.543
X3.196 Y78.555
X3.219 Y78.578
X3.231 Y78.609
X3.229 Y78.642
X3.214 Y78.671
X3.188 Y78.692
X3.156 Y78.7
X3.124 Y78.695
X3.096 Y78.677
X2.94 Y78.521
X2.886 Y78.467
G3 X2.769 Y78.184 R0.4
G1 Y77.887
X2.771 Y77.862
X2.841 Y77.421
X2.848 Y77.373 Z-2.992
X2.855 Y77.329 Z-2.97
X2.861 Y77.295 Z-2.935
X2.864 Y77.272 Z-2.89
X2.866 Y77.265 Z-2.841
Z-1.
X3.324 Y78.733
Z-2.952
X3.318 Y78.735 Z-2.976
X3.302 Y78.741 Z-2.994
X3.279 Y78.748 Z-3.
X3.236 Y78.756
X3.193 Y78.751
X3.152 Y78.735
X3.118 Y78.709
X2.761 Y78.353
Y78.07
Y77.849
X2.768 Y77.817
X2.787 Y77.79
X2.816 Y77.774
X2.849 Y77.77
X2.88 Y77.78
X2.905 Y77.802
X3.723 Y78.909
X3.736 Y78.938
X3.737 Y78.97
X3.725 Y79.
X3.703 Y79.023
X3.673 Y79.035
X3.641 Y79.034
X3.612 Y79.021
X3.572 Y78.992 Z-3.008
X3.537 Y78.966 Z-3.03
X3.508 Y78.945 Z-3.065
X3.49 Y78.932 Z-3.11
X3.484 Y78.928 Z-3.159
Z-3.341
X3.477 Y78.923 Z-3.39
X3.459 Y78.91 Z-3.435
X3.431 Y78.889 Z-3.47
X3.395 Y78.863 Z-3.492
X3.355 Y78.834 Z-3.5
G3 X3.02 Y78.548 R2.806
G1 X2.885 Y78.412
X2.851 Y78.372
X2.827 Y78.326
X2.812 Y78.276
X2.806 Y78.224
Y78.032
X2.814 Y77.997
X2.836 Y77.97
X2.868 Y77.954
X2.903
X2.935 Y77.969
X2.957 Y77.997
X2.965 Y78.031
X2.966 Y78.233
X2.973 Y78.265
X3.077 Y78.492
X3.091 Y78.514
X3.111 Y78.529
X3.136 Y78.538
X3.165 Y78.543
X3.196 Y78.555
X3.219 Y78.578
X3.231 Y78.609
X3.229 Y78.642
X3.214 Y78.671
X3.188 Y78.692
X3.156 Y78.7
X3.124 Y78.695
X3.096 Y78.677
X2.94 Y78.521
X2.886 Y78.467
G3 X2.769 Y78.184 R0.4
G1 Y77.887
X2.771 Y77.862
X2.841 Y77.421
X2.848 Y77.373 Z-3.492
X2.855 Y77.329 Z-3.47
X2.861 Y77.295 Z-3.435
X2.864 Y77.272 Z-3.39
X2.866 Y77.265 Z-3.341
Z-1.5
X3.324 Y78.733
Z-3.452
X3.318 Y78.735 Z-3.476
X3.302 Y78.741 Z-3.494
X3.279 Y78.748 Z-3.5
X3.236 Y78.756
X3.193 Y78.751
X3.152 Y78.735
X3.118 Y78.709
X2.761 Y78.353
Y78.07
Y77.849
X2.768 Y77.817
X2.787 Y77.79
X2.816 Y77.774
X2.849 Y77.77
X2.88 Y77.78
X2.905 Y77.802
X3.723 Y78.909
X3.736 Y78.938
X3.737 Y78.97
X3.725 Y79.
X3.703 Y79.023
X3.673 Y79.035
X3.641 Y79.034
X3.612 Y79.021
X3.572 Y78.992 Z-3.508
X3.537 Y78.966 Z-3.53
X3.508 Y78.945 Z-3.565
X3.49 Y78.932 Z-3.61
X3.484 Y78.928 Z-3.659
Z-3.841
X3.477 Y78.923 Z-3.89
X3.459 Y78.91 Z-3.935
X3.431 Y78.889 Z-3.97
X3.395 Y78.863 Z-3.992
X3.355 Y78.834 Z-4.
G3 X3.02 Y78.548 R2.806
G1 X2.885 Y78.412
X2.851 Y78.372
X2.827 Y78.326
X2.812 Y78.276
X2.806 Y78.224
Y78.032
X2.814 Y77.997
X2.836 Y77.97
X2.868 Y77.954
X2.903
X2.935 Y77.969
X2.957 Y77.997
X2.965 Y78.031
X2.966 Y78.233
X2.973 Y78.265
X3.077 Y78.492
X3.091 Y78.514
X3.111 Y78.529
X3.136 Y78.538
X3.165 Y78.543
X3.196 Y78.555
X3.219 Y78.578
X3.231 Y78.609
X3.229 Y78.642
X3.214 Y78.671
X3.188 Y78.692
X3.156 Y78.7
X3.124 Y78.695
X3.096 Y78.677
X2.94 Y78.521
X2.886 Y78.467
G3 X2.769 Y78.184 R0.4
G1 Y77.887
X2.771 Y77.862
X2.841 Y77.421
X2.848 Y77.373 Z-3.992
X2.855 Y77.329 Z-3.97
X2.861 Y77.295 Z-3.935
X2.864 Y77.272 Z-3.89
X2.866 Y77.265 Z-3.841
Z-2.
X3.324 Y78.733
Z-3.952
X3.318 Y78.735 Z-3.976
X3.302 Y78.741 Z-3.994
X3.279 Y78.748 Z-4.
X3.236 Y78.756
X3.193 Y78.751
X3.152 Y78.735
X3.118 Y78.709
X2.761 Y78.353
Y78.07
Y77.849
X2.768 Y77.817
X2.787 Y77.79
X2.816 Y77.774
X2.849 Y77.77
X2.88 Y77.78
X2.905 Y77.802
X3.723 Y78.909
X3.736 Y78.938
X3.737 Y78.97
X3.725 Y79.
X3.703 Y79.023
X3.673 Y79.035
X3.641 Y79.034
X3.612 Y79.021
X3.572 Y78.992 Z-4.008
X3.537 Y78.966 Z-4.03
X3.508 Y78.945 Z-4.065
X3.49 Y78.932 Z-4.11
X3.484 Y78.928 Z-4.159
Z-4.341
X3.477 Y78.923 Z-4.39
X3.459 Y78.91 Z-4.435
X3.431 Y78.889 Z-4.47
X3.395 Y78.863 Z-4.492
X3.355 Y78.834 Z-4.5
G3 X3.02 Y78.548 R2.806
G1 X2.885 Y78.412
X2.851 Y78.372
X2.827 Y78.326
X2.812 Y78.276
X2.806 Y78.224
Y78.032
X2.814 Y77.997
X2.836 Y77.97
X2.868 Y77.954
X2.903
X2.935 Y77.969
X2.957 Y77.997
X2.965 Y78.031
X2.966 Y78.233
X2.973 Y78.265
X3.077 Y78.492
X3.091 Y78.514
X3.111 Y78.529
X3.136 Y78.538
X3.165 Y78.543
X3.196 Y78.555
X3.219 Y78.578
X3.231 Y78.609
X3.229 Y78.642
X3.214 Y78.671
X3.188 Y78.692
X3.156 Y78.7
X3.124 Y78.695
X3.096 Y78.677
X2.94 Y78.521
X2.886 Y78.467
G3 X2.769 Y78.184 R0.4
G1 Y77.887
X2.771 Y77.862
X2.841 Y77.421
X2.848 Y77.373 Z-4.492
X2.855 Y77.329 Z-4.47
X2.861 Y77.295 Z-4.435
X2.864 Y77.272 Z-4.39
X2.866 Y77.265 Z-4.341
Z-2.5
X3.324 Y78.733
Z-4.452
X3.318 Y78.735 Z-4.476
X3.302 Y78.741 Z-4.494
X3.279 Y78.748 Z-4.5
X3.236 Y78.756
X3.193 Y78.751
X3.152 Y78.735
X3.118 Y78.709
X2.761 Y78.353
Y78.07
Y77.849
X2.763 Y77.824
X2.84 Y77.341
X2.848 Y77.292 Z-4.492
X2.855 Y77.248 Z-4.47
X2.86 Y77.214 Z-4.435
X2.864 Y77.191 Z-4.39
X2.865 Y77.184 Z-4.341
G0 Z5.
X2.909 Y8.137
G1 Z1.5 F146.
Z-0.421 F437.
X2.905 Y8.132 Z-0.451
X2.893 Y8.12 Z-0.477
X2.874 Y8.102 Z-0.494
X2.853 Y8.081 Z-0.5
X2.828 Y8.048
X2.812 Y8.009
X2.806 Y7.968
Y7.776
X2.812 Y7.724
X2.827 Y7.674
X2.851 Y7.628
X2.885 Y7.588
X3.02 Y7.452
X3.05 Y7.433
X3.085 Y7.429
X3.119 Y7.441
X3.144 Y7.465
X3.155 Y7.499
X3.152 Y7.534
X3.133 Y7.564
X2.991 Y7.707
X2.973 Y7.735
X2.886 Y7.968
X2.881 Y7.994
X2.884 Y8.019
X2.896 Y8.042
X2.913 Y8.067
X2.926 Y8.097
Y8.13
X2.912 Y8.16
X2.888 Y8.182
X2.856 Y8.192
X2.824 Y8.188
X2.795 Y8.172
X2.776 Y8.145
X2.769 Y8.113
Y7.892
Y7.816
G3 X2.886 Y7.533 R0.4
G1 X3.096 Y7.323
X3.115 Y7.307
X3.476 Y7.044
X3.516 Y7.016 Z-0.492
X3.552 Y6.99 Z-0.47
X3.58 Y6.969 Z-0.435
X3.598 Y6.956 Z-0.39
X3.605 Y6.951 Z-0.341
Z1.5
X2.89 Y8.314
Z-0.452
X2.885 Y8.311 Z-0.476
X2.869 Y8.303 Z-0.494
X2.848 Y8.292 Z-0.5
X2.812 Y8.267
X2.785 Y8.234
X2.767 Y8.194
X2.761 Y8.151
Y7.647
X2.962 Y7.447
X3.118 Y7.291
X3.145 Y7.273
X3.178 Y7.268
X3.209 Y7.276
X3.235 Y7.297
X3.25 Y7.326
X3.252 Y7.359
X3.048 Y8.72
X3.037 Y8.75
X3.015 Y8.773
X2.985 Y8.786
X2.953
X2.924 Y8.774
X2.902 Y8.751
X2.891 Y8.721
X2.883 Y8.672 Z-0.508
X2.876 Y8.629 Z-0.53
X2.871 Y8.594 Z-0.565
X2.867 Y8.572 Z-0.61
X2.866 Y8.564 Z-0.659
Z-0.841
X2.865 Y8.556 Z-0.89
X2.861 Y8.534 Z-0.935
X2.856 Y8.499 Z-0.97
X2.849 Y8.456 Z-0.992
X2.841 Y8.407 Z-1.
G3 X2.806 Y7.968 R2.806
G1 Y7.776
X2.812 Y7.724
X2.827 Y7.674
X2.851 Y7.628
X2.885 Y7.588
X3.02 Y7.452
X3.05 Y7.433
X3.085 Y7.429
X3.119 Y7.441
X3.144 Y7.465
X3.155 Y7.499
X3.152 Y7.534
X3.133 Y7.564
X2.991 Y7.707
X2.973 Y7.735
X2.886 Y7.968
X2.881 Y7.994
X2.884 Y8.019
X2.896 Y8.042
X2.913 Y8.067
X2.926 Y8.097
Y8.13
X2.912 Y8.16
X2.888 Y8.182
X2.856 Y8.192
X2.824 Y8.188
X2.795 Y8.172
X2.776 Y8.145
X2.769 Y8.113
Y7.892
Y7.816
G3 X2.886 Y7.533 R0.4
G1 X3.096 Y7.323
X3.115 Y7.307
X3.476 Y7.044
X3.516 Y7.016 Z-0.992
X3.552 Y6.99 Z-0.97
X3.58 Y6.969 Z-0.935
X3.598 Y6.956 Z-0.89
X3.605 Y6.951 Z-0.841
Z1.
X2.89 Y8.314
Z-0.952
X2.885 Y8.311 Z-0.976
X2.869 Y8.303 Z-0.994
X2.848 Y8.292 Z-1.
X2.812 Y8.267
X2.785 Y8.234
X2.767 Y8.194
X2.761 Y8.151
Y7.647
X2.962 Y7.447
X3.118 Y7.291
X3.145 Y7.273
X3.178 Y7.268
X3.209 Y7.276
X3.235 Y7.297
X3.25 Y7.326
X3.252 Y7.359
X3.048 Y8.72
X3.037 Y8.75
X3.015 Y8.773
X2.985 Y8.786
X2.953
X2.924 Y8.774
X2.902 Y8.751
X2.891 Y8.721
X2.883 Y8.672 Z-1.008
X2.876 Y8.629 Z-1.03
X2.871 Y8.594 Z-1.065
X2.867 Y8.572 Z-1.11
X2.866 Y8.564 Z-1.159
Z-1.341
X2.865 Y8.556 Z-1.39
X2.861 Y8.534 Z-1.435
X2.856 Y8.499 Z-1.47
X2.849 Y8.456 Z-1.492
X2.841 Y8.407 Z-1.5
G3 X2.806 Y7.968 R2.806
G1 Y7.776
X2.812 Y7.724
X2.827 Y7.674
X2.851 Y7.628
X2.885 Y7.588
X3.02 Y7.452
X3.05 Y7.433
X3.085 Y7.429
X3.119 Y7.441
X3.144 Y7.465
X3.155 Y7.499
X3.152 Y7.534
X3.133 Y7.564
X2.991 Y7.707
X2.973 Y7.735
X2.886 Y7.968
X2.881 Y7.994
X2.884 Y8.019
X2.896 Y8.042
X2.913 Y8.067
X2.926 Y8.097
Y8.13
X2.912 Y8.16
X2.888 Y8.182
X2.856 Y8.192
X2.824 Y8.188
X2.795 Y8.172
X2.776 Y8.145
X2.769 Y8.113
Y7.892
Y7.816
G3 X2.886 Y7.533 R0.4
G1 X3.096 Y7.323
X3.115 Y7.307
X3.476 Y7.044
X3.516 Y7.016 Z-1.492
X3.552 Y6.99 Z-1.47
X3.58 Y6.969 Z-1.435
X3.598 Y6.956 Z-1.39
X3.605 Y6.951 Z-1.341
Z0.5
X2.89 Y8.314
Z-1.452
X2.885 Y8.311 Z-1.476
X2.869 Y8.303 Z-1.494
X2.848 Y8.292 Z-1.5
X2.812 Y8.267
X2.785 Y8.234
X2.767 Y8.194
X2.761 Y8.151
Y7.647
X2.962 Y7.447
X3.118 Y7.291
X3.145 Y7.273
X3.178 Y7.268
X3.209 Y7.276
X3.235 Y7.297
X3.25 Y7.326
X3.252 Y7.359
X3.048 Y8.72
X3.037 Y8.75
X3.015 Y8.773
X2.985 Y8.786
X2.953
X2.924 Y8.774
X2.902 Y8.751
X2.891 Y8.721
X2.883 Y8.672 Z-1.508
X2.876 Y8.629 Z-1.53
X2.871 Y8.594 Z-1.565
X2.867 Y8.572 Z-1.61
X2.866 Y8.564 Z-1.659
Z-1.841
X2.865 Y8.556 Z-1.89
X2.861 Y8.534 Z-1.935
X2.856 Y8.499 Z-1.97
X2.849 Y8.456 Z-1.992
X2.841 Y8.407 Z-2.
G3 X2.806 Y7.968 R2.806
G1 Y7.776
X2.812 Y7.724
X2.827 Y7.674
X2.851 Y7.628
X2.885 Y7.588
X3.02 Y7.452
X3.05 Y7.433
X3.085 Y7.429
X3.119 Y7.441
X3.144 Y7.465
X3.155 Y7.499
X3.152 Y7.534
X3.133 Y7.564
X2.991 Y7.707
X2.973 Y7.735
X2.886 Y7.968
X2.881 Y7.994
X2.884 Y8.019
X2.896 Y8.042
X2.913 Y8.067
X2.926 Y8.097
Y8.13
X2.912 Y8.16
X2.888 Y8.182
X2.856 Y8.192
X2.824 Y8.188
X2.795 Y8.172
X2.776 Y8.145
X2.769 Y8.113
Y7.892
Y7.816
G3 X2.886 Y7.533 R0.4
G1 X3.096 Y7.323
X3.115 Y7.307
X3.476 Y7.044
X3.516 Y7.016 Z-1.992
X3.552 Y6.99 Z-1.97
X3.58 Y6.969 Z-1.935
X3.598 Y6.956 Z-1.89
X3.605 Y6.951 Z-1.841
Z0.
X2.89 Y8.314
Z-1.952
X2.885 Y8.311 Z-1.976
X2.869 Y8.303 Z-1.994
X2.848 Y8.292 Z-2.
X2.812 Y8.267
X2.785 Y8.234
X2.767 Y8.194
X2.761 Y8.151
Y7.647
X2.962 Y7.447
X3.118 Y7.291
X3.145 Y7.273
X3.178 Y7.268
X3.209 Y7.276
X3.235 Y7.297
X3.25 Y7.326
X3.252 Y7.359
X3.048 Y8.72
X3.037 Y8.75
X3.015 Y8.773
X2.985 Y8.786
X2.953
X2.924 Y8.774
X2.902 Y8.751
X2.891 Y8.721
X2.883 Y8.672 Z-2.008
X2.876 Y8.629 Z-2.03
X2.871 Y8.594 Z-2.065
X2.867 Y8.572 Z-2.11
X2.866 Y8.564 Z-2.159
Z-2.341
X2.865 Y8.556 Z-2.39
X2.861 Y8.534 Z-2.435
X2.856 Y8.499 Z-2.47
X2.849 Y8.456 Z-2.492
X2.841 Y8.407 Z-2.5
G3 X2.806 Y7.968 R2.806
G1 Y7.776
X2.812 Y7.724
X2.827 Y7.674
X2.851 Y7.628
X2.885 Y7.588
X3.02 Y7.452
X3.05 Y7.433
X3.085 Y7.429
X3.119 Y7.441
X3.144 Y7.465
X3.155 Y7.499
X3.152 Y7.534
X3.133 Y7.564
X2.991 Y7.707
X2.973 Y7.735
X2.886 Y7.968
X2.881 Y7.994
X2.884 Y8.019
X2.896 Y8.042
X2.913 Y8.067
X2.926 Y8.097
Y8.13
X2.912 Y8.16
X2.888 Y8.182
X2.856 Y8.192
X2.824 Y8.188
X2.795 Y8.172
X2.776 Y8.145
X2.769 Y8.113
Y7.892
Y7.816
G3 X2.886 Y7.533 R0.4
G1 X3.096 Y7.323
X3.115 Y7.307
X3.476 Y7.044
X3.516 Y7.016 Z-2.492
X3.552 Y6.99 Z-2.47
X3.58 Y6.969 Z-2.435
X3.598 Y6.956 Z-2.39
X3.605 Y6.951 Z-2.341
Z-0.5
X2.89 Y8.314
Z-2.452
X2.885 Y8.311 Z-2.476
X2.869 Y8.303 Z-2.494
X2.848 Y8.292 Z-2.5
X2.812 Y8.267
X2.785 Y8.234
X2.767 Y8.194
X2.761 Y8.151
Y7.647
X2.962 Y7.447
X3.118 Y7.291
X3.145 Y7.273
X3.178 Y7.268
X3.209 Y7.276
X3.235 Y7.297
X3.25 Y7.326
X3.252 Y7.359
X3.048 Y8.72
X3.037 Y8.75
X3.015 Y8.773
X2.985 Y8.786
X2.953
X2.924 Y8.774
X2.902 Y8.751
X2.891 Y8.721
X2.883 Y8.672 Z-2.508
X2.876 Y8.629 Z-2.53
X2.871 Y8.594 Z-2.565
X2.867 Y8.572 Z-2.61
X2.866 Y8.564 Z-2.659
Z-2.841
X2.865 Y8.556 Z-2.89
X2.861 Y8.534 Z-2.935
X2.856 Y8.499 Z-2.97
X2.849 Y8.456 Z-2.992
X2.841 Y8.407 Z-3.
G3 X2.806 Y7.968 R2.806
G1 Y7.776
X2.812 Y7.724
X2.827 Y7.674
X2.851 Y7.628
X2.885 Y7.588
X3.02 Y7.452
X3.05 Y7.433
X3.085 Y7.429
X3.119 Y7.441
X3.144 Y7.465
X3.155 Y7.499
X3.152 Y7.534
X3.133 Y7.564
X2.991 Y7.707
X2.973 Y7.735
X2.886 Y7.968
X2.881 Y7.994
X2.884 Y8.019
X2.896 Y8.042
X2.913 Y8.067
X2.926 Y8.097
Y8.13
X2.912 Y8.16
X2.888 Y8.182
X2.856 Y8.192
X2.824 Y8.188
X2.795 Y8.172
X2.776 Y8.145
X2.769 Y8.113
Y7.892
Y7.816
G3 X2.886 Y7.533 R0.4
G1 X3.096 Y7.323
X3.115 Y7.307
X3.476 Y7.044
X3.516 Y7.016 Z-2.992
X3.552 Y6.99 Z-2.97
X3.58 Y6.969 Z-2.935
X3.598 Y6.956 Z-2.89
X3.605 Y6.951 Z-2.841
Z-1.
X2.89 Y8.314
Z-2.952
X2.885 Y8.311 Z-2.976
X2.869 Y8.303 Z-2.994
X2.848 Y8.292 Z-3.
X2.812 Y8.267
X2.785 Y8.234
X2.767 Y8.194
X2.761 Y8.151
Y7.647
X2.962 Y7.447
X3.118 Y7.291
X3.145 Y7.273
X3.178 Y7.268
X3.209 Y7.276
X3.235 Y7.297
X3.25 Y7.326
X3.252 Y7.359
X3.048 Y8.72
X3.037 Y8.75
X3.015 Y8.773
X2.985 Y8.786
X2.953
X2.924 Y8.774
X2.902 Y8.751
X2.891 Y8.721
X2.883 Y8.672 Z-3.008
X2.876 Y8.629 Z-3.03
X2.871 Y8.594 Z-3.065
X2.867 Y8.572 Z-3.11
X2.866 Y8.564 Z-3.159
Z-3.341
X2.865 Y8.556 Z-3.39
X2.861 Y8.534 Z-3.435
X2.856 Y8.499 Z-3.47
X2.849 Y8.456 Z-3.492
X2.841 Y8.407 Z-3.5
G3 X2.806 Y7.968 R2.806
G1 Y7.776
X2.812 Y7.724
X2.827 Y7.674
X2.851 Y7.628
X2.885 Y7.588
X3.02 Y7.452
X3.05 Y7.433
X3.085 Y7.429
X3.119 Y7.441
X3.144 Y7.465
X3.155 Y7.499
X3.152 Y7.534
X3.133 Y7.564
X2.991 Y7.707
X2.973 Y7.735
X2.886 Y7.968
X2.881 Y7.994
X2.884 Y8.019
X2.896 Y8.042
X2.913 Y8.067
X2.926 Y8.097
Y8.13
X2.912 Y8.16
X2.888 Y8.182
X2.856 Y8.192
X2.824 Y8.188
X2.795 Y8.172
X2.776 Y8.145
X2.769 Y8.113
Y7.892
Y7.816
G3 X2.886 Y7.533 R0.4
G1 X3.096 Y7.323
X3.115 Y7.307
X3.476 Y7.044
X3.516 Y7.016 Z-3.492
X3.552 Y6.99 Z-3.47
X3.58 Y6.969 Z-3.435
X3.598 Y6.956 Z-3.39
X3.605 Y6.951 Z-3.341
Z-1.5
X2.89 Y8.314
Z-3.452
X2.885 Y8.311 Z-3.476
X2.869 Y8.303 Z-3.494
X2.848 Y8.292 Z-3.5
X2.812 Y8.267
X2.785 Y8.234
X2.767 Y8.194
X2.761 Y8.151
Y7.647
X2.962 Y7.447
X3.118 Y7.291
X3.145 Y7.273
X3.178 Y7.268
X3.209 Y7.276
X3.235 Y7.297
X3.25 Y7.326
X3.252 Y7.359
X3.048 Y8.72
X3.037 Y8.75
X3.015 Y8.773
X2.985 Y8.786
X2.953
X2.924 Y8.774
X2.902 Y8.751
X2.891 Y8.721
X2.883 Y8.672 Z-3.508
X2.876 Y8.629 Z-3.53
X2.871 Y8.594 Z-3.565
X2.867 Y8.572 Z-3.61
X2.866 Y8.564 Z-3.659
Z-3.841
X2.865 Y8.556 Z-3.89
X2.861 Y8.534 Z-3.935
X2.856 Y8.499 Z-3.97
X2.849 Y8.456 Z-3.992
X2.841 Y8.407 Z-4.
G3 X2.806 Y7.968 R2.806
G1 Y7.776
X2.812 Y7.724
X2.827 Y7.674
X2.851 Y7.628
X2.885 Y7.588
X3.02 Y7.452
X3.05 Y7.433
X3.085 Y7.429
X3.119 Y7.441
X3.144 Y7.465
X3.155 Y7.499
X3.152 Y7.534
X3.133 Y7.564
X2.991 Y7.707
X2.973 Y7.735
X2.886 Y7.968
X2.881 Y7.994
X2.884 Y8.019
X2.896 Y8.042
X2.913 Y8.067
X2.926 Y8.097
Y8.13
X2.912 Y8.16
X2.888 Y8.182
X2.856 Y8.192
X2.824 Y8.188
X2.795 Y8.172
X2.776 Y8.145
X2.769 Y8.113
Y7.892
Y7.816
G3 X2.886 Y7.533 R0.4
G1 X3.096 Y7.323
X3.115 Y7.307
X3.476 Y7.044
X3.516 Y7.016 Z-3.992
X3.552 Y6.99 Z-3.97
X3.58 Y6.969 Z-3.935
X3.598 Y6.956 Z-3.89
X3.605 Y6.951 Z-3.841
Z-2.
X2.89 Y8.314
Z-3.952
X2.885 Y8.311 Z-3.976
X2.869 Y8.303 Z-3.994
X2.848 Y8.292 Z-4.
X2.812 Y8.267
X2.785 Y8.234
X2.767 Y8.194
X2.761 Y8.151
Y7.647
X2.962 Y7.447
X3.118 Y7.291
X3.145 Y7.273
X3.178 Y7.268
X3.209 Y7.276
X3.235 Y7.297
X3.25 Y7.326
X3.252 Y7.359
X3.048 Y8.72
X3.037 Y8.75
X3.015 Y8.773
X2.985 Y8.786
X2.953
X2.924 Y8.774
X2.902 Y8.751
X2.891 Y8.721
X2.883 Y8.672 Z-4.008
X2.876 Y8.629 Z-4.03
X2.871 Y8.594 Z-4.065
X2.867 Y8.572 Z-4.11
X2.866 Y8.564 Z-4.159
Z-4.341
X2.865 Y8.556 Z-4.39
X2.861 Y8.534 Z-4.435
X2.856 Y8.499 Z-4.47
X2.849 Y8.456 Z-4.492
X2.841 Y8.407 Z-4.5
G3 X2.806 Y7.968 R2.806
G1 Y7.776
X2.812 Y7.724
X2.827 Y7.674
X2.851 Y7.628
X2.885 Y7.588
X3.02 Y7.452
X3.05 Y7.433
X3.085 Y7.429
X3.119 Y7.441
X3.144 Y7.465
X3.155 Y7.499
X3.152 Y7.534
X3.133 Y7.564
X2.991 Y7.707
X2.973 Y7.735
X2.886 Y7.968
X2.881 Y7.994
X2.884 Y8.019
X2.896 Y8.042
X2.913 Y8.067
X2.926 Y8.097
Y8.13
X2.912 Y8.16
X2.888 Y8.182
X2.856 Y8.192
X2.824 Y8.188
X2.795 Y8.172
X2.776 Y8.145
X2.769 Y8.113
Y7.892
Y7.816
G3 X2.886 Y7.533 R0.4
G1 X3.096 Y7.323
X3.115 Y7.307
X3.476 Y7.044
X3.516 Y7.016 Z-4.492
X3.552 Y6.99 Z-4.47
X3.58 Y6.969 Z-4.435
X3.598 Y6.956 Z-4.39
X3.605 Y6.951 Z-4.341
Z-2.5
X2.89 Y8.314
Z-4.452
X2.885 Y8.311 Z-4.476
X2.869 Y8.303 Z-4.494
X2.848 Y8.292 Z-4.5
X2.812 Y8.267
X2.785 Y8.234
X2.767 Y8.194
X2.761 Y8.151
Y7.647
X2.962 Y7.447
X3.118 Y7.291
X3.137 Y7.275
X3.533 Y6.987
X3.573 Y6.958 Z-4.492
X3.608 Y6.932 Z-4.47
X3.637 Y6.911 Z-4.435
X3.655 Y6.898 Z-4.39
X3.661 Y6.893 Z-4.341
G0 Z5.
X7.765 Y2.852
G1 Z1.5 F146.
Z-0.421 F437.
Y2.846 Z-0.451
Y2.829 Z-0.477
Y2.803 Z-0.494
Y2.773 Z-0.5
X7.771 Y2.732
X7.786 Y2.693
X7.812 Y2.66
X7.948 Y2.525
X7.988 Y2.491
X8.034 Y2.467
X8.084 Y2.452
X8.136 Y2.446
X8.328 Y2.447
X8.363 Y2.454
X8.39 Y2.476
X8.406 Y2.508
Y2.543
X8.391 Y2.575
X8.363 Y2.597
X8.329 Y2.605
X8.127 Y2.606
X8.095 Y2.613
X7.868 Y2.717
X7.846 Y2.731
X7.831 Y2.751
X7.822 Y2.776
X7.817 Y2.805
X7.805 Y2.836
X7.782 Y2.859
X7.751 Y2.871
X7.718 Y2.869
X7.689 Y2.854
X7.668 Y2.828
X7.66 Y2.796
X7.665 Y2.764
X7.683 Y2.736
X7.839 Y2.58
X7.893 Y2.526
G3 X8.176 Y2.409 R0.4
G1 X8.473
X8.497 Y2.411
X8.938 Y2.481
X8.987 Y2.489 Z-0.492
X9.031 Y2.495 Z-0.47
X9.065 Y2.501 Z-0.435
X9.088 Y2.504 Z-0.39
X9.095 Y2.506 Z-0.341
Z1.5
X7.627 Y2.964
Z-0.452
X7.625 Y2.958 Z-0.476
X7.619 Y2.942 Z-0.494
X7.612 Y2.919 Z-0.5
X7.604 Y2.876
X7.609 Y2.833
X7.625 Y2.792
X7.651 Y2.758
X8.007 Y2.401
X8.29
X8.511
X8.543 Y2.408
X8.57 Y2.427
X8.586 Y2.456
X8.59 Y2.489
X8.58 Y2.52
X8.558 Y2.545
X7.451 Y3.363
X7.422 Y3.376
X7.39 Y3.377
X7.36 Y3.365
X7.337 Y3.343
X7.325 Y3.313
X7.326 Y3.281
X7.339 Y3.252
X7.368 Y3.212 Z-0.508
X7.394 Y3.177 Z-0.53
X7.415 Y3.148 Z-0.565
X7.428 Y3.13 Z-0.61
X7.432 Y3.124 Z-0.659
Z-0.841
X7.437 Y3.117 Z-0.89
X7.45 Y3.099 Z-0.935
X7.471 Y3.071 Z-0.97
X7.497 Y3.035 Z-0.992
X7.526 Y2.995 Z-1.
G3 X7.812 Y2.66 R2.806
G1 X7.948 Y2.525
X7.988 Y2.491
X8.034 Y2.467
X8.084 Y2.452
X8.136 Y2.446
X8.328 Y2.447
X8.363 Y2.454
X8.39 Y2.476
X8.406 Y2.508
Y2.543
X8.391 Y2.575
X8.363 Y2.597
X8.329 Y2.605
X8.127 Y2.606
X8.095 Y2.613
X7.868 Y2.717
X7.846 Y2.731
X7.831 Y2.751
X7.822 Y2.776
X7.817 Y2.805
X7.805 Y2.836
X7.782 Y2.859
X7.751 Y2.871
X7.718 Y2.869
X7.689 Y2.854
X7.668 Y2.828
X7.66 Y2.796
X7.665 Y2.764
X7.683 Y2.736
X7.839 Y2.58
X7.893 Y2.526
G3 X8.176 Y2.409 R0.4
G1 X8.473
X8.497 Y2.411
X8.938 Y2.481
X8.987 Y2.489 Z-0.992
X9.031 Y2.495 Z-0.97
X9.065 Y2.501 Z-0.935
X9.088 Y2.504 Z-0.89
X9.095 Y2.506 Z-0.841
Z1.
X7.627 Y2.964
Z-0.952
X7.625 Y2.958 Z-0.976
X7.619 Y2.942 Z-0.994
X7.612 Y2.919 Z-1.
X7.604 Y2.876
X7.609 Y2.833
X7.625 Y2.792
X7.651 Y2.758
X8.007 Y2.401
X8.29
X8.511
X8.543 Y2.408
X8.57 Y2.427
X8.586 Y2.456
X8.59 Y2.489
X8.58 Y2.52
X8.558 Y2.545
X7.451 Y3.363
X7.422 Y3.376
X7.39 Y3.377
X7.36 Y3.365
X7.337 Y3.343
X7.325 Y3.313
X7.326 Y3.281
X7.339 Y3.252
X7.368 Y3.212 Z-1.008
X7.394 Y3.177 Z-1.03
X7.415 Y3.148 Z-1.065
X7.428 Y3.13 Z-1.11
X7.432 Y3.124 Z-1.159
Z-1.341
X7.437 Y3.117 Z-1.39
X7.45 Y3.099 Z-1.435
X7.471 Y3.071 Z-1.47
X7.497 Y3.035 Z-1.492
X7.526 Y2.995 Z-1.5
G3 X7.812 Y2.66 R2.806
G1 X7.948 Y2.525
X7.988 Y2.491
X8.034 Y2.467
X8.084 Y2.452
X8.136 Y2.446
X8.328 Y2.447
X8.363 Y2.454
X8.39 Y2.476
X8.406 Y2.508
Y2.543
X8.391 Y2.575
X8.363 Y2.597
X8.329 Y2.605
X8.127 Y2.606
X8.095 Y2.613
X7.868 Y2.717
X7.846 Y2.731
X7.831 Y2.751
X7.822 Y2.776
X7.817 Y2.805
X7.805 Y2.836
X7.782 Y2.859
X7.751 Y2.871
X7.718 Y2.869
X7.689 Y2.854
X7.668 Y2.828
X7.66 Y2.796
X7.665 Y2.764
X7.683 Y2.736
X7.839 Y2.58
X7.893 Y2.526
G3 X8.176 Y2.409 R0.4
G1 X8.473
X8.497 Y2.411
X8.938 Y2.481
X8.987 Y2.489 Z-1.492
X9.031 Y2.495 Z-1.47
X9.065 Y2.501 Z-1.435
X9.088 Y2.504 Z-1.39
X9.095 Y2.506 Z-1.341
Z0.5
X7.627 Y2.964
Z-1.452
X7.625 Y2.958 Z-1.476
X7.619 Y2.942 Z-1.494
X7.612 Y2.919 Z-1.5
X7.604 Y2.876
X7.609 Y2.833
X7.625 Y2.792
X7.651 Y2.758
X8.007 Y2.401
X8.29
X8.511
X8.543 Y2.408
X8.57 Y2.427
X8.586 Y2.456
X8.59 Y2.489
X8.58 Y2.52
X8.558 Y2.545
X7.451 Y3.363
X7.422 Y3.376
X7.39 Y3.377
X7.36 Y3.365
X7.337 Y3.343
X7.325 Y3.313
X7.326 Y3.281
X7.339 Y3.252
X7.368 Y3.212 Z-1.508
X7.394 Y3.177 Z-1.53
X7.415 Y3.148 Z-1.565
X7.428 Y3.13 Z-1.61
X7.432 Y3.124 Z-1.659
Z-1.841
X7.437 Y3.117 Z-1.89
X7.45 Y3.099 Z-1.935
X7.471 Y3.071 Z-1.97
X7.497 Y3.035 Z-1.992
X7.526 Y2.995 Z-2.
G3 X7.812 Y2.66 R2.806
G1 X7.948 Y2.525
X7.988 Y2.491
X8.034 Y2.467
X8.084 Y2.452
X8.136 Y2.446
X8.328 Y2.447
X8.363 Y2.454
X8.39 Y2.476
X8.406 Y2.508
Y2.543
X8.391 Y2.575
X8.363 Y2.597
X8.329 Y2.605
X8.127 Y2.606
X8.095 Y2.613
X7.868 Y2.717
X7.846 Y2.731
X7.831 Y2.751
X7.822 Y2.776
X7.817 Y2.805
X7.805 Y2.836
X7.782 Y2.859
X7.751 Y2.871
X7.718 Y2.869
X7.689 Y2.854
X7.668 Y2.828
X7.66 Y2.796
X7.665 Y2.764
X7.683 Y2.736
X7.839 Y2.58
X7.893 Y2.526
G3 X8.176 Y2.409 R0.4
G1 X8.473
X8.497 Y2.411
X8.938 Y2.481
X8.987 Y2.489 Z-1.992
X9.031 Y2.495 Z-1.97
X9.065 Y2.501 Z-1.935
X9.088 Y2.504 Z-1.89
X9.095 Y2.506 Z-1.841
Z0.
X7.627 Y2.964
Z-1.952
X7.625 Y2.958 Z-1.976
X7.619 Y2.942 Z-1.994
X7.612 Y2.919 Z-2.
X7.604 Y2.876
X7.609 Y2.833
X7.625 Y2.792
X7.651 Y2.758
X8.007 Y2.401
X8.29
X8.511
X8.543 Y2.408
X8.57 Y2.427
X8.586 Y2.456
X8.59 Y2.489
X8.58 Y2.52
X8.558 Y2.545
X7.451 Y3.363
X7.422 Y3.376
X7.39 Y3.377
X7.36 Y3.365
X7.337 Y3.343
X7.325 Y3.313
X7.326 Y3.281
X7.339 Y3.252
X7.368 Y3.212 Z-2.008
X7.394 Y3.177 Z-2.03
X7.415 Y3.148 Z-2.065
X7.428 Y3.13 Z-2.11
X7.432 Y3.124 Z-2.159
Z-2.341
X7.437 Y3.117 Z-2.39
X7.45 Y3.099 Z-2.435
X7.471 Y3.071 Z-2.47
X7.497 Y3.035 Z-2.492
X7.526 Y2.995 Z-2.5
G3 X7.812 Y2.66 R2.806
G1 X7.948 Y2.525
X7.988 Y2.491
X8.034 Y2.467
X8.084 Y2.452
X8.136 Y2.446
X8.328 Y2.447
X8.363 Y2.454
X8.39 Y2.476
X8.406 Y2.508
Y2.543
X8.391 Y2.575
X8.363 Y2.597
X8.329 Y2.605
X8.127 Y2.606
X8.095 Y2.613
X7.868 Y2.717
X7.846 Y2.731
X7.831 Y2.751
X7.822 Y2.776
X7.817 Y2.805
X7.805 Y2.836
X7.782 Y2.859
X7.751 Y2.871
X7.718 Y2.869
X7.689 Y2.854
X7.668 Y2.828
X7.66 Y2.796
X7.665 Y2.764
X7.683 Y2.736
X7.839 Y2.58
X7.893 Y2.526
G3 X8.176 Y2.409 R0.4
G1 X8.473
X8.497 Y2.411
X8.938 Y2.481
X8.987 Y2.489 Z-2.492
X9.031 Y2.495 Z-2.47
X9.065 Y2.501 Z-2.435
X9.088 Y2.504 Z-2.39
X9.095 Y2.506 Z-2.341
Z-0.5
X7.627 Y2.964
Z-2.452
X7.625 Y2.958 Z-2.476
X7.619 Y2.942 Z-2.494
X7.612 Y2.919 Z-2.5
X7.604 Y2.876
X7.609 Y2.833
X7.625 Y2.792
X7.651 Y2.758
X8.007 Y2.401
X8.29
X8.511
X8.543 Y2.408
X8.57 Y2.427
X8.586 Y2.456
X8.59 Y2.489
X8.58 Y2.52
X8.558 Y2.545
X7.451 Y3.363
X7.422 Y3.376
X7.39 Y3.377
X7.36 Y3.365
X7.337 Y3.343
X7.325 Y3.313
X7.326 Y3.281
X7.339 Y3.252
X7.368 Y3.212 Z-2.508
X7.394 Y3.177 Z-2.53
X7.415 Y3.148 Z-2.565
X7.428 Y3.13 Z-2.61
X7.432 Y3.124 Z-2.659
Z-2.841
X7.437 Y3.117 Z-2.89
X7.45 Y3.099 Z-2.935
X7.471 Y3.071 Z-2.97
X7.497 Y3.035 Z-2.992
X7.526 Y2.995 Z-3.
G3 X7.812 Y2.66 R2.806
G1 X7.948 Y2.525
X7.988 Y2.491
X8.034 Y2.467
X8.084 Y2.452
X8.136 Y2.446
X8.328 Y2.447
X8.363 Y2.454
X8.39 Y2.476
X8.406 Y2.508
Y2.543
X8.391 Y2.575
X8.363 Y2.597
X8.329 Y2.605
X8.127 Y2.606
X8.095 Y2.613
X7.868 Y2.717
X7.846 Y2.731
X7.831 Y2.751
X7.822 Y2.776
X7.817 Y2.805
X7.805 Y2.836
X7.782 Y2.859
X7.751 Y2.871
X7.718 Y2.869
X7.689 Y2.854
X7.668 Y2.828
X7.66 Y2.796
X7.665 Y2.764
X7.683 Y2.736
X7.839 Y2.58
X7.893 Y2.526
G3 X8.176 Y2.409 R0.4
G1 X8.473
X8.497 Y2.411
X8.938 Y2.481
X8.987 Y2.489 Z-2.992
X9.031 Y2.495 Z-2.97
X9.065 Y2.501 Z-2.935
X9.088 Y2.504 Z-2.89
X9.095 Y2.506 Z-2.841
Z-1.
X7.627 Y2.964
Z-2.952
X7.625 Y2.958 Z-2.976
X7.619 Y2.942 Z-2.994
X7.612 Y2.919 Z-3.
X7.604 Y2.876
X7.609 Y2.833
X7.625 Y2.792
X7.651 Y2.758
X8.007 Y2.401
X8.29
X8.511
X8.543 Y2.408
X8.57 Y2.427
X8.586 Y2.456
X8.59 Y2.489
X8.58 Y2.52
X8.558 Y2.545
X7.451 Y3.363
X7.422 Y3.376
X7.39 Y3.377
X7.36 Y3.365
X7.337 Y3.343
X7.325 Y3.313
X7.326 Y3.281
X7.339 Y3.252
X7.368 Y3.212 Z-3.008
X7.394 Y3.177 Z-3.03
X7.415 Y3.148 Z-3.065
X7.428 Y3.13 Z-3.11
X7.432 Y3.124 Z-3.159
Z-3.341
X7.437 Y3.117 Z-3.39
X7.45 Y3.099 Z-3.435
X7.471 Y3.071 Z-3.47
X7.497 Y3.035 Z-3.492
X7.526 Y2.995 Z-3.5
G3 X7.812 Y2.66 R2.806
G1 X7.948 Y2.525
X7.988 Y2.491
X8.034 Y2.467
X8.084 Y2.452
X8.136 Y2.446
X8.328 Y2.447
X8.363 Y2.454
X8.39 Y2.476
X8.406 Y2.508
Y2.543
X8.391 Y2.575
X8.363 Y2.597
X8.329 Y2.605
X8.127 Y2.606
X8.095 Y2.613
X7.868 Y2.717
X7.846 Y2.731
X7.831 Y2.751
X7.822 Y2.776
X7.817 Y2.805
X7.805 Y2.836
X7.782 Y2.859
X7.751 Y2.871
X7.718 Y2.869
X7.689 Y2.854
X7.668 Y2.828
X7.66 Y2.796
X7.665 Y2.764
X7.683 Y2.736
X7.839 Y2.58
X7.893 Y2.526
G3 X8.176 Y2.409 R0.4
G1 X8.473
X8.497 Y2.411
X8.938 Y2.481
X8.987 Y2.489 Z-3.492
X9.031 Y2.495 Z-3.47
X9.065 Y2.501 Z-3.435
X9.088 Y2.504 Z-3.39
X9.095 Y2.506 Z-3.341
Z-1.5
X7.627 Y2.964
Z-3.452
X7.625 Y2.958 Z-3.476
X7.619 Y2.942 Z-3.494
X7.612 Y2.919 Z-3.5
X7.604 Y2.876
X7.609 Y2.833
X7.625 Y2.792
X7.651 Y2.758
X8.007 Y2.401
X8.29
X8.511
X8.543 Y2.408
X8.57 Y2.427
X8.586 Y2.456
X8.59 Y2.489
X8.58 Y2.52
X8.558 Y2.545
X7.451 Y3.363
X7.422 Y3.376
X7.39 Y3.377
X7.36 Y3.365
X7.337 Y3.343
X7.325 Y3.313
X7.326 Y3.281
X7.339 Y3.252
X7.368 Y3.212 Z-3.508
X7.394 Y3.177 Z-3.53
X7.415 Y3.148 Z-3.565
X7.428 Y3.13 Z-3.61
X7.432 Y3.124 Z-3.659
Z-3.841
X7.437 Y3.117 Z-3.89
X7.45 Y3.099 Z-3.935
X7.471 Y3.071 Z-3.97
X7.497 Y3.035 Z-3.992
X7.526 Y2.995 Z-4.
G3 X7.812 Y2.66 R2.806
G1 X7.948 Y2.525
X7.988 Y2.491
X8.034 Y2.467
X8.084 Y2.452
X8.136 Y2.446
X8.328 Y2.447
X8.363 Y2.454
X8.39 Y2.476
X8.406 Y2.508
Y2.543
X8.391 Y2.575
X8.363 Y2.597
X8.329 Y2.605
X8.127 Y2.606
X8.095 Y2.613
X7.868 Y2.717
X7.846 Y2.731
X7.831 Y2.751
X7.822 Y2.776
X7.817 Y2.805
X7.805 Y2.836
X7.782 Y2.859
X7.751 Y2.871
X7.718 Y2.869
X7.689 Y2.854
X7.668 Y2.828
X7.66 Y2.796
X7.665 Y2.764
X7.683 Y2.736
X7.839 Y2.58
X7.893 Y2.526
G3 X8.176 Y2.409 R0.4
G1 X8.473
X8.497 Y2.411
X8.938 Y2.481
X8.987 Y2.489 Z-3.992
X9.031 Y2.495 Z-3.97
X9.065 Y2.501 Z-3.935
X9.088 Y2.504 Z-3.89
X9.095 Y2.506 Z-3.841
Z-2.
X7.627 Y2.964
Z-3.952
X7.625 Y2.958 Z-3.976
X7.619 Y2.942 Z-3.994
X7.612 Y2.919 Z-4.
X7.604 Y2.876
X7.609 Y2.833
X7.625 Y2.792
X7.651 Y2.758
X8.007 Y2.401
X8.29
X8.511
X8.543 Y2.408
X8.57 Y2.427
X8.586 Y2.456
X8.59 Y2.489
X8.58 Y2.52
X8.558 Y2.545
X7.451 Y3.363
X7.422 Y3.376
X7.39 Y3.377
X7.36 Y3.365
X7.337 Y3.343
X7.325 Y3.313
X7.326 Y3.281
X7.339 Y3.252
X7.368 Y3.212 Z-4.008
X7.394 Y3.177 Z-4.03
X7.415 Y3.148 Z-4.065
X7.428 Y3.13 Z-4.11
X7.432 Y3.124 Z-4.159
Z-4.341
X7.437 Y3.117 Z-4.39
X7.45 Y3.099 Z-4.435
X7.471 Y3.071 Z-4.47
X7.497 Y3.035 Z-4.492
X7.526 Y2.995 Z-4.5
G3 X7.812 Y2.66 R2.806
G1 X7.948 Y2.525
X7.988 Y2.491
X8.034 Y2.467
X8.084 Y2.452
X8.136 Y2.446
X8.328 Y2.447
X8.363 Y2.454
X8.39 Y2.476
X8.406 Y2.508
Y2.543
X8.391 Y2.575
X8.363 Y2.597
X8.329 Y2.605
X8.127 Y2.606
X8.095 Y2.613
X7.868 Y2.717
X7.846 Y2.731
X7.831 Y2.751
X7.822 Y2.776
X7.817 Y2.805
X7.805 Y2.836
X7.782 Y2.859
X7.751 Y2.871
X7.718 Y2.869
X7.689 Y2.854
X7.668 Y2.828
X7.66 Y2.796
X7.665 Y2.764
X7.683 Y2.736
X7.839 Y2.58
X7.893 Y2.526
G3 X8.176 Y2.409 R0.4
G1 X8.473
X8.497 Y2.411
X8.938 Y2.481
X8.987 Y2.489 Z-4.492
X9.031 Y2.495 Z-4.47
X9.065 Y2.501 Z-4.435
X9.088 Y2.504 Z-4.39
X9.095 Y2.506 Z-4.341
Z-2.5
X7.627 Y2.964
Z-4.452
X7.625 Y2.958 Z-4.476
X7.619 Y2.942 Z-4.494
X7.612 Y2.919 Z-4.5
X7.604 Y2.876
X7.609 Y2.833
X7.625 Y2.792
X7.651 Y2.758
X8.007 Y2.401
X8.29
X8.511
X8.536 Y2.403
X9.019 Y2.48
X9.068 Y2.488 Z-4.492
X9.112 Y2.495 Z-4.47
X9.146 Y2.5 Z-4.435
X9.169 Y2.504 Z-4.39
X9.176 Y2.505 Z-4.341
G0 Z5.
X125.425 Y2.618
G1 Z1.5 F146.
Z-0.437 F437.
X125.429 Y2.616 Z-0.461
X125.441 Y2.608 Z-0.481
X125.458 Y2.596 Z-0.495
X125.477 Y2.582 Z-0.5
X125.522 Y2.56
X125.571 Y2.553
X125.62 Y2.562
G3 X126.078 Y3.019 R0.738
G1 X126.082 Y3.052
X126.072 Y3.084
X126.051 Y3.109
X126.021 Y3.123
X125.988
X125.957 Y3.11
X125.935 Y3.086
X125.799 Y2.862
X125.79 Y2.85
X125.594 Y2.637
X125.571 Y2.619
X125.543 Y2.611
X125.515 Y2.614
X125.403 Y2.645
X125.369 Y2.647
X125.338 Y2.634
X125.315 Y2.61
X125.303 Y2.579
X125.306 Y2.545
X125.322 Y2.516
X125.349 Y2.496
X125.382 Y2.489
G3 X126.151 Y3.258 R0.771
G1 X126.153 Y4.051
Y4.1 Z-0.492
Y4.145 Z-0.47
Y4.18 Z-0.435
Y4.202 Z-0.39
Y4.21 Z-0.341
Z1.5
X125.074 Y2.559
Z-0.421
X125.079 Y2.554 Z-0.451
X125.091 Y2.542 Z-0.477
X125.109 Y2.524 Z-0.494
X125.131 Y2.503 Z-0.5
X125.163 Y2.477
X125.202 Y2.462
X125.243 Y2.456
X125.38
G3 X125.948 Y2.692 R0.804
X126.183 Y3.26 R0.804
G1 Y3.397
X126.182 Y3.422
X126.057 Y4.206
X126.05 Y4.254 Z-0.492
X126.043 Y4.298 Z-0.47
X126.037 Y4.332 Z-0.435
X126.034 Y4.355 Z-0.39
X126.033 Y4.362 Z-0.341
Z1.5
X124.961 Y2.54
Z-0.437
X124.964 Y2.536 Z-0.461
X124.972 Y2.525 Z-0.481
X124.984 Y2.508 Z-0.495
X124.998 Y2.489 Z-0.5
X125.033 Y2.454
X125.078 Y2.431
X125.127 Y2.423
X125.347
X125.38
G3 X125.971 Y2.668 R0.836
X126.216 Y3.26 R0.836
G1 Y3.513
X126.214 Y3.538
X126.09 Y4.322
X126.082 Y4.37 Z-0.492
X126.075 Y4.414 Z-0.47
X126.07 Y4.449 Z-0.435
X126.066 Y4.471 Z-0.39
X126.065 Y4.479 Z-0.341
Z1.5
X124.865 Y2.53
Z-0.452
X124.868 Y2.525 Z-0.476
X124.876 Y2.509 Z-0.494
X124.886 Y2.488 Z-0.5
X124.911 Y2.452
X124.945 Y2.425
X124.985 Y2.407
X125.028 Y2.401
X125.248
X125.38
G3 X126.238 Y3.26 R0.858
G1 Y3.612
X126.233 Y3.641
X126.216 Y3.667
X126.192 Y3.684
X126.162 Y3.691
X126.132 Y3.687
X126.106 Y3.671
X125.03 Y2.722
X125.011 Y2.698
X125.003 Y2.669
X125.006 Y2.639
X125.02 Y2.613
X125.043 Y2.593
X125.071 Y2.583
X125.12 Y2.577 Z-0.508
X125.164 Y2.57 Z-0.53
X125.198 Y2.566 Z-0.565
X125.221 Y2.562 Z-0.61
X125.228 Y2.561 Z-0.659
Z-0.841
X125.236 Y2.56 Z-0.89
X125.258 Y2.557 Z-0.935
X125.293 Y2.552 Z-0.97
X125.337 Y2.546 Z-0.992
X125.386 Y2.539 Z-1.
X125.465 Y2.534
X125.543 Y2.542
X125.62 Y2.562
G3 X126.078 Y3.019 R0.738
G1 X126.082 Y3.052
X126.072 Y3.084
X126.051 Y3.109
X126.021 Y3.123
X125.988
X125.957 Y3.11
X125.935 Y3.086
X125.799 Y2.862
X125.79 Y2.85
X125.594 Y2.637
X125.571 Y2.619
X125.543 Y2.611
X125.515 Y2.614
X125.403 Y2.645
X125.369 Y2.647
X125.338 Y2.634
X125.315 Y2.61
X125.303 Y2.579
X125.306 Y2.545
X125.322 Y2.516
X125.349 Y2.496
X125.382 Y2.489
G3 X126.151 Y3.258 R0.771
G1 X126.153 Y4.051
Y4.1 Z-0.992
Y4.145 Z-0.97
Y4.18 Z-0.935
Y4.202 Z-0.89
Y4.21 Z-0.841
Z1.
X125.074 Y2.559
Z-0.921
X125.079 Y2.554 Z-0.951
X125.091 Y2.542 Z-0.977
X125.109 Y2.524 Z-0.994
X125.131 Y2.503 Z-1.
X125.163 Y2.477
X125.202 Y2.462
X125.243 Y2.456
X125.38
G3 X125.948 Y2.692 R0.804
X126.183 Y3.26 R0.804
G1 Y3.397
X126.182 Y3.422
X126.057 Y4.206
X126.05 Y4.254 Z-0.992
X126.043 Y4.298 Z-0.97
X126.037 Y4.332 Z-0.935
X126.034 Y4.355 Z-0.89
X126.033 Y4.362 Z-0.841
Z1.
X124.961 Y2.54
Z-0.937
X124.964 Y2.536 Z-0.961
X124.972 Y2.525 Z-0.981
X124.984 Y2.508 Z-0.995
X124.998 Y2.489 Z-1.
X125.033 Y2.454
X125.078 Y2.431
X125.127 Y2.423
X125.347
X125.38
G3 X125.971 Y2.668 R0.836
X126.216 Y3.26 R0.836
G1 Y3.513
X126.214 Y3.538
X126.09 Y4.322
X126.082 Y4.37 Z-0.992
X126.075 Y4.414 Z-0.97
X126.07 Y4.449 Z-0.935
X126.066 Y4.471 Z-0.89
X126.065 Y4.479 Z-0.841
Z1.
X124.865 Y2.53
Z-0.952
X124.868 Y2.525 Z-0.976
X124.876 Y2.509 Z-0.994
X124.886 Y2.488 Z-1.
X124.911 Y2.452
X124.945 Y2.425
X124.985 Y2.407
X125.028 Y2.401
X125.248
X125.38
G3 X126.238 Y3.26 R0.858
G1 Y3.612
X126.233 Y3.641
X126.216 Y3.667
X126.192 Y3.684
X126.162 Y3.691
X126.132 Y3.687
X126.106 Y3.671
X125.03 Y2.722
X125.011 Y2.698
X125.003 Y2.669
X125.006 Y2.639
X125.02 Y2.613
X125.043 Y2.593
X125.071 Y2.583
X125.12 Y2.577 Z-1.008
X125.164 Y2.57 Z-1.03
X125.198 Y2.566 Z-1.065
X125.221 Y2.562 Z-1.11
X125.228 Y2.561 Z-1.159
Z-1.341
X125.236 Y2.56 Z-1.39
X125.258 Y2.557 Z-1.435
X125.293 Y2.552 Z-1.47
X125.337 Y2.546 Z-1.492
X125.386 Y2.539 Z-1.5
X125.465 Y2.534
X125.543 Y2.542
X125.62 Y2.562
G3 X126.078 Y3.019 R0.738
G1 X126.082 Y3.052
X126.072 Y3.084
X126.051 Y3.109
X126.021 Y3.123
X125.988
X125.957 Y3.11
X125.935 Y3.086
X125.799 Y2.862
X125.79 Y2.85
X125.594 Y2.637
X125.571 Y2.619
X125.543 Y2.611
X125.515 Y2.614
X125.403 Y2.645
X125.369 Y2.647
X125.338 Y2.634
X125.315 Y2.61
X125.303 Y2.579
X125.306 Y2.545
X125.322 Y2.516
X125.349 Y2.496
X125.382 Y2.489
G3 X126.151 Y3.258 R0.771
G1 X126.153 Y4.051
Y4.1 Z-1.492
Y4.145 Z-1.47
Y4.18 Z-1.435
Y4.202 Z-1.39
Y4.21 Z-1.341
Z0.5
X125.074 Y2.559
Z-1.421
X125.079 Y2.554 Z-1.451
X125.091 Y2.542 Z-1.477
X125.109 Y2.524 Z-1.494
X125.131 Y2.503 Z-1.5
X125.163 Y2.477
X125.202 Y2.462
X125.243 Y2.456
X125.38
G3 X125.948 Y2.692 R0.804
X126.183 Y3.26 R0.804
G1 Y3.397
X126.182 Y3.422
X126.057 Y4.206
X126.05 Y4.254 Z-1.492
X126.043 Y4.298 Z-1.47
X126.037 Y4.332 Z-1.435
X126.034 Y4.355 Z-1.39
X126.033 Y4.362 Z-1.341
Z0.5
X124.961 Y2.54
Z-1.436
X124.964 Y2.536 Z-1.461
X124.972 Y2.525 Z-1.481
X124.984 Y2.508 Z-1.495
X124.998 Y2.489 Z-1.5
X125.033 Y2.454
X125.078 Y2.431
X125.127 Y2.423
X125.347
X125.38
G3 X125.971 Y2.668 R0.836
X126.216 Y3.26 R0.836
G1 Y3.513
X126.214 Y3.538
X126.09 Y4.322
X126.082 Y4.37 Z-1.492
X126.075 Y4.414 Z-1.47
X126.07 Y4.449 Z-1.435
X126.066 Y4.471 Z-1.39
X126.065 Y4.479 Z-1.341
Z0.5
X124.865 Y2.53
Z-1.452
X124.868 Y2.525 Z-1.476
X124.876 Y2.509 Z-1.494
X124.886 Y2.488 Z-1.5
X124.911 Y2.452
X124.945 Y2.425
X124.985 Y2.407
X125.028 Y2.401
X125.248
X125.38
G3 X126.238 Y3.26 R0.858
G1 Y3.612
X126.233 Y3.641
X126.216 Y3.667
X126.192 Y3.684
X126.162 Y3.691
X126.132 Y3.687
X126.106 Y3.671
X125.03 Y2.722
X125.011 Y2.698
X125.003 Y2.669
X125.006 Y2.639
X125.02 Y2.613
X125.043 Y2.593
X125.071 Y2.583
X125.12 Y2.577 Z-1.508
X125.164 Y2.57 Z-1.53
X125.198 Y2.566 Z-1.565
X125.221 Y2.562 Z-1.61
X125.228 Y2.561 Z-1.659
Z-1.841
X125.236 Y2.56 Z-1.89
X125.258 Y2.557 Z-1.935
X125.293 Y2.552 Z-1.97
X125.337 Y2.546 Z-1.992
X125.386 Y2.539 Z-2.
X125.465 Y2.534
X125.543 Y2.542
X125.62 Y2.562
G3 X126.078 Y3.019 R0.738
G1 X126.082 Y3.052
X126.072 Y3.084
X126.051 Y3.109
X126.021 Y3.123
X125.988
X125.957 Y3.11
X125.935 Y3.086
X125.799 Y2.862
X125.79 Y2.85
X125.594 Y2.637
X125.571 Y2.619
X125.543 Y2.611
X125.515 Y2.614
X125.403 Y2.645
X125.369 Y2.647
X125.338 Y2.634
X125.315 Y2.61
X125.303 Y2.579
X125.306 Y2.545
X125.322 Y2.516
X125.349 Y2.496
X125.382 Y2.489
G3 X126.151 Y3.258 R0.771
G1 X126.153 Y4.051
Y4.1 Z-1.992
Y4.145 Z-1.97
Y4.18 Z-1.935
Y4.202 Z-1.89
Y4.21 Z-1.841
Z0.
X125.074 Y2.559
Z-1.921
X125.079 Y2.554 Z-1.951
X125.091 Y2.542 Z-1.977
X125.109 Y2.524 Z-1.994
X125.131 Y2.503 Z-2.
X125.163 Y2.477
X125.202 Y2.462
X125.243 Y2.456
X125.38
G3 X125.948 Y2.692 R0.804
X126.183 Y3.26 R0.804
G1 Y3.397
X126.182 Y3.422
X126.057 Y4.206
X126.05 Y4.254 Z-1.992
X126.043 Y4.298 Z-1.97
X126.037 Y4.332 Z-1.935
X126.034 Y4.355 Z-1.89
X126.033 Y4.362 Z-1.841
Z0.
X124.961 Y2.54
Z-1.936
X124.964 Y2.536 Z-1.961
X124.972 Y2.525 Z-1.981
X124.984 Y2.508 Z-1.995
X124.998 Y2.489 Z-2.
X125.033 Y2.454
X125.078 Y2.431
X125.127 Y2.423
X125.347
X125.38
G3 X125.971 Y2.668 R0.836
X126.216 Y3.26 R0.836
G1 Y3.513
X126.214 Y3.538
X126.09 Y4.322
X126.082 Y4.37 Z-1.992
X126.075 Y4.414 Z-1.97
X126.07 Y4.449 Z-1.935
X126.066 Y4.471 Z-1.89
X126.065 Y4.479 Z-1.841
Z0.
X124.865 Y2.53
Z-1.952
X124.868 Y2.525 Z-1.976
X124.876 Y2.509 Z-1.994
X124.886 Y2.488 Z-2.
X124.911 Y2.452
X124.945 Y2.425
X124.985 Y2.407
X125.028 Y2.401
X125.248
X125.38
G3 X126.238 Y3.26 R0.858
G1 Y3.612
X126.233 Y3.641
X126.216 Y3.667
X126.192 Y3.684
X126.162 Y3.691
X126.132 Y3.687
X126.106 Y3.671
X125.03 Y2.722
X125.011 Y2.698
X125.003 Y2.669
X125.006 Y2.639
X125.02 Y2.613
X125.043 Y2.593
X125.071 Y2.583
X125.12 Y2.577 Z-2.008
X125.164 Y2.57 Z-2.03
X125.198 Y2.566 Z-2.065
X125.221 Y2.562 Z-2.11
X125.228 Y2.561 Z-2.159
Z-2.341
X125.236 Y2.56 Z-2.39
X125.258 Y2.557 Z-2.435
X125.293 Y2.552 Z-2.47
X125.337 Y2.546 Z-2.492
X125.386 Y2.539 Z-2.5
X125.465 Y2.534
X125.543 Y2.542
X125.62 Y2.562
G3 X126.078 Y3.019 R0.738
G1 X126.082 Y3.052
X126.072 Y3.084
X126.051 Y3.109
X126.021 Y3.123
X125.988
X125.957 Y3.11
X125.935 Y3.086
X125.799 Y2.862
X125.79 Y2.85
X125.594 Y2.637
X125.571 Y2.619
X125.543 Y2.611
X125.515 Y2.614
X125.403 Y2.645
X125.369 Y2.647
X125.338 Y2.634
X125.315 Y2.61
X125.303 Y2.579
X125.306 Y2.545
X125.322 Y2.516
X125.349 Y2.496
X125.382 Y2.489
G3 X126.151 Y3.258 R0.771
G1 X126.153 Y4.051
Y4.1 Z-2.492
Y4.145 Z-2.47
Y4.18 Z-2.435
Y4.202 Z-2.39
Y4.21 Z-2.341
Z-0.5
X125.074 Y2.559
Z-2.421
X125.079 Y2.554 Z-2.451
X125.091 Y2.542 Z-2.477
X125.109 Y2.524 Z-2.494
X125.131 Y2.503 Z-2.5
X125.163 Y2.477
X125.202 Y2.462
X125.243 Y2.456
X125.38
G3 X125.948 Y2.692 R0.804
X126.183 Y3.26 R0.804
G1 Y3.397
X126.182 Y3.422
X126.057 Y4.206
X126.05 Y4.254 Z-2.492
X126.043 Y4.298 Z-2.47
X126.037 Y4.332 Z-2.435
X126.034 Y4.355 Z-2.39
X126.033 Y4.362 Z-2.341
Z-0.5
X124.961 Y2.54
Z-2.437
X124.964 Y2.536 Z-2.461
X124.972 Y2.525 Z-2.481
X124.984 Y2.508 Z-2.495
X124.998 Y2.489 Z-2.5
X125.033 Y2.454
X125.078 Y2.431
X125.127 Y2.423
X125.347
X125.38
G3 X125.971 Y2.668 R0.836
X126.216 Y3.26 R0.836
G1 Y3.513
X126.214 Y3.538
X126.09 Y4.322
X126.082 Y4.37 Z-2.492
X126.075 Y4.414 Z-2.47
X126.07 Y4.449 Z-2.435
X126.066 Y4.471 Z-2.39
X126.065 Y4.479 Z-2.341
Z-0.5
X124.865 Y2.53
Z-2.452
X124.868 Y2.525 Z-2.476
X124.876 Y2.509 Z-2.494
X124.886 Y2.488 Z-2.5
X124.911 Y2.452
X124.945 Y2.425
X124.985 Y2.407
X125.028 Y2.401
X125.248
X125.38
G3 X126.238 Y3.26 R0.858
G1 Y3.612
X126.233 Y3.641
X126.216 Y3.667
X126.192 Y3.684
X126.162 Y3.691
X126.132 Y3.687
X126.106 Y3.671
X125.03 Y2.722
X125.011 Y2.698
X125.003 Y2.669
X125.006 Y2.639
X125.02 Y2.613
X125.043 Y2.593
X125.071 Y2.583
X125.12 Y2.577 Z-2.508
X125.164 Y2.57 Z-2.53
X125.198 Y2.566 Z-2.565
X125.221 Y2.562 Z-2.61
X125.228 Y2.561 Z-2.659
Z-2.841
X125.236 Y2.56 Z-2.89
X125.258 Y2.557 Z-2.935
X125.293 Y2.552 Z-2.97
X125.337 Y2.546 Z-2.992
X125.386 Y2.539 Z-3.
X125.465 Y2.534
X125.543 Y2.542
X125.62 Y2.562
G3 X126.078 Y3.019 R0.738
G1 X126.082 Y3.052
X126.072 Y3.084
X126.051 Y3.109
X126.021 Y3.123
X125.988
X125.957 Y3.11
X125.935 Y3.086
X125.799 Y2.862
X125.79 Y2.85
X125.594 Y2.637
X125.571 Y2.619
X125.543 Y2.611
X125.515 Y2.614
X125.403 Y2.645
X125.369 Y2.647
X125.338 Y2.634
X125.315 Y2.61
X125.303 Y2.579
X125.306 Y2.545
X125.322 Y2.516
X125.349 Y2.496
X125.382 Y2.489
G3 X126.151 Y3.258 R0.771
G1 X126.153 Y4.051
Y4.1 Z-2.992
Y4.145 Z-2.97
Y4.18 Z-2.935
Y4.202 Z-2.89
Y4.21 Z-2.841
Z-1.
X125.074 Y2.559
Z-2.921
X125.079 Y2.554 Z-2.951
X125.091 Y2.542 Z-2.977
X125.109 Y2.524 Z-2.994
X125.131 Y2.503 Z-3.
X125.163 Y2.477
X125.202 Y2.462
X125.243 Y2.456
X125.38
G3 X125.948 Y2.692 R0.804
X126.183 Y3.26 R0.804
G1 Y3.397
X126.182 Y3.422
X126.057 Y4.206
X126.05 Y4.254 Z-2.992
X126.043 Y4.298 Z-2.97
X126.037 Y4.332 Z-2.935
X126.034 Y4.355 Z-2.89
X126.033 Y4.362 Z-2.841
Z-1.
X124.961 Y2.54
Z-2.937
X124.964 Y2.536 Z-2.961
X124.972 Y2.525 Z-2.981
X124.984 Y2.508 Z-2.995
X124.998 Y2.489 Z-3.
X125.033 Y2.454
X125.078 Y2.431
X125.127 Y2.423
X125.347
X125.38
G3 X125.971 Y2.668 R0.836
X126.216 Y3.26 R0.836
G1 Y3.513
X126.214 Y3.538
X126.09 Y4.322
X126.082 Y4.37 Z-2.992
X126.075 Y4.414 Z-2.97
X126.07 Y4.449 Z-2.935
X126.066 Y4.471 Z-2.89
X126.065 Y4.479 Z-2.841
Z-1.
X124.865 Y2.53
Z-2.952
X124.868 Y2.525 Z-2.976
X124.876 Y2.509 Z-2.994
X124.886 Y2.488 Z-3.
X124.911 Y2.452
X124.945 Y2.425
X124.985 Y2.407
X125.028 Y2.401
X125.248
X125.38
G3 X126.238 Y3.26 R0.858
G1 Y3.612
X126.233 Y3.641
X126.216 Y3.667
X126.192 Y3.684
X126.162 Y3.691
X126.132 Y3.687
X126.106 Y3.671
X125.03 Y2.722
X125.011 Y2.698
X125.003 Y2.669
X125.006 Y2.639
X125.02 Y2.613
X125.043 Y2.593
X125.071 Y2.583
X125.12 Y2.577 Z-3.008
X125.164 Y2.57 Z-3.03
X125.198 Y2.566 Z-3.065
X125.221 Y2.562 Z-3.11
X125.228 Y2.561 Z-3.159
Z-3.341
X125.236 Y2.56 Z-3.39
X125.258 Y2.557 Z-3.435
X125.293 Y2.552 Z-3.47
X125.337 Y2.546 Z-3.492
X125.386 Y2.539 Z-3.5
X125.465 Y2.534
X125.543 Y2.542
X125.62 Y2.562
G3 X126.078 Y3.019 R0.738
G1 X126.082 Y3.052
X126.072 Y3.084
X126.051 Y3.109
X126.021 Y3.123
X125.988
X125.957 Y3.11
X125.935 Y3.086
X125.799 Y2.862
X125.79 Y2.85
X125.594 Y2.637
X125.571 Y2.619
X125.543 Y2.611
X125.515 Y2.614
X125.403 Y2.645
X125.369 Y2.647
X125.338 Y2.634
X125.315 Y2.61
X125.303 Y2.579
X125.306 Y2.545
X125.322 Y2.516
X125.349 Y2.496
X125.382 Y2.489
G3 X126.151 Y3.258 R0.771
G1 X126.153 Y4.051
Y4.1 Z-3.492
Y4.145 Z-3.47
Y4.18 Z-3.435
Y4.202 Z-3.39
Y4.21 Z-3.341
Z-1.5
X125.074 Y2.559
Z-3.421
X125.079 Y2.554 Z-3.451
X125.091 Y2.542 Z-3.477
X125.109 Y2.524 Z-3.494
X125.131 Y2.503 Z-3.5
X125.163 Y2.477
X125.202 Y2.462
X125.243 Y2.456
X125.38
G3 X125.948 Y2.692 R0.804
X126.183 Y3.26 R0.804
G1 Y3.397
X126.182 Y3.422
X126.057 Y4.206
X126.05 Y4.254 Z-3.492
X126.043 Y4.298 Z-3.47
X126.037 Y4.332 Z-3.435
X126.034 Y4.355 Z-3.39
X126.033 Y4.362 Z-3.341
Z-1.5
X124.961 Y2.54
Z-3.437
X124.964 Y2.536 Z-3.461
X124.972 Y2.525 Z-3.481
X124.984 Y2.508 Z-3.495
X124.998 Y2.489 Z-3.5
X125.033 Y2.454
X125.078 Y2.431
X125.127 Y2.423
X125.347
X125.38
G3 X125.971 Y2.668 R0.836
X126.216 Y3.26 R0.836
G1 Y3.513
X126.214 Y3.538
X126.09 Y4.322
X126.082 Y4.37 Z-3.492
X126.075 Y4.414 Z-3.47
X126.07 Y4.449 Z-3.435
X126.066 Y4.471 Z-3.39
X126.065 Y4.479 Z-3.341
Z-1.5
X124.865 Y2.53
Z-3.452
X124.868 Y2.525 Z-3.476
X124.876 Y2.509 Z-3.494
X124.886 Y2.488 Z-3.5
X124.911 Y2.452
X124.945 Y2.425
X124.985 Y2.407
X125.028 Y2.401
X125.248
X125.38
G3 X126.238 Y3.26 R0.858
G1 Y3.612
X126.233 Y3.641
X126.216 Y3.667
X126.192 Y3.684
X126.162 Y3.691
X126.132 Y3.687
X126.106 Y3.671
X125.03 Y2.722
X125.011 Y2.698
X125.003 Y2.669
X125.006 Y2.639
X125.02 Y2.613
X125.043 Y2.593
X125.071 Y2.583
X125.12 Y2.577 Z-3.508
X125.164 Y2.57 Z-3.53
X125.198 Y2.566 Z-3.565
X125.221 Y2.562 Z-3.61
X125.228 Y2.561 Z-3.659
Z-3.841
X125.236 Y2.56 Z-3.89
X125.258 Y2.557 Z-3.935
X125.293 Y2.552 Z-3.97
X125.337 Y2.546 Z-3.992
X125.386 Y2.539 Z-4.
X125.465 Y2.534
X125.543 Y2.542
X125.62 Y2.562
G3 X126.078 Y3.019 R0.738
G1 X126.082 Y3.052
X126.072 Y3.084
X126.051 Y3.109
X126.021 Y3.123
X125.988
X125.957 Y3.11
X125.935 Y3.086
X125.799 Y2.862
X125.79 Y2.85
X125.594 Y2.637
X125.571 Y2.619
X125.543 Y2.611
X125.515 Y2.614
X125.403 Y2.645
X125.369 Y2.647
X125.338 Y2.634
X125.315 Y2.61
X125.303 Y2.579
X125.306 Y2.545
X125.322 Y2.516
X125.349 Y2.496
X125.382 Y2.489
G3 X126.151 Y3.258 R0.771
G1 X126.153 Y4.051
Y4.1 Z-3.992
Y4.145 Z-3.97
Y4.18 Z-3.935
Y4.202 Z-3.89
Y4.21 Z-3.841
Z-2.
X125.074 Y2.559
Z-3.921
X125.079 Y2.554 Z-3.951
X125.091 Y2.542 Z-3.977
X125.109 Y2.524 Z-3.994
X125.131 Y2.503 Z-4.
X125.163 Y2.477
X125.202 Y2.462
X125.243 Y2.456
X125.38
G3 X125.948 Y2.692 R0.804
X126.183 Y3.26 R0.804
G1 Y3.397
X126.182 Y3.422
X126.057 Y4.206
X126.05 Y4.254 Z-3.992
X126.043 Y4.298 Z-3.97
X126.037 Y4.332 Z-3.935
X126.034 Y4.355 Z-3.89
X126.033 Y4.362 Z-3.841
Z-2.
X124.961 Y2.54
Z-3.937
X124.964 Y2.536 Z-3.961
X124.972 Y2.525 Z-3.981
X124.984 Y2.508 Z-3.995
X124.998 Y2.489 Z-4.
X125.033 Y2.454
X125.078 Y2.431
X125.127 Y2.423
X125.347
X125.38
G3 X125.971 Y2.668 R0.836
X126.216 Y3.26 R0.836
G1 Y3.513
X126.214 Y3.538
X126.09 Y4.322
X126.082 Y4.37 Z-3.992
X126.075 Y4.414 Z-3.97
X126.07 Y4.449 Z-3.935
X126.066 Y4.471 Z-3.89
X126.065 Y4.479 Z-3.841
Z-2.
X124.865 Y2.53
Z-3.952
X124.868 Y2.525 Z-3.976
X124.876 Y2.509 Z-3.994
X124.886 Y2.488 Z-4.
X124.911 Y2.452
X124.945 Y2.425
X124.985 Y2.407
X125.028 Y2.401
X125.248
X125.38
G3 X126.238 Y3.26 R0.858
G1 Y3.612
X126.233 Y3.641
X126.216 Y3.667
X126.192 Y3.684
X126.162 Y3.691
X126.132 Y3.687
X126.106 Y3.671
X125.03 Y2.722
X125.011 Y2.698
X125.003 Y2.669
X125.006 Y2.639
X125.02 Y2.613
X125.043 Y2.593
X125.071 Y2.583
X125.12 Y2.577 Z-4.008
X125.164 Y2.57 Z-4.03
X125.198 Y2.566 Z-4.065
X125.221 Y2.562 Z-4.11
X125.228 Y2.561 Z-4.159
Z-4.341
X125.236 Y2.56 Z-4.39
X125.258 Y2.557 Z-4.435
X125.293 Y2.552 Z-4.47
X125.337 Y2.546 Z-4.492
X125.386 Y2.539 Z-4.5
X125.465 Y2.534
X125.543 Y2.542
X125.62 Y2.562
G3 X126.078 Y3.019 R0.738
G1 X126.082 Y3.052
X126.072 Y3.084
X126.051 Y3.109
X126.021 Y3.123
X125.988
X125.957 Y3.11
X125.935 Y3.086
X125.799 Y2.862
X125.79 Y2.85
X125.594 Y2.637
X125.571 Y2.619
X125.543 Y2.611
X125.515 Y2.614
X125.403 Y2.645
X125.369 Y2.647
X125.338 Y2.634
X125.315 Y2.61
X125.303 Y2.579
X125.306 Y2.545
X125.322 Y2.516
X125.349 Y2.496
X125.382 Y2.489
G3 X126.151 Y3.258 R0.771
G1 X126.153 Y4.051
Y4.1 Z-4.492
Y4.145 Z-4.47
Y4.18 Z-4.435
Y4.202 Z-4.39
Y4.21 Z-4.341
Z-2.5
X125.074 Y2.559
Z-4.421
X125.079 Y2.554 Z-4.451
X125.091 Y2.542 Z-4.477
X125.109 Y2.524 Z-4.494
X125.131 Y2.503 Z-4.5
X125.163 Y2.477
X125.202 Y2.462
X125.243 Y2.456
X125.38
G3 X125.948 Y2.692 R0.804
X126.183 Y3.26 R0.804
G1 Y3.397
X126.182 Y3.422
X126.057 Y4.206
X126.05 Y4.254 Z-4.492
X126.043 Y4.298 Z-4.47
X126.037 Y4.332 Z-4.435
X126.034 Y4.355 Z-4.39
X126.033 Y4.362 Z-4.341
Z-2.5
X124.961 Y2.54
Z-4.437
X124.964 Y2.536 Z-4.461
X124.972 Y2.525 Z-4.481
X124.984 Y2.508 Z-4.495
X124.998 Y2.489 Z-4.5
X125.033 Y2.454
X125.078 Y2.431
X125.127 Y2.423
X125.347
X125.38
G3 X125.971 Y2.668 R0.836
X126.216 Y3.26 R0.836
G1 Y3.513
X126.214 Y3.538
X126.09 Y4.322
X126.082 Y4.37 Z-4.492
X126.075 Y4.414 Z-4.47
X126.07 Y4.449 Z-4.435
X126.066 Y4.471 Z-4.39
X126.065 Y4.479 Z-4.341
Z-2.5
X124.865 Y2.53
Z-4.452
X124.868 Y2.525 Z-4.476
X124.876 Y2.509 Z-4.494
X124.886 Y2.488 Z-4.5
X124.911 Y2.452
X124.945 Y2.425
X124.985 Y2.407
X125.028 Y2.401
X125.248
X125.38
G3 X126.238 Y3.26 R0.858
G1 Y3.612
X126.236 Y3.637
X126.112 Y4.421
X126.104 Y4.469 Z-4.492
X126.098 Y4.513 Z-4.47
X126.092 Y4.547 Z-4.435
X126.089 Y4.57 Z-4.39
X126.087 Y4.577 Z-4.341
G0 Z5.
X126.021 Y82.787
G1 Z1.5 F146.
Z-0.437 F437.
X126.024 Y82.791 Z-0.461
X126.032 Y82.802 Z-0.481
X126.044 Y82.819 Z-0.495
X126.058 Y82.839 Z-0.5
X126.079 Y82.883
X126.086 Y82.933
X126.077 Y82.982
G3 X125.621 Y83.438 R0.738
G1 X125.588 Y83.442
X125.557 Y83.432
X125.532 Y83.411
X125.518 Y83.381
X125.517 Y83.348
X125.53 Y83.318
X125.554 Y83.295
X125.777 Y83.159
X125.79 Y83.15
X126.002 Y82.956
X126.02 Y82.933
X126.028 Y82.905
X126.026 Y82.876
X125.995 Y82.763
X125.993 Y82.729
X126.005 Y82.698
X126.029 Y82.675
X126.061 Y82.663
X126.094 Y82.666
X126.124 Y82.683
X126.144 Y82.71
X126.151 Y82.742
G3 X125.382 Y83.511 R0.771
G1 X124.588 Y83.513
X124.539 Y83.514 Z-0.492
X124.495 Z-0.47
X124.46 Z-0.435
X124.437 Z-0.39
X124.43 Z-0.341
Z1.5
X126.081 Y82.435
Z-0.421
X126.085 Y82.439 Z-0.451
X126.097 Y82.451 Z-0.477
X126.116 Y82.47 Z-0.494
X126.137 Y82.491 Z-0.5
X126.162 Y82.524
X126.178 Y82.562
X126.183 Y82.603
Y82.74
G3 X125.38 Y83.544 R0.804
G1 X125.243
X125.218 Y83.542
X124.434 Y83.418
X124.386 Y83.41 Z-0.492
X124.342 Y83.403 Z-0.47
X124.307 Y83.398 Z-0.435
X124.285 Y83.394 Z-0.39
X124.277 Y83.393 Z-0.341
Z1.5
X126.099 Y82.321
Z-0.437
X126.103 Y82.324 Z-0.461
X126.114 Y82.332 Z-0.481
X126.131 Y82.344 Z-0.495
X126.151 Y82.359 Z-0.5
X126.186 Y82.394
X126.208 Y82.438
X126.216 Y82.487
Y82.708
Y82.74
G3 X125.38 Y83.577 R0.837
G1 X125.127
X125.102 Y83.575
X124.318 Y83.451
X124.269 Y83.443 Z-0.492
X124.226 Y83.436 Z-0.47
X124.191 Y83.431 Z-0.435
X124.169 Y83.427 Z-0.39
X124.161 Y83.426 Z-0.341
Z1.5
X126.109 Y82.225
Z-0.452
X126.115 Y82.228 Z-0.476
X126.13 Y82.236 Z-0.494
X126.152 Y82.247 Z-0.5
X126.187 Y82.272
X126.215 Y82.305
X126.232 Y82.345
X126.238 Y82.388
Y82.609
Y82.74
G3 X125.987 Y83.347 R0.858
X125.38 Y83.599 R0.858
G1 X125.028
X124.998 Y83.593
X124.973 Y83.577
X124.956 Y83.552
X124.949 Y83.523
X124.953 Y83.493
X124.968 Y83.467
X125.919 Y82.391
X125.942 Y82.373
X125.971 Y82.364
X126.001 Y82.367
X126.027 Y82.381
X126.047 Y82.404
X126.057 Y82.433
X126.063 Y82.481 Z-0.508
X126.069 Y82.525 Z-0.53
X126.074 Y82.56 Z-0.565
X126.077 Y82.582 Z-0.61
X126.078 Y82.59 Z-0.659
Z-0.841
X126.08 Y82.597 Z-0.89
X126.083 Y82.62 Z-0.935
X126.088 Y82.655 Z-0.97
X126.094 Y82.698 Z-0.992
X126.1 Y82.747 Z-1.
X126.105 Y82.826
X126.097 Y82.905
X126.077 Y82.982
G3 X125.621 Y83.438 R0.738
G1 X125.588 Y83.442
X125.557 Y83.432
X125.532 Y83.411
X125.518 Y83.381
X125.517 Y83.348
X125.53 Y83.318
X125.554 Y83.295
X125.777 Y83.159
X125.79 Y83.15
X126.002 Y82.956
X126.02 Y82.933
X126.028 Y82.905
X126.026 Y82.876
X125.995 Y82.763
X125.993 Y82.729
X126.005 Y82.698
X126.029 Y82.675
X126.061 Y82.663
X126.094 Y82.666
X126.124 Y82.683
X126.144 Y82.71
X126.151 Y82.742
G3 X125.382 Y83.511 R0.771
G1 X124.588 Y83.513
X124.539 Y83.514 Z-0.992
X124.495 Z-0.97
X124.46 Z-0.935
X124.437 Z-0.89
X124.43 Z-0.841
Z1.
X126.081 Y82.435
Z-0.921
X126.085 Y82.439 Z-0.951
X126.097 Y82.451 Z-0.977
X126.116 Y82.47 Z-0.994
X126.137 Y82.491 Z-1.
X126.162 Y82.524
X126.178 Y82.562
X126.183 Y82.603
Y82.74
G3 X125.38 Y83.544 R0.804
G1 X125.243
X125.218 Y83.542
X124.434 Y83.418
X124.386 Y83.41 Z-0.992
X124.342 Y83.403 Z-0.97
X124.307 Y83.398 Z-0.935
X124.285 Y83.394 Z-0.89
X124.277 Y83.393 Z-0.841
Z1.
X126.099 Y82.321
Z-0.937
X126.103 Y82.324 Z-0.961
X126.114 Y82.332 Z-0.981
X126.131 Y82.344 Z-0.995
X126.151 Y82.359 Z-1.
X126.186 Y82.394
X126.208 Y82.438
X126.216 Y82.487
Y82.708
Y82.74
G3 X125.38 Y83.577 R0.837
G1 X125.127
X125.102 Y83.575
X124.318 Y83.451
X124.269 Y83.443 Z-0.992
X124.226 Y83.436 Z-0.97
X124.191 Y83.431 Z-0.935
X124.169 Y83.427 Z-0.89
X124.161 Y83.426 Z-0.841
Z1.
X126.109 Y82.225
Z-0.952
X126.115 Y82.228 Z-0.976
X126.13 Y82.236 Z-0.994
X126.152 Y82.247 Z-1.
X126.187 Y82.272
X126.215 Y82.305
X126.232 Y82.345
X126.238 Y82.388
Y82.609
Y82.74
G3 X125.987 Y83.347 R0.858
X125.38 Y83.599 R0.858
G1 X125.028
X124.998 Y83.593
X124.973 Y83.577
X124.956 Y83.552
X124.949 Y83.523
X124.953 Y83.493
X124.968 Y83.467
X125.919 Y82.391
X125.942 Y82.373
X125.971 Y82.364
X126.001 Y82.367
X126.027 Y82.381
X126.047 Y82.404
X126.057 Y82.433
X126.063 Y82.481 Z-1.008
X126.069 Y82.525 Z-1.03
X126.074 Y82.56 Z-1.065
X126.077 Y82.582 Z-1.11
X126.078 Y82.59 Z-1.159
Z-1.341
X126.08 Y82.597 Z-1.39
X126.083 Y82.62 Z-1.435
X126.088 Y82.655 Z-1.47
X126.094 Y82.698 Z-1.492
X126.1 Y82.747 Z-1.5
X126.105 Y82.826
X126.097 Y82.905
X126.077 Y82.982
G3 X125.621 Y83.438 R0.738
G1 X125.588 Y83.442
X125.557 Y83.432
X125.532 Y83.411
X125.518 Y83.381
X125.517 Y83.348
X125.53 Y83.318
X125.554 Y83.295
X125.777 Y83.159
X125.79 Y83.15
X126.002 Y82.956
X126.02 Y82.933
X126.028 Y82.905
X126.026 Y82.876
X125.995 Y82.763
X125.993 Y82.729
X126.005 Y82.698
X126.029 Y82.675
X126.061 Y82.663
X126.094 Y82.666
X126.124 Y82.683
X126.144 Y82.71
X126.151 Y82.742
G3 X125.382 Y83.511 R0.771
G1 X124.588 Y83.513
X124.539 Y83.514 Z-1.492
X124.495 Z-1.47
X124.46 Z-1.435
X124.437 Z-1.39
X124.43 Z-1.341
Z0.5
X126.081 Y82.435
Z-1.421
X126.085 Y82.439 Z-1.451
X126.097 Y82.451 Z-1.477
X126.116 Y82.47 Z-1.494
X126.137 Y82.491 Z-1.5
X126.162 Y82.524
X126.178 Y82.562
X126.183 Y82.603
Y82.74
G3 X125.38 Y83.544 R0.804
G1 X125.243
X125.218 Y83.542
X124.434 Y83.418
X124.386 Y83.41 Z-1.492
X124.342 Y83.403 Z-1.47
X124.307 Y83.398 Z-1.435
X124.285 Y83.394 Z-1.39
X124.277 Y83.393 Z-1.341
Z0.5
X126.099 Y82.321
Z-1.436
X126.103 Y82.324 Z-1.461
X126.114 Y82.332 Z-1.481
X126.131 Y82.344 Z-1.495
X126.151 Y82.359 Z-1.5
X126.186 Y82.394
X126.208 Y82.438
X126.216 Y82.487
Y82.708
Y82.74
G3 X125.38 Y83.577 R0.837
G1 X125.127
X125.102 Y83.575
X124.318 Y83.451
X124.269 Y83.443 Z-1.492
X124.226 Y83.436 Z-1.47
X124.191 Y83.431 Z-1.435
X124.169 Y83.427 Z-1.39
X124.161 Y83.426 Z-1.341
Z0.5
X126.109 Y82.225
Z-1.452
X126.115 Y82.228 Z-1.476
X126.13 Y82.236 Z-1.494
X126.152 Y82.247 Z-1.5
X126.187 Y82.272
X126.215 Y82.305
X126.232 Y82.345
X126.238 Y82.388
Y82.609
Y82.74
G3 X125.987 Y83.347 R0.858
X125.38 Y83.599 R0.858
G1 X125.028
X124.998 Y83.593
X124.973 Y83.577
X124.956 Y83.552
X124.949 Y83.523
X124.953 Y83.493
X124.968 Y83.467
X125.919 Y82.391
X125.942 Y82.373
X125.971 Y82.364
X126.001 Y82.367
X126.027 Y82.381
X126.047 Y82.404
X126.057 Y82.433
X126.063 Y82.481 Z-1.508
X126.069 Y82.525 Z-1.53
X126.074 Y82.56 Z-1.565
X126.077 Y82.582 Z-1.61
X126.078 Y82.59 Z-1.659
Z-1.841
X126.08 Y82.597 Z-1.89
X126.083 Y82.62 Z-1.935
X126.088 Y82.655 Z-1.97
X126.094 Y82.698 Z-1.992
X126.1 Y82.747 Z-2.
X126.105 Y82.826
X126.097 Y82.905
X126.077 Y82.982
G3 X125.621 Y83.438 R0.738
G1 X125.588 Y83.442
X125.557 Y83.432
X125.532 Y83.411
X125.518 Y83.381
X125.517 Y83.348
X125.53 Y83.318
X125.554 Y83.295
X125.777 Y83.159
X125.79 Y83.15
X126.002 Y82.956
X126.02 Y82.933
X126.028 Y82.905
X126.026 Y82.876
X125.995 Y82.763
X125.993 Y82.729
X126.005 Y82.698
X126.029 Y82.675
X126.061 Y82.663
X126.094 Y82.666
X126.124 Y82.683
X126.144 Y82.71
X126.151 Y82.742
G3 X125.382 Y83.511 R0.771
G1 X124.588 Y83.513
X124.539 Y83.514 Z-1.992
X124.495 Z-1.97
X124.46 Z-1.935
X124.437 Z-1.89
X124.43 Z-1.841
Z0.
X126.081 Y82.435
Z-1.921
X126.085 Y82.439 Z-1.951
X126.097 Y82.451 Z-1.977
X126.116 Y82.47 Z-1.994
X126.137 Y82.491 Z-2.
X126.162 Y82.524
X126.178 Y82.562
X126.183 Y82.603
Y82.74
G3 X125.38 Y83.544 R0.804
G1 X125.243
X125.218 Y83.542
X124.434 Y83.418
X124.386 Y83.41 Z-1.992
X124.342 Y83.403 Z-1.97
X124.307 Y83.398 Z-1.935
X124.285 Y83.394 Z-1.89
X124.277 Y83.393 Z-1.841
Z0.
X126.099 Y82.321
Z-1.936
X126.103 Y82.324 Z-1.961
X126.114 Y82.332 Z-1.981
X126.131 Y82.344 Z-1.995
X126.151 Y82.359 Z-2.
X126.186 Y82.394
X126.208 Y82.438
X126.216 Y82.487
Y82.708
Y82.74
G3 X125.38 Y83.577 R0.837
G1 X125.127
X125.102 Y83.575
X124.318 Y83.451
X124.269 Y83.443 Z-1.992
X124.226 Y83.436 Z-1.97
X124.191 Y83.431 Z-1.935
X124.169 Y83.427 Z-1.89
X124.161 Y83.426 Z-1.841
Z0.
X126.109 Y82.225
Z-1.952
X126.115 Y82.228 Z-1.976
X126.13 Y82.236 Z-1.994
X126.152 Y82.247 Z-2.
X126.187 Y82.272
X126.215 Y82.305
X126.232 Y82.345
X126.238 Y82.388
Y82.609
Y82.74
G3 X125.987 Y83.347 R0.858
X125.38 Y83.599 R0.858
G1 X125.028
X124.998 Y83.593
X124.973 Y83.577
X124.956 Y83.552
X124.949 Y83.523
X124.953 Y83.493
X124.968 Y83.467
X125.919 Y82.391
X125.942 Y82.373
X125.971 Y82.364
X126.001 Y82.367
X126.027 Y82.381
X126.047 Y82.404
X126.057 Y82.433
X126.063 Y82.481 Z-2.008
X126.069 Y82.525 Z-2.03
X126.074 Y82.56 Z-2.065
X126.077 Y82.582 Z-2.11
X126.078 Y82.59 Z-2.159
Z-2.341
X126.08 Y82.597 Z-2.39
X126.083 Y82.62 Z-2.435
X126.088 Y82.655 Z-2.47
X126.094 Y82.698 Z-2.492
X126.1 Y82.747 Z-2.5
X126.105 Y82.826
X126.097 Y82.905
X126.077 Y82.982
G3 X125.621 Y83.438 R0.738
G1 X125.588 Y83.442
X125.557 Y83.432
X125.532 Y83.411
X125.518 Y83.381
X125.517 Y83.348
X125.53 Y83.318
X125.554 Y83.295
X125.777 Y83.159
X125.79 Y83.15
X126.002 Y82.956
X126.02 Y82.933
X126.028 Y82.905
X126.026 Y82.876
X125.995 Y82.763
X125.993 Y82.729
X126.005 Y82.698
X126.029 Y82.675
X126.061 Y82.663
X126.094 Y82.666
X126.124 Y82.683
X126.144 Y82.71
X126.151 Y82.742
G3 X125.382 Y83.511 R0.771
G1 X124.588 Y83.513
X124.539 Y83.514 Z-2.492
X124.495 Z-2.47
X124.46 Z-2.435
X124.437 Z-2.39
X124.43 Z-2.341
Z-0.5
X126.081 Y82.435
Z-2.421
X126.085 Y82.439 Z-2.451
X126.097 Y82.451 Z-2.477
X126.116 Y82.47 Z-2.494
X126.137 Y82.491 Z-2.5
X126.162 Y82.524
X126.178 Y82.562
X126.183 Y82.603
Y82.74
G3 X125.38 Y83.544 R0.804
G1 X125.243
X125.218 Y83.542
X124.434 Y83.418
X124.386 Y83.41 Z-2.492
X124.342 Y83.403 Z-2.47
X124.307 Y83.398 Z-2.435
X124.285 Y83.394 Z-2.39
X124.277 Y83.393 Z-2.341
Z-0.5
X126.099 Y82.321
Z-2.437
X126.103 Y82.324 Z-2.461
X126.114 Y82.332 Z-2.481
X126.131 Y82.344 Z-2.495
X126.151 Y82.359 Z-2.5
X126.186 Y82.394
X126.208 Y82.438
X126.216 Y82.487
Y82.708
Y82.74
G3 X125.38 Y83.577 R0.837
G1 X125.127
X125.102 Y83.575
X124.318 Y83.451
X124.269 Y83.443 Z-2.492
X124.226 Y83.436 Z-2.47
X124.191 Y83.431 Z-2.435
X124.169 Y83.427 Z-2.39
X124.161 Y83.426 Z-2.341
Z-0.5
X126.109 Y82.225
Z-2.452
X126.115 Y82.228 Z-2.476
X126.13 Y82.236 Z-2.494
X126.152 Y82.247 Z-2.5
X126.187 Y82.272
X126.215 Y82.305
X126.232 Y82.345
X126.238 Y82.388
Y82.609
Y82.74
G3 X125.987 Y83.347 R0.858
X125.38 Y83.599 R0.858
G1 X125.028
X124.998 Y83.593
X124.973 Y83.577
X124.956 Y83.552
X124.949 Y83.523
X124.953 Y83.493
X124.968 Y83.467
X125.919 Y82.391
X125.942 Y82.373
X125.971 Y82.364
X126.001 Y82.367
X126.027 Y82.381
X126.047 Y82.404
X126.057 Y82.433
X126.063 Y82.481 Z-2.508
X126.069 Y82.525 Z-2.53
X126.074 Y82.56 Z-2.565
X126.077 Y82.582 Z-2.61
X126.078 Y82.59 Z-2.659
Z-2.841
X126.08 Y82.597 Z-2.89
X126.083 Y82.62 Z-2.935
X126.088 Y82.655 Z-2.97
X126.094 Y82.698 Z-2.992
X126.1 Y82.747 Z-3.
X126.105 Y82.826
X126.097 Y82.905
X126.077 Y82.982
G3 X125.621 Y83.438 R0.738
G1 X125.588 Y83.442
X125.557 Y83.432
X125.532 Y83.411
X125.518 Y83.381
X125.517 Y83.348
X125.53 Y83.318
X125.554 Y83.295
X125.777 Y83.159
X125.79 Y83.15
X126.002 Y82.956
X126.02 Y82.933
X126.028 Y82.905
X126.026 Y82.876
X125.995 Y82.763
X125.993 Y82.729
X126.005 Y82.698
X126.029 Y82.675
X126.061 Y82.663
X126.094 Y82.666
X126.124 Y82.683
X126.144 Y82.71
X126.151 Y82.742
G3 X125.382 Y83.511 R0.771
G1 X124.588 Y83.513
X124.539 Y83.514 Z-2.992
X124.495 Z-2.97
X124.46 Z-2.935
X124.437 Z-2.89
X124.43 Z-2.841
Z-1.
X126.081 Y82.435
Z-2.921
X126.085 Y82.439 Z-2.951
X126.097 Y82.451 Z-2.977
X126.116 Y82.47 Z-2.994
X126.137 Y82.491 Z-3.
X126.162 Y82.524
X126.178 Y82.562
X126.183 Y82.603
Y82.74
G3 X125.38 Y83.544 R0.804
G1 X125.243
X125.218 Y83.542
X124.434 Y83.418
X124.386 Y83.41 Z-2.992
X124.342 Y83.403 Z-2.97
X124.307 Y83.398 Z-2.935
X124.285 Y83.394 Z-2.89
X124.277 Y83.393 Z-2.841
Z-1.
X126.099 Y82.321
Z-2.937
X126.103 Y82.324 Z-2.961
X126.114 Y82.332 Z-2.981
X126.131 Y82.344 Z-2.995
X126.151 Y82.359 Z-3.
X126.186 Y82.394
X126.208 Y82.438
X126.216 Y82.487
Y82.708
Y82.74
G3 X125.38 Y83.577 R0.837
G1 X125.127
X125.102 Y83.575
X124.318 Y83.451
X124.269 Y83.443 Z-2.992
X124.226 Y83.436 Z-2.97
X124.191 Y83.431 Z-2.935
X124.169 Y83.427 Z-2.89
X124.161 Y83.426 Z-2.841
Z-1.
X126.109 Y82.225
Z-2.952
X126.115 Y82.228 Z-2.976
X126.13 Y82.236 Z-2.994
X126.152 Y82.247 Z-3.
X126.187 Y82.272
X126.215 Y82.305
X126.232 Y82.345
X126.238 Y82.388
Y82.609
Y82.74
G3 X125.987 Y83.347 R0.858
X125.38 Y83.599 R0.858
G1 X125.028
X124.998 Y83.593
X124.973 Y83.577
X124.956 Y83.552
X124.949 Y83.523
X124.953 Y83.493
X124.968 Y83.467
X125.919 Y82.391
X125.942 Y82.373
X125.971 Y82.364
X126.001 Y82.367
X126.027 Y82.381
X126.047 Y82.404
X126.057 Y82.433
X126.063 Y82.481 Z-3.008
X126.069 Y82.525 Z-3.03
X126.074 Y82.56 Z-3.065
X126.077 Y82.582 Z-3.11
X126.078 Y82.59 Z-3.159
Z-3.341
X126.08 Y82.597 Z-3.39
X126.083 Y82.62 Z-3.435
X126.088 Y82.655 Z-3.47
X126.094 Y82.698 Z-3.492
X126.1 Y82.747 Z-3.5
X126.105 Y82.826
X126.097 Y82.905
X126.077 Y82.982
G3 X125.621 Y83.438 R0.738
G1 X125.588 Y83.442
X125.557 Y83.432
X125.532 Y83.411
X125.518 Y83.381
X125.517 Y83.348
X125.53 Y83.318
X125.554 Y83.295
X125.777 Y83.159
X125.79 Y83.15
X126.002 Y82.956
X126.02 Y82.933
X126.028 Y82.905
X126.026 Y82.876
X125.995 Y82.763
X125.993 Y82.729
X126.005 Y82.698
X126.029 Y82.675
X126.061 Y82.663
X126.094 Y82.666
X126.124 Y82.683
X126.144 Y82.71
X126.151 Y82.742
G3 X125.382 Y83.511 R0.771
G1 X124.588 Y83.513
X124.539 Y83.514 Z-3.492
X124.495 Z-3.47
X124.46 Z-3.435
X124.437 Z-3.39
X124.43 Z-3.341
Z-1.5
X126.081 Y82.435
Z-3.421
X126.085 Y82.439 Z-3.451
X126.097 Y82.451 Z-3.477
X126.116 Y82.47 Z-3.494
X126.137 Y82.491 Z-3.5
X126.162 Y82.524
X126.178 Y82.562
X126.183 Y82.603
Y82.74
G3 X125.38 Y83.544 R0.804
G1 X125.243
X125.218 Y83.542
X124.434 Y83.418
X124.386 Y83.41 Z-3.492
X124.342 Y83.403 Z-3.47
X124.307 Y83.398 Z-3.435
X124.285 Y83.394 Z-3.39
X124.277 Y83.393 Z-3.341
Z-1.5
X126.099 Y82.321
Z-3.437
X126.103 Y82.324 Z-3.461
X126.114 Y82.332 Z-3.481
X126.131 Y82.344 Z-3.495
X126.151 Y82.359 Z-3.5
X126.186 Y82.394
X126.208 Y82.438
X126.216 Y82.487
Y82.708
Y82.74
G3 X125.38 Y83.577 R0.837
G1 X125.127
X125.102 Y83.575
X124.318 Y83.451
X124.269 Y83.443 Z-3.492
X124.226 Y83.436 Z-3.47
X124.191 Y83.431 Z-3.435
X124.169 Y83.427 Z-3.39
X124.161 Y83.426 Z-3.341
Z-1.5
X126.109 Y82.225
Z-3.452
X126.115 Y82.228 Z-3.476
X126.13 Y82.236 Z-3.494
X126.152 Y82.247 Z-3.5
X126.187 Y82.272
X126.215 Y82.305
X126.232 Y82.345
X126.238 Y82.388
Y82.609
Y82.74
G3 X125.987 Y83.347 R0.858
X125.38 Y83.599 R0.858
G1 X125.028
X124.998 Y83.593
X124.973 Y83.577
X124.956 Y83.552
X124.949 Y83.523
X124.953 Y83.493
X124.968 Y83.467
X125.919 Y82.391
X125.942 Y82.373
X125.971 Y82.364
X126.001 Y82.367
X126.027 Y82.381
X126.047 Y82.404
X126.057 Y82.433
X126.063 Y82.481 Z-3.508
X126.069 Y82.525 Z-3.53
X126.074 Y82.56 Z-3.565
X126.077 Y82.582 Z-3.61
X126.078 Y82.59 Z-3.659
Z-3.841
X126.08 Y82.597 Z-3.89
X126.083 Y82.62 Z-3.935
X126.088 Y82.655 Z-3.97
X126.094 Y82.698 Z-3.992
X126.1 Y82.747 Z-4.
X126.105 Y82.826
X126.097 Y82.905
X126.077 Y82.982
G3 X125.621 Y83.438 R0.738
G1 X125.588 Y83.442
X125.557 Y83.432
X125.532 Y83.411
X125.518 Y83.381
X125.517 Y83.348
X125.53 Y83.318
X125.554 Y83.295
X125.777 Y83.159
X125.79 Y83.15
X126.002 Y82.956
X126.02 Y82.933
X126.028 Y82.905
X126.026 Y82.876
X125.995 Y82.763
X125.993 Y82.729
X126.005 Y82.698
X126.029 Y82.675
X126.061 Y82.663
X126.094 Y82.666
X126.124 Y82.683
X126.144 Y82.71
X126.151 Y82.742
G3 X125.382 Y83.511 R0.771
G1 X124.588 Y83.513
X124.539 Y83.514 Z-3.992
X124.495 Z-3.97
X124.46 Z-3.935
X124.437 Z-3.89
X124.43 Z-3.841
Z-2.
X126.081 Y82.435
Z-3.921
X126.085 Y82.439 Z-3.951
X126.097 Y82.451 Z-3.977
X126.116 Y82.47 Z-3.994
X126.137 Y82.491 Z-4.
X126.162 Y82.524
X126.178 Y82.562
X126.183 Y82.603
Y82.74
G3 X125.38 Y83.544 R0.804
G1 X125.243
X125.218 Y83.542
X124.434 Y83.418
X124.386 Y83.41 Z-3.992
X124.342 Y83.403 Z-3.97
X124.307 Y83.398 Z-3.935
X124.285 Y83.394 Z-3.89
X124.277 Y83.393 Z-3.841
Z-2.
X126.099 Y82.321
Z-3.937
X126.103 Y82.324 Z-3.961
X126.114 Y82.332 Z-3.981
X126.131 Y82.344 Z-3.995
X126.151 Y82.359 Z-4.
X126.186 Y82.394
X126.208 Y82.438
X126.216 Y82.487
Y82.708
Y82.74
G3 X125.38 Y83.577 R0.837
G1 X125.127
X125.102 Y83.575
X124.318 Y83.451
X124.269 Y83.443 Z-3.992
X124.226 Y83.436 Z-3.97
X124.191 Y83.431 Z-3.935
X124.169 Y83.427 Z-3.89
X124.161 Y83.426 Z-3.841
Z-2.
X126.109 Y82.225
Z-3.952
X126.115 Y82.228 Z-3.976
X126.13 Y82.236 Z-3.994
X126.152 Y82.247 Z-4.
X126.187 Y82.272
X126.215 Y82.305
X126.232 Y82.345
X126.238 Y82.388
Y82.609
Y82.74
G3 X125.987 Y83.347 R0.858
X125.38 Y83.599 R0.858
G1 X125.028
X124.998 Y83.593
X124.973 Y83.577
X124.956 Y83.552
X124.949 Y83.523
X124.953 Y83.493
X124.968 Y83.467
X125.919 Y82.391
X125.942 Y82.373
X125.971 Y82.364
X126.001 Y82.367
X126.027 Y82.381
X126.047 Y82.404
X126.057 Y82.433
X126.063 Y82.481 Z-4.008
X126.069 Y82.525 Z-4.03
X126.074 Y82.56 Z-4.065
X126.077 Y82.582 Z-4.11
X126.078 Y82.59 Z-4.159
Z-4.341
X126.08 Y82.597 Z-4.39
X126.083 Y82.62 Z-4.435
X126.088 Y82.655 Z-4.47
X126.094 Y82.698 Z-4.492
X126.1 Y82.747 Z-4.5
X126.105 Y82.826
X126.097 Y82.905
X126.077 Y82.982
G3 X125.621 Y83.438 R0.738
G1 X125.588 Y83.442
X125.557 Y83.432
X125.532 Y83.411
X125.518 Y83.381
X125.517 Y83.348
X125.53 Y83.318
X125.554 Y83.295
X125.777 Y83.159
X125.79 Y83.15
X126.002 Y82.956
X126.02 Y82.933
X126.028 Y82.905
X126.026 Y82.876
X125.995 Y82.763
X125.993 Y82.729
X126.005 Y82.698
X126.029 Y82.675
X126.061 Y82.663
X126.094 Y82.666
X126.124 Y82.683
X126.144 Y82.71
X126.151 Y82.742
G3 X125.382 Y83.511 R0.771
G1 X124.588 Y83.513
X124.539 Y83.514 Z-4.492
X124.495 Z-4.47
X124.46 Z-4.435
X124.437 Z-4.39
X124.43 Z-4.341
Z-2.5
X126.081 Y82.435
Z-4.421
X126.085 Y82.439 Z-4.451
X126.097 Y82.451 Z-4.477
X126.116 Y82.47 Z-4.494
X126.137 Y82.491 Z-4.5
X126.162 Y82.524
X126.178 Y82.562
X126.183 Y82.603
Y82.74
G3 X125.38 Y83.544 R0.804
G1 X125.243
X125.218 Y83.542
X124.434 Y83.418
X124.386 Y83.41 Z-4.492
X124.342 Y83.403 Z-4.47
X124.307 Y83.398 Z-4.435
X124.285 Y83.394 Z-4.39
X124.277 Y83.393 Z-4.341
Z-2.5
X126.099 Y82.321
Z-4.437
X126.103 Y82.324 Z-4.461
X126.114 Y82.332 Z-4.481
X126.131 Y82.344 Z-4.495
X126.151 Y82.359 Z-4.5
X126.186 Y82.394
X126.208 Y82.438
X126.216 Y82.487
Y82.708
Y82.74
G3 X125.38 Y83.577 R0.837
G1 X125.127
X125.102 Y83.575
X124.318 Y83.451
X124.269 Y83.443 Z-4.492
X124.226 Y83.436 Z-4.47
X124.191 Y83.431 Z-4.435
X124.169 Y83.427 Z-4.39
X124.161 Y83.426 Z-4.341
Z-2.5
X126.109 Y82.225
Z-4.452
X126.115 Y82.228 Z-4.476
X126.13 Y82.236 Z-4.494
X126.152 Y82.247 Z-4.5
X126.187 Y82.272
X126.215 Y82.305
X126.232 Y82.345
X126.238 Y82.388
Y82.609
Y82.74
G3 X125.987 Y83.347 R0.858
X125.38 Y83.599 R0.858
G1 X125.028
X125.003 Y83.597
X124.219 Y83.473
X124.171 Y83.465 Z-4.492
X124.127 Y83.458 Z-4.47
X124.092 Y83.452 Z-4.435
X124.07 Y83.449 Z-4.39
X124.062 Y83.448 Z-4.341
G0 Z15.
M9

(BORE1)
M3 S16400
G55
G0 X14.399 Y74.659
Z15.
Z-2.5
G1 Z-4.341 F1500.
X14.407 Z-4.39
X14.429 Z-4.435
X14.464 Z-4.47
X14.509 Z-4.492
X14.558 Z-4.5
X14.637
X14.672 Y74.666
X14.701 Y74.686
X14.721 Y74.715
X14.728 Y74.75
X14.72 Y74.803 Z-4.503
X14.697 Y74.852 Z-4.506
X14.66 Y74.891 Z-4.51
X14.614 Y74.918 Z-4.513
X14.562 Y74.931 Z-4.516
X14.508 Y74.927 Z-4.519
X14.458 Y74.908 Z-4.523
X14.415 Y74.875 Z-4.526
X14.384 Y74.831 Z-4.529
X14.368 Y74.78 Z-4.532
X14.367 Y74.727 Z-4.535
X14.381 Y74.675 Z-4.539
X14.41 Y74.63 Z-4.542
X14.452 Y74.596 Z-4.545
X14.501 Y74.575 Z-4.548
X14.554 Y74.569 Z-4.552
X14.607 Y74.579 Z-4.555
X14.654 Y74.604 Z-4.558
X14.692 Y74.642 Z-4.561
X14.717 Y74.69 Z-4.564
X14.727 Y74.743 Z-4.568
X14.722 Y74.796 Z-4.571
X14.701 Y74.845 Z-4.574
X14.666 Y74.886 Z-4.577
X14.621 Y74.915 Z-4.581
X14.569 Y74.93 Z-4.584
X14.515 Y74.929 Z-4.587
X14.464 Y74.912 Z-4.59
X14.421 Y74.881 Z-4.593
X14.388 Y74.838 Z-4.597
X14.369 Y74.788 Z-4.6
X14.366 Y74.734 Z-4.603
X14.378 Y74.682 Z-4.606
X14.406 Y74.636 Z-4.61
X14.445 Y74.6 Z-4.613
X14.494 Y74.577 Z-4.616
X14.547 Y74.569 Z-4.619
X14.6 Y74.577 Z-4.622
X14.648 Y74.6 Z-4.626
X14.688 Y74.637 Z-4.629
X14.715 Y74.683 Z-4.632
X14.727 Y74.735 Z-4.635
X14.723 Y74.789 Z-4.639
X14.704 Y74.839 Z-4.642
X14.671 Y74.881 Z-4.645
X14.627 Y74.912 Z-4.648
X14.576 Y74.929 Z-4.651
X14.523 Y74.93 Z-4.655
X14.471 Y74.915 Z-4.658
X14.426 Y74.886 Z-4.661
X14.392 Y74.844 Z-4.664
X14.371 Y74.795 Z-4.668
X14.365 Y74.741 Z-4.671
X14.376 Y74.689 Z-4.674
X14.401 Y74.642 Z-4.677
X14.439 Y74.604 Z-4.68
X14.487 Y74.579 Z-4.684
X14.54 Y74.569 Z-4.687
X14.593 Y74.575 Z-4.69
X14.642 Y74.596 Z-4.693
X14.683 Y74.631 Z-4.697
X14.712 Y74.676 Z-4.7
X14.726 Y74.728 Z-4.703
X14.725 Y74.782 Z-4.706
X14.708 Y74.832 Z-4.709
X14.677 Y74.876 Z-4.713
X14.634 Y74.909 Z-4.716
X14.584 Y74.927 Z-4.719
X14.53 Y74.931 Z-4.722
X14.478 Y74.918 Z-4.726
X14.432 Y74.89 Z-4.729
X14.396 Y74.851 Z-4.732
X14.373 Y74.802 Z-4.735
X14.365 Y74.749 Z-4.738
X14.373 Y74.696 Z-4.742
X14.397 Y74.648 Z-4.745
X14.433 Y74.608 Z-4.748
X14.48 Y74.581 Z-4.751
X14.532 Y74.569 Z-4.755
X14.586 Y74.573 Z-4.758
X14.636 Y74.592 Z-4.761
X14.678 Y74.625 Z-4.764
X14.709 Y74.67 Z-4.767
X14.725 Y74.721 Z-4.771
X14.726 Y74.774 Z-4.774
X14.711 Y74.826 Z-4.777
X14.682 Y74.871 Z-4.78
X14.64 Y74.905 Z-4.784
X14.591 Y74.926 Z-4.787
X14.537 Y74.931 Z-4.79
X14.485 Y74.92 Z-4.793
X14.437 Y74.895 Z-4.796
X14.4 Y74.857 Z-4.8
X14.375 Y74.809 Z-4.803
X14.365 Y74.756 Z-4.806
X14.371 Y74.703 Z-4.809
X14.393 Y74.654 Z-4.813
X14.428 Y74.613 Z-4.816
X14.473 Y74.584 Z-4.819
X14.525 Y74.57 Z-4.822
X14.579 Y74.572 Z-4.825
X14.629 Y74.589 Z-4.829
X14.673 Y74.62 Z-4.832
X14.705 Y74.663 Z-4.835
X14.724 Y74.713 Z-4.838
X14.727 Y74.767 Z-4.841
X14.714 Y74.819 Z-4.845
X14.686 Y74.865 Z-4.848
X14.646 Y74.901 Z-4.851
X14.598 Y74.924 Z-4.854
X14.545 Y74.931 Z-4.858
X14.492 Y74.923 Z-4.861
X14.443 Y74.899 Z-4.864
X14.404 Y74.863 Z-4.867
X14.378 Y74.816 Z-4.87
X14.366 Y74.764 Z-4.874
X14.37 Y74.71 Z-4.877
X14.389 Y74.66 Z-4.88
X14.422 Y74.618 Z-4.883
X14.466 Y74.587 Z-4.887
X14.518 Y74.571 Z-4.89
X14.571 Y74.57 Z-4.893
X14.623 Y74.586 Z-4.896
X14.668 Y74.615 Z-4.899
X14.702 Y74.657 Z-4.903
X14.722 Y74.706 Z-4.906
X14.727 Y74.76 Z-4.909
X14.717 Y74.812 Z-4.912
X14.691 Y74.859 Z-4.916
X14.653 Y74.897 Z-4.919
X14.605 Y74.922 Z-4.922
X14.552 Y74.931 Z-4.925
X14.499 Y74.925 Z-4.928
X14.45 Y74.903 Z-4.932
X14.409 Y74.868 Z-4.935
X14.38 Y74.823 Z-4.938
X14.366 Y74.771 Z-4.941
X14.368 Y74.717 Z-4.945
X14.385 Y74.667 Z-4.948
X14.417 Y74.623 Z-4.951
X14.46 Y74.591 Z-4.954
X14.51 Y74.572 Z-4.957
X14.564 Y74.57 Z-4.961
X14.616 Y74.583 Z-4.964
X14.662 Y74.61 Z-4.967
X14.698 Y74.65 Z-4.97
X14.72 Y74.699 Z-4.974
X14.728 Y74.752 Z-4.977
X14.719 Y74.805 Z-4.98
X14.695 Y74.853 Z-4.983
X14.658 Y74.892 Z-4.986
X14.612 Y74.919 Z-4.99
X14.559 Y74.931 Z-4.993
X14.506 Y74.927 Z-4.996
X14.456 Y74.907 Z-4.999
X14.414 Y74.874 Z-5.003
X14.383 Y74.829 Z-5.006
X14.367 Y74.778 Z-5.009
Y74.725 Z-5.012
X14.382 Y74.673 Z-5.015
X14.412 Y74.628 Z-5.019
X14.453 Y74.594 Z-5.022
X14.503 Y74.574 Z-5.025
X14.557 Y74.569 Z-5.028
X14.609 Y74.58 Z-5.032
X14.656 Y74.606 Z-5.035
X14.694 Y74.644 Z-5.038
X14.718 Y74.692 Z-5.041
X14.728 Y74.745 Z-5.044
X14.721 Y74.798 Z-5.048
X14.699 Y74.847 Z-5.051
X14.664 Y74.888 Z-5.054
X14.619 Y74.916 Z-5.057
X14.567 Y74.93 Z-5.061
X14.513 Y74.928 Z-5.064
X14.462 Y74.911 Z-5.067
X14.419 Y74.879 Z-5.07
X14.387 Y74.836 Z-5.073
X14.369 Y74.785 Z-5.077
X14.366 Y74.732 Z-5.08
X14.379 Y74.68 Z-5.083
X14.407 Y74.634 Z-5.086
X14.447 Y74.598 Z-5.09
X14.496 Y74.576 Z-5.093
X14.549 Y74.569 Z-5.096
X14.602 Y74.578 Z-5.099
X14.65 Y74.601 Z-5.102
X14.689 Y74.638 Z-5.106
X14.716 Y74.685 Z-5.109
X14.727 Y74.738 Z-5.112
X14.723 Y74.791 Z-5.115
X14.703 Y74.841 Z-5.119
X14.67 Y74.883 Z-5.122
X14.625 Y74.913 Z-5.125
X14.574 Y74.929 Z-5.128
X14.52 Z-5.131
X14.469 Y74.914 Z-5.135
X14.424 Y74.884 Z-5.138
X14.39 Y74.842 Z-5.141
X14.37 Y74.793 Z-5.144
X14.365 Y74.739 Z-5.148
X14.377 Y74.687 Z-5.151
X14.402 Y74.64 Z-5.154
X14.441 Y74.602 Z-5.157
X14.489 Y74.578 Z-5.16
X14.542 Y74.569 Z-5.164
X14.595 Y74.575 Z-5.167
X14.644 Y74.597 Z-5.17
X14.685 Y74.633 Z-5.173
X14.713 Y74.678 Z-5.177
X14.727 Y74.73 Z-5.18
X14.724 Y74.784 Z-5.183
X14.707 Y74.835 Z-5.186
X14.675 Y74.878 Z-5.189
X14.632 Y74.91 Z-5.193
X14.581 Y74.928 Z-5.196
X14.528 Y74.93 Z-5.199
X14.476 Y74.917 Z-5.202
X14.43 Y74.889 Z-5.206
X14.394 Y74.849 Z-5.209
X14.372 Y74.8 Z-5.212
X14.365 Y74.747 Z-5.215
X14.374 Y74.694 Z-5.218
X14.398 Y74.646 Z-5.222
X14.435 Y74.607 Z-5.225
X14.482 Y74.581 Z-5.228
X14.534 Y74.569 Z-5.231
X14.588 Y74.574 Z-5.235
X14.638 Y74.594 Z-5.238
X14.68 Y74.627 Z-5.241
X14.71 Y74.672 Z-5.244
X14.726 Y74.723 Z-5.247
Y74.777 Z-5.251
X14.71 Y74.828 Z-5.254
X14.68 Y74.872 Z-5.257
X14.638 Y74.906 Z-5.26
X14.588 Y74.926 Z-5.264
X14.535 Y74.931 Z-5.267
X14.483 Y74.92 Z-5.27
X14.436 Y74.894 Z-5.273
X14.398 Y74.855 Z-5.276
X14.374 Y74.807 Z-5.28
X14.365 Y74.754 Z-5.283
X14.372 Y74.701 Z-5.286
X14.394 Y74.652 Z-5.289
X14.429 Y74.611 Z-5.293
X14.475 Y74.583 Z-5.296
X14.527 Y74.57 Z-5.299
X14.581 Y74.572 Z-5.302
X14.631 Y74.59 Z-5.305
X14.675 Y74.622 Z-5.309
X14.706 Y74.665 Z-5.312
X14.724 Y74.716 Z-5.315
X14.727 Y74.769 Z-5.318
X14.713 Y74.821 Z-5.322
X14.685 Y74.867 Z-5.325
X14.645 Y74.902 Z-5.328
X14.596 Y74.924 Z-5.331
X14.542 Y74.931 Z-5.334
X14.489 Y74.922 Z-5.338
X14.442 Y74.898 Z-5.341
X14.403 Y74.861 Z-5.344
X14.377 Y74.814 Z-5.347
X14.365 Y74.761 Z-5.351
X14.37 Y74.708 Z-5.354
X14.39 Y74.658 Z-5.357
X14.424 Y74.616 Z-5.36
X14.468 Y74.586 Z-5.363
X14.52 Y74.571 Z-5.367
X14.573 Z-5.37
X14.625 Y74.587 Z-5.373
X14.669 Y74.617 Z-5.376
X14.703 Y74.659 Z-5.38
X14.723 Y74.708 Z-5.383
X14.727 Y74.762 Z-5.386
X14.716 Y74.814 Z-5.389
X14.69 Y74.861 Z-5.392
X14.651 Y74.898 Z-5.396
X14.603 Y74.922 Z-5.399
X14.55 Y74.931 Z-5.402
X14.497 Y74.924 Z-5.405
X14.448 Y74.902 Z-5.409
X14.407 Y74.866 Z-5.412
X14.379 Y74.821 Z-5.415
X14.366 Y74.769 Z-5.418
X14.369 Y74.715 Z-5.421
X14.387 Y74.664 Z-5.425
X14.419 Y74.621 Z-5.428
X14.462 Y74.59 Z-5.431
X14.513 Y74.572 Z-5.434
X14.566 Y74.57 Z-5.438
X14.618 Y74.584 Z-5.441
X14.664 Y74.612 Z-5.444
X14.699 Y74.652 Z-5.447
X14.721 Y74.701 Z-5.45
X14.728 Y74.755 Z-5.454
X14.718 Y74.807 Z-5.457
X14.694 Y74.855 Z-5.46
X14.657 Y74.894 Z-5.463
X14.61 Y74.92 Z-5.466
X14.557 Y74.931 Z-5.47
X14.504 Y74.926 Z-5.473
X14.454 Y74.906 Z-5.476
X14.412 Y74.872 Z-5.479
X14.382 Y74.827 Z-5.483
X14.367 Y74.776 Z-5.486
Y74.722 Z-5.489
X14.383 Y74.671 Z-5.492
X14.413 Y74.627 Z-5.495
X14.455 Y74.593 Z-5.499
X14.505 Y74.573 Z-5.502
X14.559 Y74.569 Z-5.505
X14.611 Y74.581 Z-5.508
X14.658 Y74.607 Z-5.512
X14.695 Y74.646 Z-5.515
X14.719 Y74.694 Z-5.518
X14.728 Y74.747 Z-5.521
X14.72 Y74.8 Z-5.524
X14.698 Y74.849 Z-5.528
X14.662 Y74.889 Z-5.531
X14.616 Y74.917 Z-5.534
X14.564 Y74.93 Z-5.537
X14.511 Y74.928 Z-5.541
X14.46 Y74.91 Z-5.544
X14.417 Y74.877 Z-5.547
X14.386 Y74.834 Z-5.55
X14.368 Y74.783 Z-5.553
X14.366 Y74.73 Z-5.557
X14.38 Y74.678 Z-5.56
X14.409 Y74.632 Z-5.563
X14.449 Y74.597 Z-5.566
X14.498 Y74.575 Z-5.57
X14.551 Y74.569 Z-5.573
X14.604 Y74.578 Z-5.576
X14.652 Y74.603 Z-5.579
X14.691 Y74.64 Z-5.582
X14.716 Y74.687 Z-5.586
X14.727 Y74.74 Z-5.589
X14.722 Y74.793 Z-5.592
X14.702 Y74.843 Z-5.595
X14.668 Y74.884 Z-5.599
X14.623 Y74.914 Z-5.602
X14.572 Y74.929 Z-5.605
X14.518 Z-5.608
X14.467 Y74.913 Z-5.611
X14.423 Y74.882 Z-5.615
X14.389 Y74.84 Z-5.618
X14.37 Y74.79 Z-5.621
X14.366 Y74.737 Z-5.624
X14.377 Y74.685 Z-5.628
X14.404 Y74.638 Z-5.631
X14.443 Y74.601 Z-5.634
X14.491 Y74.577 Z-5.637
X14.544 Y74.569 Z-5.64
X14.597 Y74.576 Z-5.644
X14.646 Y74.599 Z-5.647
X14.686 Y74.634 Z-5.65
X14.714 Y74.68 Z-5.653
X14.727 Y74.732 Z-5.657
X14.724 Y74.786 Z-5.66
X14.706 Y74.837 Z-5.663
X14.673 Y74.879 Z-5.666
X14.63 Y74.911 Z-5.669
X14.579 Y74.928 Z-5.673
X14.525 Y74.93 Z-5.676
X14.474 Y74.916 Z-5.679
X14.428 Y74.887 Z-5.682
X14.393 Y74.847 Z-5.686
X14.371 Y74.798 Z-5.689
X14.365 Y74.744 Z-5.692
X14.375 Y74.692 Z-5.695
X14.399 Y74.644 Z-5.698
X14.437 Y74.605 Z-5.702
X14.484 Y74.58 Z-5.705
X14.537 Y74.569 Z-5.708
X14.59 Y74.574 Z-5.711
X14.64 Y74.595 Z-5.715
X14.681 Y74.629 Z-5.718
X14.711 Y74.674 Z-5.721
X14.726 Y74.725 Z-5.724
X14.725 Y74.779 Z-5.727
X14.709 Y74.83 Z-5.731
X14.678 Y74.874 Z-5.734
X14.636 Y74.907 Z-5.737
X14.586 Y74.927 Z-5.74
X14.533 Y74.931 Z-5.744
X14.48 Y74.919 Z-5.747
X14.434 Y74.892 Z-5.75
X14.397 Y74.853 Z-5.753
X14.374 Y74.805 Z-5.756
X14.365 Y74.752 Z-5.76
X14.373 Y74.699 Z-5.763
X14.395 Y74.65 Z-5.766
X14.431 Y74.61 Z-5.769
X14.477 Y74.582 Z-5.773
X14.529 Y74.57 Z-5.776
X14.583 Y74.572 Z-5.779
X14.633 Y74.591 Z-5.782
X14.676 Y74.623 Z-5.785
X14.707 Y74.667 Z-5.789
X14.725 Y74.718 Z-5.792
X14.726 Y74.771 Z-5.795
X14.712 Y74.823 Z-5.798
X14.683 Y74.869 Z-5.802
X14.643 Y74.904 Z-5.805
X14.593 Y74.925 Z-5.808
X14.54 Y74.931 Z-5.811
X14.487 Y74.921 Z-5.814
X14.44 Y74.897 Z-5.818
X14.401 Y74.859 Z-5.821
X14.376 Y74.812 Z-5.824
X14.365 Y74.759 Z-5.827
X14.371 Y74.706 Z-5.831
X14.391 Y74.656 Z-5.834
X14.426 Y74.615 Z-5.837
X14.47 Y74.585 Z-5.84
X14.522 Y74.57 Z-5.843
X14.576 Y74.571 Z-5.847
X14.627 Y74.588 Z-5.85
X14.671 Y74.618 Z-5.853
X14.704 Y74.661 Z-5.856
X14.723 Y74.711 Z-5.86
X14.727 Y74.764 Z-5.863
X14.715 Y74.816 Z-5.866
X14.688 Y74.863 Z-5.869
X14.649 Y74.9 Z-5.872
X14.601 Y74.923 Z-5.876
X14.547 Y74.931 Z-5.879
X14.494 Y74.924 Z-5.882
X14.446 Y74.901 Z-5.885
X14.406 Y74.865 Z-5.889
X14.379 Y74.819 Z-5.892
X14.366 Y74.766 Z-5.895
X14.369 Y74.713 Z-5.898
X14.388 Y74.663 Z-5.901
X14.42 Y74.62 Z-5.905
X14.464 Y74.589 Z-5.908
X14.515 Y74.572 Z-5.911
X14.568 Y74.57 Z-5.914
X14.62 Y74.584 Z-5.918
X14.665 Y74.613 Z-5.921
X14.7 Y74.654 Z-5.924
X14.722 Y74.703 Z-5.927
X14.727 Y74.757 Z-5.93
X14.718 Y74.81 Z-5.934
X14.693 Y74.857 Z-5.937
X14.655 Y74.895 Z-5.94
X14.608 Y74.921 Z-5.943
X14.555 Y74.931 Z-5.947
X14.501 Y74.926 Z-5.95
X14.452 Y74.905 Z-5.953
X14.411 Y74.87 Z-5.956
X14.382 Y74.825 Z-5.959
X14.367 Y74.774 Z-5.963
X14.368 Y74.72 Z-5.966
X14.384 Y74.669 Z-5.969
X14.415 Y74.625 Z-5.972
X14.457 Y74.592 Z-5.976
X14.508 Y74.573 Z-5.979
X14.561 Y74.569 Z-5.982
X14.613 Y74.582 Z-5.985
X14.66 Y74.609 Z-5.988
X14.696 Y74.648 Z-5.992
X14.719 Y74.696 Z-5.995
X14.728 Y74.749 Z-5.998
X14.72 Y74.803 Z-6.001
X14.697 Y74.851 Z-6.005
X14.661 Y74.891 Z-6.008
X14.614 Y74.918 Z-6.011
X14.562 Y74.931 Z-6.014
X14.509 Y74.927 Z-6.017
X14.458 Y74.908 Z-6.021
X14.416 Y74.876 Z-6.024
X14.385 Y74.832 Z-6.027
X14.368 Y74.781 Z-6.03
X14.367 Y74.727 Z-6.034
X14.381 Y74.676 Z-6.037
X14.41 Y74.631 Z-6.04
X14.451 Y74.596 Z-6.043
X14.5 Y74.575 Z-6.046
X14.554 Y74.569 Z-6.05
X14.606 Y74.579 Z-6.053
X14.654 Y74.604 Z-6.056
X14.692 Y74.642 Z-6.059
X14.717 Y74.689 Z-6.063
X14.727 Y74.742 Z-6.066
X14.722 Y74.795 Z-6.069
X14.701 Y74.845 Z-6.072
X14.666 Y74.886 Z-6.075
X14.621 Y74.915 Z-6.079
X14.57 Y74.93 Z-6.082
X14.516 Y74.929 Z-6.085
X14.465 Y74.912 Z-6.088
X14.421 Y74.881 Z-6.091
X14.388 Y74.838 Z-6.095
X14.369 Y74.788 Z-6.098
X14.366 Y74.735 Z-6.101
X14.378 Y74.682 Z-6.104
X14.405 Y74.636 Z-6.108
X14.445 Y74.6 Z-6.111
X14.493 Y74.577 Z-6.114
X14.546 Y74.569 Z-6.117
X14.599 Y74.577 Z-6.12
X14.648 Y74.6 Z-6.124
X14.687 Y74.636 Z-6.127
X14.715 Y74.682 Z-6.13
X14.727 Y74.735 Z-6.133
X14.724 Y74.788 Z-6.137
X14.705 Y74.838 Z-6.14
X14.672 Y74.881 Z-6.143
X14.628 Y74.912 Z-6.146
X14.577 Y74.929 Z-6.149
X14.523 Y74.93 Z-6.153
X14.472 Y74.915 Z-6.156
X14.426 Y74.886 Z-6.159
X14.392 Y74.845 Z-6.162
X14.371 Y74.795 Z-6.166
X14.365 Y74.742 Z-6.169
X14.376 Y74.689 Z-6.172
X14.401 Y74.642 Z-6.175
X14.439 Y74.604 Z-6.178
X14.486 Y74.579 Z-6.182
X14.539 Y74.569 Z-6.185
X14.592 Y74.575 Z-6.188
X14.642 Y74.596 Z-6.191
X14.683 Y74.631 Z-6.195
X14.712 Y74.676 Z-6.198
X14.726 Y74.727 Z-6.201
X14.725 Y74.781 Z-6.204
X14.708 Y74.832 Z-6.207
X14.677 Y74.876 Z-6.211
X14.634 Y74.908 Z-6.214
X14.584 Y74.927 Z-6.217
X14.53 Y74.931 Z-6.22
X14.478 Y74.918 Z-6.224
X14.432 Y74.891 Z-6.227
X14.396 Y74.851 Z-6.23
X14.373 Y74.803 Z-6.233
X14.365 Y74.749 Z-6.236
X14.373 Y74.696 Z-6.24
X14.397 Y74.648 Z-6.243
X14.433 Y74.609 Z-6.246
X14.479 Y74.582 Z-6.249
X14.532 Y74.569 Z-6.253
X14.585 Y74.573 Z-6.256
X14.635 Y74.592 Z-6.259
X14.678 Y74.625 Z-6.262
X14.709 Y74.669 Z-6.265
X14.725 Y74.72 Z-6.269
X14.726 Y74.774 Z-6.272
X14.711 Y74.825 Z-6.275
X14.682 Y74.87 Z-6.278
X14.641 Y74.905 Z-6.282
X14.591 Y74.926 Z-6.285
X14.538 Y74.931 Z-6.288
X14.485 Y74.921 Z-6.291
X14.438 Y74.895 Z-6.294
X14.4 Y74.857 Z-6.298
X14.375 Y74.81 Z-6.301
X14.365 Y74.757 Z-6.304
X14.371 Y74.703 Z-6.307
X14.392 Y74.654 Z-6.311
X14.427 Y74.613 Z-6.314
X14.473 Y74.584 Z-6.317
X14.524 Y74.57 Z-6.32
X14.578 Y74.572 Z-6.323
X14.629 Y74.589 Z-6.327
X14.672 Y74.62 Z-6.33
X14.705 Y74.663 Z-6.333
X14.724 Y74.713 Z-6.336
X14.727 Y74.766 Z-6.34
X14.714 Y74.819 Z-6.343
X14.687 Y74.865 Z-6.346
X14.647 Y74.901 Z-6.349
X14.598 Y74.924 Z-6.352
X14.545 Y74.931 Z-6.356
X14.492 Y74.923 Z-6.359
X14.444 Y74.9 Z-6.362
X14.405 Y74.863 Z-6.365
X14.378 Y74.816 Z-6.369
X14.366 Y74.764 Z-6.372
X14.369 Y74.711 Z-6.375
X14.389 Y74.661 Z-6.378
X14.422 Y74.618 Z-6.381
X14.466 Y74.588 Z-6.385
X14.517 Y74.571 Z-6.388
X14.571 Y74.57 Z-6.391
X14.622 Y74.585 Z-6.394
X14.667 Y74.615 Z-6.398
X14.701 Y74.656 Z-6.401
X14.722 Y74.706 Z-6.404
X14.727 Y74.759 Z-6.407
X14.717 Y74.812 Z-6.41
X14.691 Y74.859 Z-6.414
X14.653 Y74.897 Z-6.417
X14.605 Y74.921 Z-6.42
X14.553 Y74.931 Z-6.423
X14.499 Y74.925 Z-6.427
X14.45 Y74.904 Z-6.43
X14.409 Y74.869 Z-6.433
X14.381 Y74.823 Z-6.436
X14.366 Y74.772 Z-6.439
X14.368 Y74.718 Z-6.443
X14.385 Y74.667 Z-6.446
X14.417 Y74.623 Z-6.449
X14.459 Y74.591 Z-6.452
X14.51 Y74.572 Z-6.456
X14.563 Y74.57 Z-6.459
X14.615 Y74.582 Z-6.462
X14.661 Y74.61 Z-6.465
X14.697 Y74.65 Z-6.468
X14.72 Y74.699 Z-6.472
X14.728 Y74.752 Z-6.475
X14.719 Y74.805 Z-6.478
X14.696 Y74.853 Z-6.481
X14.659 Y74.892 Z-6.485
X14.612 Y74.919 Z-6.488
X14.56 Y74.931 Z-6.491
X14.506 Y74.927 Z-6.494
X14.456 Y74.907 Z-6.497
X14.414 Y74.874 Z-6.501
X14.384 Y74.83 Z-6.504
X14.367 Y74.779 Z-6.507
Y74.725 Z-6.51
X14.382 Y74.674 Z-6.514
X14.412 Y74.629 Z-6.517
X14.453 Y74.595 Z-6.52
X14.503 Y74.574 Z-6.523
X14.556 Y74.569 Z-6.526
X14.609 Y74.58 Z-6.53
X14.656 Y74.605 Z-6.533
X14.693 Y74.644 Z-6.536
X14.718 Y74.692 Z-6.539
X14.728 Y74.744 Z-6.543
X14.721 Y74.798 Z-6.546
X14.7 Y74.847 Z-6.549
X14.665 Y74.887 Z-6.552
X14.619 Y74.916 Z-6.555
X14.567 Y74.93 Z-6.559
X14.514 Y74.928 Z-6.562
X14.463 Y74.911 Z-6.565
X14.419 Y74.879 Z-6.568
X14.387 Y74.837 Z-6.572
X14.369 Y74.786 Z-6.575
X14.366 Y74.732 Z-6.578
X14.379 Y74.68 Z-6.581
X14.407 Y74.634 Z-6.584
X14.447 Y74.599 Z-6.588
X14.495 Y74.576 Z-6.591
X14.549 Y74.569 Z-6.594
X14.602 Y74.577 Z-6.597
X14.65 Y74.601 Z-6.601
X14.689 Y74.638 Z-6.604
X14.715 Y74.685 Z-6.607
X14.727 Y74.737 Z-6.61
X14.723 Y74.79 Z-6.613
X14.703 Y74.84 Z-6.617
X14.67 Y74.882 Z-6.62
X14.626 Y74.913 Z-6.623
X14.575 Y74.929 Z-6.626
X14.521 Z-6.63
X14.469 Y74.914 Z-6.633
X14.425 Y74.884 Z-6.636
X14.391 Y74.843 Z-6.639
X14.37 Y74.793 Z-6.642
X14.365 Y74.74 Z-6.646
X14.376 Y74.687 Z-6.649
X14.402 Y74.64 Z-6.652
X14.441 Y74.603 Z-6.655
X14.488 Y74.578 Z-6.659
X14.541 Y74.569 Z-6.662
X14.595 Y74.575 Z-6.665
X14.644 Y74.597 Z-6.668
X14.684 Y74.632 Z-6.671
X14.713 Y74.678 Z-6.675
X14.726 Y74.73 Z-6.678
X14.725 Y74.783 Z-6.681
X14.707 Y74.834 Z-6.684
X14.675 Y74.877 Z-6.688
X14.632 Y74.91 Z-6.691
X14.582 Y74.928 Z-6.694
X14.528 Y74.93 Z-6.697
X14.476 Y74.917 Z-6.7
X14.43 Y74.889 Z-6.704
X14.395 Y74.849 Z-6.707
X14.372 Y74.8 Z-6.71
X14.365 Y74.747 Z-6.713
X14.374 Y74.694 Z-6.716
X14.398 Y74.646 Z-6.72
X14.435 Y74.607 Z-6.723
X14.481 Y74.581 Z-6.726
X14.534 Y74.569 Z-6.729
X14.587 Y74.573 Z-6.733
X14.637 Y74.593 Z-6.736
X14.679 Y74.627 Z-6.739
X14.71 Y74.671 Z-6.742
X14.725 Y74.722 Z-6.745
X14.726 Y74.776 Z-6.749
X14.71 Y74.827 Z-6.752
X14.68 Y74.872 Z-6.755
X14.639 Y74.906 Z-6.758
X14.589 Y74.926 Z-6.762
X14.536 Y74.931 Z-6.765
X14.483 Y74.92 Z-6.768
X14.436 Y74.894 Z-6.771
X14.399 Y74.855 Z-6.774
X14.374 Y74.807 Z-6.778
X14.365 Y74.755 Z-6.781
X14.372 Y74.701 Z-6.784
X14.394 Y74.652 Z-6.787
X14.429 Y74.612 Z-6.791
X14.475 Y74.584 Z-6.794
X14.527 Y74.57 Z-6.797
X14.58 Y74.572 Z-6.8
X14.631 Y74.59 Z-6.803
X14.674 Y74.621 Z-6.807
X14.706 Y74.664 Z-6.81
X14.724 Y74.715 Z-6.813
X14.727 Y74.769 Z-6.816
X14.713 Y74.821 Z-6.82
X14.685 Y74.866 Z-6.823
X14.645 Y74.902 Z-6.826
X14.596 Y74.924 Z-6.829
X14.543 Y74.931 Z-6.832
X14.49 Y74.922 Z-6.836
X14.442 Y74.898 Z-6.839
X14.403 Y74.861 Z-6.842
X14.377 Y74.814 Z-6.845
X14.365 Y74.762 Z-6.849
X14.37 Y74.708 Z-6.852
X14.39 Y74.659 Z-6.855
X14.424 Y74.617 Z-6.858
X14.468 Y74.587 Z-6.861
X14.519 Y74.571 Z-6.865
X14.573 Z-6.868
X14.624 Y74.586 Z-6.871
X14.669 Y74.616 Z-6.874
X14.703 Y74.658 Z-6.878
X14.723 Y74.708 Z-6.881
X14.727 Y74.761 Z-6.884
X14.716 Y74.814 Z-6.887
X14.69 Y74.861 Z-6.89
X14.651 Y74.898 Z-6.894
X14.603 Y74.922 Z-6.897
X14.55 Y74.931 Z-6.9
X14.497 Y74.924 Z-6.903
X14.448 Y74.902 Z-6.907
X14.408 Y74.867 Z-6.91
X14.38 Y74.821 Z-6.913
X14.366 Y74.769 Z-6.916
X14.368 Y74.716 Z-6.919
X14.386 Y74.665 Z-6.923
X14.418 Y74.622 Z-6.926
X14.461 Y74.59 Z-6.929
X14.512 Y74.572 Z-6.932
X14.566 Y74.57 Z-6.936
X14.618 Y74.583 Z-6.939
X14.663 Y74.611 Z-6.942
X14.699 Y74.652 Z-6.945
X14.721 Y74.701 Z-6.948
X14.728 Y74.754 Z-6.952
X14.718 Y74.807 Z-6.955
X14.694 Y74.855 Z-6.958
X14.657 Y74.894 Z-6.961
X14.61 Y74.92 Z-6.965
X14.558 Y74.931 Z-6.968
X14.504 Y74.926 Z-6.971
X14.454 Y74.906 Z-6.974
X14.413 Y74.872 Z-6.977
X14.383 Y74.828 Z-6.981
X14.367 Y74.777 Z-6.984
Y74.723 Z-6.987
X14.383 Y74.672 Z-6.99
X14.413 Y74.627 Z-6.994
X14.455 Y74.594 Z-6.997
X14.505 Y74.574 Z-7.
X14.558 Y74.569 Z-7.003
X14.611 Y74.581 Z-7.006
X14.658 Y74.607 Z-7.01
X14.695 Y74.646 Z-7.013
X14.719 Y74.694 Z-7.016
X14.728 Y74.747 Z-7.019
X14.721 Y74.8 Z-7.023
X14.698 Y74.849 Z-7.026
X14.663 Y74.889 Z-7.029
X14.617 Y74.917 Z-7.032
X14.565 Y74.93 Z-7.035
X14.511 Y74.928 Z-7.039
X14.461 Y74.91 Z-7.042
X14.418 Y74.878 Z-7.045
X14.386 Y74.835 Z-7.048
X14.368 Y74.784 Z-7.052
X14.366 Y74.73 Z-7.055
X14.38 Y74.678 Z-7.058
X14.408 Y74.633 Z-7.061
X14.449 Y74.597 Z-7.064
X14.498 Y74.575 Z-7.068
X14.551 Y74.569 Z-7.071
X14.604 Y74.578 Z-7.074
X14.652 Y74.602 Z-7.077
X14.69 Y74.64 Z-7.081
X14.716 Y74.687 Z-7.084
X14.727 Y74.739 Z-7.087
X14.723 Y74.793 Z-7.09
X14.702 Y74.842 Z-7.093
X14.668 Y74.884 Z-7.097
X14.624 Y74.914 Z-7.1
X14.572 Y74.929 Z-7.103
X14.519 Z-7.106
X14.467 Y74.913 Z-7.11
X14.423 Y74.883 Z-7.113
X14.39 Y74.841 Z-7.116
X14.37 Y74.791 Z-7.119
X14.366 Y74.738 Z-7.122
X14.377 Y74.685 Z-7.126
X14.404 Y74.638 Z-7.129
X14.442 Y74.601 Z-7.132
X14.491 Y74.578 Z-7.135
X14.544 Y74.569 Z-7.139
X14.597 Y74.576 Z-7.142
X14.646 Y74.598 Z-7.145
X14.686 Y74.634 Z-7.148
X14.713 Y74.68 Z-7.151
X14.727 Y74.732 Z-7.155
X14.724 Y74.785 Z-7.158
X14.706 Y74.836 Z-7.161
X14.674 Y74.879 Z-7.164
X14.63 Y74.911 Z-7.168
X14.58 Y74.928 Z-7.171
X14.526 Y74.93 Z-7.174
X14.474 Y74.916 Z-7.177
X14.429 Y74.888 Z-7.18
X14.393 Y74.847 Z-7.184
X14.372 Y74.798 Z-7.187
X14.365 Y74.745 Z-7.19
X14.375 Y74.692 Z-7.193
X14.399 Y74.644 Z-7.197
X14.437 Y74.606 Z-7.2
X14.484 Y74.58 Z-7.203
X14.536 Y74.569 Z-7.206
X14.59 Y74.574 Z-7.209
X14.639 Y74.594 Z-7.213
X14.681 Y74.628 Z-7.216
X14.71 Y74.673 Z-7.219
X14.726 Y74.725 Z-7.222
X14.725 Y74.778 Z-7.226
