(NMJSTIMLID_STEP2_132IN)
(T4  D=0.787 CR=0. - ZMIN=-12. - FLAT END MILL)
G0 G90 G94 G17
G21
G53 G0 Z0.

(BORE1)
M5
T4
M3 S20000
G55
G0 X14.685 Y75.197
Z15.
Z-8.
G1 Z-9.921 F1500.
X14.691 Z-9.951
X14.708 Z-9.977
X14.734 Z-9.994
X14.764 Z-10.
X14.803
X14.83 Y75.204
X14.849 Y75.223
X14.856 Y75.25
X14.848 Y75.29 Z-10.003
X14.826 Y75.325 Z-10.005
X14.792 Y75.348 Z-10.008
X14.752 Y75.356 Z-10.011
X14.711 Y75.349 Z-10.013
X14.677 Y75.327 Z-10.016
X14.653 Y75.294 Z-10.019
X14.644 Y75.254 Z-10.022
X14.65 Y75.213 Z-10.024
X14.672 Y75.178 Z-10.027
X14.705 Y75.154 Z-10.03
X14.745 Y75.144 Z-10.032
X14.785 Y75.15 Z-10.035
X14.821 Y75.17 Z-10.038
X14.845 Y75.203 Z-10.04
X14.856 Y75.243 Z-10.043
X14.851 Y75.283 Z-10.046
X14.831 Y75.319 Z-10.049
X14.799 Y75.345 Z-10.051
X14.759 Y75.356 Z-10.054
X14.718 Y75.351 Z-10.057
X14.682 Y75.332 Z-10.059
X14.656 Y75.3 Z-10.062
X14.644 Y75.261 Z-10.065
X14.648 Y75.22 Z-10.067
X14.667 Y75.184 Z-10.07
X14.698 Y75.157 Z-10.073
X14.737 Y75.144 Z-10.076
X14.778 Y75.148 Z-10.078
X14.815 Y75.166 Z-10.081
X14.842 Y75.197 Z-10.084
X14.855 Y75.235 Z-10.086
X14.853 Y75.276 Z-10.089
X14.835 Y75.313 Z-10.092
X14.805 Y75.341 Z-10.094
X14.766 Y75.355 Z-10.097
X14.725 Y75.353 Z-10.1
X14.688 Y75.336 Z-10.103
X14.66 Y75.306 Z-10.105
X14.645 Y75.268 Z-10.108
X14.646 Y75.227 Z-10.111
X14.663 Y75.189 Z-10.113
X14.692 Y75.161 Z-10.116
X14.73 Y75.146 Z-10.119
X14.771 Z-10.121
X14.809 Y75.162 Z-10.124
X14.838 Y75.191 Z-10.127
X14.854 Y75.228 Z-10.13
X14.855 Y75.269 Z-10.132
X14.839 Y75.307 Z-10.135
X14.811 Y75.337 Z-10.138
X14.773 Y75.354 Z-10.14
X14.732 Y75.355 Z-10.143
X14.694 Y75.34 Z-10.146
X14.664 Y75.312 Z-10.148
X14.647 Y75.275 Z-10.151
X14.645 Y75.234 Z-10.154
X14.659 Y75.196 Z-10.157
X14.686 Y75.165 Z-10.159
X14.723 Y75.147 Z-10.162
X14.764 Y75.145 Z-10.165
X14.803 Y75.158 Z-10.167
X14.834 Y75.185 Z-10.17
X14.852 Y75.221 Z-10.173
X14.856 Y75.262 Z-10.175
X14.843 Y75.301 Z-10.178
X14.817 Y75.333 Z-10.181
X14.781 Y75.352 Z-10.184
X14.74 Y75.356 Z-10.186
X14.7 Y75.344 Z-10.189
X14.668 Y75.318 Z-10.192
X14.649 Y75.282 Z-10.194
X14.644 Y75.241 Z-10.197
X14.655 Y75.202 Z-10.2
X14.68 Y75.17 Z-10.202
X14.716 Y75.149 Z-10.205
X14.757 Y75.144 Z-10.208
X14.796 Y75.154 Z-10.211
X14.829 Y75.179 Z-10.213
X14.85 Y75.214 Z-10.216
X14.856 Y75.255 Z-10.219
X14.846 Y75.295 Z-10.221
X14.822 Y75.328 Z-10.224
X14.787 Y75.349 Z-10.227
X14.747 Y75.356 Z-10.229
X14.707 Y75.347 Z-10.232
X14.673 Y75.324 Z-10.235
X14.651 Y75.289 Z-10.238
X14.644 Y75.249 Z-10.24
X14.652 Y75.209 Z-10.243
X14.675 Y75.175 Z-10.246
X14.709 Y75.152 Z-10.248
X14.749 Y75.144 Z-10.251
X14.79 Y75.151 Z-10.254
X14.824 Y75.174 Z-10.256
X14.847 Y75.208 Z-10.259
X14.856 Y75.248 Z-10.262
X14.849 Y75.288 Z-10.265
X14.827 Y75.323 Z-10.267
X14.794 Y75.347 Z-10.27
X14.754 Y75.356 Z-10.273
X14.714 Y75.35 Z-10.275
X14.679 Y75.329 Z-10.278
X14.654 Y75.296 Z-10.281
X14.644 Y75.256 Z-10.283
X14.649 Y75.215 Z-10.286
X14.67 Y75.18 Z-10.289
X14.703 Y75.155 Z-10.291
X14.742 Y75.144 Z-10.294
X14.783 Y75.149 Z-10.297
X14.819 Y75.169 Z-10.3
X14.844 Y75.201 Z-10.302
X14.856 Y75.24 Z-10.305
X14.852 Y75.281 Z-10.308
X14.832 Y75.317 Z-10.31
X14.801 Y75.343 Z-10.313
X14.761 Y75.356 Z-10.316
X14.721 Y75.352 Z-10.318
X14.684 Y75.333 Z-10.321
X14.657 Y75.302 Z-10.324
X14.645 Y75.263 Z-10.327
X14.647 Y75.222 Z-10.329
X14.665 Y75.186 Z-10.332
X14.696 Y75.158 Z-10.335
X14.735 Y75.145 Z-10.337
X14.776 Y75.147 Z-10.34
X14.813 Y75.164 Z-10.343
X14.841 Y75.195 Z-10.345
X14.855 Y75.233 Z-10.348
X14.854 Y75.274 Z-10.351
X14.837 Y75.312 Z-10.354
X14.807 Y75.34 Z-10.356
X14.769 Y75.355 Z-10.359
X14.728 Y75.354 Z-10.362
X14.69 Y75.338 Z-10.364
X14.661 Y75.308 Z-10.367
X14.646 Y75.27 Z-10.37
Y75.229 Z-10.372
X14.661 Y75.191 Z-10.375
X14.69 Y75.162 Z-10.378
X14.728 Y75.146 Z-10.381
X14.769 Y75.145 Z-10.383
X14.807 Y75.16 Z-10.386
X14.837 Y75.189 Z-10.389
X14.854 Y75.226 Z-10.391
X14.855 Y75.267 Z-10.394
X14.841 Y75.305 Z-10.397
X14.813 Y75.336 Z-10.399
X14.776 Y75.353 Z-10.402
X14.735 Y75.355 Z-10.405
X14.696 Y75.342 Z-10.408
X14.665 Y75.314 Z-10.41
X14.647 Y75.278 Z-10.413
X14.645 Y75.237 Z-10.416
X14.657 Y75.198 Z-10.418
X14.684 Y75.167 Z-10.421
X14.721 Y75.148 Z-10.424
X14.762 Y75.144 Z-10.426
X14.801 Y75.157 Z-10.429
X14.832 Y75.183 Z-10.432
X14.852 Y75.219 Z-10.435
X14.856 Y75.26 Z-10.437
X14.844 Y75.299 Z-10.44
X14.819 Y75.331 Z-10.443
X14.783 Y75.351 Z-10.445
X14.742 Y75.356 Z-10.448
X14.703 Y75.345 Z-10.451
X14.67 Y75.32 Z-10.453
X14.649 Y75.285 Z-10.456
X14.644 Y75.244 Z-10.459
X14.654 Y75.204 Z-10.462
X14.679 Y75.171 Z-10.464
X14.714 Y75.15 Z-10.467
X14.754 Y75.144 Z-10.47
X14.794 Y75.153 Z-10.472
X14.828 Y75.177 Z-10.475
X14.849 Y75.212 Z-10.478
X14.856 Y75.252 Z-10.48
X14.847 Y75.293 Z-10.483
X14.824 Y75.326 Z-10.486
X14.79 Y75.349 Z-10.489
X14.749 Y75.356 Z-10.491
X14.709 Y75.348 Z-10.494
X14.675 Y75.325 Z-10.497
X14.652 Y75.291 Z-10.499
X14.644 Y75.251 Z-10.502
X14.651 Y75.211 Z-10.505
X14.673 Y75.176 Z-10.507
X14.707 Y75.153 Z-10.51
X14.747 Y75.144 Z-10.513
X14.787 Y75.151 Z-10.516
X14.822 Y75.172 Z-10.518
X14.846 Y75.205 Z-10.521
X14.856 Y75.245 Z-10.524
X14.85 Y75.286 Z-10.526
X14.829 Y75.321 Z-10.529
X14.796 Y75.346 Z-10.532
X14.757 Y75.356 Z-10.534
X14.716 Y75.351 Z-10.537
X14.68 Y75.33 Z-10.54
X14.655 Y75.298 Z-10.543
X14.644 Y75.258 Z-10.545
X14.649 Y75.218 Z-10.548
X14.669 Y75.182 Z-10.551
X14.7 Y75.156 Z-10.553
X14.74 Y75.144 Z-10.556
X14.781 Y75.148 Z-10.559
X14.817 Y75.167 Z-10.561
X14.843 Y75.199 Z-10.564
X14.856 Y75.238 Z-10.567
X14.852 Y75.279 Z-10.57
X14.834 Y75.315 Z-10.572
X14.803 Y75.342 Z-10.575
X14.764 Y75.355 Z-10.578
X14.723 Y75.353 Z-10.58
X14.686 Y75.335 Z-10.583
X14.659 Y75.304 Z-10.586
X14.645 Y75.266 Z-10.588
X14.647 Y75.225 Z-10.591
X14.664 Y75.187 Z-10.594
X14.694 Y75.16 Z-10.596
X14.733 Y75.145 Z-10.599
X14.774 Y75.146 Z-10.602
X14.811 Y75.163 Z-10.605
X14.839 Y75.193 Z-10.607
X14.855 Y75.231 Z-10.61
X14.854 Y75.272 Z-10.613
X14.838 Y75.31 Z-10.615
X14.809 Y75.338 Z-10.618
X14.771 Y75.354 Z-10.621
X14.73 Z-10.623
X14.692 Y75.339 Z-10.626
X14.663 Y75.31 Z-10.629
X14.646 Y75.273 Z-10.632
X14.645 Y75.232 Z-10.634
X14.66 Y75.194 Z-10.637
X14.688 Y75.164 Z-10.64
X14.725 Y75.147 Z-10.642
X14.766 Y75.145 Z-10.645
X14.805 Y75.159 Z-10.648
X14.835 Y75.187 Z-10.65
X14.853 Y75.224 Z-10.653
X14.855 Y75.265 Z-10.656
X14.842 Y75.303 Z-10.659
X14.815 Y75.334 Z-10.661
X14.778 Y75.353 Z-10.664
X14.737 Y75.356 Z-10.667
X14.698 Y75.343 Z-10.669
X14.667 Y75.316 Z-10.672
X14.648 Y75.28 Z-10.675
X14.644 Y75.239 Z-10.677
X14.656 Y75.2 Z-10.68
X14.682 Y75.168 Z-10.683
X14.718 Y75.149 Z-10.686
X14.759 Y75.144 Z-10.688
X14.799 Y75.155 Z-10.691
X14.831 Y75.181 Z-10.694
X14.851 Y75.217 Z-10.696
X14.856 Y75.257 Z-10.699
X14.845 Y75.297 Z-10.702
X14.82 Y75.33 Z-10.704
X14.785 Y75.35 Z-10.707
X14.744 Y75.356 Z-10.71
X14.705 Y75.346 Z-10.713
X14.672 Y75.322 Z-10.715
X14.65 Y75.287 Z-10.718
X14.644 Y75.246 Z-10.721
X14.653 Y75.206 Z-10.723
X14.677 Y75.173 Z-10.726
X14.711 Y75.151 Z-10.729
X14.752 Y75.144 Z-10.731
X14.792 Y75.152 Z-10.734
X14.826 Y75.176 Z-10.737
X14.848 Y75.21 Z-10.74
X14.856 Y75.25 Z-10.742
X14.848 Y75.29 Z-10.745
X14.826 Y75.325 Z-10.748
X14.792 Y75.348 Z-10.75
X14.752 Y75.356 Z-10.753
X14.711 Y75.349 Z-10.756
X14.677 Y75.327 Z-10.758
X14.653 Y75.294 Z-10.761
X14.644 Y75.254 Z-10.764
X14.65 Y75.213 Z-10.767
X14.672 Y75.178 Z-10.769
X14.705 Y75.154 Z-10.772
X14.745 Y75.144 Z-10.775
X14.785 Y75.15 Z-10.777
X14.821 Y75.171 Z-10.78
X14.845 Y75.203 Z-10.783
X14.856 Y75.243 Z-10.785
X14.851 Y75.283 Z-10.788
X14.831 Y75.319 Z-10.791
X14.798 Y75.345 Z-10.794
X14.759 Y75.356 Z-10.796
X14.718 Y75.351 Z-10.799
X14.682 Y75.332 Z-10.802
X14.656 Y75.3 Z-10.804
X14.644 Y75.261 Z-10.807
X14.648 Y75.22 Z-10.81
X14.667 Y75.184 Z-10.812
X14.698 Y75.157 Z-10.815
X14.737 Y75.144 Z-10.818
X14.778 Y75.148 Z-10.821
X14.815 Y75.166 Z-10.823
X14.842 Y75.197 Z-10.826
X14.855 Y75.236 Z-10.829
X14.853 Y75.277 Z-10.831
X14.835 Y75.314 Z-10.834
X14.805 Y75.341 Z-10.837
X14.766 Y75.355 Z-10.839
X14.725 Y75.353 Z-10.842
X14.688 Y75.336 Z-10.845
X14.66 Y75.306 Z-10.848
X14.645 Y75.268 Z-10.85
X14.646 Y75.227 Z-10.853
X14.663 Y75.189 Z-10.856
X14.692 Y75.161 Z-10.858
X14.73 Y75.146 Z-10.861
X14.771 Z-10.864
X14.809 Y75.162 Z-10.866
X14.838 Y75.191 Z-10.869
X14.854 Y75.228 Z-10.872
X14.855 Y75.269 Z-10.874
X14.839 Y75.308 Z-10.877
X14.811 Y75.337 Z-10.88
X14.773 Y75.354 Z-10.883
X14.732 Y75.355 Z-10.885
X14.694 Y75.34 Z-10.888
X14.664 Y75.312 Z-10.891
X14.647 Y75.275 Z-10.893
X14.645 Y75.234 Z-10.896
X14.659 Y75.196 Z-10.899
X14.686 Y75.165 Z-10.901
X14.723 Y75.147 Z-10.904
X14.764 Y75.145 Z-10.907
X14.803 Y75.158 Z-10.91
X14.834 Y75.185 Z-10.912
X14.852 Y75.221 Z-10.915
X14.856 Y75.262 Z-10.918
X14.843 Y75.301 Z-10.92
X14.817 Y75.333 Z-10.923
X14.78 Y75.352 Z-10.926
X14.74 Y75.356 Z-10.928
X14.7 Y75.344 Z-10.931
X14.668 Y75.318 Z-10.934
X14.649 Y75.282 Z-10.937
X14.644 Y75.241 Z-10.939
X14.655 Y75.202 Z-10.942
X14.68 Y75.17 Z-10.945
X14.716 Y75.149 Z-10.947
X14.757 Y75.144 Z-10.95
X14.796 Y75.154 Z-10.953
X14.829 Y75.179 Z-10.955
X14.85 Y75.214 Z-10.958
X14.856 Y75.255 Z-10.961
X14.846 Y75.295 Z-10.964
X14.822 Y75.328 Z-10.966
X14.787 Y75.35 Z-10.969
X14.747 Y75.356 Z-10.972
X14.707 Y75.347 Z-10.974
X14.673 Y75.324 Z-10.977
X14.651 Y75.289 Z-10.98
X14.644 Y75.249 Z-10.982
X14.652 Y75.209 Z-10.985
X14.675 Y75.175 Z-10.988
X14.709 Y75.152 Z-10.991
X14.749 Y75.144 Z-10.993
X14.79 Y75.151 Z-10.996
X14.824 Y75.174 Z-10.999
X14.847 Y75.208 Z-11.001
X14.856 Y75.248 Z-11.004
X14.849 Y75.288 Z-11.007
X14.827 Y75.323 Z-11.009
X14.794 Y75.347 Z-11.012
X14.754 Y75.356 Z-11.015
X14.714 Y75.35 Z-11.018
X14.679 Y75.329 Z-11.02
X14.654 Y75.296 Z-11.023
X14.644 Y75.256 Z-11.026
X14.65 Y75.215 Z-11.028
X14.67 Y75.18 Z-11.031
X14.703 Y75.155 Z-11.034
X14.742 Y75.144 Z-11.036
X14.783 Y75.149 Z-11.039
X14.819 Y75.169 Z-11.042
X14.844 Y75.201 Z-11.045
X14.856 Y75.24 Z-11.047
X14.852 Y75.281 Z-11.05
X14.832 Y75.317 Z-11.053
X14.801 Y75.343 Z-11.055
X14.761 Y75.356 Z-11.058
X14.721 Y75.352 Z-11.061
X14.684 Y75.333 Z-11.063
X14.657 Y75.302 Z-11.066
X14.645 Y75.263 Z-11.069
X14.647 Y75.222 Z-11.072
X14.666 Y75.185 Z-11.074
X14.696 Y75.158 Z-11.077
X14.735 Y75.145 Z-11.08
X14.776 Y75.147 Z-11.082
X14.813 Y75.164 Z-11.085
X14.841 Y75.195 Z-11.088
X14.855 Y75.233 Z-11.09
X14.854 Y75.274 Z-11.093
X14.837 Y75.312 Z-11.096
X14.807 Y75.34 Z-11.099
X14.769 Y75.355 Z-11.101
X14.728 Y75.354 Z-11.104
X14.69 Y75.338 Z-11.107
X14.661 Y75.308 Z-11.109
X14.646 Y75.27 Z-11.112
Y75.229 Z-11.115
X14.661 Y75.191 Z-11.117
X14.69 Y75.162 Z-11.12
X14.728 Y75.146 Z-11.123
X14.769 Y75.145 Z-11.126
X14.807 Y75.16 Z-11.128
X14.837 Y75.189 Z-11.131
X14.854 Y75.226 Z-11.134
X14.855 Y75.267 Z-11.136
X14.841 Y75.305 Z-11.139
X14.813 Y75.336 Z-11.142
X14.776 Y75.353 Z-11.144
X14.735 Y75.355 Z-11.147
X14.696 Y75.342 Z-11.15
X14.665 Y75.314 Z-11.152
X14.647 Y75.278 Z-11.155
X14.645 Y75.237 Z-11.158
X14.657 Y75.198 Z-11.161
X14.684 Y75.167 Z-11.163
X14.721 Y75.148 Z-11.166
X14.762 Y75.144 Z-11.169
X14.801 Y75.157 Z-11.171
X14.832 Y75.183 Z-11.174
X14.852 Y75.219 Z-11.177
X14.856 Y75.26 Z-11.179
X14.844 Y75.299 Z-11.182
X14.819 Y75.331 Z-11.185
X14.783 Y75.351 Z-11.188
X14.742 Y75.356 Z-11.19
X14.702 Y75.345 Z-11.193
X14.67 Y75.32 Z-11.196
X14.649 Y75.284 Z-11.198
X14.644 Y75.244 Z-11.201
X14.654 Y75.204 Z-11.204
X14.679 Y75.171 Z-11.206
X14.714 Y75.15 Z-11.209
X14.754 Y75.144 Z-11.212
X14.794 Y75.153 Z-11.215
X14.828 Y75.177 Z-11.217
X14.849 Y75.212 Z-11.22
X14.856 Y75.253 Z-11.223
X14.847 Y75.293 Z-11.225
X14.824 Y75.326 Z-11.228
X14.79 Y75.349 Z-11.231
X14.749 Y75.356 Z-11.233
X14.709 Y75.348 Z-11.236
X14.675 Y75.325 Z-11.239
X14.652 Y75.291 Z-11.242
X14.644 Y75.251 Z-11.244
X14.651 Y75.211 Z-11.247
X14.673 Y75.176 Z-11.25
X14.707 Y75.153 Z-11.252
X14.747 Y75.144 Z-11.255
X14.788 Y75.151 Z-11.258
X14.822 Y75.172 Z-11.26
X14.846 Y75.205 Z-11.263
X14.856 Y75.245 Z-11.266
X14.85 Y75.286 Z-11.269
X14.829 Y75.321 Z-11.271
X14.796 Y75.346 Z-11.274
X14.757 Y75.356 Z-11.277
X14.716 Y75.351 Z-11.279
X14.68 Y75.33 Z-11.282
X14.655 Y75.298 Z-11.285
X14.644 Y75.258 Z-11.287
X14.649 Y75.218 Z-11.29
X14.669 Y75.182 Z-11.293
X14.7 Y75.156 Z-11.296
X14.74 Y75.144 Z-11.298
X14.781 Y75.148 Z-11.301
X14.817 Y75.167 Z-11.304
X14.843 Y75.199 Z-11.306
X14.856 Y75.238 Z-11.309
X14.852 Y75.279 Z-11.312
X14.834 Y75.315 Z-11.314
X14.803 Y75.342 Z-11.317
X14.764 Y75.355 Z-11.32
X14.723 Y75.353 Z-11.323
X14.686 Y75.335 Z-11.325
X14.659 Y75.304 Z-11.328
X14.645 Y75.266 Z-11.331
X14.647 Y75.225 Z-11.333
X14.664 Y75.187 Z-11.336
X14.694 Y75.16 Z-11.339
X14.733 Y75.145 Z-11.341
X14.774 Y75.146 Z-11.344
X14.811 Y75.163 Z-11.347
X14.839 Y75.193 Z-11.35
X14.855 Y75.231 Z-11.352
X14.854 Y75.272 Z-11.355
X14.838 Y75.31 Z-11.358
X14.809 Y75.338 Z-11.36
X14.771 Y75.354 Z-11.363
X14.73 Z-11.366
X14.692 Y75.339 Z-11.368
X14.663 Y75.31 Z-11.371
X14.646 Y75.273 Z-11.374
X14.645 Y75.232 Z-11.377
X14.66 Y75.193 Z-11.379
X14.688 Y75.164 Z-11.382
X14.725 Y75.147 Z-11.385
X14.766 Y75.145 Z-11.387
X14.805 Y75.159 Z-11.39
X14.835 Y75.187 Z-11.393
X14.853 Y75.224 Z-11.395
X14.855 Y75.265 Z-11.398
X14.842 Y75.303 Z-11.401
X14.815 Y75.334 Z-11.404
X14.778 Y75.353 Z-11.406
X14.737 Y75.356 Z-11.409
X14.698 Y75.343 Z-11.412
X14.667 Y75.316 Z-11.414
X14.648 Y75.28 Z-11.417
X14.644 Y75.239 Z-11.42
X14.656 Y75.2 Z-11.422
X14.682 Y75.168 Z-11.425
X14.718 Y75.148 Z-11.428
X14.759 Y75.144 Z-11.43
X14.799 Y75.155 Z-11.433
X14.831 Y75.181 Z-11.436
X14.851 Y75.217 Z-11.439
X14.856 Y75.257 Z-11.441
X14.845 Y75.297 Z-11.444
X14.82 Y75.33 Z-11.447
X14.785 Y75.35 Z-11.449
X14.744 Y75.356 Z-11.452
X14.705 Y75.346 Z-11.455
X14.672 Y75.322 Z-11.457
X14.65 Y75.287 Z-11.46
X14.644 Y75.246 Z-11.463
X14.653 Y75.206 Z-11.466
X14.677 Y75.173 Z-11.468
X14.712 Y75.151 Z-11.471
X14.752 Y75.144 Z-11.474
X14.792 Y75.152 Z-11.476
X14.826 Y75.176 Z-11.479
X14.848 Y75.21 Z-11.482
X14.856 Y75.25 Z-11.484
X14.848 Y75.29 Z-11.487
X14.826 Y75.325 Z-11.49
X14.792 Y75.348 Z-11.493
X14.752 Y75.356 Z-11.495
X14.711 Y75.349 Z-11.498
X14.677 Y75.327 Z-11.501
X14.653 Y75.293 Z-11.503
X14.644 Y75.254 Z-11.506
X14.65 Y75.213 Z-11.509
X14.672 Y75.178 Z-11.511
X14.705 Y75.154 Z-11.514
X14.745 Y75.144 Z-11.517
X14.785 Y75.15 Z-11.52
X14.821 Y75.171 Z-11.522
X14.845 Y75.203 Z-11.525
X14.856 Y75.243 Z-11.528
X14.851 Y75.284 Z-11.53
X14.831 Y75.319 Z-11.533
X14.798 Y75.345 Z-11.536
X14.759 Y75.356 Z-11.538
X14.718 Y75.351 Z-11.541
X14.682 Y75.332 Z-11.544
X14.656 Y75.3 Z-11.547
X14.644 Y75.261 Z-11.549
X14.648 Y75.22 Z-11.552
X14.667 Y75.184 Z-11.555
X14.698 Y75.157 Z-11.557
X14.737 Y75.144 Z-11.56
X14.778 Y75.148 Z-11.563
X14.815 Y75.166 Z-11.565
X14.842 Y75.197 Z-11.568
X14.855 Y75.236 Z-11.571
X14.853 Y75.277 Z-11.574
X14.835 Y75.314 Z-11.576
X14.805 Y75.341 Z-11.579
X14.766 Y75.355 Z-11.582
X14.725 Y75.353 Z-11.584
X14.688 Y75.336 Z-11.587
X14.66 Y75.306 Z-11.59
X14.645 Y75.268 Z-11.592
X14.646 Y75.227 Z-11.595
X14.663 Y75.189 Z-11.598
X14.692 Y75.161 Z-11.601
X14.73 Y75.146 Z-11.603
X14.771 Z-11.606
X14.809 Y75.162 Z-11.609
X14.838 Y75.191 Z-11.611
X14.854 Y75.228 Z-11.614
X14.855 Y75.269 Z-11.617
X14.839 Y75.308 Z-11.619
X14.811 Y75.337 Z-11.622
X14.773 Y75.354 Z-11.625
X14.732 Y75.355 Z-11.628
X14.694 Y75.34 Z-11.63
X14.664 Y75.312 Z-11.633
X14.647 Y75.275 Z-11.636
X14.645 Y75.234 Z-11.638
X14.659 Y75.196 Z-11.641
X14.686 Y75.165 Z-11.644
X14.723 Y75.147 Z-11.646
X14.764 Y75.145 Z-11.649
X14.803 Y75.158 Z-11.652
X14.834 Y75.185 Z-11.655
X14.852 Y75.221 Z-11.657
X14.856 Y75.262 Z-11.66
X14.843 Y75.301 Z-11.663
X14.817 Y75.333 Z-11.665
X14.78 Y75.352 Z-11.668
X14.74 Y75.356 Z-11.671
X14.7 Y75.344 Z-11.673
X14.668 Y75.318 Z-11.676
X14.649 Y75.282 Z-11.679
X14.644 Y75.241 Z-11.682
X14.655 Y75.202 Z-11.684
X14.68 Y75.17 Z-11.687
X14.716 Y75.149 Z-11.69
X14.757 Y75.144 Z-11.692
X14.796 Y75.154 Z-11.695
X14.829 Y75.179 Z-11.698
X14.85 Y75.214 Z-11.7
X14.856 Y75.255 Z-11.703
X14.846 Y75.295 Z-11.706
X14.822 Y75.328 Z-11.709
X14.787 Y75.35 Z-11.711
X14.747 Y75.356 Z-11.714
X14.707 Y75.347 Z-11.717
X14.673 Y75.324 Z-11.719
X14.651 Y75.289 Z-11.722
X14.644 Y75.249 Z-11.725
X14.652 Y75.208 Z-11.727
X14.675 Y75.175 Z-11.73
X14.709 Y75.152 Z-11.733
X14.75 Y75.144 Z-11.735
X14.79 Y75.151 Z-11.738
X14.824 Y75.174 Z-11.741
X14.847 Y75.208 Z-11.744
X14.856 Y75.248 Z-11.746
X14.849 Y75.288 Z-11.749
X14.827 Y75.323 Z-11.752
X14.794 Y75.347 Z-11.754
X14.754 Y75.356 Z-11.757
X14.714 Y75.35 Z-11.76
X14.678 Y75.329 Z-11.762
X14.654 Y75.296 Z-11.765
X14.644 Y75.256 Z-11.768
X14.65 Y75.215 Z-11.771
X14.67 Y75.18 Z-11.773
X14.703 Y75.155 Z-11.776
X14.742 Y75.144 Z-11.779
X14.783 Y75.149 Z-11.781
X14.819 Y75.169 Z-11.784
X14.844 Y75.201 Z-11.787
X14.856 Y75.24 Z-11.789
X14.852 Y75.281 Z-11.792
X14.832 Y75.317 Z-11.795
X14.801 Y75.344 Z-11.798
X14.761 Y75.356 Z-11.8
X14.72 Y75.352 Z-11.803
X14.684 Y75.333 Z-11.806
X14.657 Y75.302 Z-11.808
X14.645 Y75.263 Z-11.811
X14.647 Y75.222 Z-11.814
X14.666 Y75.185 Z-11.816
X14.696 Y75.158 Z-11.819
X14.735 Y75.145 Z-11.822
X14.776 Y75.147 Z-11.825
X14.813 Y75.164 Z-11.827
X14.841 Y75.195 Z-11.83
X14.855 Y75.233 Z-11.833
X14.854 Y75.274 Z-11.835
X14.837 Y75.312 Z-11.838
X14.807 Y75.34 Z-11.841
X14.769 Y75.355 Z-11.843
X14.728 Y75.354 Z-11.846
X14.69 Y75.338 Z-11.849
X14.661 Y75.308 Z-11.852
X14.646 Y75.27 Z-11.854
Y75.229 Z-11.857
X14.661 Y75.191 Z-11.86
X14.69 Y75.162 Z-11.862
X14.728 Y75.146 Z-11.865
X14.769 Y75.145 Z-11.868
X14.807 Y75.16 Z-11.87
X14.837 Y75.189 Z-11.873
X14.854 Y75.226 Z-11.876
X14.855 Y75.267 Z-11.879
X14.841 Y75.306 Z-11.881
X14.813 Y75.336 Z-11.884
X14.776 Y75.353 Z-11.887
X14.735 Y75.355 Z-11.889
X14.696 Y75.342 Z-11.892
X14.665 Y75.314 Z-11.895
X14.647 Y75.277 Z-11.897
X14.645 Y75.237 Z-11.9
X14.658 Y75.198 Z-11.903
X14.684 Y75.166 Z-11.906
X14.721 Y75.148 Z-11.908
X14.762 Y75.144 Z-11.911
X14.801 Y75.157 Z-11.914
X14.832 Y75.183 Z-11.916
X14.852 Y75.219 Z-11.919
X14.856 Y75.26 Z-11.922
X14.844 Y75.299 Z-11.924
X14.819 Y75.331 Z-11.927
X14.783 Y75.351 Z-11.93
X14.742 Y75.356 Z-11.933
X14.702 Y75.345 Z-11.935
X14.67 Y75.32 Z-11.938
X14.649 Y75.284 Z-11.941
X14.644 Y75.244 Z-11.943
X14.654 Y75.204 Z-11.946
X14.679 Y75.171 Z-11.949
X14.714 Y75.15 Z-11.951
X14.754 Y75.144 Z-11.954
X14.794 Y75.153 Z-11.957
X14.828 Y75.177 Z-11.96
X14.849 Y75.212 Z-11.962
X14.856 Y75.253 Z-11.965
X14.847 Y75.293 Z-11.968
X14.824 Y75.326 Z-11.97
X14.79 Y75.349 Z-11.973
X14.749 Y75.356 Z-11.976
X14.709 Y75.348 Z-11.978
X14.675 Y75.325 Z-11.981
X14.652 Y75.291 Z-11.984
X14.644 Y75.251 Z-11.987
X14.651 Y75.211 Z-11.989
X14.673 Y75.176 Z-11.992
X14.707 Y75.153 Z-11.995
X14.747 Y75.144 Z-11.997
X14.788 Y75.151 Z-12.
G3 X14.849 Y75.288 R0.106
X14.712 Y75.349 R0.106
X14.651 Y75.212 R0.106
X14.788 Y75.151 R0.106
G1 X14.81 Y75.167
X14.821 Y75.192
X14.819 Y75.219
X14.805 Y75.256
X14.794 Y75.284 Z-11.994
X14.785 Y75.308 Z-11.977
X14.779 Y75.324 Z-11.951
X14.777 Y75.33 Z-11.921
G0 Z5.
X14.685 Y69.197
Z-8.
G1 Z-9.921 F1500.
X14.691 Z-9.951
X14.708 Z-9.977
X14.734 Z-9.994
X14.764 Z-10.
X14.803
X14.83 Y69.204
X14.849 Y69.223
X14.856 Y69.25
X14.848 Y69.29 Z-10.003
X14.826 Y69.325 Z-10.005
X14.792 Y69.348 Z-10.008
X14.752 Y69.356 Z-10.011
X14.711 Y69.349 Z-10.013
X14.677 Y69.327 Z-10.016
X14.653 Y69.294 Z-10.019
X14.644 Y69.254 Z-10.022
X14.65 Y69.213 Z-10.024
X14.672 Y69.178 Z-10.027
X14.705 Y69.154 Z-10.03
X14.745 Y69.144 Z-10.032
X14.785 Y69.15 Z-10.035
X14.821 Y69.17 Z-10.038
X14.845 Y69.203 Z-10.04
X14.856 Y69.243 Z-10.043
X14.851 Y69.283 Z-10.046
X14.831 Y69.319 Z-10.049
X14.799 Y69.345 Z-10.051
X14.759 Y69.356 Z-10.054
X14.718 Y69.351 Z-10.057
X14.682 Y69.332 Z-10.059
X14.656 Y69.3 Z-10.062
X14.644 Y69.261 Z-10.065
X14.648 Y69.22 Z-10.067
X14.667 Y69.184 Z-10.07
X14.698 Y69.157 Z-10.073
X14.737 Y69.144 Z-10.076
X14.778 Y69.148 Z-10.078
X14.815 Y69.166 Z-10.081
X14.842 Y69.197 Z-10.084
X14.855 Y69.235 Z-10.086
X14.853 Y69.276 Z-10.089
X14.835 Y69.313 Z-10.092
X14.805 Y69.341 Z-10.094
X14.766 Y69.355 Z-10.097
X14.725 Y69.353 Z-10.1
X14.688 Y69.336 Z-10.103
X14.66 Y69.306 Z-10.105
X14.645 Y69.268 Z-10.108
X14.646 Y69.227 Z-10.111
X14.663 Y69.189 Z-10.113
X14.692 Y69.161 Z-10.116
X14.73 Y69.146 Z-10.119
X14.771 Z-10.121
X14.809 Y69.162 Z-10.124
X14.838 Y69.191 Z-10.127
X14.854 Y69.228 Z-10.13
X14.855 Y69.269 Z-10.132
X14.839 Y69.307 Z-10.135
X14.811 Y69.337 Z-10.138
X14.773 Y69.354 Z-10.14
X14.732 Y69.355 Z-10.143
X14.694 Y69.34 Z-10.146
X14.664 Y69.312 Z-10.148
X14.647 Y69.275 Z-10.151
X14.645 Y69.234 Z-10.154
X14.659 Y69.196 Z-10.157
X14.686 Y69.165 Z-10.159
X14.723 Y69.147 Z-10.162
X14.764 Y69.145 Z-10.165
X14.803 Y69.158 Z-10.167
X14.834 Y69.185 Z-10.17
X14.852 Y69.221 Z-10.173
X14.856 Y69.262 Z-10.175
X14.843 Y69.301 Z-10.178
X14.817 Y69.333 Z-10.181
X14.781 Y69.352 Z-10.184
X14.74 Y69.356 Z-10.186
X14.7 Y69.344 Z-10.189
X14.668 Y69.318 Z-10.192
X14.649 Y69.282 Z-10.194
X14.644 Y69.241 Z-10.197
X14.655 Y69.202 Z-10.2
X14.68 Y69.17 Z-10.202
X14.716 Y69.149 Z-10.205
X14.757 Y69.144 Z-10.208
X14.796 Y69.154 Z-10.211
X14.829 Y69.179 Z-10.213
X14.85 Y69.214 Z-10.216
X14.856 Y69.255 Z-10.219
X14.846 Y69.295 Z-10.221
X14.822 Y69.328 Z-10.224
X14.787 Y69.349 Z-10.227
X14.747 Y69.356 Z-10.229
X14.707 Y69.347 Z-10.232
X14.673 Y69.324 Z-10.235
X14.651 Y69.289 Z-10.238
X14.644 Y69.249 Z-10.24
X14.652 Y69.209 Z-10.243
X14.675 Y69.175 Z-10.246
X14.709 Y69.152 Z-10.248
X14.749 Y69.144 Z-10.251
X14.79 Y69.151 Z-10.254
X14.824 Y69.174 Z-10.256
X14.847 Y69.208 Z-10.259
X14.856 Y69.248 Z-10.262
X14.849 Y69.288 Z-10.265
X14.827 Y69.323 Z-10.267
X14.794 Y69.347 Z-10.27
X14.754 Y69.356 Z-10.273
X14.714 Y69.35 Z-10.275
X14.679 Y69.329 Z-10.278
X14.654 Y69.296 Z-10.281
X14.644 Y69.256 Z-10.283
X14.649 Y69.215 Z-10.286
X14.67 Y69.18 Z-10.289
X14.703 Y69.155 Z-10.291
X14.742 Y69.144 Z-10.294
X14.783 Y69.149 Z-10.297
X14.819 Y69.169 Z-10.3
X14.844 Y69.201 Z-10.302
X14.856 Y69.24 Z-10.305
X14.852 Y69.281 Z-10.308
X14.832 Y69.317 Z-10.31
X14.801 Y69.343 Z-10.313
X14.761 Y69.356 Z-10.316
X14.721 Y69.352 Z-10.318
X14.684 Y69.333 Z-10.321
X14.657 Y69.302 Z-10.324
X14.645 Y69.263 Z-10.327
X14.647 Y69.222 Z-10.329
X14.665 Y69.186 Z-10.332
X14.696 Y69.158 Z-10.335
X14.735 Y69.145 Z-10.337
X14.776 Y69.147 Z-10.34
X14.813 Y69.164 Z-10.343
X14.841 Y69.195 Z-10.345
X14.855 Y69.233 Z-10.348
X14.854 Y69.274 Z-10.351
X14.837 Y69.312 Z-10.354
X14.807 Y69.34 Z-10.356
X14.769 Y69.355 Z-10.359
X14.728 Y69.354 Z-10.362
X14.69 Y69.338 Z-10.364
X14.661 Y69.308 Z-10.367
X14.646 Y69.27 Z-10.37
Y69.229 Z-10.372
X14.661 Y69.191 Z-10.375
X14.69 Y69.162 Z-10.378
X14.728 Y69.146 Z-10.381
X14.769 Y69.145 Z-10.383
X14.807 Y69.16 Z-10.386
X14.837 Y69.189 Z-10.389
X14.854 Y69.226 Z-10.391
X14.855 Y69.267 Z-10.394
X14.841 Y69.305 Z-10.397
X14.813 Y69.336 Z-10.399
X14.776 Y69.353 Z-10.402
X14.735 Y69.355 Z-10.405
X14.696 Y69.342 Z-10.408
X14.665 Y69.314 Z-10.41
X14.647 Y69.278 Z-10.413
X14.645 Y69.237 Z-10.416
X14.657 Y69.198 Z-10.418
X14.684 Y69.167 Z-10.421
X14.721 Y69.148 Z-10.424
X14.762 Y69.144 Z-10.426
X14.801 Y69.157 Z-10.429
X14.832 Y69.183 Z-10.432
X14.852 Y69.219 Z-10.435
X14.856 Y69.26 Z-10.437
X14.844 Y69.299 Z-10.44
X14.819 Y69.331 Z-10.443
X14.783 Y69.351 Z-10.445
X14.742 Y69.356 Z-10.448
X14.703 Y69.345 Z-10.451
X14.67 Y69.32 Z-10.453
X14.649 Y69.285 Z-10.456
X14.644 Y69.244 Z-10.459
X14.654 Y69.204 Z-10.462
X14.679 Y69.171 Z-10.464
X14.714 Y69.15 Z-10.467
X14.754 Y69.144 Z-10.47
X14.794 Y69.153 Z-10.472
X14.828 Y69.177 Z-10.475
X14.849 Y69.212 Z-10.478
X14.856 Y69.252 Z-10.48
X14.847 Y69.293 Z-10.483
X14.824 Y69.326 Z-10.486
X14.79 Y69.349 Z-10.489
X14.749 Y69.356 Z-10.491
X14.709 Y69.348 Z-10.494
X14.675 Y69.325 Z-10.497
X14.652 Y69.291 Z-10.499
X14.644 Y69.251 Z-10.502
X14.651 Y69.211 Z-10.505
X14.673 Y69.176 Z-10.507
X14.707 Y69.153 Z-10.51
X14.747 Y69.144 Z-10.513
X14.787 Y69.151 Z-10.516
X14.822 Y69.172 Z-10.518
X14.846 Y69.205 Z-10.521
X14.856 Y69.245 Z-10.524
X14.85 Y69.286 Z-10.526
X14.829 Y69.321 Z-10.529
X14.796 Y69.346 Z-10.532
X14.757 Y69.356 Z-10.534
X14.716 Y69.351 Z-10.537
X14.68 Y69.33 Z-10.54
X14.655 Y69.298 Z-10.543
X14.644 Y69.258 Z-10.545
X14.649 Y69.218 Z-10.548
X14.669 Y69.182 Z-10.551
X14.7 Y69.156 Z-10.553
X14.74 Y69.144 Z-10.556
X14.781 Y69.148 Z-10.559
X14.817 Y69.167 Z-10.561
X14.843 Y69.199 Z-10.564
X14.856 Y69.238 Z-10.567
X14.852 Y69.279 Z-10.57
X14.834 Y69.315 Z-10.572
X14.803 Y69.342 Z-10.575
X14.764 Y69.355 Z-10.578
X14.723 Y69.353 Z-10.58
X14.686 Y69.335 Z-10.583
X14.659 Y69.304 Z-10.586
X14.645 Y69.266 Z-10.588
X14.647 Y69.225 Z-10.591
X14.664 Y69.187 Z-10.594
X14.694 Y69.16 Z-10.596
X14.733 Y69.145 Z-10.599
X14.774 Y69.146 Z-10.602
X14.811 Y69.163 Z-10.605
X14.839 Y69.193 Z-10.607
X14.855 Y69.231 Z-10.61
X14.854 Y69.272 Z-10.613
X14.838 Y69.31 Z-10.615
X14.809 Y69.338 Z-10.618
X14.771 Y69.354 Z-10.621
X14.73 Z-10.623
X14.692 Y69.339 Z-10.626
X14.663 Y69.31 Z-10.629
X14.646 Y69.273 Z-10.632
X14.645 Y69.232 Z-10.634
X14.66 Y69.194 Z-10.637
X14.688 Y69.164 Z-10.64
X14.725 Y69.147 Z-10.642
X14.766 Y69.145 Z-10.645
X14.805 Y69.159 Z-10.648
X14.835 Y69.187 Z-10.65
X14.853 Y69.224 Z-10.653
X14.855 Y69.265 Z-10.656
X14.842 Y69.303 Z-10.659
X14.815 Y69.334 Z-10.661
X14.778 Y69.353 Z-10.664
X14.737 Y69.356 Z-10.667
X14.698 Y69.343 Z-10.669
X14.667 Y69.316 Z-10.672
X14.648 Y69.28 Z-10.675
X14.644 Y69.239 Z-10.677
X14.656 Y69.2 Z-10.68
X14.682 Y69.168 Z-10.683
X14.718 Y69.149 Z-10.686
X14.759 Y69.144 Z-10.688
X14.799 Y69.155 Z-10.691
X14.831 Y69.181 Z-10.694
X14.851 Y69.217 Z-10.696
X14.856 Y69.257 Z-10.699
X14.845 Y69.297 Z-10.702
X14.82 Y69.33 Z-10.704
X14.785 Y69.35 Z-10.707
X14.744 Y69.356 Z-10.71
X14.705 Y69.346 Z-10.713
X14.672 Y69.322 Z-10.715
X14.65 Y69.287 Z-10.718
X14.644 Y69.246 Z-10.721
X14.653 Y69.206 Z-10.723
X14.677 Y69.173 Z-10.726
X14.711 Y69.151 Z-10.729
X14.752 Y69.144 Z-10.731
X14.792 Y69.152 Z-10.734
X14.826 Y69.176 Z-10.737
X14.848 Y69.21 Z-10.74
X14.856 Y69.25 Z-10.742
X14.848 Y69.29 Z-10.745
X14.826 Y69.325 Z-10.748
X14.792 Y69.348 Z-10.75
X14.752 Y69.356 Z-10.753
X14.711 Y69.349 Z-10.756
X14.677 Y69.327 Z-10.758
X14.653 Y69.294 Z-10.761
X14.644 Y69.254 Z-10.764
X14.65 Y69.213 Z-10.767
X14.672 Y69.178 Z-10.769
X14.705 Y69.154 Z-10.772
X14.745 Y69.144 Z-10.775
X14.785 Y69.15 Z-10.777
X14.821 Y69.171 Z-10.78
X14.845 Y69.203 Z-10.783
X14.856 Y69.243 Z-10.785
X14.851 Y69.283 Z-10.788
X14.831 Y69.319 Z-10.791
X14.798 Y69.345 Z-10.794
X14.759 Y69.356 Z-10.796
X14.718 Y69.351 Z-10.799
X14.682 Y69.332 Z-10.802
X14.656 Y69.3 Z-10.804
X14.644 Y69.261 Z-10.807
X14.648 Y69.22 Z-10.81
X14.667 Y69.184 Z-10.812
X14.698 Y69.157 Z-10.815
X14.737 Y69.144 Z-10.818
X14.778 Y69.148 Z-10.821
X14.815 Y69.166 Z-10.823
X14.842 Y69.197 Z-10.826
X14.855 Y69.236 Z-10.829
X14.853 Y69.277 Z-10.831
X14.835 Y69.314 Z-10.834
X14.805 Y69.341 Z-10.837
X14.766 Y69.355 Z-10.839
X14.725 Y69.353 Z-10.842
X14.688 Y69.336 Z-10.845
X14.66 Y69.306 Z-10.848
X14.645 Y69.268 Z-10.85
X14.646 Y69.227 Z-10.853
X14.663 Y69.189 Z-10.856
X14.692 Y69.161 Z-10.858
X14.73 Y69.146 Z-10.861
X14.771 Z-10.864
X14.809 Y69.162 Z-10.866
X14.838 Y69.191 Z-10.869
X14.854 Y69.228 Z-10.872
X14.855 Y69.269 Z-10.874
X14.839 Y69.308 Z-10.877
X14.811 Y69.337 Z-10.88
X14.773 Y69.354 Z-10.883
X14.732 Y69.355 Z-10.885
X14.694 Y69.34 Z-10.888
X14.664 Y69.312 Z-10.891
X14.647 Y69.275 Z-10.893
X14.645 Y69.234 Z-10.896
X14.659 Y69.196 Z-10.899
X14.686 Y69.165 Z-10.901
X14.723 Y69.147 Z-10.904
X14.764 Y69.145 Z-10.907
X14.803 Y69.158 Z-10.91
X14.834 Y69.185 Z-10.912
X14.852 Y69.221 Z-10.915
X14.856 Y69.262 Z-10.918
X14.843 Y69.301 Z-10.92
X14.817 Y69.333 Z-10.923
X14.78 Y69.352 Z-10.926
X14.74 Y69.356 Z-10.928
X14.7 Y69.344 Z-10.931
X14.668 Y69.318 Z-10.934
X14.649 Y69.282 Z-10.937
X14.644 Y69.241 Z-10.939
X14.655 Y69.202 Z-10.942
X14.68 Y69.17 Z-10.945
X14.716 Y69.149 Z-10.947
X14.757 Y69.144 Z-10.95
X14.796 Y69.154 Z-10.953
X14.829 Y69.179 Z-10.955
X14.85 Y69.214 Z-10.958
X14.856 Y69.255 Z-10.961
X14.846 Y69.295 Z-10.964
X14.822 Y69.328 Z-10.966
X14.787 Y69.35 Z-10.969
X14.747 Y69.356 Z-10.972
X14.707 Y69.347 Z-10.974
X14.673 Y69.324 Z-10.977
X14.651 Y69.289 Z-10.98
X14.644 Y69.249 Z-10.982
X14.652 Y69.209 Z-10.985
X14.675 Y69.175 Z-10.988
X14.709 Y69.152 Z-10.991
X14.749 Y69.144 Z-10.993
X14.79 Y69.151 Z-10.996
X14.824 Y69.174 Z-10.999
X14.847 Y69.208 Z-11.001
X14.856 Y69.248 Z-11.004
X14.849 Y69.288 Z-11.007
X14.827 Y69.323 Z-11.009
X14.794 Y69.347 Z-11.012
X14.754 Y69.356 Z-11.015
X14.714 Y69.35 Z-11.018
X14.679 Y69.329 Z-11.02
X14.654 Y69.296 Z-11.023
X14.644 Y69.256 Z-11.026
X14.65 Y69.215 Z-11.028
X14.67 Y69.18 Z-11.031
X14.703 Y69.155 Z-11.034
X14.742 Y69.144 Z-11.036
X14.783 Y69.149 Z-11.039
X14.819 Y69.169 Z-11.042
X14.844 Y69.201 Z-11.045
X14.856 Y69.24 Z-11.047
X14.852 Y69.281 Z-11.05
X14.832 Y69.317 Z-11.053
X14.801 Y69.343 Z-11.055
X14.761 Y69.356 Z-11.058
X14.721 Y69.352 Z-11.061
X14.684 Y69.333 Z-11.063
X14.657 Y69.302 Z-11.066
X14.645 Y69.263 Z-11.069
X14.647 Y69.222 Z-11.072
X14.666 Y69.185 Z-11.074
X14.696 Y69.158 Z-11.077
X14.735 Y69.145 Z-11.08
X14.776 Y69.147 Z-11.082
X14.813 Y69.164 Z-11.085
X14.841 Y69.195 Z-11.088
X14.855 Y69.233 Z-11.09
X14.854 Y69.274 Z-11.093
X14.837 Y69.312 Z-11.096
X14.807 Y69.34 Z-11.099
X14.769 Y69.355 Z-11.101
X14.728 Y69.354 Z-11.104
X14.69 Y69.338 Z-11.107
X14.661 Y69.308 Z-11.109
X14.646 Y69.27 Z-11.112
Y69.229 Z-11.115
X14.661 Y69.191 Z-11.117
X14.69 Y69.162 Z-11.12
X14.728 Y69.146 Z-11.123
X14.769 Y69.145 Z-11.126
X14.807 Y69.16 Z-11.128
X14.837 Y69.189 Z-11.131
X14.854 Y69.226 Z-11.134
X14.855 Y69.267 Z-11.136
X14.841 Y69.305 Z-11.139
X14.813 Y69.336 Z-11.142
X14.776 Y69.353 Z-11.144
X14.735 Y69.355 Z-11.147
X14.696 Y69.342 Z-11.15
X14.665 Y69.314 Z-11.152
X14.647 Y69.278 Z-11.155
X14.645 Y69.237 Z-11.158
X14.657 Y69.198 Z-11.161
X14.684 Y69.167 Z-11.163
X14.721 Y69.148 Z-11.166
X14.762 Y69.144 Z-11.169
X14.801 Y69.157 Z-11.171
X14.832 Y69.183 Z-11.174
X14.852 Y69.219 Z-11.177
X14.856 Y69.26 Z-11.179
X14.844 Y69.299 Z-11.182
X14.819 Y69.331 Z-11.185
X14.783 Y69.351 Z-11.188
X14.742 Y69.356 Z-11.19
X14.702 Y69.345 Z-11.193
X14.67 Y69.32 Z-11.196
X14.649 Y69.284 Z-11.198
X14.644 Y69.244 Z-11.201
X14.654 Y69.204 Z-11.204
X14.679 Y69.171 Z-11.206
X14.714 Y69.15 Z-11.209
X14.754 Y69.144 Z-11.212
X14.794 Y69.153 Z-11.215
X14.828 Y69.177 Z-11.217
X14.849 Y69.212 Z-11.22
X14.856 Y69.253 Z-11.223
X14.847 Y69.293 Z-11.225
X14.824 Y69.326 Z-11.228
X14.79 Y69.349 Z-11.231
X14.749 Y69.356 Z-11.233
X14.709 Y69.348 Z-11.236
X14.675 Y69.325 Z-11.239
X14.652 Y69.291 Z-11.242
X14.644 Y69.251 Z-11.244
X14.651 Y69.211 Z-11.247
X14.673 Y69.176 Z-11.25
X14.707 Y69.153 Z-11.252
X14.747 Y69.144 Z-11.255
X14.788 Y69.151 Z-11.258
X14.822 Y69.172 Z-11.26
X14.846 Y69.205 Z-11.263
X14.856 Y69.245 Z-11.266
X14.85 Y69.286 Z-11.269
X14.829 Y69.321 Z-11.271
X14.796 Y69.346 Z-11.274
X14.757 Y69.356 Z-11.277
X14.716 Y69.351 Z-11.279
X14.68 Y69.33 Z-11.282
X14.655 Y69.298 Z-11.285
X14.644 Y69.258 Z-11.287
X14.649 Y69.218 Z-11.29
X14.669 Y69.182 Z-11.293
X14.7 Y69.156 Z-11.296
X14.74 Y69.144 Z-11.298
X14.781 Y69.148 Z-11.301
X14.817 Y69.167 Z-11.304
X14.843 Y69.199 Z-11.306
X14.856 Y69.238 Z-11.309
X14.852 Y69.279 Z-11.312
X14.834 Y69.315 Z-11.314
X14.803 Y69.342 Z-11.317
X14.764 Y69.355 Z-11.32
X14.723 Y69.353 Z-11.323
X14.686 Y69.335 Z-11.325
X14.659 Y69.304 Z-11.328
X14.645 Y69.266 Z-11.331
X14.647 Y69.225 Z-11.333
X14.664 Y69.187 Z-11.336
X14.694 Y69.16 Z-11.339
X14.733 Y69.145 Z-11.341
X14.774 Y69.146 Z-11.344
X14.811 Y69.163 Z-11.347
X14.839 Y69.193 Z-11.35
X14.855 Y69.231 Z-11.352
X14.854 Y69.272 Z-11.355
X14.838 Y69.31 Z-11.358
X14.809 Y69.338 Z-11.36
X14.771 Y69.354 Z-11.363
X14.73 Z-11.366
X14.692 Y69.339 Z-11.368
X14.663 Y69.31 Z-11.371
X14.646 Y69.273 Z-11.374
X14.645 Y69.232 Z-11.377
X14.66 Y69.193 Z-11.379
X14.688 Y69.164 Z-11.382
X14.725 Y69.147 Z-11.385
X14.766 Y69.145 Z-11.387
X14.805 Y69.159 Z-11.39
X14.835 Y69.187 Z-11.393
X14.853 Y69.224 Z-11.395
X14.855 Y69.265 Z-11.398
X14.842 Y69.303 Z-11.401
X14.815 Y69.334 Z-11.404
X14.778 Y69.353 Z-11.406
X14.737 Y69.356 Z-11.409
X14.698 Y69.343 Z-11.412
X14.667 Y69.316 Z-11.414
X14.648 Y69.28 Z-11.417
X14.644 Y69.239 Z-11.42
X14.656 Y69.2 Z-11.422
X14.682 Y69.168 Z-11.425
X14.718 Y69.148 Z-11.428
X14.759 Y69.144 Z-11.43
X14.799 Y69.155 Z-11.433
X14.831 Y69.181 Z-11.436
X14.851 Y69.217 Z-11.439
X14.856 Y69.257 Z-11.441
X14.845 Y69.297 Z-11.444
X14.82 Y69.33 Z-11.447
X14.785 Y69.35 Z-11.449
X14.744 Y69.356 Z-11.452
X14.705 Y69.346 Z-11.455
X14.672 Y69.322 Z-11.457
X14.65 Y69.287 Z-11.46
X14.644 Y69.246 Z-11.463
X14.653 Y69.206 Z-11.466
X14.677 Y69.173 Z-11.468
X14.712 Y69.151 Z-11.471
X14.752 Y69.144 Z-11.474
X14.792 Y69.152 Z-11.476
X14.826 Y69.176 Z-11.479
X14.848 Y69.21 Z-11.482
X14.856 Y69.25 Z-11.484
X14.848 Y69.29 Z-11.487
X14.826 Y69.325 Z-11.49
X14.792 Y69.348 Z-11.493
X14.752 Y69.356 Z-11.495
X14.711 Y69.349 Z-11.498
X14.677 Y69.327 Z-11.501
X14.653 Y69.293 Z-11.503
X14.644 Y69.254 Z-11.506
X14.65 Y69.213 Z-11.509
X14.672 Y69.178 Z-11.511
X14.705 Y69.154 Z-11.514
X14.745 Y69.144 Z-11.517
X14.785 Y69.15 Z-11.52
X14.821 Y69.171 Z-11.522
X14.845 Y69.203 Z-11.525
X14.856 Y69.243 Z-11.528
X14.851 Y69.284 Z-11.53
X14.831 Y69.319 Z-11.533
X14.798 Y69.345 Z-11.536
X14.759 Y69.356 Z-11.538
X14.718 Y69.351 Z-11.541
X14.682 Y69.332 Z-11.544
X14.656 Y69.3 Z-11.547
X14.644 Y69.261 Z-11.549
X14.648 Y69.22 Z-11.552
X14.667 Y69.184 Z-11.555
X14.698 Y69.157 Z-11.557
X14.737 Y69.144 Z-11.56
X14.778 Y69.148 Z-11.563
X14.815 Y69.166 Z-11.565
X14.842 Y69.197 Z-11.568
X14.855 Y69.236 Z-11.571
X14.853 Y69.277 Z-11.574
X14.835 Y69.314 Z-11.576
X14.805 Y69.341 Z-11.579
X14.766 Y69.355 Z-11.582
X14.725 Y69.353 Z-11.584
X14.688 Y69.336 Z-11.587
X14.66 Y69.306 Z-11.59
X14.645 Y69.268 Z-11.592
X14.646 Y69.227 Z-11.595
X14.663 Y69.189 Z-11.598
X14.692 Y69.161 Z-11.601
X14.73 Y69.146 Z-11.603
X14.771 Z-11.606
X14.809 Y69.162 Z-11.609
X14.838 Y69.191 Z-11.611
X14.854 Y69.228 Z-11.614
X14.855 Y69.269 Z-11.617
X14.839 Y69.308 Z-11.619
X14.811 Y69.337 Z-11.622
X14.773 Y69.354 Z-11.625
X14.732 Y69.355 Z-11.628
X14.694 Y69.34 Z-11.63
X14.664 Y69.312 Z-11.633
X14.647 Y69.275 Z-11.636
X14.645 Y69.234 Z-11.638
X14.659 Y69.196 Z-11.641
X14.686 Y69.165 Z-11.644
X14.723 Y69.147 Z-11.646
X14.764 Y69.145 Z-11.649
X14.803 Y69.158 Z-11.652
X14.834 Y69.185 Z-11.655
X14.852 Y69.221 Z-11.657
X14.856 Y69.262 Z-11.66
X14.843 Y69.301 Z-11.663
X14.817 Y69.333 Z-11.665
X14.78 Y69.352 Z-11.668
X14.74 Y69.356 Z-11.671
X14.7 Y69.344 Z-11.673
X14.668 Y69.318 Z-11.676
X14.649 Y69.282 Z-11.679
X14.644 Y69.241 Z-11.682
X14.655 Y69.202 Z-11.684
X14.68 Y69.17 Z-11.687
X14.716 Y69.149 Z-11.69
X14.757 Y69.144 Z-11.692
X14.796 Y69.154 Z-11.695
X14.829 Y69.179 Z-11.698
X14.85 Y69.214 Z-11.7
X14.856 Y69.255 Z-11.703
X14.846 Y69.295 Z-11.706
X14.822 Y69.328 Z-11.709
X14.787 Y69.35 Z-11.711
X14.747 Y69.356 Z-11.714
X14.707 Y69.347 Z-11.717
X14.673 Y69.324 Z-11.719
X14.651 Y69.289 Z-11.722
X14.644 Y69.249 Z-11.725
X14.652 Y69.208 Z-11.727
X14.675 Y69.175 Z-11.73
X14.709 Y69.152 Z-11.733
X14.75 Y69.144 Z-11.735
X14.79 Y69.151 Z-11.738
X14.824 Y69.174 Z-11.741
X14.847 Y69.208 Z-11.744
X14.856 Y69.248 Z-11.746
X14.849 Y69.288 Z-11.749
X14.827 Y69.323 Z-11.752
X14.794 Y69.347 Z-11.754
X14.754 Y69.356 Z-11.757
X14.714 Y69.35 Z-11.76
X14.678 Y69.329 Z-11.762
X14.654 Y69.296 Z-11.765
X14.644 Y69.256 Z-11.768
X14.65 Y69.215 Z-11.771
X14.67 Y69.18 Z-11.773
X14.703 Y69.155 Z-11.776
X14.742 Y69.144 Z-11.779
X14.783 Y69.149 Z-11.781
X14.819 Y69.169 Z-11.784
X14.844 Y69.201 Z-11.787
X14.856 Y69.24 Z-11.789
X14.852 Y69.281 Z-11.792
X14.832 Y69.317 Z-11.795
X14.801 Y69.344 Z-11.798
X14.761 Y69.356 Z-11.8
X14.72 Y69.352 Z-11.803
X14.684 Y69.333 Z-11.806
X14.657 Y69.302 Z-11.808
X14.645 Y69.263 Z-11.811
X14.647 Y69.222 Z-11.814
X14.666 Y69.185 Z-11.816
X14.696 Y69.158 Z-11.819
X14.735 Y69.145 Z-11.822
X14.776 Y69.147 Z-11.825
X14.813 Y69.164 Z-11.827
X14.841 Y69.195 Z-11.83
X14.855 Y69.233 Z-11.833
X14.854 Y69.274 Z-11.835
X14.837 Y69.312 Z-11.838
X14.807 Y69.34 Z-11.841
X14.769 Y69.355 Z-11.843
X14.728 Y69.354 Z-11.846
X14.69 Y69.338 Z-11.849
X14.661 Y69.308 Z-11.852
X14.646 Y69.27 Z-11.854
Y69.229 Z-11.857
X14.661 Y69.191 Z-11.86
X14.69 Y69.162 Z-11.862
X14.728 Y69.146 Z-11.865
X14.769 Y69.145 Z-11.868
X14.807 Y69.16 Z-11.87
X14.837 Y69.189 Z-11.873
X14.854 Y69.226 Z-11.876
X14.855 Y69.267 Z-11.879
X14.841 Y69.306 Z-11.881
X14.813 Y69.336 Z-11.884
X14.776 Y69.353 Z-11.887
X14.735 Y69.355 Z-11.889
X14.696 Y69.342 Z-11.892
X14.665 Y69.314 Z-11.895
X14.647 Y69.277 Z-11.897
X14.645 Y69.237 Z-11.9
X14.658 Y69.198 Z-11.903
X14.684 Y69.166 Z-11.906
X14.721 Y69.148 Z-11.908
X14.762 Y69.144 Z-11.911
X14.801 Y69.157 Z-11.914
X14.832 Y69.183 Z-11.916
X14.852 Y69.219 Z-11.919
X14.856 Y69.26 Z-11.922
X14.844 Y69.299 Z-11.924
X14.819 Y69.331 Z-11.927
X14.783 Y69.351 Z-11.93
X14.742 Y69.356 Z-11.933
X14.702 Y69.345 Z-11.935
X14.67 Y69.32 Z-11.938
X14.649 Y69.284 Z-11.941
X14.644 Y69.244 Z-11.943
X14.654 Y69.204 Z-11.946
X14.679 Y69.171 Z-11.949
X14.714 Y69.15 Z-11.951
X14.754 Y69.144 Z-11.954
X14.794 Y69.153 Z-11.957
X14.828 Y69.177 Z-11.96
X14.849 Y69.212 Z-11.962
X14.856 Y69.253 Z-11.965
X14.847 Y69.293 Z-11.968
X14.824 Y69.326 Z-11.97
X14.79 Y69.349 Z-11.973
X14.749 Y69.356 Z-11.976
X14.709 Y69.348 Z-11.978
X14.675 Y69.325 Z-11.981
X14.652 Y69.291 Z-11.984
X14.644 Y69.251 Z-11.987
X14.651 Y69.211 Z-11.989
X14.673 Y69.176 Z-11.992
X14.707 Y69.153 Z-11.995
X14.747 Y69.144 Z-11.997
X14.788 Y69.151 Z-12.
G3 X14.849 Y69.288 R0.106
X14.712 Y69.349 R0.106
X14.651 Y69.212 R0.106
X14.788 Y69.151 R0.106
G1 X14.81 Y69.167
X14.821 Y69.192
X14.819 Y69.219
X14.805 Y69.256
X14.794 Y69.284 Z-11.994
X14.785 Y69.308 Z-11.977
X14.779 Y69.324 Z-11.951
X14.777 Y69.33 Z-11.921
G0 Z5.
X14.685 Y55.697
Z-8.
G1 Z-9.921 F1500.
X14.691 Z-9.951
X14.708 Z-9.977
X14.734 Z-9.994
X14.764 Z-10.
X14.803
X14.83 Y55.704
X14.849 Y55.723
X14.856 Y55.75
X14.848 Y55.79 Z-10.003
X14.826 Y55.825 Z-10.005
X14.792 Y55.848 Z-10.008
X14.752 Y55.856 Z-10.011
X14.711 Y55.849 Z-10.013
X14.677 Y55.827 Z-10.016
X14.653 Y55.794 Z-10.019
X14.644 Y55.754 Z-10.022
X14.65 Y55.713 Z-10.024
X14.672 Y55.678 Z-10.027
X14.705 Y55.654 Z-10.03
X14.745 Y55.644 Z-10.032
X14.785 Y55.65 Z-10.035
X14.821 Y55.67 Z-10.038
X14.845 Y55.703 Z-10.04
X14.856 Y55.743 Z-10.043
X14.851 Y55.783 Z-10.046
X14.831 Y55.819 Z-10.049
X14.799 Y55.845 Z-10.051
X14.759 Y55.856 Z-10.054
X14.718 Y55.851 Z-10.057
X14.682 Y55.832 Z-10.059
X14.656 Y55.8 Z-10.062
X14.644 Y55.761 Z-10.065
X14.648 Y55.72 Z-10.067
X14.667 Y55.684 Z-10.07
X14.698 Y55.657 Z-10.073
X14.737 Y55.644 Z-10.076
X14.778 Y55.648 Z-10.078
X14.815 Y55.666 Z-10.081
X14.842 Y55.697 Z-10.084
X14.855 Y55.735 Z-10.086
X14.853 Y55.776 Z-10.089
X14.835 Y55.813 Z-10.092
X14.805 Y55.841 Z-10.094
X14.766 Y55.855 Z-10.097
X14.725 Y55.853 Z-10.1
X14.688 Y55.836 Z-10.103
X14.66 Y55.806 Z-10.105
X14.645 Y55.768 Z-10.108
X14.646 Y55.727 Z-10.111
X14.663 Y55.689 Z-10.113
X14.692 Y55.661 Z-10.116
X14.73 Y55.646 Z-10.119
X14.771 Z-10.121
X14.809 Y55.662 Z-10.124
X14.838 Y55.691 Z-10.127
X14.854 Y55.728 Z-10.13
X14.855 Y55.769 Z-10.132
X14.839 Y55.807 Z-10.135
X14.811 Y55.837 Z-10.138
X14.773 Y55.854 Z-10.14
X14.732 Y55.855 Z-10.143
X14.694 Y55.84 Z-10.146
X14.664 Y55.812 Z-10.148
X14.647 Y55.775 Z-10.151
X14.645 Y55.734 Z-10.154
X14.659 Y55.696 Z-10.157
X14.686 Y55.665 Z-10.159
X14.723 Y55.647 Z-10.162
X14.764 Y55.645 Z-10.165
X14.803 Y55.658 Z-10.167
X14.834 Y55.685 Z-10.17
X14.852 Y55.721 Z-10.173
X14.856 Y55.762 Z-10.175
X14.843 Y55.801 Z-10.178
X14.817 Y55.833 Z-10.181
X14.781 Y55.852 Z-10.184
X14.74 Y55.856 Z-10.186
X14.7 Y55.844 Z-10.189
X14.668 Y55.818 Z-10.192
X14.649 Y55.782 Z-10.194
X14.644 Y55.741 Z-10.197
X14.655 Y55.702 Z-10.2
X14.68 Y55.67 Z-10.202
X14.716 Y55.649 Z-10.205
X14.757 Y55.644 Z-10.208
X14.796 Y55.654 Z-10.211
X14.829 Y55.679 Z-10.213
X14.85 Y55.714 Z-10.216
X14.856 Y55.755 Z-10.219
X14.846 Y55.795 Z-10.221
X14.822 Y55.828 Z-10.224
X14.787 Y55.849 Z-10.227
X14.747 Y55.856 Z-10.229
X14.707 Y55.847 Z-10.232
X14.673 Y55.824 Z-10.235
X14.651 Y55.789 Z-10.238
X14.644 Y55.749 Z-10.24
X14.652 Y55.709 Z-10.243
X14.675 Y55.675 Z-10.246
X14.709 Y55.652 Z-10.248
X14.749 Y55.644 Z-10.251
X14.79 Y55.651 Z-10.254
X14.824 Y55.674 Z-10.256
X14.847 Y55.708 Z-10.259
X14.856 Y55.748 Z-10.262
X14.849 Y55.788 Z-10.265
X14.827 Y55.823 Z-10.267
X14.794 Y55.847 Z-10.27
X14.754 Y55.856 Z-10.273
X14.714 Y55.85 Z-10.275
X14.679 Y55.829 Z-10.278
X14.654 Y55.796 Z-10.281
X14.644 Y55.756 Z-10.283
X14.649 Y55.715 Z-10.286
X14.67 Y55.68 Z-10.289
X14.703 Y55.655 Z-10.291
X14.742 Y55.644 Z-10.294
X14.783 Y55.649 Z-10.297
X14.819 Y55.669 Z-10.3
X14.844 Y55.701 Z-10.302
X14.856 Y55.74 Z-10.305
X14.852 Y55.781 Z-10.308
X14.832 Y55.817 Z-10.31
X14.801 Y55.843 Z-10.313
X14.761 Y55.856 Z-10.316
X14.721 Y55.852 Z-10.318
X14.684 Y55.833 Z-10.321
X14.657 Y55.802 Z-10.324
X14.645 Y55.763 Z-10.327
X14.647 Y55.722 Z-10.329
X14.665 Y55.686 Z-10.332
X14.696 Y55.658 Z-10.335
X14.735 Y55.645 Z-10.337
X14.776 Y55.647 Z-10.34
X14.813 Y55.664 Z-10.343
X14.841 Y55.695 Z-10.345
X14.855 Y55.733 Z-10.348
X14.854 Y55.774 Z-10.351
X14.837 Y55.812 Z-10.354
X14.807 Y55.84 Z-10.356
X14.769 Y55.855 Z-10.359
X14.728 Y55.854 Z-10.362
X14.69 Y55.838 Z-10.364
X14.661 Y55.808 Z-10.367
X14.646 Y55.77 Z-10.37
Y55.729 Z-10.372
X14.661 Y55.691 Z-10.375
X14.69 Y55.662 Z-10.378
X14.728 Y55.646 Z-10.381
X14.769 Y55.645 Z-10.383
X14.807 Y55.66 Z-10.386
X14.837 Y55.689 Z-10.389
X14.854 Y55.726 Z-10.391
X14.855 Y55.767 Z-10.394
X14.841 Y55.805 Z-10.397
X14.813 Y55.836 Z-10.399
X14.776 Y55.853 Z-10.402
X14.735 Y55.855 Z-10.405
X14.696 Y55.842 Z-10.408
X14.665 Y55.814 Z-10.41
X14.647 Y55.778 Z-10.413
X14.645 Y55.737 Z-10.416
X14.657 Y55.698 Z-10.418
X14.684 Y55.667 Z-10.421
X14.721 Y55.648 Z-10.424
X14.762 Y55.644 Z-10.426
X14.801 Y55.657 Z-10.429
X14.832 Y55.683 Z-10.432
X14.852 Y55.719 Z-10.435
X14.856 Y55.76 Z-10.437
X14.844 Y55.799 Z-10.44
X14.819 Y55.831 Z-10.443
X14.783 Y55.851 Z-10.445
X14.742 Y55.856 Z-10.448
X14.703 Y55.845 Z-10.451
X14.67 Y55.82 Z-10.453
X14.649 Y55.785 Z-10.456
X14.644 Y55.744 Z-10.459
X14.654 Y55.704 Z-10.462
X14.679 Y55.671 Z-10.464
X14.714 Y55.65 Z-10.467
X14.754 Y55.644 Z-10.47
X14.794 Y55.653 Z-10.472
X14.828 Y55.677 Z-10.475
X14.849 Y55.712 Z-10.478
X14.856 Y55.752 Z-10.48
X14.847 Y55.793 Z-10.483
X14.824 Y55.826 Z-10.486
X14.79 Y55.849 Z-10.489
X14.749 Y55.856 Z-10.491
X14.709 Y55.848 Z-10.494
X14.675 Y55.825 Z-10.497
X14.652 Y55.791 Z-10.499
X14.644 Y55.751 Z-10.502
X14.651 Y55.711 Z-10.505
X14.673 Y55.676 Z-10.507
X14.707 Y55.653 Z-10.51
X14.747 Y55.644 Z-10.513
X14.787 Y55.651 Z-10.516
X14.822 Y55.672 Z-10.518
X14.846 Y55.705 Z-10.521
X14.856 Y55.745 Z-10.524
X14.85 Y55.786 Z-10.526
X14.829 Y55.821 Z-10.529
X14.796 Y55.846 Z-10.532
X14.757 Y55.856 Z-10.534
X14.716 Y55.851 Z-10.537
X14.68 Y55.83 Z-10.54
X14.655 Y55.798 Z-10.543
X14.644 Y55.758 Z-10.545
X14.649 Y55.718 Z-10.548
X14.669 Y55.682 Z-10.551
X14.7 Y55.656 Z-10.553
X14.74 Y55.644 Z-10.556
X14.781 Y55.648 Z-10.559
X14.817 Y55.667 Z-10.561
X14.843 Y55.699 Z-10.564
X14.856 Y55.738 Z-10.567
X14.852 Y55.779 Z-10.57
X14.834 Y55.815 Z-10.572
X14.803 Y55.842 Z-10.575
X14.764 Y55.855 Z-10.578
X14.723 Y55.853 Z-10.58
X14.686 Y55.835 Z-10.583
X14.659 Y55.804 Z-10.586
X14.645 Y55.766 Z-10.588
X14.647 Y55.725 Z-10.591
X14.664 Y55.687 Z-10.594
X14.694 Y55.66 Z-10.596
X14.733 Y55.645 Z-10.599
X14.774 Y55.646 Z-10.602
X14.811 Y55.663 Z-10.605
X14.839 Y55.693 Z-10.607
X14.855 Y55.731 Z-10.61
X14.854 Y55.772 Z-10.613
X14.838 Y55.81 Z-10.615
X14.809 Y55.838 Z-10.618
X14.771 Y55.854 Z-10.621
X14.73 Z-10.623
X14.692 Y55.839 Z-10.626
X14.663 Y55.81 Z-10.629
X14.646 Y55.773 Z-10.632
X14.645 Y55.732 Z-10.634
X14.66 Y55.694 Z-10.637
X14.688 Y55.664 Z-10.64
X14.725 Y55.647 Z-10.642
X14.766 Y55.645 Z-10.645
X14.805 Y55.659 Z-10.648
X14.835 Y55.687 Z-10.65
X14.853 Y55.724 Z-10.653
X14.855 Y55.765 Z-10.656
X14.842 Y55.803 Z-10.659
X14.815 Y55.834 Z-10.661
X14.778 Y55.853 Z-10.664
X14.737 Y55.856 Z-10.667
X14.698 Y55.843 Z-10.669
X14.667 Y55.816 Z-10.672
X14.648 Y55.78 Z-10.675
X14.644 Y55.739 Z-10.677
X14.656 Y55.7 Z-10.68
X14.682 Y55.668 Z-10.683
X14.718 Y55.649 Z-10.686
X14.759 Y55.644 Z-10.688
X14.799 Y55.655 Z-10.691
X14.831 Y55.681 Z-10.694
X14.851 Y55.717 Z-10.696
X14.856 Y55.757 Z-10.699
X14.845 Y55.797 Z-10.702
X14.82 Y55.83 Z-10.704
X14.785 Y55.85 Z-10.707
X14.744 Y55.856 Z-10.71
X14.705 Y55.846 Z-10.713
X14.672 Y55.822 Z-10.715
X14.65 Y55.787 Z-10.718
X14.644 Y55.746 Z-10.721
X14.653 Y55.706 Z-10.723
X14.677 Y55.673 Z-10.726
X14.711 Y55.651 Z-10.729
X14.752 Y55.644 Z-10.731
X14.792 Y55.652 Z-10.734
X14.826 Y55.676 Z-10.737
X14.848 Y55.71 Z-10.74
X14.856 Y55.75 Z-10.742
X14.848 Y55.79 Z-10.745
X14.826 Y55.825 Z-10.748
X14.792 Y55.848 Z-10.75
X14.752 Y55.856 Z-10.753
X14.711 Y55.849 Z-10.756
X14.677 Y55.827 Z-10.758
X14.653 Y55.794 Z-10.761
X14.644 Y55.754 Z-10.764
X14.65 Y55.713 Z-10.767
X14.672 Y55.678 Z-10.769
X14.705 Y55.654 Z-10.772
X14.745 Y55.644 Z-10.775
X14.785 Y55.65 Z-10.777
X14.821 Y55.671 Z-10.78
X14.845 Y55.703 Z-10.783
X14.856 Y55.743 Z-10.785
X14.851 Y55.783 Z-10.788
X14.831 Y55.819 Z-10.791
X14.798 Y55.845 Z-10.794
X14.759 Y55.856 Z-10.796
X14.718 Y55.851 Z-10.799
X14.682 Y55.832 Z-10.802
X14.656 Y55.8 Z-10.804
X14.644 Y55.761 Z-10.807
X14.648 Y55.72 Z-10.81
X14.667 Y55.684 Z-10.812
X14.698 Y55.657 Z-10.815
X14.737 Y55.644 Z-10.818
X14.778 Y55.648 Z-10.821
X14.815 Y55.666 Z-10.823
X14.842 Y55.697 Z-10.826
X14.855 Y55.736 Z-10.829
X14.853 Y55.777 Z-10.831
X14.835 Y55.814 Z-10.834
X14.805 Y55.841 Z-10.837
X14.766 Y55.855 Z-10.839
X14.725 Y55.853 Z-10.842
X14.688 Y55.836 Z-10.845
X14.66 Y55.806 Z-10.848
X14.645 Y55.768 Z-10.85
X14.646 Y55.727 Z-10.853
X14.663 Y55.689 Z-10.856
X14.692 Y55.661 Z-10.858
X14.73 Y55.646 Z-10.861
X14.771 Z-10.864
X14.809 Y55.662 Z-10.866
X14.838 Y55.691 Z-10.869
X14.854 Y55.728 Z-10.872
X14.855 Y55.769 Z-10.874
X14.839 Y55.808 Z-10.877
X14.811 Y55.837 Z-10.88
X14.773 Y55.854 Z-10.883
X14.732 Y55.855 Z-10.885
X14.694 Y55.84 Z-10.888
X14.664 Y55.812 Z-10.891
X14.647 Y55.775 Z-10.893
X14.645 Y55.734 Z-10.896
X14.659 Y55.696 Z-10.899
X14.686 Y55.665 Z-10.901
X14.723 Y55.647 Z-10.904
X14.764 Y55.645 Z-10.907
X14.803 Y55.658 Z-10.91
X14.834 Y55.685 Z-10.912
X14.852 Y55.721 Z-10.915
X14.856 Y55.762 Z-10.918
X14.843 Y55.801 Z-10.92
X14.817 Y55.833 Z-10.923
X14.78 Y55.852 Z-10.926
X14.74 Y55.856 Z-10.928
X14.7 Y55.844 Z-10.931
X14.668 Y55.818 Z-10.934
X14.649 Y55.782 Z-10.937
X14.644 Y55.741 Z-10.939
X14.655 Y55.702 Z-10.942
X14.68 Y55.67 Z-10.945
X14.716 Y55.649 Z-10.947
X14.757 Y55.644 Z-10.95
X14.796 Y55.654 Z-10.953
X14.829 Y55.679 Z-10.955
X14.85 Y55.714 Z-10.958
X14.856 Y55.755 Z-10.961
X14.846 Y55.795 Z-10.964
X14.822 Y55.828 Z-10.966
X14.787 Y55.85 Z-10.969
X14.747 Y55.856 Z-10.972
X14.707 Y55.847 Z-10.974
X14.673 Y55.824 Z-10.977
X14.651 Y55.789 Z-10.98
X14.644 Y55.749 Z-10.982
X14.652 Y55.709 Z-10.985
X14.675 Y55.675 Z-10.988
X14.709 Y55.652 Z-10.991
X14.749 Y55.644 Z-10.993
X14.79 Y55.651 Z-10.996
X14.824 Y55.674 Z-10.999
X14.847 Y55.708 Z-11.001
X14.856 Y55.748 Z-11.004
X14.849 Y55.788 Z-11.007
X14.827 Y55.823 Z-11.009
X14.794 Y55.847 Z-11.012
X14.754 Y55.856 Z-11.015
X14.714 Y55.85 Z-11.018
X14.679 Y55.829 Z-11.02
X14.654 Y55.796 Z-11.023
X14.644 Y55.756 Z-11.026
X14.65 Y55.715 Z-11.028
X14.67 Y55.68 Z-11.031
X14.703 Y55.655 Z-11.034
X14.742 Y55.644 Z-11.036
X14.783 Y55.649 Z-11.039
X14.819 Y55.669 Z-11.042
X14.844 Y55.701 Z-11.045
X14.856 Y55.74 Z-11.047
X14.852 Y55.781 Z-11.05
X14.832 Y55.817 Z-11.053
X14.801 Y55.843 Z-11.055
X14.761 Y55.856 Z-11.058
X14.721 Y55.852 Z-11.061
X14.684 Y55.833 Z-11.063
X14.657 Y55.802 Z-11.066
X14.645 Y55.763 Z-11.069
X14.647 Y55.722 Z-11.072
X14.666 Y55.685 Z-11.074
X14.696 Y55.658 Z-11.077
X14.735 Y55.645 Z-11.08
X14.776 Y55.647 Z-11.082
X14.813 Y55.664 Z-11.085
X14.841 Y55.695 Z-11.088
X14.855 Y55.733 Z-11.09
X14.854 Y55.774 Z-11.093
X14.837 Y55.812 Z-11.096
X14.807 Y55.84 Z-11.099
X14.769 Y55.855 Z-11.101
X14.728 Y55.854 Z-11.104
X14.69 Y55.838 Z-11.107
X14.661 Y55.808 Z-11.109
X14.646 Y55.77 Z-11.112
Y55.729 Z-11.115
X14.661 Y55.691 Z-11.117
X14.69 Y55.662 Z-11.12
X14.728 Y55.646 Z-11.123
X14.769 Y55.645 Z-11.126
X14.807 Y55.66 Z-11.128
X14.837 Y55.689 Z-11.131
X14.854 Y55.726 Z-11.134
X14.855 Y55.767 Z-11.136
X14.841 Y55.805 Z-11.139
X14.813 Y55.836 Z-11.142
X14.776 Y55.853 Z-11.144
X14.735 Y55.855 Z-11.147
X14.696 Y55.842 Z-11.15
X14.665 Y55.814 Z-11.152
X14.647 Y55.778 Z-11.155
X14.645 Y55.737 Z-11.158
X14.657 Y55.698 Z-11.161
X14.684 Y55.667 Z-11.163
X14.721 Y55.648 Z-11.166
X14.762 Y55.644 Z-11.169
X14.801 Y55.657 Z-11.171
X14.832 Y55.683 Z-11.174
X14.852 Y55.719 Z-11.177
X14.856 Y55.76 Z-11.179
X14.844 Y55.799 Z-11.182
X14.819 Y55.831 Z-11.185
X14.783 Y55.851 Z-11.188
X14.742 Y55.856 Z-11.19
X14.702 Y55.845 Z-11.193
X14.67 Y55.82 Z-11.196
X14.649 Y55.784 Z-11.198
X14.644 Y55.744 Z-11.201
X14.654 Y55.704 Z-11.204
X14.679 Y55.671 Z-11.206
X14.714 Y55.65 Z-11.209
X14.754 Y55.644 Z-11.212
X14.794 Y55.653 Z-11.215
X14.828 Y55.677 Z-11.217
X14.849 Y55.712 Z-11.22
X14.856 Y55.753 Z-11.223
X14.847 Y55.793 Z-11.225
X14.824 Y55.826 Z-11.228
X14.79 Y55.849 Z-11.231
X14.749 Y55.856 Z-11.233
X14.709 Y55.848 Z-11.236
X14.675 Y55.825 Z-11.239
X14.652 Y55.791 Z-11.242
X14.644 Y55.751 Z-11.244
X14.651 Y55.711 Z-11.247
X14.673 Y55.676 Z-11.25
X14.707 Y55.653 Z-11.252
X14.747 Y55.644 Z-11.255
X14.788 Y55.651 Z-11.258
X14.822 Y55.672 Z-11.26
X14.846 Y55.705 Z-11.263
X14.856 Y55.745 Z-11.266
X14.85 Y55.786 Z-11.269
X14.829 Y55.821 Z-11.271
X14.796 Y55.846 Z-11.274
X14.757 Y55.856 Z-11.277
X14.716 Y55.851 Z-11.279
X14.68 Y55.83 Z-11.282
X14.655 Y55.798 Z-11.285
X14.644 Y55.758 Z-11.287
X14.649 Y55.718 Z-11.29
X14.669 Y55.682 Z-11.293
X14.7 Y55.656 Z-11.296
X14.74 Y55.644 Z-11.298
X14.781 Y55.648 Z-11.301
X14.817 Y55.667 Z-11.304
X14.843 Y55.699 Z-11.306
X14.856 Y55.738 Z-11.309
X14.852 Y55.779 Z-11.312
X14.834 Y55.815 Z-11.314
X14.803 Y55.842 Z-11.317
X14.764 Y55.855 Z-11.32
X14.723 Y55.853 Z-11.323
X14.686 Y55.835 Z-11.325
X14.659 Y55.804 Z-11.328
X14.645 Y55.766 Z-11.331
X14.647 Y55.725 Z-11.333
X14.664 Y55.687 Z-11.336
X14.694 Y55.66 Z-11.339
X14.733 Y55.645 Z-11.341
X14.774 Y55.646 Z-11.344
X14.811 Y55.663 Z-11.347
X14.839 Y55.693 Z-11.35
X14.855 Y55.731 Z-11.352
X14.854 Y55.772 Z-11.355
X14.838 Y55.81 Z-11.358
X14.809 Y55.838 Z-11.36
X14.771 Y55.854 Z-11.363
X14.73 Z-11.366
X14.692 Y55.839 Z-11.368
X14.663 Y55.81 Z-11.371
X14.646 Y55.773 Z-11.374
X14.645 Y55.732 Z-11.377
X14.66 Y55.693 Z-11.379
X14.688 Y55.664 Z-11.382
X14.725 Y55.647 Z-11.385
X14.766 Y55.645 Z-11.387
X14.805 Y55.659 Z-11.39
X14.835 Y55.687 Z-11.393
X14.853 Y55.724 Z-11.395
X14.855 Y55.765 Z-11.398
X14.842 Y55.803 Z-11.401
X14.815 Y55.834 Z-11.404
X14.778 Y55.853 Z-11.406
X14.737 Y55.856 Z-11.409
X14.698 Y55.843 Z-11.412
X14.667 Y55.816 Z-11.414
X14.648 Y55.78 Z-11.417
X14.644 Y55.739 Z-11.42
X14.656 Y55.7 Z-11.422
X14.682 Y55.668 Z-11.425
X14.718 Y55.648 Z-11.428
X14.759 Y55.644 Z-11.43
X14.799 Y55.655 Z-11.433
X14.831 Y55.681 Z-11.436
X14.851 Y55.717 Z-11.439
X14.856 Y55.757 Z-11.441
X14.845 Y55.797 Z-11.444
X14.82 Y55.83 Z-11.447
X14.785 Y55.85 Z-11.449
X14.744 Y55.856 Z-11.452
X14.705 Y55.846 Z-11.455
X14.672 Y55.822 Z-11.457
X14.65 Y55.787 Z-11.46
X14.644 Y55.746 Z-11.463
X14.653 Y55.706 Z-11.466
X14.677 Y55.673 Z-11.468
X14.712 Y55.651 Z-11.471
X14.752 Y55.644 Z-11.474
X14.792 Y55.652 Z-11.476
X14.826 Y55.676 Z-11.479
X14.848 Y55.71 Z-11.482
X14.856 Y55.75 Z-11.484
X14.848 Y55.79 Z-11.487
X14.826 Y55.825 Z-11.49
X14.792 Y55.848 Z-11.493
X14.752 Y55.856 Z-11.495
X14.711 Y55.849 Z-11.498
X14.677 Y55.827 Z-11.501
X14.653 Y55.793 Z-11.503
X14.644 Y55.754 Z-11.506
X14.65 Y55.713 Z-11.509
X14.672 Y55.678 Z-11.511
X14.705 Y55.654 Z-11.514
X14.745 Y55.644 Z-11.517
X14.785 Y55.65 Z-11.52
X14.821 Y55.671 Z-11.522
X14.845 Y55.703 Z-11.525
X14.856 Y55.743 Z-11.528
X14.851 Y55.784 Z-11.53
X14.831 Y55.819 Z-11.533
X14.798 Y55.845 Z-11.536
X14.759 Y55.856 Z-11.538
X14.718 Y55.851 Z-11.541
X14.682 Y55.832 Z-11.544
X14.656 Y55.8 Z-11.547
X14.644 Y55.761 Z-11.549
X14.648 Y55.72 Z-11.552
X14.667 Y55.684 Z-11.555
X14.698 Y55.657 Z-11.557
X14.737 Y55.644 Z-11.56
X14.778 Y55.648 Z-11.563
X14.815 Y55.666 Z-11.565
X14.842 Y55.697 Z-11.568
X14.855 Y55.736 Z-11.571
X14.853 Y55.777 Z-11.574
X14.835 Y55.814 Z-11.576
X14.805 Y55.841 Z-11.579
X14.766 Y55.855 Z-11.582
X14.725 Y55.853 Z-11.584
X14.688 Y55.836 Z-11.587
X14.66 Y55.806 Z-11.59
X14.645 Y55.768 Z-11.592
X14.646 Y55.727 Z-11.595
X14.663 Y55.689 Z-11.598
X14.692 Y55.661 Z-11.601
X14.73 Y55.646 Z-11.603
X14.771 Z-11.606
X14.809 Y55.662 Z-11.609
X14.838 Y55.691 Z-11.611
X14.854 Y55.728 Z-11.614
X14.855 Y55.769 Z-11.617
X14.839 Y55.808 Z-11.619
X14.811 Y55.837 Z-11.622
X14.773 Y55.854 Z-11.625
X14.732 Y55.855 Z-11.628
X14.694 Y55.84 Z-11.63
X14.664 Y55.812 Z-11.633
X14.647 Y55.775 Z-11.636
X14.645 Y55.734 Z-11.638
X14.659 Y55.696 Z-11.641
X14.686 Y55.665 Z-11.644
X14.723 Y55.647 Z-11.646
X14.764 Y55.645 Z-11.649
X14.803 Y55.658 Z-11.652
X14.834 Y55.685 Z-11.655
X14.852 Y55.721 Z-11.657
X14.856 Y55.762 Z-11.66
X14.843 Y55.801 Z-11.663
X14.817 Y55.833 Z-11.665
X14.78 Y55.852 Z-11.668
X14.74 Y55.856 Z-11.671
X14.7 Y55.844 Z-11.673
X14.668 Y55.818 Z-11.676
X14.649 Y55.782 Z-11.679
X14.644 Y55.741 Z-11.682
X14.655 Y55.702 Z-11.684
X14.68 Y55.67 Z-11.687
X14.716 Y55.649 Z-11.69
X14.757 Y55.644 Z-11.692
X14.796 Y55.654 Z-11.695
X14.829 Y55.679 Z-11.698
X14.85 Y55.714 Z-11.7
X14.856 Y55.755 Z-11.703
X14.846 Y55.795 Z-11.706
X14.822 Y55.828 Z-11.709
X14.787 Y55.85 Z-11.711
X14.747 Y55.856 Z-11.714
X14.707 Y55.847 Z-11.717
X14.673 Y55.824 Z-11.719
X14.651 Y55.789 Z-11.722
X14.644 Y55.749 Z-11.725
X14.652 Y55.708 Z-11.727
X14.675 Y55.675 Z-11.73
X14.709 Y55.652 Z-11.733
X14.75 Y55.644 Z-11.735
X14.79 Y55.651 Z-11.738
X14.824 Y55.674 Z-11.741
X14.847 Y55.708 Z-11.744
X14.856 Y55.748 Z-11.746
X14.849 Y55.788 Z-11.749
X14.827 Y55.823 Z-11.752
X14.794 Y55.847 Z-11.754
X14.754 Y55.856 Z-11.757
X14.714 Y55.85 Z-11.76
X14.678 Y55.829 Z-11.762
X14.654 Y55.796 Z-11.765
X14.644 Y55.756 Z-11.768
X14.65 Y55.715 Z-11.771
X14.67 Y55.68 Z-11.773
X14.703 Y55.655 Z-11.776
X14.742 Y55.644 Z-11.779
X14.783 Y55.649 Z-11.781
X14.819 Y55.669 Z-11.784
X14.844 Y55.701 Z-11.787
X14.856 Y55.74 Z-11.789
X14.852 Y55.781 Z-11.792
X14.832 Y55.817 Z-11.795
X14.801 Y55.844 Z-11.798
X14.761 Y55.856 Z-11.8
X14.72 Y55.852 Z-11.803
X14.684 Y55.833 Z-11.806
X14.657 Y55.802 Z-11.808
X14.645 Y55.763 Z-11.811
X14.647 Y55.722 Z-11.814
X14.666 Y55.685 Z-11.816
X14.696 Y55.658 Z-11.819
X14.735 Y55.645 Z-11.822
X14.776 Y55.647 Z-11.825
X14.813 Y55.664 Z-11.827
X14.841 Y55.695 Z-11.83
X14.855 Y55.733 Z-11.833
X14.854 Y55.774 Z-11.835
X14.837 Y55.812 Z-11.838
X14.807 Y55.84 Z-11.841
X14.769 Y55.855 Z-11.843
X14.728 Y55.854 Z-11.846
X14.69 Y55.838 Z-11.849
X14.661 Y55.808 Z-11.852
X14.646 Y55.77 Z-11.854
Y55.729 Z-11.857
X14.661 Y55.691 Z-11.86
X14.69 Y55.662 Z-11.862
X14.728 Y55.646 Z-11.865
X14.769 Y55.645 Z-11.868
X14.807 Y55.66 Z-11.87
X14.837 Y55.689 Z-11.873
X14.854 Y55.726 Z-11.876
X14.855 Y55.767 Z-11.879
X14.841 Y55.806 Z-11.881
X14.813 Y55.836 Z-11.884
X14.776 Y55.853 Z-11.887
X14.735 Y55.855 Z-11.889
X14.696 Y55.842 Z-11.892
X14.665 Y55.814 Z-11.895
X14.647 Y55.777 Z-11.897
X14.645 Y55.737 Z-11.9
X14.658 Y55.698 Z-11.903
X14.684 Y55.666 Z-11.906
X14.721 Y55.648 Z-11.908
X14.762 Y55.644 Z-11.911
X14.801 Y55.657 Z-11.914
X14.832 Y55.683 Z-11.916
X14.852 Y55.719 Z-11.919
X14.856 Y55.76 Z-11.922
X14.844 Y55.799 Z-11.924
X14.819 Y55.831 Z-11.927
X14.783 Y55.851 Z-11.93
X14.742 Y55.856 Z-11.933
X14.702 Y55.845 Z-11.935
X14.67 Y55.82 Z-11.938
X14.649 Y55.784 Z-11.941
X14.644 Y55.744 Z-11.943
X14.654 Y55.704 Z-11.946
X14.679 Y55.671 Z-11.949
X14.714 Y55.65 Z-11.951
X14.754 Y55.644 Z-11.954
X14.794 Y55.653 Z-11.957
X14.828 Y55.677 Z-11.96
X14.849 Y55.712 Z-11.962
X14.856 Y55.753 Z-11.965
X14.847 Y55.793 Z-11.968
X14.824 Y55.826 Z-11.97
X14.79 Y55.849 Z-11.973
X14.749 Y55.856 Z-11.976
X14.709 Y55.848 Z-11.978
X14.675 Y55.825 Z-11.981
X14.652 Y55.791 Z-11.984
X14.644 Y55.751 Z-11.987
X14.651 Y55.711 Z-11.989
X14.673 Y55.676 Z-11.992
X14.707 Y55.653 Z-11.995
X14.747 Y55.644 Z-11.997
X14.788 Y55.651 Z-12.
G3 X14.849 Y55.788 R0.106
X14.712 Y55.849 R0.106
X14.651 Y55.712 R0.106
X14.788 Y55.651 R0.106
G1 X14.81 Y55.667
X14.821 Y55.692
X14.819 Y55.719
X14.805 Y55.756
X14.794 Y55.784 Z-11.994
X14.785 Y55.808 Z-11.977
X14.779 Y55.824 Z-11.951
X14.777 Y55.83 Z-11.921
G0 Z5.
X14.685 Y49.697
Z-8.
G1 Z-9.921 F1500.
X14.691 Z-9.951
X14.708 Z-9.977
X14.734 Z-9.994
X14.764 Z-10.
X14.803
X14.83 Y49.704
X14.849 Y49.723
X14.856 Y49.75
X14.848 Y49.79 Z-10.003
X14.826 Y49.825 Z-10.005
X14.792 Y49.848 Z-10.008
X14.752 Y49.856 Z-10.011
X14.711 Y49.849 Z-10.013
X14.677 Y49.827 Z-10.016
X14.653 Y49.794 Z-10.019
X14.644 Y49.754 Z-10.022
X14.65 Y49.713 Z-10.024
X14.672 Y49.678 Z-10.027
X14.705 Y49.654 Z-10.03
X14.745 Y49.644 Z-10.032
X14.785 Y49.65 Z-10.035
X14.821 Y49.67 Z-10.038
X14.845 Y49.703 Z-10.04
X14.856 Y49.743 Z-10.043
X14.851 Y49.783 Z-10.046
X14.831 Y49.819 Z-10.049
X14.799 Y49.845 Z-10.051
X14.759 Y49.856 Z-10.054
X14.718 Y49.851 Z-10.057
X14.682 Y49.832 Z-10.059
X14.656 Y49.8 Z-10.062
X14.644 Y49.761 Z-10.065
X14.648 Y49.72 Z-10.067
X14.667 Y49.684 Z-10.07
X14.698 Y49.657 Z-10.073
X14.737 Y49.644 Z-10.076
X14.778 Y49.648 Z-10.078
X14.815 Y49.666 Z-10.081
X14.842 Y49.697 Z-10.084
X14.855 Y49.735 Z-10.086
X14.853 Y49.776 Z-10.089
X14.835 Y49.813 Z-10.092
X14.805 Y49.841 Z-10.094
X14.766 Y49.855 Z-10.097
X14.725 Y49.853 Z-10.1
X14.688 Y49.836 Z-10.103
X14.66 Y49.806 Z-10.105
X14.645 Y49.768 Z-10.108
X14.646 Y49.727 Z-10.111
X14.663 Y49.689 Z-10.113
X14.692 Y49.661 Z-10.116
X14.73 Y49.646 Z-10.119
X14.771 Z-10.121
X14.809 Y49.662 Z-10.124
X14.838 Y49.691 Z-10.127
X14.854 Y49.728 Z-10.13
X14.855 Y49.769 Z-10.132
X14.839 Y49.807 Z-10.135
X14.811 Y49.837 Z-10.138
X14.773 Y49.854 Z-10.14
X14.732 Y49.855 Z-10.143
X14.694 Y49.84 Z-10.146
X14.664 Y49.812 Z-10.148
X14.647 Y49.775 Z-10.151
X14.645 Y49.734 Z-10.154
X14.659 Y49.696 Z-10.157
X14.686 Y49.665 Z-10.159
X14.723 Y49.647 Z-10.162
X14.764 Y49.645 Z-10.165
X14.803 Y49.658 Z-10.167
X14.834 Y49.685 Z-10.17
X14.852 Y49.721 Z-10.173
X14.856 Y49.762 Z-10.175
X14.843 Y49.801 Z-10.178
X14.817 Y49.833 Z-10.181
X14.781 Y49.852 Z-10.184
X14.74 Y49.856 Z-10.186
X14.7 Y49.844 Z-10.189
X14.668 Y49.818 Z-10.192
X14.649 Y49.782 Z-10.194
X14.644 Y49.741 Z-10.197
X14.655 Y49.702 Z-10.2
X14.68 Y49.67 Z-10.202
X14.716 Y49.649 Z-10.205
X14.757 Y49.644 Z-10.208
X14.796 Y49.654 Z-10.211
X14.829 Y49.679 Z-10.213
X14.85 Y49.714 Z-10.216
X14.856 Y49.755 Z-10.219
X14.846 Y49.795 Z-10.221
X14.822 Y49.828 Z-10.224
X14.787 Y49.849 Z-10.227
X14.747 Y49.856 Z-10.229
X14.707 Y49.847 Z-10.232
X14.673 Y49.824 Z-10.235
X14.651 Y49.789 Z-10.238
X14.644 Y49.749 Z-10.24
X14.652 Y49.709 Z-10.243
X14.675 Y49.675 Z-10.246
X14.709 Y49.652 Z-10.248
X14.749 Y49.644 Z-10.251
X14.79 Y49.651 Z-10.254
X14.824 Y49.674 Z-10.256
X14.847 Y49.708 Z-10.259
X14.856 Y49.748 Z-10.262
X14.849 Y49.788 Z-10.265
X14.827 Y49.823 Z-10.267
X14.794 Y49.847 Z-10.27
X14.754 Y49.856 Z-10.273
X14.714 Y49.85 Z-10.275
X14.679 Y49.829 Z-10.278
X14.654 Y49.796 Z-10.281
X14.644 Y49.756 Z-10.283
X14.649 Y49.715 Z-10.286
X14.67 Y49.68 Z-10.289
X14.703 Y49.655 Z-10.291
X14.742 Y49.644 Z-10.294
X14.783 Y49.649 Z-10.297
X14.819 Y49.669 Z-10.3
X14.844 Y49.701 Z-10.302
X14.856 Y49.74 Z-10.305
X14.852 Y49.781 Z-10.308
X14.832 Y49.817 Z-10.31
X14.801 Y49.843 Z-10.313
X14.761 Y49.856 Z-10.316
X14.721 Y49.852 Z-10.318
X14.684 Y49.833 Z-10.321
X14.657 Y49.802 Z-10.324
X14.645 Y49.763 Z-10.327
X14.647 Y49.722 Z-10.329
X14.665 Y49.686 Z-10.332
X14.696 Y49.658 Z-10.335
X14.735 Y49.645 Z-10.337
X14.776 Y49.647 Z-10.34
X14.813 Y49.664 Z-10.343
X14.841 Y49.695 Z-10.345
X14.855 Y49.733 Z-10.348
X14.854 Y49.774 Z-10.351
X14.837 Y49.812 Z-10.354
X14.807 Y49.84 Z-10.356
X14.769 Y49.855 Z-10.359
X14.728 Y49.854 Z-10.362
X14.69 Y49.838 Z-10.364
X14.661 Y49.808 Z-10.367
X14.646 Y49.77 Z-10.37
Y49.729 Z-10.372
X14.661 Y49.691 Z-10.375
X14.69 Y49.662 Z-10.378
X14.728 Y49.646 Z-10.381
X14.769 Y49.645 Z-10.383
X14.807 Y49.66 Z-10.386
X14.837 Y49.689 Z-10.389
X14.854 Y49.726 Z-10.391
X14.855 Y49.767 Z-10.394
X14.841 Y49.805 Z-10.397
X14.813 Y49.836 Z-10.399
X14.776 Y49.853 Z-10.402
X14.735 Y49.855 Z-10.405
X14.696 Y49.842 Z-10.408
X14.665 Y49.814 Z-10.41
X14.647 Y49.778 Z-10.413
X14.645 Y49.737 Z-10.416
X14.657 Y49.698 Z-10.418
X14.684 Y49.667 Z-10.421
X14.721 Y49.648 Z-10.424
X14.762 Y49.644 Z-10.426
X14.801 Y49.657 Z-10.429
X14.832 Y49.683 Z-10.432
X14.852 Y49.719 Z-10.435
X14.856 Y49.76 Z-10.437
X14.844 Y49.799 Z-10.44
X14.819 Y49.831 Z-10.443
X14.783 Y49.851 Z-10.445
X14.742 Y49.856 Z-10.448
X14.703 Y49.845 Z-10.451
X14.67 Y49.82 Z-10.453
X14.649 Y49.785 Z-10.456
X14.644 Y49.744 Z-10.459
X14.654 Y49.704 Z-10.462
X14.679 Y49.671 Z-10.464
X14.714 Y49.65 Z-10.467
X14.754 Y49.644 Z-10.47
X14.794 Y49.653 Z-10.472
X14.828 Y49.677 Z-10.475
X14.849 Y49.712 Z-10.478
X14.856 Y49.752 Z-10.48
X14.847 Y49.793 Z-10.483
X14.824 Y49.826 Z-10.486
X14.79 Y49.849 Z-10.489
X14.749 Y49.856 Z-10.491
X14.709 Y49.848 Z-10.494
X14.675 Y49.825 Z-10.497
X14.652 Y49.791 Z-10.499
X14.644 Y49.751 Z-10.502
X14.651 Y49.711 Z-10.505
X14.673 Y49.676 Z-10.507
X14.707 Y49.653 Z-10.51
X14.747 Y49.644 Z-10.513
X14.787 Y49.651 Z-10.516
X14.822 Y49.672 Z-10.518
X14.846 Y49.705 Z-10.521
X14.856 Y49.745 Z-10.524
X14.85 Y49.786 Z-10.526
X14.829 Y49.821 Z-10.529
X14.796 Y49.846 Z-10.532
X14.757 Y49.856 Z-10.534
X14.716 Y49.851 Z-10.537
X14.68 Y49.83 Z-10.54
X14.655 Y49.798 Z-10.543
X14.644 Y49.758 Z-10.545
X14.649 Y49.718 Z-10.548
X14.669 Y49.682 Z-10.551
X14.7 Y49.656 Z-10.553
X14.74 Y49.644 Z-10.556
X14.781 Y49.648 Z-10.559
X14.817 Y49.667 Z-10.561
X14.843 Y49.699 Z-10.564
X14.856 Y49.738 Z-10.567
X14.852 Y49.779 Z-10.57
X14.834 Y49.815 Z-10.572
X14.803 Y49.842 Z-10.575
X14.764 Y49.855 Z-10.578
X14.723 Y49.853 Z-10.58
X14.686 Y49.835 Z-10.583
X14.659 Y49.804 Z-10.586
X14.645 Y49.766 Z-10.588
X14.647 Y49.725 Z-10.591
X14.664 Y49.687 Z-10.594
X14.694 Y49.66 Z-10.596
X14.733 Y49.645 Z-10.599
X14.774 Y49.646 Z-10.602
X14.811 Y49.663 Z-10.605
X14.839 Y49.693 Z-10.607
X14.855 Y49.731 Z-10.61
X14.854 Y49.772 Z-10.613
X14.838 Y49.81 Z-10.615
X14.809 Y49.838 Z-10.618
X14.771 Y49.854 Z-10.621
X14.73 Z-10.623
X14.692 Y49.839 Z-10.626
X14.663 Y49.81 Z-10.629
X14.646 Y49.773 Z-10.632
X14.645 Y49.732 Z-10.634
X14.66 Y49.694 Z-10.637
X14.688 Y49.664 Z-10.64
X14.725 Y49.647 Z-10.642
X14.766 Y49.645 Z-10.645
X14.805 Y49.659 Z-10.648
X14.835 Y49.687 Z-10.65
X14.853 Y49.724 Z-10.653
X14.855 Y49.765 Z-10.656
X14.842 Y49.803 Z-10.659
X14.815 Y49.834 Z-10.661
X14.778 Y49.853 Z-10.664
X14.737 Y49.856 Z-10.667
X14.698 Y49.843 Z-10.669
X14.667 Y49.816 Z-10.672
X14.648 Y49.78 Z-10.675
X14.644 Y49.739 Z-10.677
X14.656 Y49.7 Z-10.68
X14.682 Y49.668 Z-10.683
X14.718 Y49.649 Z-10.686
X14.759 Y49.644 Z-10.688
X14.799 Y49.655 Z-10.691
X14.831 Y49.681 Z-10.694
X14.851 Y49.717 Z-10.696
X14.856 Y49.757 Z-10.699
X14.845 Y49.797 Z-10.702
X14.82 Y49.83 Z-10.704
X14.785 Y49.85 Z-10.707
X14.744 Y49.856 Z-10.71
X14.705 Y49.846 Z-10.713
X14.672 Y49.822 Z-10.715
X14.65 Y49.787 Z-10.718
X14.644 Y49.746 Z-10.721
X14.653 Y49.706 Z-10.723
X14.677 Y49.673 Z-10.726
X14.711 Y49.651 Z-10.729
X14.752 Y49.644 Z-10.731
X14.792 Y49.652 Z-10.734
X14.826 Y49.676 Z-10.737
X14.848 Y49.71 Z-10.74
X14.856 Y49.75 Z-10.742
X14.848 Y49.79 Z-10.745
X14.826 Y49.825 Z-10.748
X14.792 Y49.848 Z-10.75
X14.752 Y49.856 Z-10.753
X14.711 Y49.849 Z-10.756
X14.677 Y49.827 Z-10.758
X14.653 Y49.794 Z-10.761
X14.644 Y49.754 Z-10.764
X14.65 Y49.713 Z-10.767
X14.672 Y49.678 Z-10.769
X14.705 Y49.654 Z-10.772
X14.745 Y49.644 Z-10.775
X14.785 Y49.65 Z-10.777
X14.821 Y49.671 Z-10.78
X14.845 Y49.703 Z-10.783
X14.856 Y49.743 Z-10.785
X14.851 Y49.783 Z-10.788
X14.831 Y49.819 Z-10.791
X14.798 Y49.845 Z-10.794
X14.759 Y49.856 Z-10.796
X14.718 Y49.851 Z-10.799
X14.682 Y49.832 Z-10.802
X14.656 Y49.8 Z-10.804
X14.644 Y49.761 Z-10.807
X14.648 Y49.72 Z-10.81
X14.667 Y49.684 Z-10.812
X14.698 Y49.657 Z-10.815
X14.737 Y49.644 Z-10.818
X14.778 Y49.648 Z-10.821
X14.815 Y49.666 Z-10.823
X14.842 Y49.697 Z-10.826
X14.855 Y49.736 Z-10.829
X14.853 Y49.777 Z-10.831
X14.835 Y49.814 Z-10.834
X14.805 Y49.841 Z-10.837
X14.766 Y49.855 Z-10.839
X14.725 Y49.853 Z-10.842
X14.688 Y49.836 Z-10.845
X14.66 Y49.806 Z-10.848
X14.645 Y49.768 Z-10.85
X14.646 Y49.727 Z-10.853
X14.663 Y49.689 Z-10.856
X14.692 Y49.661 Z-10.858
X14.73 Y49.646 Z-10.861
X14.771 Z-10.864
X14.809 Y49.662 Z-10.866
X14.838 Y49.691 Z-10.869
X14.854 Y49.728 Z-10.872
X14.855 Y49.769 Z-10.874
X14.839 Y49.808 Z-10.877
X14.811 Y49.837 Z-10.88
X14.773 Y49.854 Z-10.883
X14.732 Y49.855 Z-10.885
X14.694 Y49.84 Z-10.888
X14.664 Y49.812 Z-10.891
X14.647 Y49.775 Z-10.893
X14.645 Y49.734 Z-10.896
X14.659 Y49.696 Z-10.899
X14.686 Y49.665 Z-10.901
X14.723 Y49.647 Z-10.904
X14.764 Y49.645 Z-10.907
X14.803 Y49.658 Z-10.91
X14.834 Y49.685 Z-10.912
X14.852 Y49.721 Z-10.915
X14.856 Y49.762 Z-10.918
X14.843 Y49.801 Z-10.92
X14.817 Y49.833 Z-10.923
X14.78 Y49.852 Z-10.926
X14.74 Y49.856 Z-10.928
X14.7 Y49.844 Z-10.931
X14.668 Y49.818 Z-10.934
X14.649 Y49.782 Z-10.937
X14.644 Y49.741 Z-10.939
X14.655 Y49.702 Z-10.942
X14.68 Y49.67 Z-10.945
X14.716 Y49.649 Z-10.947
X14.757 Y49.644 Z-10.95
X14.796 Y49.654 Z-10.953
X14.829 Y49.679 Z-10.955
X14.85 Y49.714 Z-10.958
X14.856 Y49.755 Z-10.961
X14.846 Y49.795 Z-10.964
X14.822 Y49.828 Z-10.966
X14.787 Y49.85 Z-10.969
X14.747 Y49.856 Z-10.972
X14.707 Y49.847 Z-10.974
X14.673 Y49.824 Z-10.977
X14.651 Y49.789 Z-10.98
X14.644 Y49.749 Z-10.982
X14.652 Y49.709 Z-10.985
X14.675 Y49.675 Z-10.988
X14.709 Y49.652 Z-10.991
X14.749 Y49.644 Z-10.993
X14.79 Y49.651 Z-10.996
X14.824 Y49.674 Z-10.999
X14.847 Y49.708 Z-11.001
X14.856 Y49.748 Z-11.004
X14.849 Y49.788 Z-11.007
X14.827 Y49.823 Z-11.009
X14.794 Y49.847 Z-11.012
X14.754 Y49.856 Z-11.015
X14.714 Y49.85 Z-11.018
X14.679 Y49.829 Z-11.02
X14.654 Y49.796 Z-11.023
X14.644 Y49.756 Z-11.026
X14.65 Y49.715 Z-11.028
X14.67 Y49.68 Z-11.031
X14.703 Y49.655 Z-11.034
X14.742 Y49.644 Z-11.036
X14.783 Y49.649 Z-11.039
X14.819 Y49.669 Z-11.042
X14.844 Y49.701 Z-11.045
X14.856 Y49.74 Z-11.047
X14.852 Y49.781 Z-11.05
X14.832 Y49.817 Z-11.053
X14.801 Y49.843 Z-11.055
X14.761 Y49.856 Z-11.058
X14.721 Y49.852 Z-11.061
X14.684 Y49.833 Z-11.063
X14.657 Y49.802 Z-11.066
X14.645 Y49.763 Z-11.069
X14.647 Y49.722 Z-11.072
X14.666 Y49.685 Z-11.074
X14.696 Y49.658 Z-11.077
X14.735 Y49.645 Z-11.08
X14.776 Y49.647 Z-11.082
X14.813 Y49.664 Z-11.085
X14.841 Y49.695 Z-11.088
X14.855 Y49.733 Z-11.09
X14.854 Y49.774 Z-11.093
X14.837 Y49.812 Z-11.096
X14.807 Y49.84 Z-11.099
X14.769 Y49.855 Z-11.101
X14.728 Y49.854 Z-11.104
X14.69 Y49.838 Z-11.107
X14.661 Y49.808 Z-11.109
X14.646 Y49.77 Z-11.112
Y49.729 Z-11.115
X14.661 Y49.691 Z-11.117
X14.69 Y49.662 Z-11.12
X14.728 Y49.646 Z-11.123
X14.769 Y49.645 Z-11.126
X14.807 Y49.66 Z-11.128
X14.837 Y49.689 Z-11.131
X14.854 Y49.726 Z-11.134
X14.855 Y49.767 Z-11.136
X14.841 Y49.805 Z-11.139
X14.813 Y49.836 Z-11.142
X14.776 Y49.853 Z-11.144
X14.735 Y49.855 Z-11.147
X14.696 Y49.842 Z-11.15
X14.665 Y49.814 Z-11.152
X14.647 Y49.778 Z-11.155
X14.645 Y49.737 Z-11.158
X14.657 Y49.698 Z-11.161
X14.684 Y49.667 Z-11.163
X14.721 Y49.648 Z-11.166
X14.762 Y49.644 Z-11.169
X14.801 Y49.657 Z-11.171
X14.832 Y49.683 Z-11.174
X14.852 Y49.719 Z-11.177
X14.856 Y49.76 Z-11.179
X14.844 Y49.799 Z-11.182
X14.819 Y49.831 Z-11.185
X14.783 Y49.851 Z-11.188
X14.742 Y49.856 Z-11.19
X14.702 Y49.845 Z-11.193
X14.67 Y49.82 Z-11.196
X14.649 Y49.784 Z-11.198
X14.644 Y49.744 Z-11.201
X14.654 Y49.704 Z-11.204
X14.679 Y49.671 Z-11.206
X14.714 Y49.65 Z-11.209
X14.754 Y49.644 Z-11.212
X14.794 Y49.653 Z-11.215
X14.828 Y49.677 Z-11.217
X14.849 Y49.712 Z-11.22
X14.856 Y49.753 Z-11.223
X14.847 Y49.793 Z-11.225
X14.824 Y49.826 Z-11.228
X14.79 Y49.849 Z-11.231
X14.749 Y49.856 Z-11.233
X14.709 Y49.848 Z-11.236
X14.675 Y49.825 Z-11.239
X14.652 Y49.791 Z-11.242
X14.644 Y49.751 Z-11.244
X14.651 Y49.711 Z-11.247
X14.673 Y49.676 Z-11.25
X14.707 Y49.653 Z-11.252
X14.747 Y49.644 Z-11.255
X14.788 Y49.651 Z-11.258
X14.822 Y49.672 Z-11.26
X14.846 Y49.705 Z-11.263
X14.856 Y49.745 Z-11.266
X14.85 Y49.786 Z-11.269
X14.829 Y49.821 Z-11.271
X14.796 Y49.846 Z-11.274
X14.757 Y49.856 Z-11.277
X14.716 Y49.851 Z-11.279
X14.68 Y49.83 Z-11.282
X14.655 Y49.798 Z-11.285
X14.644 Y49.758 Z-11.287
X14.649 Y49.718 Z-11.29
X14.669 Y49.682 Z-11.293
X14.7 Y49.656 Z-11.296
X14.74 Y49.644 Z-11.298
X14.781 Y49.648 Z-11.301
X14.817 Y49.667 Z-11.304
X14.843 Y49.699 Z-11.306
X14.856 Y49.738 Z-11.309
X14.852 Y49.779 Z-11.312
X14.834 Y49.815 Z-11.314
X14.803 Y49.842 Z-11.317
X14.764 Y49.855 Z-11.32
X14.723 Y49.853 Z-11.323
X14.686 Y49.835 Z-11.325
X14.659 Y49.804 Z-11.328
X14.645 Y49.766 Z-11.331
X14.647 Y49.725 Z-11.333
X14.664 Y49.687 Z-11.336
X14.694 Y49.66 Z-11.339
X14.733 Y49.645 Z-11.341
X14.774 Y49.646 Z-11.344
X14.811 Y49.663 Z-11.347
X14.839 Y49.693 Z-11.35
X14.855 Y49.731 Z-11.352
X14.854 Y49.772 Z-11.355
X14.838 Y49.81 Z-11.358
X14.809 Y49.838 Z-11.36
X14.771 Y49.854 Z-11.363
X14.73 Z-11.366
X14.692 Y49.839 Z-11.368
X14.663 Y49.81 Z-11.371
X14.646 Y49.773 Z-11.374
X14.645 Y49.732 Z-11.377
X14.66 Y49.693 Z-11.379
X14.688 Y49.664 Z-11.382
X14.725 Y49.647 Z-11.385
X14.766 Y49.645 Z-11.387
X14.805 Y49.659 Z-11.39
X14.835 Y49.687 Z-11.393
X14.853 Y49.724 Z-11.395
X14.855 Y49.765 Z-11.398
X14.842 Y49.803 Z-11.401
X14.815 Y49.834 Z-11.404
X14.778 Y49.853 Z-11.406
X14.737 Y49.856 Z-11.409
X14.698 Y49.843 Z-11.412
X14.667 Y49.816 Z-11.414
X14.648 Y49.78 Z-11.417
X14.644 Y49.739 Z-11.42
X14.656 Y49.7 Z-11.422
X14.682 Y49.668 Z-11.425
X14.718 Y49.648 Z-11.428
X14.759 Y49.644 Z-11.43
X14.799 Y49.655 Z-11.433
X14.831 Y49.681 Z-11.436
X14.851 Y49.717 Z-11.439
X14.856 Y49.757 Z-11.441
X14.845 Y49.797 Z-11.444
X14.82 Y49.83 Z-11.447
X14.785 Y49.85 Z-11.449
X14.744 Y49.856 Z-11.452
X14.705 Y49.846 Z-11.455
X14.672 Y49.822 Z-11.457
X14.65 Y49.787 Z-11.46
X14.644 Y49.746 Z-11.463
X14.653 Y49.706 Z-11.466
X14.677 Y49.673 Z-11.468
X14.712 Y49.651 Z-11.471
X14.752 Y49.644 Z-11.474
X14.792 Y49.652 Z-11.476
X14.826 Y49.676 Z-11.479
X14.848 Y49.71 Z-11.482
X14.856 Y49.75 Z-11.484
X14.848 Y49.79 Z-11.487
X14.826 Y49.825 Z-11.49
X14.792 Y49.848 Z-11.493
X14.752 Y49.856 Z-11.495
X14.711 Y49.849 Z-11.498
X14.677 Y49.827 Z-11.501
X14.653 Y49.793 Z-11.503
X14.644 Y49.754 Z-11.506
X14.65 Y49.713 Z-11.509
X14.672 Y49.678 Z-11.511
X14.705 Y49.654 Z-11.514
X14.745 Y49.644 Z-11.517
X14.785 Y49.65 Z-11.52
X14.821 Y49.671 Z-11.522
X14.845 Y49.703 Z-11.525
X14.856 Y49.743 Z-11.528
X14.851 Y49.784 Z-11.53
X14.831 Y49.819 Z-11.533
X14.798 Y49.845 Z-11.536
X14.759 Y49.856 Z-11.538
X14.718 Y49.851 Z-11.541
X14.682 Y49.832 Z-11.544
X14.656 Y49.8 Z-11.547
X14.644 Y49.761 Z-11.549
X14.648 Y49.72 Z-11.552
X14.667 Y49.684 Z-11.555
X14.698 Y49.657 Z-11.557
X14.737 Y49.644 Z-11.56
X14.778 Y49.648 Z-11.563
X14.815 Y49.666 Z-11.565
X14.842 Y49.697 Z-11.568
X14.855 Y49.736 Z-11.571
X14.853 Y49.777 Z-11.574
X14.835 Y49.814 Z-11.576
X14.805 Y49.841 Z-11.579
X14.766 Y49.855 Z-11.582
X14.725 Y49.853 Z-11.584
X14.688 Y49.836 Z-11.587
X14.66 Y49.806 Z-11.59
X14.645 Y49.768 Z-11.592
X14.646 Y49.727 Z-11.595
X14.663 Y49.689 Z-11.598
X14.692 Y49.661 Z-11.601
X14.73 Y49.646 Z-11.603
X14.771 Z-11.606
X14.809 Y49.662 Z-11.609
X14.838 Y49.691 Z-11.611
X14.854 Y49.728 Z-11.614
X14.855 Y49.769 Z-11.617
X14.839 Y49.808 Z-11.619
X14.811 Y49.837 Z-11.622
X14.773 Y49.854 Z-11.625
X14.732 Y49.855 Z-11.628
X14.694 Y49.84 Z-11.63
X14.664 Y49.812 Z-11.633
X14.647 Y49.775 Z-11.636
X14.645 Y49.734 Z-11.638
X14.659 Y49.696 Z-11.641
X14.686 Y49.665 Z-11.644
X14.723 Y49.647 Z-11.646
X14.764 Y49.645 Z-11.649
X14.803 Y49.658 Z-11.652
X14.834 Y49.685 Z-11.655
X14.852 Y49.721 Z-11.657
X14.856 Y49.762 Z-11.66
X14.843 Y49.801 Z-11.663
X14.817 Y49.833 Z-11.665
X14.78 Y49.852 Z-11.668
X14.74 Y49.856 Z-11.671
X14.7 Y49.844 Z-11.673
X14.668 Y49.818 Z-11.676
X14.649 Y49.782 Z-11.679
X14.644 Y49.741 Z-11.682
X14.655 Y49.702 Z-11.684
X14.68 Y49.67 Z-11.687
X14.716 Y49.649 Z-11.69
X14.757 Y49.644 Z-11.692
X14.796 Y49.654 Z-11.695
X14.829 Y49.679 Z-11.698
X14.85 Y49.714 Z-11.7
X14.856 Y49.755 Z-11.703
X14.846 Y49.795 Z-11.706
X14.822 Y49.828 Z-11.709
X14.787 Y49.85 Z-11.711
X14.747 Y49.856 Z-11.714
X14.707 Y49.847 Z-11.717
X14.673 Y49.824 Z-11.719
X14.651 Y49.789 Z-11.722
X14.644 Y49.749 Z-11.725
X14.652 Y49.708 Z-11.727
X14.675 Y49.675 Z-11.73
X14.709 Y49.652 Z-11.733
X14.75 Y49.644 Z-11.735
X14.79 Y49.651 Z-11.738
X14.824 Y49.674 Z-11.741
X14.847 Y49.708 Z-11.744
X14.856 Y49.748 Z-11.746
X14.849 Y49.788 Z-11.749
X14.827 Y49.823 Z-11.752
X14.794 Y49.847 Z-11.754
X14.754 Y49.856 Z-11.757
X14.714 Y49.85 Z-11.76
X14.678 Y49.829 Z-11.762
X14.654 Y49.796 Z-11.765
X14.644 Y49.756 Z-11.768
X14.65 Y49.715 Z-11.771
X14.67 Y49.68 Z-11.773
X14.703 Y49.655 Z-11.776
X14.742 Y49.644 Z-11.779
X14.783 Y49.649 Z-11.781
X14.819 Y49.669 Z-11.784
X14.844 Y49.701 Z-11.787
X14.856 Y49.74 Z-11.789
X14.852 Y49.781 Z-11.792
X14.832 Y49.817 Z-11.795
X14.801 Y49.844 Z-11.798
X14.761 Y49.856 Z-11.8
X14.72 Y49.852 Z-11.803
X14.684 Y49.833 Z-11.806
X14.657 Y49.802 Z-11.808
X14.645 Y49.763 Z-11.811
X14.647 Y49.722 Z-11.814
X14.666 Y49.685 Z-11.816
X14.696 Y49.658 Z-11.819
X14.735 Y49.645 Z-11.822
X14.776 Y49.647 Z-11.825
X14.813 Y49.664 Z-11.827
X14.841 Y49.695 Z-11.83
X14.855 Y49.733 Z-11.833
X14.854 Y49.774 Z-11.835
X14.837 Y49.812 Z-11.838
X14.807 Y49.84 Z-11.841
X14.769 Y49.855 Z-11.843
X14.728 Y49.854 Z-11.846
X14.69 Y49.838 Z-11.849
X14.661 Y49.808 Z-11.852
X14.646 Y49.77 Z-11.854
Y49.729 Z-11.857
X14.661 Y49.691 Z-11.86
X14.69 Y49.662 Z-11.862
X14.728 Y49.646 Z-11.865
X14.769 Y49.645 Z-11.868
X14.807 Y49.66 Z-11.87
X14.837 Y49.689 Z-11.873
X14.854 Y49.726 Z-11.876
X14.855 Y49.767 Z-11.879
X14.841 Y49.806 Z-11.881
X14.813 Y49.836 Z-11.884
X14.776 Y49.853 Z-11.887
X14.735 Y49.855 Z-11.889
X14.696 Y49.842 Z-11.892
X14.665 Y49.814 Z-11.895
X14.647 Y49.777 Z-11.897
X14.645 Y49.737 Z-11.9
X14.658 Y49.698 Z-11.903
X14.684 Y49.666 Z-11.906
X14.721 Y49.648 Z-11.908
X14.762 Y49.644 Z-11.911
X14.801 Y49.657 Z-11.914
X14.832 Y49.683 Z-11.916
X14.852 Y49.719 Z-11.919
X14.856 Y49.76 Z-11.922
X14.844 Y49.799 Z-11.924
X14.819 Y49.831 Z-11.927
X14.783 Y49.851 Z-11.93
X14.742 Y49.856 Z-11.933
X14.702 Y49.845 Z-11.935
X14.67 Y49.82 Z-11.938
X14.649 Y49.784 Z-11.941
X14.644 Y49.744 Z-11.943
X14.654 Y49.704 Z-11.946
X14.679 Y49.671 Z-11.949
X14.714 Y49.65 Z-11.951
X14.754 Y49.644 Z-11.954
X14.794 Y49.653 Z-11.957
X14.828 Y49.677 Z-11.96
X14.849 Y49.712 Z-11.962
X14.856 Y49.753 Z-11.965
X14.847 Y49.793 Z-11.968
X14.824 Y49.826 Z-11.97
X14.79 Y49.849 Z-11.973
X14.749 Y49.856 Z-11.976
X14.709 Y49.848 Z-11.978
X14.675 Y49.825 Z-11.981
X14.652 Y49.791 Z-11.984
X14.644 Y49.751 Z-11.987
X14.651 Y49.711 Z-11.989
X14.673 Y49.676 Z-11.992
X14.707 Y49.653 Z-11.995
X14.747 Y49.644 Z-11.997
X14.788 Y49.651 Z-12.
G3 X14.849 Y49.788 R0.106
X14.712 Y49.849 R0.106
X14.651 Y49.712 R0.106
X14.788 Y49.651 R0.106
G1 X14.81 Y49.667
X14.821 Y49.692
X14.819 Y49.719
X14.805 Y49.756
X14.794 Y49.784 Z-11.994
X14.785 Y49.808 Z-11.977
X14.779 Y49.824 Z-11.951
X14.777 Y49.83 Z-11.921
G0 Z5.
X14.685 Y36.197
Z-8.
G1 Z-9.921 F1500.
X14.691 Z-9.951
X14.708 Z-9.977
X14.734 Z-9.994
X14.764 Z-10.
X14.803
X14.83 Y36.204
X14.849 Y36.223
X14.856 Y36.25
X14.848 Y36.29 Z-10.003
X14.826 Y36.325 Z-10.005
X14.792 Y36.348 Z-10.008
X14.752 Y36.356 Z-10.011
X14.711 Y36.349 Z-10.013
X14.677 Y36.327 Z-10.016
X14.653 Y36.294 Z-10.019
X14.644 Y36.254 Z-10.022
X14.65 Y36.213 Z-10.024
X14.672 Y36.178 Z-10.027
X14.705 Y36.154 Z-10.03
X14.745 Y36.144 Z-10.032
X14.785 Y36.15 Z-10.035
X14.821 Y36.17 Z-10.038
X14.845 Y36.203 Z-10.04
X14.856 Y36.243 Z-10.043
X14.851 Y36.283 Z-10.046
X14.831 Y36.319 Z-10.049
X14.799 Y36.345 Z-10.051
X14.759 Y36.356 Z-10.054
X14.718 Y36.351 Z-10.057
X14.682 Y36.332 Z-10.059
X14.656 Y36.3 Z-10.062
X14.644 Y36.261 Z-10.065
X14.648 Y36.22 Z-10.067
X14.667 Y36.184 Z-10.07
X14.698 Y36.157 Z-10.073
X14.737 Y36.144 Z-10.076
X14.778 Y36.148 Z-10.078
X14.815 Y36.166 Z-10.081
X14.842 Y36.197 Z-10.084
X14.855 Y36.235 Z-10.086
X14.853 Y36.276 Z-10.089
X14.835 Y36.313 Z-10.092
X14.805 Y36.341 Z-10.094
X14.766 Y36.355 Z-10.097
X14.725 Y36.353 Z-10.1
X14.688 Y36.336 Z-10.103
X14.66 Y36.306 Z-10.105
X14.645 Y36.268 Z-10.108
X14.646 Y36.227 Z-10.111
X14.663 Y36.189 Z-10.113
X14.692 Y36.161 Z-10.116
X14.73 Y36.146 Z-10.119
X14.771 Z-10.121
X14.809 Y36.162 Z-10.124
X14.838 Y36.191 Z-10.127
X14.854 Y36.228 Z-10.13
X14.855 Y36.269 Z-10.132
X14.839 Y36.307 Z-10.135
X14.811 Y36.337 Z-10.138
X14.773 Y36.354 Z-10.14
X14.732 Y36.355 Z-10.143
X14.694 Y36.34 Z-10.146
X14.664 Y36.312 Z-10.148
X14.647 Y36.275 Z-10.151
X14.645 Y36.234 Z-10.154
X14.659 Y36.196 Z-10.157
X14.686 Y36.165 Z-10.159
X14.723 Y36.147 Z-10.162
X14.764 Y36.145 Z-10.165
X14.803 Y36.158 Z-10.167
X14.834 Y36.185 Z-10.17
X14.852 Y36.221 Z-10.173
X14.856 Y36.262 Z-10.175
X14.843 Y36.301 Z-10.178
X14.817 Y36.333 Z-10.181
X14.781 Y36.352 Z-10.184
X14.74 Y36.356 Z-10.186
X14.7 Y36.344 Z-10.189
X14.668 Y36.318 Z-10.192
X14.649 Y36.282 Z-10.194
X14.644 Y36.241 Z-10.197
X14.655 Y36.202 Z-10.2
X14.68 Y36.17 Z-10.202
X14.716 Y36.149 Z-10.205
X14.757 Y36.144 Z-10.208
X14.796 Y36.154 Z-10.211
X14.829 Y36.179 Z-10.213
X14.85 Y36.214 Z-10.216
X14.856 Y36.255 Z-10.219
X14.846 Y36.295 Z-10.221
X14.822 Y36.328 Z-10.224
X14.787 Y36.349 Z-10.227
X14.747 Y36.356 Z-10.229
X14.707 Y36.347 Z-10.232
X14.673 Y36.324 Z-10.235
X14.651 Y36.289 Z-10.238
X14.644 Y36.249 Z-10.24
X14.652 Y36.209 Z-10.243
X14.675 Y36.175 Z-10.246
X14.709 Y36.152 Z-10.248
X14.749 Y36.144 Z-10.251
X14.79 Y36.151 Z-10.254
X14.824 Y36.174 Z-10.256
X14.847 Y36.208 Z-10.259
X14.856 Y36.248 Z-10.262
X14.849 Y36.288 Z-10.265
X14.827 Y36.323 Z-10.267
X14.794 Y36.347 Z-10.27
X14.754 Y36.356 Z-10.273
X14.714 Y36.35 Z-10.275
X14.679 Y36.329 Z-10.278
X14.654 Y36.296 Z-10.281
X14.644 Y36.256 Z-10.283
X14.649 Y36.215 Z-10.286
X14.67 Y36.18 Z-10.289
X14.703 Y36.155 Z-10.291
X14.742 Y36.144 Z-10.294
X14.783 Y36.149 Z-10.297
X14.819 Y36.169 Z-10.3
X14.844 Y36.201 Z-10.302
X14.856 Y36.24 Z-10.305
X14.852 Y36.281 Z-10.308
X14.832 Y36.317 Z-10.31
X14.801 Y36.343 Z-10.313
X14.761 Y36.356 Z-10.316
X14.721 Y36.352 Z-10.318
X14.684 Y36.333 Z-10.321
X14.657 Y36.302 Z-10.324
X14.645 Y36.263 Z-10.327
X14.647 Y36.222 Z-10.329
X14.665 Y36.186 Z-10.332
X14.696 Y36.158 Z-10.335
X14.735 Y36.145 Z-10.337
X14.776 Y36.147 Z-10.34
X14.813 Y36.164 Z-10.343
X14.841 Y36.195 Z-10.345
X14.855 Y36.233 Z-10.348
X14.854 Y36.274 Z-10.351
X14.837 Y36.312 Z-10.354
X14.807 Y36.34 Z-10.356
X14.769 Y36.355 Z-10.359
X14.728 Y36.354 Z-10.362
X14.69 Y36.338 Z-10.364
X14.661 Y36.308 Z-10.367
X14.646 Y36.27 Z-10.37
Y36.229 Z-10.372
X14.661 Y36.191 Z-10.375
X14.69 Y36.162 Z-10.378
X14.728 Y36.146 Z-10.381
X14.769 Y36.145 Z-10.383
X14.807 Y36.16 Z-10.386
X14.837 Y36.189 Z-10.389
X14.854 Y36.226 Z-10.391
X14.855 Y36.267 Z-10.394
X14.841 Y36.305 Z-10.397
X14.813 Y36.336 Z-10.399
X14.776 Y36.353 Z-10.402
X14.735 Y36.355 Z-10.405
X14.696 Y36.342 Z-10.408
X14.665 Y36.314 Z-10.41
X14.647 Y36.278 Z-10.413
X14.645 Y36.237 Z-10.416
X14.657 Y36.198 Z-10.418
X14.684 Y36.167 Z-10.421
X14.721 Y36.148 Z-10.424
X14.762 Y36.144 Z-10.426
X14.801 Y36.157 Z-10.429
X14.832 Y36.183 Z-10.432
X14.852 Y36.219 Z-10.435
X14.856 Y36.26 Z-10.437
X14.844 Y36.299 Z-10.44
X14.819 Y36.331 Z-10.443
X14.783 Y36.351 Z-10.445
X14.742 Y36.356 Z-10.448
X14.703 Y36.345 Z-10.451
X14.67 Y36.32 Z-10.453
X14.649 Y36.285 Z-10.456
X14.644 Y36.244 Z-10.459
X14.654 Y36.204 Z-10.462
X14.679 Y36.171 Z-10.464
X14.714 Y36.15 Z-10.467
X14.754 Y36.144 Z-10.47
X14.794 Y36.153 Z-10.472
X14.828 Y36.177 Z-10.475
X14.849 Y36.212 Z-10.478
X14.856 Y36.252 Z-10.48
X14.847 Y36.293 Z-10.483
X14.824 Y36.326 Z-10.486
X14.79 Y36.349 Z-10.489
X14.749 Y36.356 Z-10.491
X14.709 Y36.348 Z-10.494
X14.675 Y36.325 Z-10.497
X14.652 Y36.291 Z-10.499
X14.644 Y36.251 Z-10.502
X14.651 Y36.211 Z-10.505
X14.673 Y36.176 Z-10.507
X14.707 Y36.153 Z-10.51
X14.747 Y36.144 Z-10.513
X14.787 Y36.151 Z-10.516
X14.822 Y36.172 Z-10.518
X14.846 Y36.205 Z-10.521
X14.856 Y36.245 Z-10.524
X14.85 Y36.286 Z-10.526
X14.829 Y36.321 Z-10.529
X14.796 Y36.346 Z-10.532
X14.757 Y36.356 Z-10.534
X14.716 Y36.351 Z-10.537
X14.68 Y36.33 Z-10.54
X14.655 Y36.298 Z-10.543
X14.644 Y36.258 Z-10.545
X14.649 Y36.218 Z-10.548
X14.669 Y36.182 Z-10.551
X14.7 Y36.156 Z-10.553
X14.74 Y36.144 Z-10.556
X14.781 Y36.148 Z-10.559
X14.817 Y36.167 Z-10.561
X14.843 Y36.199 Z-10.564
X14.856 Y36.238 Z-10.567
X14.852 Y36.279 Z-10.57
X14.834 Y36.315 Z-10.572
X14.803 Y36.342 Z-10.575
X14.764 Y36.355 Z-10.578
X14.723 Y36.353 Z-10.58
X14.686 Y36.335 Z-10.583
X14.659 Y36.304 Z-10.586
X14.645 Y36.266 Z-10.588
X14.647 Y36.225 Z-10.591
X14.664 Y36.187 Z-10.594
X14.694 Y36.16 Z-10.596
X14.733 Y36.145 Z-10.599
X14.774 Y36.146 Z-10.602
X14.811 Y36.163 Z-10.605
X14.839 Y36.193 Z-10.607
X14.855 Y36.231 Z-10.61
X14.854 Y36.272 Z-10.613
X14.838 Y36.31 Z-10.615
X14.809 Y36.338 Z-10.618
X14.771 Y36.354 Z-10.621
X14.73 Z-10.623
X14.692 Y36.339 Z-10.626
X14.663 Y36.31 Z-10.629
X14.646 Y36.273 Z-10.632
X14.645 Y36.232 Z-10.634
X14.66 Y36.194 Z-10.637
X14.688 Y36.164 Z-10.64
X14.725 Y36.147 Z-10.642
X14.766 Y36.145 Z-10.645
X14.805 Y36.159 Z-10.648
X14.835 Y36.187 Z-10.65
X14.853 Y36.224 Z-10.653
X14.855 Y36.265 Z-10.656
X14.842 Y36.303 Z-10.659
X14.815 Y36.334 Z-10.661
X14.778 Y36.353 Z-10.664
X14.737 Y36.356 Z-10.667
X14.698 Y36.343 Z-10.669
X14.667 Y36.316 Z-10.672
X14.648 Y36.28 Z-10.675
X14.644 Y36.239 Z-10.677
X14.656 Y36.2 Z-10.68
X14.682 Y36.168 Z-10.683
X14.718 Y36.149 Z-10.686
X14.759 Y36.144 Z-10.688
X14.799 Y36.155 Z-10.691
X14.831 Y36.181 Z-10.694
X14.851 Y36.217 Z-10.696
X14.856 Y36.257 Z-10.699
X14.845 Y36.297 Z-10.702
X14.82 Y36.33 Z-10.704
X14.785 Y36.35 Z-10.707
X14.744 Y36.356 Z-10.71
X14.705 Y36.346 Z-10.713
X14.672 Y36.322 Z-10.715
X14.65 Y36.287 Z-10.718
X14.644 Y36.246 Z-10.721
X14.653 Y36.206 Z-10.723
X14.677 Y36.173 Z-10.726
X14.711 Y36.151 Z-10.729
X14.752 Y36.144 Z-10.731
X14.792 Y36.152 Z-10.734
X14.826 Y36.176 Z-10.737
X14.848 Y36.21 Z-10.74
X14.856 Y36.25 Z-10.742
X14.848 Y36.29 Z-10.745
X14.826 Y36.325 Z-10.748
X14.792 Y36.348 Z-10.75
X14.752 Y36.356 Z-10.753
X14.711 Y36.349 Z-10.756
X14.677 Y36.327 Z-10.758
X14.653 Y36.294 Z-10.761
X14.644 Y36.254 Z-10.764
X14.65 Y36.213 Z-10.767
X14.672 Y36.178 Z-10.769
X14.705 Y36.154 Z-10.772
X14.745 Y36.144 Z-10.775
X14.785 Y36.15 Z-10.777
X14.821 Y36.171 Z-10.78
X14.845 Y36.203 Z-10.783
X14.856 Y36.243 Z-10.785
X14.851 Y36.283 Z-10.788
X14.831 Y36.319 Z-10.791
X14.798 Y36.345 Z-10.794
X14.759 Y36.356 Z-10.796
X14.718 Y36.351 Z-10.799
X14.682 Y36.332 Z-10.802
X14.656 Y36.3 Z-10.804
X14.644 Y36.261 Z-10.807
X14.648 Y36.22 Z-10.81
X14.667 Y36.184 Z-10.812
X14.698 Y36.157 Z-10.815
X14.737 Y36.144 Z-10.818
X14.778 Y36.148 Z-10.821
X14.815 Y36.166 Z-10.823
X14.842 Y36.197 Z-10.826
X14.855 Y36.236 Z-10.829
X14.853 Y36.277 Z-10.831
X14.835 Y36.314 Z-10.834
X14.805 Y36.341 Z-10.837
X14.766 Y36.355 Z-10.839
X14.725 Y36.353 Z-10.842
X14.688 Y36.336 Z-10.845
X14.66 Y36.306 Z-10.848
X14.645 Y36.268 Z-10.85
X14.646 Y36.227 Z-10.853
X14.663 Y36.189 Z-10.856
X14.692 Y36.161 Z-10.858
X14.73 Y36.146 Z-10.861
X14.771 Z-10.864
X14.809 Y36.162 Z-10.866
X14.838 Y36.191 Z-10.869
X14.854 Y36.228 Z-10.872
X14.855 Y36.269 Z-10.874
X14.839 Y36.308 Z-10.877
X14.811 Y36.337 Z-10.88
X14.773 Y36.354 Z-10.883
X14.732 Y36.355 Z-10.885
X14.694 Y36.34 Z-10.888
X14.664 Y36.312 Z-10.891
X14.647 Y36.275 Z-10.893
X14.645 Y36.234 Z-10.896
X14.659 Y36.196 Z-10.899
X14.686 Y36.165 Z-10.901
X14.723 Y36.147 Z-10.904
X14.764 Y36.145 Z-10.907
X14.803 Y36.158 Z-10.91
X14.834 Y36.185 Z-10.912
X14.852 Y36.221 Z-10.915
X14.856 Y36.262 Z-10.918
X14.843 Y36.301 Z-10.92
X14.817 Y36.333 Z-10.923
X14.78 Y36.352 Z-10.926
X14.74 Y36.356 Z-10.928
X14.7 Y36.344 Z-10.931
X14.668 Y36.318 Z-10.934
X14.649 Y36.282 Z-10.937
X14.644 Y36.241 Z-10.939
X14.655 Y36.202 Z-10.942
X14.68 Y36.17 Z-10.945
X14.716 Y36.149 Z-10.947
X14.757 Y36.144 Z-10.95
X14.796 Y36.154 Z-10.953
X14.829 Y36.179 Z-10.955
X14.85 Y36.214 Z-10.958
X14.856 Y36.255 Z-10.961
X14.846 Y36.295 Z-10.964
X14.822 Y36.328 Z-10.966
X14.787 Y36.35 Z-10.969
X14.747 Y36.356 Z-10.972
X14.707 Y36.347 Z-10.974
X14.673 Y36.324 Z-10.977
X14.651 Y36.289 Z-10.98
X14.644 Y36.249 Z-10.982
X14.652 Y36.209 Z-10.985
X14.675 Y36.175 Z-10.988
X14.709 Y36.152 Z-10.991
X14.749 Y36.144 Z-10.993
X14.79 Y36.151 Z-10.996
X14.824 Y36.174 Z-10.999
X14.847 Y36.208 Z-11.001
X14.856 Y36.248 Z-11.004
X14.849 Y36.288 Z-11.007
X14.827 Y36.323 Z-11.009
X14.794 Y36.347 Z-11.012
X14.754 Y36.356 Z-11.015
X14.714 Y36.35 Z-11.018
X14.679 Y36.329 Z-11.02
X14.654 Y36.296 Z-11.023
X14.644 Y36.256 Z-11.026
X14.65 Y36.215 Z-11.028
X14.67 Y36.18 Z-11.031
X14.703 Y36.155 Z-11.034
X14.742 Y36.144 Z-11.036
X14.783 Y36.149 Z-11.039
X14.819 Y36.169 Z-11.042
X14.844 Y36.201 Z-11.045
X14.856 Y36.24 Z-11.047
X14.852 Y36.281 Z-11.05
X14.832 Y36.317 Z-11.053
X14.801 Y36.343 Z-11.055
X14.761 Y36.356 Z-11.058
X14.721 Y36.352 Z-11.061
X14.684 Y36.333 Z-11.063
X14.657 Y36.302 Z-11.066
X14.645 Y36.263 Z-11.069
X14.647 Y36.222 Z-11.072
X14.666 Y36.185 Z-11.074
X14.696 Y36.158 Z-11.077
X14.735 Y36.145 Z-11.08
X14.776 Y36.147 Z-11.082
X14.813 Y36.164 Z-11.085
X14.841 Y36.195 Z-11.088
X14.855 Y36.233 Z-11.09
X14.854 Y36.274 Z-11.093
X14.837 Y36.312 Z-11.096
X14.807 Y36.34 Z-11.099
X14.769 Y36.355 Z-11.101
X14.728 Y36.354 Z-11.104
X14.69 Y36.338 Z-11.107
X14.661 Y36.308 Z-11.109
X14.646 Y36.27 Z-11.112
Y36.229 Z-11.115
X14.661 Y36.191 Z-11.117
X14.69 Y36.162 Z-11.12
X14.728 Y36.146 Z-11.123
X14.769 Y36.145 Z-11.126
X14.807 Y36.16 Z-11.128
X14.837 Y36.189 Z-11.131
X14.854 Y36.226 Z-11.134
X14.855 Y36.267 Z-11.136
X14.841 Y36.305 Z-11.139
X14.813 Y36.336 Z-11.142
X14.776 Y36.353 Z-11.144
X14.735 Y36.355 Z-11.147
X14.696 Y36.342 Z-11.15
X14.665 Y36.314 Z-11.152
X14.647 Y36.278 Z-11.155
X14.645 Y36.237 Z-11.158
X14.657 Y36.198 Z-11.161
X14.684 Y36.167 Z-11.163
X14.721 Y36.148 Z-11.166
X14.762 Y36.144 Z-11.169
X14.801 Y36.157 Z-11.171
X14.832 Y36.183 Z-11.174
X14.852 Y36.219 Z-11.177
X14.856 Y36.26 Z-11.179
X14.844 Y36.299 Z-11.182
X14.819 Y36.331 Z-11.185
X14.783 Y36.351 Z-11.188
X14.742 Y36.356 Z-11.19
X14.702 Y36.345 Z-11.193
X14.67 Y36.32 Z-11.196
X14.649 Y36.284 Z-11.198
X14.644 Y36.244 Z-11.201
X14.654 Y36.204 Z-11.204
X14.679 Y36.171 Z-11.206
X14.714 Y36.15 Z-11.209
X14.754 Y36.144 Z-11.212
X14.794 Y36.153 Z-11.215
X14.828 Y36.177 Z-11.217
X14.849 Y36.212 Z-11.22
X14.856 Y36.253 Z-11.223
X14.847 Y36.293 Z-11.225
X14.824 Y36.326 Z-11.228
X14.79 Y36.349 Z-11.231
X14.749 Y36.356 Z-11.233
X14.709 Y36.348 Z-11.236
X14.675 Y36.325 Z-11.239
X14.652 Y36.291 Z-11.242
X14.644 Y36.251 Z-11.244
X14.651 Y36.211 Z-11.247
X14.673 Y36.176 Z-11.25
X14.707 Y36.153 Z-11.252
X14.747 Y36.144 Z-11.255
X14.788 Y36.151 Z-11.258
X14.822 Y36.172 Z-11.26
X14.846 Y36.205 Z-11.263
X14.856 Y36.245 Z-11.266
X14.85 Y36.286 Z-11.269
X14.829 Y36.321 Z-11.271
X14.796 Y36.346 Z-11.274
X14.757 Y36.356 Z-11.277
X14.716 Y36.351 Z-11.279
X14.68 Y36.33 Z-11.282
X14.655 Y36.298 Z-11.285
X14.644 Y36.258 Z-11.287
X14.649 Y36.218 Z-11.29
X14.669 Y36.182 Z-11.293
X14.7 Y36.156 Z-11.296
X14.74 Y36.144 Z-11.298
X14.781 Y36.148 Z-11.301
X14.817 Y36.167 Z-11.304
X14.843 Y36.199 Z-11.306
X14.856 Y36.238 Z-11.309
X14.852 Y36.279 Z-11.312
X14.834 Y36.315 Z-11.314
X14.803 Y36.342 Z-11.317
X14.764 Y36.355 Z-11.32
X14.723 Y36.353 Z-11.323
X14.686 Y36.335 Z-11.325
X14.659 Y36.304 Z-11.328
X14.645 Y36.266 Z-11.331
X14.647 Y36.225 Z-11.333
X14.664 Y36.187 Z-11.336
X14.694 Y36.16 Z-11.339
X14.733 Y36.145 Z-11.341
X14.774 Y36.146 Z-11.344
X14.811 Y36.163 Z-11.347
X14.839 Y36.193 Z-11.35
X14.855 Y36.231 Z-11.352
X14.854 Y36.272 Z-11.355
X14.838 Y36.31 Z-11.358
X14.809 Y36.338 Z-11.36
X14.771 Y36.354 Z-11.363
X14.73 Z-11.366
X14.692 Y36.339 Z-11.368
X14.663 Y36.31 Z-11.371
X14.646 Y36.273 Z-11.374
X14.645 Y36.232 Z-11.377
X14.66 Y36.193 Z-11.379
X14.688 Y36.164 Z-11.382
X14.725 Y36.147 Z-11.385
X14.766 Y36.145 Z-11.387
X14.805 Y36.159 Z-11.39
X14.835 Y36.187 Z-11.393
X14.853 Y36.224 Z-11.395
X14.855 Y36.265 Z-11.398
X14.842 Y36.303 Z-11.401
X14.815 Y36.334 Z-11.404
X14.778 Y36.353 Z-11.406
X14.737 Y36.356 Z-11.409
X14.698 Y36.343 Z-11.412
X14.667 Y36.316 Z-11.414
X14.648 Y36.28 Z-11.417
X14.644 Y36.239 Z-11.42
X14.656 Y36.2 Z-11.422
X14.682 Y36.168 Z-11.425
X14.718 Y36.148 Z-11.428
X14.759 Y36.144 Z-11.43
X14.799 Y36.155 Z-11.433
X14.831 Y36.181 Z-11.436
X14.851 Y36.217 Z-11.439
X14.856 Y36.257 Z-11.441
X14.845 Y36.297 Z-11.444
X14.82 Y36.33 Z-11.447
X14.785 Y36.35 Z-11.449
X14.744 Y36.356 Z-11.452
X14.705 Y36.346 Z-11.455
X14.672 Y36.322 Z-11.457
X14.65 Y36.287 Z-11.46
X14.644 Y36.246 Z-11.463
X14.653 Y36.206 Z-11.466
X14.677 Y36.173 Z-11.468
X14.712 Y36.151 Z-11.471
X14.752 Y36.144 Z-11.474
X14.792 Y36.152 Z-11.476
X14.826 Y36.176 Z-11.479
X14.848 Y36.21 Z-11.482
X14.856 Y36.25 Z-11.484
X14.848 Y36.29 Z-11.487
X14.826 Y36.325 Z-11.49
X14.792 Y36.348 Z-11.493
X14.752 Y36.356 Z-11.495
X14.711 Y36.349 Z-11.498
X14.677 Y36.327 Z-11.501
X14.653 Y36.293 Z-11.503
X14.644 Y36.254 Z-11.506
X14.65 Y36.213 Z-11.509
X14.672 Y36.178 Z-11.511
X14.705 Y36.154 Z-11.514
X14.745 Y36.144 Z-11.517
X14.785 Y36.15 Z-11.52
X14.821 Y36.171 Z-11.522
X14.845 Y36.203 Z-11.525
X14.856 Y36.243 Z-11.528
X14.851 Y36.284 Z-11.53
X14.831 Y36.319 Z-11.533
X14.798 Y36.345 Z-11.536
X14.759 Y36.356 Z-11.538
X14.718 Y36.351 Z-11.541
X14.682 Y36.332 Z-11.544
X14.656 Y36.3 Z-11.547
X14.644 Y36.261 Z-11.549
X14.648 Y36.22 Z-11.552
X14.667 Y36.184 Z-11.555
X14.698 Y36.157 Z-11.557
X14.737 Y36.144 Z-11.56
X14.778 Y36.148 Z-11.563
X14.815 Y36.166 Z-11.565
X14.842 Y36.197 Z-11.568
X14.855 Y36.236 Z-11.571
X14.853 Y36.277 Z-11.574
X14.835 Y36.314 Z-11.576
X14.805 Y36.341 Z-11.579
X14.766 Y36.355 Z-11.582
X14.725 Y36.353 Z-11.584
X14.688 Y36.336 Z-11.587
X14.66 Y36.306 Z-11.59
X14.645 Y36.268 Z-11.592
X14.646 Y36.227 Z-11.595
X14.663 Y36.189 Z-11.598
X14.692 Y36.161 Z-11.601
X14.73 Y36.146 Z-11.603
X14.771 Z-11.606
X14.809 Y36.162 Z-11.609
X14.838 Y36.191 Z-11.611
X14.854 Y36.228 Z-11.614
X14.855 Y36.269 Z-11.617
X14.839 Y36.308 Z-11.619
X14.811 Y36.337 Z-11.622
X14.773 Y36.354 Z-11.625
X14.732 Y36.355 Z-11.628
X14.694 Y36.34 Z-11.63
X14.664 Y36.312 Z-11.633
X14.647 Y36.275 Z-11.636
X14.645 Y36.234 Z-11.638
X14.659 Y36.196 Z-11.641
X14.686 Y36.165 Z-11.644
X14.723 Y36.147 Z-11.646
X14.764 Y36.145 Z-11.649
X14.803 Y36.158 Z-11.652
X14.834 Y36.185 Z-11.655
X14.852 Y36.221 Z-11.657
X14.856 Y36.262 Z-11.66
X14.843 Y36.301 Z-11.663
X14.817 Y36.333 Z-11.665
X14.78 Y36.352 Z-11.668
X14.74 Y36.356 Z-11.671
X14.7 Y36.344 Z-11.673
X14.668 Y36.318 Z-11.676
X14.649 Y36.282 Z-11.679
X14.644 Y36.241 Z-11.682
X14.655 Y36.202 Z-11.684
X14.68 Y36.17 Z-11.687
X14.716 Y36.149 Z-11.69
X14.757 Y36.144 Z-11.692
X14.796 Y36.154 Z-11.695
X14.829 Y36.179 Z-11.698
X14.85 Y36.214 Z-11.7
X14.856 Y36.255 Z-11.703
X14.846 Y36.295 Z-11.706
X14.822 Y36.328 Z-11.709
X14.787 Y36.35 Z-11.711
X14.747 Y36.356 Z-11.714
X14.707 Y36.347 Z-11.717
X14.673 Y36.324 Z-11.719
X14.651 Y36.289 Z-11.722
X14.644 Y36.249 Z-11.725
X14.652 Y36.208 Z-11.727
X14.675 Y36.175 Z-11.73
X14.709 Y36.152 Z-11.733
X14.75 Y36.144 Z-11.735
X14.79 Y36.151 Z-11.738
X14.824 Y36.174 Z-11.741
X14.847 Y36.208 Z-11.744
X14.856 Y36.248 Z-11.746
X14.849 Y36.288 Z-11.749
X14.827 Y36.323 Z-11.752
X14.794 Y36.347 Z-11.754
X14.754 Y36.356 Z-11.757
X14.714 Y36.35 Z-11.76
X14.678 Y36.329 Z-11.762
X14.654 Y36.296 Z-11.765
X14.644 Y36.256 Z-11.768
X14.65 Y36.215 Z-11.771
X14.67 Y36.18 Z-11.773
X14.703 Y36.155 Z-11.776
X14.742 Y36.144 Z-11.779
X14.783 Y36.149 Z-11.781
X14.819 Y36.169 Z-11.784
X14.844 Y36.201 Z-11.787
X14.856 Y36.24 Z-11.789
X14.852 Y36.281 Z-11.792
X14.832 Y36.317 Z-11.795
X14.801 Y36.344 Z-11.798
X14.761 Y36.356 Z-11.8
X14.72 Y36.352 Z-11.803
X14.684 Y36.333 Z-11.806
X14.657 Y36.302 Z-11.808
X14.645 Y36.263 Z-11.811
X14.647 Y36.222 Z-11.814
X14.666 Y36.185 Z-11.816
X14.696 Y36.158 Z-11.819
X14.735 Y36.145 Z-11.822
X14.776 Y36.147 Z-11.825
X14.813 Y36.164 Z-11.827
X14.841 Y36.195 Z-11.83
X14.855 Y36.233 Z-11.833
X14.854 Y36.274 Z-11.835
X14.837 Y36.312 Z-11.838
X14.807 Y36.34 Z-11.841
X14.769 Y36.355 Z-11.843
X14.728 Y36.354 Z-11.846
X14.69 Y36.338 Z-11.849
X14.661 Y36.308 Z-11.852
X14.646 Y36.27 Z-11.854
Y36.229 Z-11.857
X14.661 Y36.191 Z-11.86
X14.69 Y36.162 Z-11.862
X14.728 Y36.146 Z-11.865
X14.769 Y36.145 Z-11.868
X14.807 Y36.16 Z-11.87
X14.837 Y36.189 Z-11.873
X14.854 Y36.226 Z-11.876
X14.855 Y36.267 Z-11.879
X14.841 Y36.306 Z-11.881
X14.813 Y36.336 Z-11.884
X14.776 Y36.353 Z-11.887
X14.735 Y36.355 Z-11.889
X14.696 Y36.342 Z-11.892
X14.665 Y36.314 Z-11.895
X14.647 Y36.277 Z-11.897
X14.645 Y36.237 Z-11.9
X14.658 Y36.198 Z-11.903
X14.684 Y36.166 Z-11.906
X14.721 Y36.148 Z-11.908
X14.762 Y36.144 Z-11.911
X14.801 Y36.157 Z-11.914
X14.832 Y36.183 Z-11.916
X14.852 Y36.219 Z-11.919
X14.856 Y36.26 Z-11.922
X14.844 Y36.299 Z-11.924
X14.819 Y36.331 Z-11.927
X14.783 Y36.351 Z-11.93
X14.742 Y36.356 Z-11.933
X14.702 Y36.345 Z-11.935
X14.67 Y36.32 Z-11.938
X14.649 Y36.284 Z-11.941
X14.644 Y36.244 Z-11.943
X14.654 Y36.204 Z-11.946
X14.679 Y36.171 Z-11.949
X14.714 Y36.15 Z-11.951
X14.754 Y36.144 Z-11.954
X14.794 Y36.153 Z-11.957
X14.828 Y36.177 Z-11.96
X14.849 Y36.212 Z-11.962
X14.856 Y36.253 Z-11.965
X14.847 Y36.293 Z-11.968
X14.824 Y36.326 Z-11.97
X14.79 Y36.349 Z-11.973
X14.749 Y36.356 Z-11.976
X14.709 Y36.348 Z-11.978
X14.675 Y36.325 Z-11.981
X14.652 Y36.291 Z-11.984
X14.644 Y36.251 Z-11.987
X14.651 Y36.211 Z-11.989
X14.673 Y36.176 Z-11.992
X14.707 Y36.153 Z-11.995
X14.747 Y36.144 Z-11.997
X14.788 Y36.151 Z-12.
G3 X14.849 Y36.288 R0.106
X14.712 Y36.349 R0.106
X14.651 Y36.212 R0.106
X14.788 Y36.151 R0.106
G1 X14.81 Y36.167
X14.821 Y36.192
X14.819 Y36.219
X14.805 Y36.256
X14.794 Y36.284 Z-11.994
X14.785 Y36.308 Z-11.977
X14.779 Y36.324 Z-11.951
X14.777 Y36.33 Z-11.921
G0 Z5.
X14.685 Y30.197
Z-8.
G1 Z-9.921 F1500.
X14.691 Z-9.951
X14.708 Z-9.977
X14.734 Z-9.994
X14.764 Z-10.
X14.803
X14.83 Y30.204
X14.849 Y30.223
X14.856 Y30.25
X14.848 Y30.29 Z-10.003
X14.826 Y30.325 Z-10.005
X14.792 Y30.348 Z-10.008
X14.752 Y30.356 Z-10.011
X14.711 Y30.349 Z-10.013
X14.677 Y30.327 Z-10.016
X14.653 Y30.294 Z-10.019
X14.644 Y30.254 Z-10.022
X14.65 Y30.213 Z-10.024
X14.672 Y30.178 Z-10.027
X14.705 Y30.154 Z-10.03
X14.745 Y30.144 Z-10.032
X14.785 Y30.15 Z-10.035
X14.821 Y30.17 Z-10.038
X14.845 Y30.203 Z-10.04
X14.856 Y30.243 Z-10.043
X14.851 Y30.283 Z-10.046
X14.831 Y30.319 Z-10.049
X14.799 Y30.345 Z-10.051
X14.759 Y30.356 Z-10.054
X14.718 Y30.351 Z-10.057
X14.682 Y30.332 Z-10.059
X14.656 Y30.3 Z-10.062
X14.644 Y30.261 Z-10.065
X14.648 Y30.22 Z-10.067
X14.667 Y30.184 Z-10.07
X14.698 Y30.157 Z-10.073
X14.737 Y30.144 Z-10.076
X14.778 Y30.148 Z-10.078
X14.815 Y30.166 Z-10.081
X14.842 Y30.197 Z-10.084
X14.855 Y30.235 Z-10.086
X14.853 Y30.276 Z-10.089
X14.835 Y30.313 Z-10.092
X14.805 Y30.341 Z-10.094
X14.766 Y30.355 Z-10.097
X14.725 Y30.353 Z-10.1
X14.688 Y30.336 Z-10.103
X14.66 Y30.306 Z-10.105
X14.645 Y30.268 Z-10.108
X14.646 Y30.227 Z-10.111
X14.663 Y30.189 Z-10.113
X14.692 Y30.161 Z-10.116
X14.73 Y30.146 Z-10.119
X14.771 Z-10.121
X14.809 Y30.162 Z-10.124
X14.838 Y30.191 Z-10.127
X14.854 Y30.228 Z-10.13
X14.855 Y30.269 Z-10.132
X14.839 Y30.307 Z-10.135
X14.811 Y30.337 Z-10.138
X14.773 Y30.354 Z-10.14
X14.732 Y30.355 Z-10.143
X14.694 Y30.34 Z-10.146
X14.664 Y30.312 Z-10.148
X14.647 Y30.275 Z-10.151
X14.645 Y30.234 Z-10.154
X14.659 Y30.196 Z-10.157
X14.686 Y30.165 Z-10.159
X14.723 Y30.147 Z-10.162
X14.764 Y30.145 Z-10.165
X14.803 Y30.158 Z-10.167
X14.834 Y30.185 Z-10.17
X14.852 Y30.221 Z-10.173
X14.856 Y30.262 Z-10.175
X14.843 Y30.301 Z-10.178
X14.817 Y30.333 Z-10.181
X14.781 Y30.352 Z-10.184
X14.74 Y30.356 Z-10.186
X14.7 Y30.344 Z-10.189
X14.668 Y30.318 Z-10.192
X14.649 Y30.282 Z-10.194
X14.644 Y30.241 Z-10.197
X14.655 Y30.202 Z-10.2
X14.68 Y30.17 Z-10.202
X14.716 Y30.149 Z-10.205
X14.757 Y30.144 Z-10.208
X14.796 Y30.154 Z-10.211
X14.829 Y30.179 Z-10.213
X14.85 Y30.214 Z-10.216
X14.856 Y30.255 Z-10.219
X14.846 Y30.295 Z-10.221
X14.822 Y30.328 Z-10.224
X14.787 Y30.349 Z-10.227
X14.747 Y30.356 Z-10.229
X14.707 Y30.347 Z-10.232
X14.673 Y30.324 Z-10.235
X14.651 Y30.289 Z-10.238
X14.644 Y30.249 Z-10.24
X14.652 Y30.209 Z-10.243
X14.675 Y30.175 Z-10.246
X14.709 Y30.152 Z-10.248
X14.749 Y30.144 Z-10.251
X14.79 Y30.151 Z-10.254
X14.824 Y30.174 Z-10.256
X14.847 Y30.208 Z-10.259
X14.856 Y30.248 Z-10.262
X14.849 Y30.288 Z-10.265
X14.827 Y30.323 Z-10.267
X14.794 Y30.347 Z-10.27
X14.754 Y30.356 Z-10.273
X14.714 Y30.35 Z-10.275
X14.679 Y30.329 Z-10.278
X14.654 Y30.296 Z-10.281
X14.644 Y30.256 Z-10.283
X14.649 Y30.215 Z-10.286
X14.67 Y30.18 Z-10.289
X14.703 Y30.155 Z-10.291
X14.742 Y30.144 Z-10.294
X14.783 Y30.149 Z-10.297
X14.819 Y30.169 Z-10.3
X14.844 Y30.201 Z-10.302
X14.856 Y30.24 Z-10.305
X14.852 Y30.281 Z-10.308
X14.832 Y30.317 Z-10.31
X14.801 Y30.343 Z-10.313
X14.761 Y30.356 Z-10.316
X14.721 Y30.352 Z-10.318
X14.684 Y30.333 Z-10.321
X14.657 Y30.302 Z-10.324
X14.645 Y30.263 Z-10.327
X14.647 Y30.222 Z-10.329
X14.665 Y30.186 Z-10.332
X14.696 Y30.158 Z-10.335
X14.735 Y30.145 Z-10.337
X14.776 Y30.147 Z-10.34
X14.813 Y30.164 Z-10.343
X14.841 Y30.195 Z-10.345
X14.855 Y30.233 Z-10.348
X14.854 Y30.274 Z-10.351
X14.837 Y30.312 Z-10.354
X14.807 Y30.34 Z-10.356
X14.769 Y30.355 Z-10.359
X14.728 Y30.354 Z-10.362
X14.69 Y30.338 Z-10.364
X14.661 Y30.308 Z-10.367
X14.646 Y30.27 Z-10.37
Y30.229 Z-10.372
X14.661 Y30.191 Z-10.375
X14.69 Y30.162 Z-10.378
X14.728 Y30.146 Z-10.381
X14.769 Y30.145 Z-10.383
X14.807 Y30.16 Z-10.386
X14.837 Y30.189 Z-10.389
X14.854 Y30.226 Z-10.391
X14.855 Y30.267 Z-10.394
X14.841 Y30.305 Z-10.397
X14.813 Y30.336 Z-10.399
X14.776 Y30.353 Z-10.402
X14.735 Y30.355 Z-10.405
X14.696 Y30.342 Z-10.408
X14.665 Y30.314 Z-10.41
X14.647 Y30.278 Z-10.413
X14.645 Y30.237 Z-10.416
X14.657 Y30.198 Z-10.418
X14.684 Y30.167 Z-10.421
X14.721 Y30.148 Z-10.424
X14.762 Y30.144 Z-10.426
X14.801 Y30.157 Z-10.429
X14.832 Y30.183 Z-10.432
X14.852 Y30.219 Z-10.435
X14.856 Y30.26 Z-10.437
X14.844 Y30.299 Z-10.44
X14.819 Y30.331 Z-10.443
X14.783 Y30.351 Z-10.445
X14.742 Y30.356 Z-10.448
X14.703 Y30.345 Z-10.451
X14.67 Y30.32 Z-10.453
X14.649 Y30.285 Z-10.456
X14.644 Y30.244 Z-10.459
X14.654 Y30.204 Z-10.462
X14.679 Y30.171 Z-10.464
X14.714 Y30.15 Z-10.467
X14.754 Y30.144 Z-10.47
X14.794 Y30.153 Z-10.472
X14.828 Y30.177 Z-10.475
X14.849 Y30.212 Z-10.478
X14.856 Y30.252 Z-10.48
X14.847 Y30.293 Z-10.483
X14.824 Y30.326 Z-10.486
X14.79 Y30.349 Z-10.489
X14.749 Y30.356 Z-10.491
X14.709 Y30.348 Z-10.494
X14.675 Y30.325 Z-10.497
X14.652 Y30.291 Z-10.499
X14.644 Y30.251 Z-10.502
X14.651 Y30.211 Z-10.505
X14.673 Y30.176 Z-10.507
X14.707 Y30.153 Z-10.51
X14.747 Y30.144 Z-10.513
X14.787 Y30.151 Z-10.516
X14.822 Y30.172 Z-10.518
X14.846 Y30.205 Z-10.521
X14.856 Y30.245 Z-10.524
X14.85 Y30.286 Z-10.526
X14.829 Y30.321 Z-10.529
X14.796 Y30.346 Z-10.532
X14.757 Y30.356 Z-10.534
X14.716 Y30.351 Z-10.537
X14.68 Y30.33 Z-10.54
X14.655 Y30.298 Z-10.543
X14.644 Y30.258 Z-10.545
X14.649 Y30.218 Z-10.548
X14.669 Y30.182 Z-10.551
X14.7 Y30.156 Z-10.553
X14.74 Y30.144 Z-10.556
X14.781 Y30.148 Z-10.559
X14.817 Y30.167 Z-10.561
X14.843 Y30.199 Z-10.564
X14.856 Y30.238 Z-10.567
X14.852 Y30.279 Z-10.57
X14.834 Y30.315 Z-10.572
X14.803 Y30.342 Z-10.575
X14.764 Y30.355 Z-10.578
X14.723 Y30.353 Z-10.58
X14.686 Y30.335 Z-10.583
X14.659 Y30.304 Z-10.586
X14.645 Y30.266 Z-10.588
X14.647 Y30.225 Z-10.591
X14.664 Y30.187 Z-10.594
X14.694 Y30.16 Z-10.596
X14.733 Y30.145 Z-10.599
X14.774 Y30.146 Z-10.602
X14.811 Y30.163 Z-10.605
X14.839 Y30.193 Z-10.607
X14.855 Y30.231 Z-10.61
X14.854 Y30.272 Z-10.613
X14.838 Y30.31 Z-10.615
X14.809 Y30.338 Z-10.618
X14.771 Y30.354 Z-10.621
X14.73 Z-10.623
X14.692 Y30.339 Z-10.626
X14.663 Y30.31 Z-10.629
X14.646 Y30.273 Z-10.632
X14.645 Y30.232 Z-10.634
X14.66 Y30.194 Z-10.637
X14.688 Y30.164 Z-10.64
X14.725 Y30.147 Z-10.642
X14.766 Y30.145 Z-10.645
X14.805 Y30.159 Z-10.648
X14.835 Y30.187 Z-10.65
X14.853 Y30.224 Z-10.653
X14.855 Y30.265 Z-10.656
X14.842 Y30.303 Z-10.659
X14.815 Y30.334 Z-10.661
X14.778 Y30.353 Z-10.664
X14.737 Y30.356 Z-10.667
X14.698 Y30.343 Z-10.669
X14.667 Y30.316 Z-10.672
X14.648 Y30.28 Z-10.675
X14.644 Y30.239 Z-10.677
X14.656 Y30.2 Z-10.68
X14.682 Y30.168 Z-10.683
X14.718 Y30.149 Z-10.686
X14.759 Y30.144 Z-10.688
X14.799 Y30.155 Z-10.691
X14.831 Y30.181 Z-10.694
X14.851 Y30.217 Z-10.696
X14.856 Y30.257 Z-10.699
