(NMJSTIMLID_STEP1_4MM)
(T8  D=4. CR=0. - ZMIN=-10. - FLAT END MILL)
G0 G90 G94 G17
G21
G53 G0 Z0.

(FACE3)
M5
T8
M3 S16000
G55
M8
G0 X131.6 Y0.804
Z15.
Z5.
G1 Z0.107 F380.
X131.592 Z0.029 F1500.
X131.57 Z-0.046
X131.533 Z-0.115
X131.483 Z-0.176
X131.422 Z-0.226
X131.353 Z-0.263
X131.278 Z-0.285
X131.2 Z-0.293
X131.1
X-2.1
G2 X-3.488 Y2.191 R1.388
X-2.1 Y3.579 R1.388
G1 X131.1
G3 X132.488 Y4.967 R1.388
X131.1 Y6.355 R1.388
G1 X-2.1
G2 X-3.488 Y7.743 R1.388
X-2.1 Y9.13 R1.388
G1 X131.1
G3 X132.488 Y10.518 R1.388
X131.1 Y11.906 R1.388
G1 X-2.1
G2 X-3.488 Y13.294 R1.388
X-2.1 Y14.682 R1.388
G1 X131.1
G3 X132.488 Y16.069 R1.388
X131.1 Y17.457 R1.388
G1 X-2.1
G2 X-3.488 Y18.845 R1.388
X-2.1 Y20.233 R1.388
G1 X131.1
G3 X132.488 Y21.621 R1.388
X131.1 Y23.009 R1.388
G1 X-2.1
G2 X-3.488 Y24.396 R1.388
X-2.1 Y25.784 R1.388
G1 X131.1
G3 X132.488 Y27.172 R1.388
X131.1 Y28.56 R1.388
G1 X-2.1
G2 X-3.488 Y29.948 R1.388
X-2.1 Y31.335 R1.388
G1 X131.1
G3 X132.488 Y32.723 R1.388
X131.1 Y34.111 R1.388
G1 X-2.1
G2 X-3.488 Y35.499 R1.388
X-2.1 Y36.887 R1.388
G1 X131.1
G3 X132.488 Y38.274 R1.388
X131.1 Y39.662 R1.388
G1 X-2.1
G2 X-3.488 Y41.05 R1.388
X-2.1 Y42.438 R1.388
G1 X131.1
G3 X132.488 Y43.826 R1.388
X131.1 Y45.213 R1.388
G1 X-2.1
G2 X-3.488 Y46.601 R1.388
X-2.1 Y47.989 R1.388
G1 X131.1
G3 X132.488 Y49.377 R1.388
X131.1 Y50.765 R1.388
G1 X-2.1
G2 X-3.488 Y52.152 R1.388
X-2.1 Y53.54 R1.388
G1 X131.1
G3 X132.488 Y54.928 R1.388
X131.1 Y56.316 R1.388
G1 X-2.1
G2 X-3.488 Y57.704 R1.388
X-2.1 Y59.091 R1.388
G1 X131.1
G3 X132.488 Y60.479 R1.388
X131.1 Y61.867 R1.388
G1 X-2.1
G2 X-3.488 Y63.255 R1.388
X-2.1 Y64.643 R1.388
G1 X131.1
G3 X132.488 Y66.031 R1.388
X131.1 Y67.418 R1.388
G1 X-2.1
G2 X-3.488 Y68.806 R1.388
X-2.1 Y70.194 R1.388
G1 X131.1
G3 X132.488 Y71.582 R1.388
X131.1 Y72.97 R1.388
G1 X-2.1
G2 X-3.488 Y74.357 R1.388
X-2.1 Y75.745 R1.388
G1 X131.1
G3 X132.488 Y77.133 R1.388
X131.1 Y78.521 R1.388
G1 X-2.1
G2 X-3.488 Y79.909 R1.388
X-2.1 Y81.296 R1.388
G1 X131.1
G3 X132.488 Y82.684 R1.388
X131.1 Y84.072 R1.388
G1 X-2.1
X-2.178 Z-0.285
X-2.253 Z-0.263
X-2.322 Z-0.226
X-2.383 Z-0.176
X-2.433 Z-0.115
X-2.47 Z-0.046
X-2.492 Z0.029
X-2.5 Z0.107
G0 Z5.
X-2.6 Y0.804
G1 Z-0.401 F380.
X-2.592 Z-0.479 F1500.
X-2.57 Z-0.554
X-2.533 Z-0.623
X-2.483 Z-0.684
X-2.422 Z-0.734
X-2.353 Z-0.771
X-2.278 Z-0.793
X-2.2 Z-0.801
X-2.1
X131.1
G3 X132.488 Y2.191 R1.388
X131.1 Y3.579 R1.388
G1 X-2.1
G2 X-3.488 Y4.967 R1.388
X-2.1 Y6.355 R1.388
G1 X131.1
G3 X132.488 Y7.743 R1.388
X131.1 Y9.13 R1.388
G1 X-2.1
G2 X-3.488 Y10.518 R1.388
X-2.1 Y11.906 R1.388
G1 X131.1
G3 X132.488 Y13.294 R1.388
X131.1 Y14.682 R1.388
G1 X-2.1
G2 X-3.488 Y16.069 R1.388
X-2.1 Y17.457 R1.388
G1 X131.1
G3 X132.488 Y18.845 R1.388
X131.1 Y20.233 R1.388
G1 X-2.1
G2 X-3.488 Y21.621 R1.388
X-2.1 Y23.009 R1.388
G1 X131.1
G3 X132.488 Y24.396 R1.388
X131.1 Y25.784 R1.388
G1 X-2.1
G2 X-3.488 Y27.172 R1.388
X-2.1 Y28.56 R1.388
G1 X131.1
G3 X132.488 Y29.948 R1.388
X131.1 Y31.335 R1.388
G1 X-2.1
G2 X-3.488 Y32.723 R1.388
X-2.1 Y34.111 R1.388
G1 X131.1
G3 X132.488 Y35.499 R1.388
X131.1 Y36.887 R1.388
G1 X-2.1
G2 X-3.488 Y38.274 R1.388
X-2.1 Y39.662 R1.388
G1 X131.1
G3 X132.488 Y41.05 R1.388
X131.1 Y42.438 R1.388
G1 X-2.1
G2 X-3.488 Y43.826 R1.388
X-2.1 Y45.213 R1.388
G1 X131.1
G3 X132.488 Y46.601 R1.388
X131.1 Y47.989 R1.388
G1 X-2.1
G2 X-3.488 Y49.377 R1.388
X-2.1 Y50.765 R1.388
G1 X131.1
G3 X132.488 Y52.152 R1.388
X131.1 Y53.54 R1.388
G1 X-2.1
G2 X-3.488 Y54.928 R1.388
X-2.1 Y56.316 R1.388
G1 X131.1
G3 X132.488 Y57.704 R1.388
X131.1 Y59.091 R1.388
G1 X-2.1
G2 X-3.488 Y60.479 R1.388
X-2.1 Y61.867 R1.388
G1 X131.1
G3 X132.488 Y63.255 R1.388
X131.1 Y64.643 R1.388
G1 X-2.1
G2 X-3.488 Y66.031 R1.388
X-2.1 Y67.418 R1.388
G1 X131.1
G3 X132.488 Y68.806 R1.388
X131.1 Y70.194 R1.388
G1 X-2.1
G2 X-3.488 Y71.582 R1.388
X-2.1 Y72.97 R1.388
G1 X131.1
G3 X132.488 Y74.357 R1.388
X131.1 Y75.745 R1.388
G1 X-2.1
G2 X-3.488 Y77.133 R1.388
X-2.1 Y78.521 R1.388
G1 X131.1
G3 X132.488 Y79.909 R1.388
X131.1 Y81.296 R1.388
G1 X-2.1
G2 X-3.488 Y82.684 R1.388
X-2.1 Y84.072 R1.388
G1 X131.1
X131.178 Z-0.793
X131.253 Z-0.771
X131.322 Z-0.734
X131.383 Z-0.684
X131.433 Z-0.623
X131.47 Z-0.554
X131.492 Z-0.479
X131.5 Z-0.401
G0 Z5.
X131.6 Y0.804
G1 Z-0.909 F380.
X131.592 Z-0.987 F1500.
X131.57 Z-1.062
X131.533 Z-1.131
X131.483 Z-1.192
X131.422 Z-1.242
X131.353 Z-1.279
X131.278 Z-1.301
X131.2 Z-1.309
X131.1
X-2.1
G2 X-3.488 Y2.191 R1.388
X-2.1 Y3.579 R1.388
G1 X131.1
G3 X132.488 Y4.967 R1.388
X131.1 Y6.355 R1.388
G1 X-2.1
G2 X-3.488 Y7.743 R1.388
X-2.1 Y9.13 R1.388
G1 X131.1
G3 X132.488 Y10.518 R1.388
X131.1 Y11.906 R1.388
G1 X-2.1
G2 X-3.488 Y13.294 R1.388
X-2.1 Y14.682 R1.388
G1 X131.1
G3 X132.488 Y16.069 R1.388
X131.1 Y17.457 R1.388
G1 X-2.1
G2 X-3.488 Y18.845 R1.388
X-2.1 Y20.233 R1.388
G1 X131.1
G3 X132.488 Y21.621 R1.388
X131.1 Y23.009 R1.388
G1 X-2.1
G2 X-3.488 Y24.396 R1.388
X-2.1 Y25.784 R1.388
G1 X131.1
G3 X132.488 Y27.172 R1.388
X131.1 Y28.56 R1.388
G1 X-2.1
G2 X-3.488 Y29.948 R1.388
X-2.1 Y31.335 R1.388
G1 X131.1
G3 X132.488 Y32.723 R1.388
X131.1 Y34.111 R1.388
G1 X-2.1
G2 X-3.488 Y35.499 R1.388
X-2.1 Y36.887 R1.388
G1 X131.1
G3 X132.488 Y38.274 R1.388
X131.1 Y39.662 R1.388
G1 X-2.1
G2 X-3.488 Y41.05 R1.388
X-2.1 Y42.438 R1.388
G1 X131.1
G3 X132.488 Y43.826 R1.388
X131.1 Y45.213 R1.388
G1 X-2.1
G2 X-3.488 Y46.601 R1.388
X-2.1 Y47.989 R1.388
G1 X131.1
G3 X132.488 Y49.377 R1.388
X131.1 Y50.765 R1.388
G1 X-2.1
G2 X-3.488 Y52.152 R1.388
X-2.1 Y53.54 R1.388
G1 X131.1
G3 X132.488 Y54.928 R1.388
X131.1 Y56.316 R1.388
G1 X-2.1
G2 X-3.488 Y57.704 R1.388
X-2.1 Y59.091 R1.388
G1 X131.1
G3 X132.488 Y60.479 R1.388
X131.1 Y61.867 R1.388
G1 X-2.1
G2 X-3.488 Y63.255 R1.388
X-2.1 Y64.643 R1.388
G1 X131.1
G3 X132.488 Y66.031 R1.388
X131.1 Y67.418 R1.388
G1 X-2.1
G2 X-3.488 Y68.806 R1.388
X-2.1 Y70.194 R1.388
G1 X131.1
G3 X132.488 Y71.582 R1.388
X131.1 Y72.97 R1.388
G1 X-2.1
G2 X-3.488 Y74.357 R1.388
X-2.1 Y75.745 R1.388
G1 X131.1
G3 X132.488 Y77.133 R1.388
X131.1 Y78.521 R1.388
G1 X-2.1
G2 X-3.488 Y79.909 R1.388
X-2.1 Y81.296 R1.388
G1 X131.1
G3 X132.488 Y82.684 R1.388
X131.1 Y84.072 R1.388
G1 X-2.1
X-2.178 Z-1.301
X-2.253 Z-1.279
X-2.322 Z-1.242
X-2.383 Z-1.192
X-2.433 Z-1.131
X-2.47 Z-1.062
X-2.492 Z-0.987
X-2.5 Z-0.909
G0 Z5.
X-2.6 Y0.804
G1 Z-1.417 F380.
X-2.592 Z-1.495 F1500.
X-2.57 Z-1.57
X-2.533 Z-1.639
X-2.483 Z-1.7
X-2.422 Z-1.75
X-2.353 Z-1.787
X-2.278 Z-1.809
X-2.2 Z-1.817
X-2.1
X131.1
G3 X132.488 Y2.191 R1.388
X131.1 Y3.579 R1.388
G1 X-2.1
G2 X-3.488 Y4.967 R1.388
X-2.1 Y6.355 R1.388
G1 X131.1
G3 X132.488 Y7.743 R1.388
X131.1 Y9.13 R1.388
G1 X-2.1
G2 X-3.488 Y10.518 R1.388
X-2.1 Y11.906 R1.388
G1 X131.1
G3 X132.488 Y13.294 R1.388
X131.1 Y14.682 R1.388
G1 X-2.1
G2 X-3.488 Y16.069 R1.388
X-2.1 Y17.457 R1.388
G1 X131.1
G3 X132.488 Y18.845 R1.388
X131.1 Y20.233 R1.388
G1 X-2.1
G2 X-3.488 Y21.621 R1.388
X-2.1 Y23.009 R1.388
G1 X131.1
G3 X132.488 Y24.396 R1.388
X131.1 Y25.784 R1.388
G1 X-2.1
G2 X-3.488 Y27.172 R1.388
X-2.1 Y28.56 R1.388
G1 X131.1
G3 X132.488 Y29.948 R1.388
X131.1 Y31.335 R1.388
G1 X-2.1
G2 X-3.488 Y32.723 R1.388
X-2.1 Y34.111 R1.388
G1 X131.1
G3 X132.488 Y35.499 R1.388
X131.1 Y36.887 R1.388
G1 X-2.1
G2 X-3.488 Y38.274 R1.388
X-2.1 Y39.662 R1.388
G1 X131.1
G3 X132.488 Y41.05 R1.388
X131.1 Y42.438 R1.388
G1 X-2.1
G2 X-3.488 Y43.826 R1.388
X-2.1 Y45.213 R1.388
G1 X131.1
G3 X132.488 Y46.601 R1.388
X131.1 Y47.989 R1.388
G1 X-2.1
G2 X-3.488 Y49.377 R1.388
X-2.1 Y50.765 R1.388
G1 X131.1
G3 X132.488 Y52.152 R1.388
X131.1 Y53.54 R1.388
G1 X-2.1
G2 X-3.488 Y54.928 R1.388
X-2.1 Y56.316 R1.388
G1 X131.1
G3 X132.488 Y57.704 R1.388
X131.1 Y59.091 R1.388
G1 X-2.1
G2 X-3.488 Y60.479 R1.388
X-2.1 Y61.867 R1.388
G1 X131.1
G3 X132.488 Y63.255 R1.388
X131.1 Y64.643 R1.388
G1 X-2.1
G2 X-3.488 Y66.031 R1.388
X-2.1 Y67.418 R1.388
G1 X131.1
G3 X132.488 Y68.806 R1.388
X131.1 Y70.194 R1.388
G1 X-2.1
G2 X-3.488 Y71.582 R1.388
X-2.1 Y72.97 R1.388
G1 X131.1
G3 X132.488 Y74.357 R1.388
X131.1 Y75.745 R1.388
G1 X-2.1
G2 X-3.488 Y77.133 R1.388
X-2.1 Y78.521 R1.388
G1 X131.1
G3 X132.488 Y79.909 R1.388
X131.1 Y81.296 R1.388
G1 X-2.1
G2 X-3.488 Y82.684 R1.388
X-2.1 Y84.072 R1.388
G1 X131.1
X131.178 Z-1.809
X131.253 Z-1.787
X131.322 Z-1.75
X131.383 Z-1.7
X131.433 Z-1.639
X131.47 Z-1.57
X131.492 Z-1.495
X131.5 Z-1.417
G0 Z5.
X131.6 Y0.804
G1 Z-1.925 F380.
X131.592 Z-2.003 F1500.
X131.57 Z-2.078
X131.533 Z-2.147
X131.483 Z-2.208
X131.422 Z-2.258
X131.353 Z-2.295
X131.278 Z-2.317
X131.2 Z-2.325
X131.1
X-2.1
G2 X-3.488 Y2.191 R1.388
X-2.1 Y3.579 R1.388
G1 X131.1
G3 X132.488 Y4.967 R1.388
X131.1 Y6.355 R1.388
G1 X-2.1
G2 X-3.488 Y7.743 R1.388
X-2.1 Y9.13 R1.388
G1 X131.1
G3 X132.488 Y10.518 R1.388
X131.1 Y11.906 R1.388
G1 X-2.1
G2 X-3.488 Y13.294 R1.388
X-2.1 Y14.682 R1.388
G1 X131.1
G3 X132.488 Y16.069 R1.388
X131.1 Y17.457 R1.388
G1 X-2.1
G2 X-3.488 Y18.845 R1.388
X-2.1 Y20.233 R1.388
G1 X131.1
G3 X132.488 Y21.621 R1.388
X131.1 Y23.009 R1.388
G1 X-2.1
G2 X-3.488 Y24.396 R1.388
X-2.1 Y25.784 R1.388
G1 X131.1
G3 X132.488 Y27.172 R1.388
X131.1 Y28.56 R1.388
G1 X-2.1
G2 X-3.488 Y29.948 R1.388
X-2.1 Y31.335 R1.388
G1 X131.1
G3 X132.488 Y32.723 R1.388
X131.1 Y34.111 R1.388
G1 X-2.1
G2 X-3.488 Y35.499 R1.388
X-2.1 Y36.887 R1.388
G1 X131.1
G3 X132.488 Y38.274 R1.388
X131.1 Y39.662 R1.388
G1 X-2.1
G2 X-3.488 Y41.05 R1.388
X-2.1 Y42.438 R1.388
G1 X131.1
G3 X132.488 Y43.826 R1.388
X131.1 Y45.213 R1.388
G1 X-2.1
G2 X-3.488 Y46.601 R1.388
X-2.1 Y47.989 R1.388
G1 X131.1
G3 X132.488 Y49.377 R1.388
X131.1 Y50.765 R1.388
G1 X-2.1
G2 X-3.488 Y52.152 R1.388
X-2.1 Y53.54 R1.388
G1 X131.1
G3 X132.488 Y54.928 R1.388
X131.1 Y56.316 R1.388
G1 X-2.1
G2 X-3.488 Y57.704 R1.388
X-2.1 Y59.091 R1.388
G1 X131.1
G3 X132.488 Y60.479 R1.388
X131.1 Y61.867 R1.388
G1 X-2.1
G2 X-3.488 Y63.255 R1.388
X-2.1 Y64.643 R1.388
G1 X131.1
G3 X132.488 Y66.031 R1.388
X131.1 Y67.418 R1.388
G1 X-2.1
G2 X-3.488 Y68.806 R1.388
X-2.1 Y70.194 R1.388
G1 X131.1
G3 X132.488 Y71.582 R1.388
X131.1 Y72.97 R1.388
G1 X-2.1
G2 X-3.488 Y74.357 R1.388
X-2.1 Y75.745 R1.388
G1 X131.1
G3 X132.488 Y77.133 R1.388
X131.1 Y78.521 R1.388
G1 X-2.1
G2 X-3.488 Y79.909 R1.388
X-2.1 Y81.296 R1.388
G1 X131.1
G3 X132.488 Y82.684 R1.388
X131.1 Y84.072 R1.388
G1 X-2.1
X-2.178 Z-2.317
X-2.253 Z-2.295
X-2.322 Z-2.258
X-2.383 Z-2.208
X-2.433 Z-2.147
X-2.47 Z-2.078
X-2.492 Z-2.003
X-2.5 Z-1.925
G0 Z15.

(2D POCKET1)
G55
G0 X87.358 Y42.198
Z15.
Z2.675
G1 Z0.575 F380.
X87.345 Y42.225 Z0.425 F1500.
X87.307 Y42.298 Z0.297
X87.243 Y42.406 Z0.209
X87.159 Y42.528 Z0.175
X87.048 Y42.663 Z0.169
X86.926 Y42.786 Z0.163
X86.792 Y42.898 Z0.157
X86.649 Y42.997 Z0.151
X86.497 Y43.083 Z0.145
X86.339 Y43.154 Z0.139
X86.174 Y43.211 Z0.132
X86.005 Y43.252 Z0.126
X85.833 Y43.278 Z0.12
X85.659 Y43.287 Z0.114
X85.485 Y43.281 Z0.108
X85.312 Y43.259 Z0.102
X85.142 Y43.221 Z0.096
X84.977 Y43.168 Z0.09
X84.816 Y43.1 Z0.084
X84.663 Y43.017 Z0.078
X84.518 Y42.921 Z0.072
X84.382 Y42.812 Z0.066
X84.257 Y42.691 Z0.059
X84.144 Y42.559 Z0.053
X84.043 Y42.417 Z0.047
X83.955 Y42.267 Z0.041
X83.882 Y42.109 Z0.035
X83.823 Y41.945 Z0.029
X83.78 Y41.776 Z0.023
X83.752 Y41.605 Z0.017
X83.74 Y41.431 Z0.011
X83.744 Y41.257 Z0.005
X83.764 Y41.084 Z-0.001
X83.8 Y40.914 Z-0.007
X83.851 Y40.747 Z-0.014
X83.917 Y40.586 Z-0.02
X83.997 Y40.432 Z-0.026
X84.092 Y40.286 Z-0.032
X84.199 Y40.148 Z-0.038
X84.319 Y40.022 Z-0.044
X84.449 Y39.907 Z-0.05
X84.59 Y39.804 Z-0.056
X84.739 Y39.714 Z-0.062
X84.896 Y39.639 Z-0.068
X85.059 Y39.578 Z-0.074
X85.227 Y39.533 Z-0.08
X85.398 Y39.503 Z-0.086
X85.572 Y39.489 Z-0.093
X85.746 Y39.49 Z-0.099
X85.919 Y39.508 Z-0.105
X86.09 Y39.542 Z-0.111
X86.257 Y39.591 Z-0.117
X86.419 Y39.655 Z-0.123
X86.574 Y39.733 Z-0.129
X86.722 Y39.826 Z-0.135
X86.86 Y39.931 Z-0.141
X86.988 Y40.049 Z-0.147
X87.105 Y40.178 Z-0.153
X87.21 Y40.317 Z-0.159
X87.301 Y40.465 Z-0.166
X87.378 Y40.621 Z-0.172
X87.441 Y40.784 Z-0.178
X87.489 Y40.951 Z-0.184
X87.521 Y41.122 Z-0.19
X87.537 Y41.296 Z-0.196
X87.538 Y41.47 Z-0.202
X87.522 Y41.643 Z-0.208
X87.491 Y41.814 Z-0.214
X87.444 Y41.982 Z-0.22
X87.382 Y42.145 Z-0.226
X87.306 Y42.301 Z-0.232
X87.215 Y42.45 Z-0.239
X87.111 Y42.589 Z-0.245
X86.995 Y42.719 Z-0.251
X86.867 Y42.837 Z-0.257
X86.73 Y42.944 Z-0.263
X86.583 Y43.037 Z-0.269
X86.428 Y43.116 Z-0.275
X86.266 Y43.181 Z-0.281
X86.099 Y43.231 Z-0.287
X85.929 Y43.265 Z-0.293
X85.756 Y43.284 Z-0.299
X85.582 Y43.287 Z-0.305
X85.408 Y43.273 Z-0.311
X85.236 Y43.244 Z-0.318
X85.068 Y43.199 Z-0.324
X84.905 Y43.14 Z-0.33
X84.747 Y43.065 Z-0.336
X84.598 Y42.976 Z-0.342
X84.457 Y42.874 Z-0.348
X84.325 Y42.76 Z-0.354
X84.205 Y42.634 Z-0.36
X84.097 Y42.497 Z-0.366
X84.002 Y42.351 Z-0.372
X83.921 Y42.197 Z-0.378
X83.854 Y42.037 Z-0.384
X83.802 Y41.871 Z-0.391
X83.766 Y41.7 Z-0.397
X83.745 Y41.528 Z-0.403
X83.74 Y41.354 Z-0.409
X83.751 Y41.18 Z-0.415
X83.778 Y41.008 Z-0.421
X83.82 Y40.839 Z-0.427
X83.878 Y40.675 Z-0.433
X83.951 Y40.517 Z-0.439
X84.038 Y40.366 Z-0.445
X84.138 Y40.223 Z-0.451
X84.251 Y40.091 Z-0.457
X84.375 Y39.969 Z-0.464
X84.51 Y39.859 Z-0.47
X84.655 Y39.762 Z-0.476
X84.808 Y39.679 Z-0.482
X84.968 Y39.61 Z-0.488
X85.133 Y39.556 Z-0.494
X85.303 Y39.517 Z-0.5
X85.475 Y39.495 Z-0.506
X85.649 Y39.487 Z-0.512
X85.823 Y39.496 Z-0.518
X85.995 Y39.521 Z-0.524
X86.165 Y39.561 Z-0.53
X86.33 Y39.617 Z-0.536
X86.489 Y39.688 Z-0.543
X86.641 Y39.773 Z-0.549
X86.784 Y39.871 Z-0.555
X86.918 Y39.982 Z-0.561
X87.042 Y40.105 Z-0.567
X87.153 Y40.239 Z-0.573
X87.252 Y40.382 Z-0.579
X87.337 Y40.534 Z-0.585
X87.408 Y40.693 Z-0.591
X87.464 Y40.858 Z-0.597
X87.505 Y41.027 Z-0.603
X87.53 Y41.199 Z-0.609
X87.54 Y41.373 Z-0.616
X87.533 Y41.547 Z-0.622
X87.51 Y41.719 Z-0.628
X87.472 Y41.889 Z-0.634
X87.419 Y42.055 Z-0.64
X87.35 Y42.215 Z-0.646
X87.267 Y42.368 Z-0.652
X87.17 Y42.513 Z-0.658
X87.061 Y42.648 Z-0.664
X86.94 Y42.773 Z-0.67
X86.807 Y42.886 Z-0.676
X86.665 Y42.987 Z-0.682
X86.515 Y43.074 Z-0.689
X86.357 Y43.147 Z-0.695
X86.193 Y43.205 Z-0.701
X86.024 Y43.248 Z-0.707
X85.852 Y43.275 Z-0.713
X85.678 Y43.287 Z-0.719
X85.504 Y43.283 Z-0.725
X85.331 Y43.262 Z-0.731
X85.161 Y43.226 Z-0.737
X84.995 Y43.175 Z-0.743
X84.834 Y43.108 Z-0.749
X84.68 Y43.027 Z-0.755
X84.534 Y42.932 Z-0.761
X84.397 Y42.825 Z-0.768
X84.271 Y42.705 Z-0.774
X84.156 Y42.574 Z-0.78
X84.053 Y42.433 Z-0.786
X83.964 Y42.284 Z-0.792
X83.889 Y42.127 Z-0.798
X83.829 Y41.963 Z-0.804
X83.784 Y41.795 Z-0.81
X83.754 Y41.624 Z-0.816
X83.741 Y41.45 Z-0.822
X83.743 Y41.276 Z-0.828
X83.761 Y41.103 Z-0.834
X83.795 Y40.932 Z-0.841
X83.844 Y40.765 Z-0.847
X83.909 Y40.604 Z-0.853
X83.988 Y40.449 Z-0.859
X84.081 Y40.301 Z-0.865
X84.187 Y40.163 Z-0.871
X84.305 Y40.035 Z-0.877
X84.434 Y39.919 Z-0.883
X84.573 Y39.815 Z-0.889
X84.722 Y39.724 Z-0.895
X84.878 Y39.647 Z-0.901
X85.041 Y39.584 Z-0.907
X85.208 Y39.537 Z-0.913
X85.379 Y39.505 Z-0.92
X85.553 Y39.489 Z-0.926
X85.727 Z-0.932
X85.9 Y39.505 Z-0.938
X86.071 Y39.537 Z-0.944
X86.239 Y39.584 Z-0.95
X86.401 Y39.647 Z-0.956
X86.557 Y39.724 Z-0.962
X86.706 Y39.815 Z-0.968
X86.845 Y39.919 Z-0.974
X86.975 Y40.035 Z-0.98
X87.093 Y40.163 Z-0.986
X87.199 Y40.301 Z-0.993
X87.291 Y40.449 Z-0.999
X87.37 Y40.604 Z-1.005
X87.435 Y40.765 Z-1.011
X87.484 Y40.932 Z-1.017
X87.518 Y41.103 Z-1.023
X87.536 Y41.276 Z-1.029
X87.539 Y41.45 Z-1.035
X87.525 Y41.624 Z-1.041
X87.495 Y41.795 Z-1.047
X87.45 Y41.963 Z-1.053
X87.39 Y42.127 Z-1.059
X87.315 Y42.284 Z-1.066
X87.226 Y42.433 Z-1.072
X87.123 Y42.574 Z-1.078
X87.009 Y42.705 Z-1.084
X86.882 Y42.825 Z-1.09
X86.745 Y42.932 Z-1.096
X86.599 Y43.027 Z-1.102
X86.445 Y43.108 Z-1.108
X86.284 Y43.175 Z-1.114
X86.118 Y43.226 Z-1.12
X85.948 Y43.262 Z-1.126
X85.775 Y43.283 Z-1.132
X85.601 Y43.287 Z-1.138
X85.427 Y43.275 Z-1.145
X85.255 Y43.248 Z-1.151
X85.087 Y43.205 Z-1.157
X84.923 Y43.147 Z-1.163
X84.765 Y43.074 Z-1.169
X84.614 Y42.987 Z-1.175
X84.472 Y42.886 Z-1.181
X84.34 Y42.773 Z-1.187
X84.218 Y42.648 Z-1.193
X84.109 Y42.513 Z-1.199
X84.012 Y42.368 Z-1.205
X83.929 Y42.215 Z-1.211
X83.861 Y42.055 Z-1.218
X83.807 Y41.889 Z-1.224
X83.769 Y41.719 Z-1.23
X83.746 Y41.547 Z-1.236
X83.74 Y41.373 Z-1.242
X83.749 Y41.199 Z-1.248
X83.774 Y41.027 Z-1.254
X83.815 Y40.858 Z-1.26
X83.871 Y40.693 Z-1.266
X83.942 Y40.534 Z-1.272
X84.027 Y40.382 Z-1.278
X84.126 Y40.239 Z-1.284
X84.238 Y40.105 Z-1.291
X84.361 Y39.982 Z-1.297
X84.495 Y39.871 Z-1.303
X84.638 Y39.773 Z-1.309
X84.79 Y39.688 Z-1.315
X84.95 Y39.617 Z-1.321
X85.114 Y39.561 Z-1.327
X85.284 Y39.521 Z-1.333
X85.456 Y39.496 Z-1.339
X85.63 Y39.487 Z-1.345
X85.804 Y39.495 Z-1.351
X85.976 Y39.517 Z-1.357
X86.146 Y39.556 Z-1.363
X86.312 Y39.61 Z-1.37
X86.471 Y39.679 Z-1.376
X86.624 Y39.762 Z-1.382
X86.769 Y39.859 Z-1.388
X86.904 Y39.969 Z-1.394
X87.028 Y40.091 Z-1.4
X87.141 Y40.223 Z-1.406
X87.242 Y40.366 Z-1.412
X87.328 Y40.517 Z-1.418
X87.401 Y40.675 Z-1.424
X87.459 Y40.839 Z-1.43
X87.501 Y41.008 Z-1.436
X87.528 Y41.18 Z-1.443
X87.539 Y41.354 Z-1.449
X87.534 Y41.528 Z-1.455
X87.514 Y41.7 Z-1.461
X87.477 Y41.871 Z-1.467
X87.425 Y42.037 Z-1.473
X87.358 Y42.197 Z-1.479
X87.277 Y42.351 Z-1.485
X87.182 Y42.497 Z-1.491
X87.074 Y42.634 Z-1.497
X86.954 Y42.76 Z-1.503
X86.823 Y42.874 Z-1.509
X86.682 Y42.976 Z-1.516
X86.532 Y43.065 Z-1.522
X86.375 Y43.14 Z-1.528
X86.211 Y43.199 Z-1.534
X86.043 Y43.244 Z-1.54
X85.871 Y43.273 Z-1.546
X85.698 Y43.287 Z-1.552
X85.524 Y43.284 Z-1.558
X85.351 Y43.265 Z-1.564
X85.18 Y43.231 Z-1.57
X85.013 Y43.181 Z-1.576
X84.852 Y43.116 Z-1.582
X84.697 Y43.037 Z-1.588
X84.55 Y42.944 Z-1.595
X84.412 Y42.837 Z-1.601
X84.284 Y42.719 Z-1.607
X84.168 Y42.589 Z-1.613
X84.064 Y42.45 Z-1.619
X83.974 Y42.301 Z-1.625
X83.897 Y42.145 Z-1.631
X83.835 Y41.982 Z-1.637
X83.788 Y41.814 Z-1.643
X83.757 Y41.643 Z-1.649
X83.741 Y41.47 Z-1.655
X83.742 Y41.296 Z-1.661
X83.758 Y41.122 Z-1.668
X83.79 Y40.951 Z-1.674
X83.838 Y40.784 Z-1.68
X83.901 Y40.621 Z-1.686
X83.978 Y40.465 Z-1.692
X84.07 Y40.317 Z-1.698
X84.174 Y40.178 Z-1.704
X84.291 Y40.049 Z-1.71
X84.419 Y39.931 Z-1.716
X84.558 Y39.826 Z-1.722
X84.705 Y39.733 Z-1.728
X84.86 Y39.655 Z-1.734
X85.022 Y39.591 Z-1.741
X85.189 Y39.542 Z-1.747
X85.36 Y39.508 Z-1.753
X85.533 Y39.49 Z-1.759
X85.707 Y39.489 Z-1.765
X85.881 Y39.503 Z-1.771
X86.052 Y39.533 Z-1.777
X86.22 Y39.578 Z-1.783
X86.383 Y39.639 Z-1.789
X86.54 Y39.714 Z-1.795
X86.69 Y39.804 Z-1.801
X86.83 Y39.907 Z-1.807
X86.961 Y40.022 Z-1.813
X87.08 Y40.148 Z-1.82
X87.187 Y40.286 Z-1.826
X87.282 Y40.432 Z-1.832
X87.362 Y40.586 Z-1.838
X87.428 Y40.747 Z-1.844
X87.48 Y40.914 Z-1.85
X87.515 Y41.084 Z-1.856
X87.535 Y41.257 Z-1.862
X87.539 Y41.431 Z-1.868
X87.527 Y41.605 Z-1.874
X87.499 Y41.776 Z-1.88
X87.456 Y41.945 Z-1.886
X87.397 Y42.109 Z-1.893
X87.324 Y42.267 Z-1.899
X87.236 Y42.417 Z-1.905
X87.135 Y42.559 Z-1.911
X87.022 Y42.691 Z-1.917
X86.897 Y42.812 Z-1.923
X86.761 Y42.921 Z-1.929
X86.616 Y43.017 Z-1.935
X86.463 Y43.1 Z-1.941
X86.303 Y43.168 Z-1.947
X86.137 Y43.221 Z-1.953
X85.967 Y43.259 Z-1.959
X85.794 Y43.281 Z-1.966
X85.62 Y43.287 Z-1.972
X85.446 Y43.278 Z-1.978
X85.274 Y43.252 Z-1.984
X85.105 Y43.211 Z-1.99
X84.941 Y43.154 Z-1.996
X84.782 Y43.083 Z-2.002
X84.63 Y42.997 Z-2.008
X84.487 Y42.898 Z-2.014
X84.354 Y42.786 Z-2.02
X84.231 Y42.663 Z-2.026
X84.12 Y42.528 Z-2.032
X84.022 Y42.384 Z-2.038
X83.938 Y42.232 Z-2.045
X83.868 Y42.073 Z-2.051
X83.812 Y41.908 Z-2.057
X83.772 Y41.738 Z-2.063
X83.748 Y41.566 Z-2.069
X83.74 Y41.392 Z-2.075
X83.747 Y41.218 Z-2.081
X83.771 Y41.046 Z-2.087
X83.81 Y40.876 Z-2.093
X83.864 Y40.711 Z-2.099
X83.934 Y40.551 Z-2.105
X84.017 Y40.399 Z-2.111
X84.115 Y40.254 Z-2.118
X84.225 Y40.119 Z-2.124
X84.347 Y39.995 Z-2.13
X84.479 Y39.883 Z-2.136
X84.622 Y39.783 Z-2.142
X84.773 Y39.696 Z-2.148
X84.932 Y39.624 Z-2.154
X85.096 Y39.567 Z-2.16
X85.265 Y39.525 Z-2.166
X85.437 Y39.498 Z-2.172
X85.611 Y39.488 Z-2.178
X85.785 Y39.493 Z-2.184
X85.957 Y39.514 Z-2.191
X86.127 Y39.551 Z-2.197
X86.293 Y39.603 Z-2.203
X86.454 Y39.671 Z-2.209
X86.608 Y39.753 Z-2.215
X86.753 Y39.848 Z-2.221
X86.889 Y39.956 Z-2.227
X87.015 Y40.077 Z-2.233
X87.129 Y40.208 Z-2.239
X87.231 Y40.349 Z-2.245
X87.319 Y40.499 Z-2.251
X87.394 Y40.657 Z-2.257
X87.453 Y40.821 Z-2.263
X87.497 Y40.989 Z-2.27
X87.526 Y41.161 Z-2.276
X87.539 Y41.334 Z-2.282
X87.536 Y41.508 Z-2.288
X87.517 Y41.681 Z-2.294
X87.482 Y41.852 Z-2.3
X87.432 Y42.019 Z-2.306
X87.366 Y42.18 Z-2.312
X87.287 Y42.335 Z-2.318
X87.193 Y42.481 Z-2.324
X87.086 Y42.619 Z-2.33
X86.968 Y42.746 Z-2.336
X86.838 Y42.862 Z-2.343
X86.698 Y42.966 Z-2.349
X86.549 Y43.056 Z-2.355
X86.392 Y43.132 Z-2.361
X86.23 Y43.194 Z-2.367
X86.062 Y43.24 Z-2.373
X85.89 Y43.271 Z-2.379
X85.717 Y43.286 Z-2.385
X85.543 Y43.285 Z-2.391
X85.37 Y43.268 Z-2.397
X85.199 Y43.236 Z-2.403
X85.031 Y43.187 Z-2.409
X84.869 Y43.124 Z-2.416
X84.713 Y43.046 Z-2.422
X84.566 Y42.955 Z-2.428
X84.427 Y42.85 Z-2.434
X84.298 Y42.733 Z-2.44
X84.18 Y42.604 Z-2.446
X84.075 Y42.465 Z-2.452
X83.983 Y42.318 Z-2.458
X83.905 Y42.162 Z-2.464
X83.841 Y42. Z-2.47
X83.793 Y41.833 Z-2.476
X83.76 Y41.662 Z-2.482
X83.742 Y41.489 Z-2.488
X83.741 Y41.315 Z-2.495
X83.756 Y41.141 Z-2.501
X83.786 Y40.97 Z-2.507
X83.832 Y40.802 Z-2.513
X83.893 Y40.639 Z-2.519
X83.969 Y40.482 Z-2.525
X84.059 Y40.333 Z-2.531
X84.162 Y40.193 Z-2.537
X84.277 Y40.063 Z-2.543
X84.404 Y39.944 Z-2.549
X84.542 Y39.837 Z-2.555
X84.688 Y39.743 Z-2.561
X84.843 Y39.663 Z-2.568
X85.004 Y39.597 Z-2.574
X85.17 Y39.546 Z-2.58
X85.341 Y39.511 Z-2.586
X85.514 Y39.492 Z-2.592
X85.688 Y39.488 Z-2.598
X85.862 Y39.5 Z-2.604
X86.033 Y39.529 Z-2.61
X86.202 Y39.572 Z-2.616
X86.366 Y39.632 Z-2.622
X86.523 Y39.705 Z-2.628
X86.673 Y39.793 Z-2.634
X86.815 Y39.895 Z-2.641
X86.947 Y40.008 Z-2.647
X87.067 Y40.134 Z-2.653
X87.176 Y40.27 Z-2.659
X87.272 Y40.415 Z-2.665
X87.354 Y40.569 Z-2.671
X87.422 Y40.729 Z-2.677
X87.475 Y40.895 Z-2.683
X87.512 Y41.065 Z-2.689
X87.534 Y41.238 Z-2.695
X87.539 Y41.412 Z-2.701
X87.529 Y41.585 Z-2.707
X87.503 Y41.757 Z-2.713
X87.462 Y41.926 Z-2.72
X87.405 Y42.091 Z-2.726
X87.333 Y42.25 Z-2.732
X87.247 Y42.401 Z-2.738
X87.147 Y42.544 Z-2.744
X87.035 Y42.677 Z-2.75
X86.911 Y42.799 Z-2.756
X86.777 Y42.91 Z-2.762
X86.633 Y43.007 Z-2.768
X86.48 Y43.091 Z-2.774
X86.321 Y43.161 Z-2.78
X86.155 Y43.216 Z-2.786
X85.986 Y43.256 Z-2.793
X85.814 Y43.279 Z-2.799
X85.64 Y43.287 Z-2.805
X43.308
G3 X43.073 Y43.052 R0.235
G1 Y42.948
G3 X43.308 Y42.713 R0.235
G1 X85.692
G3 X85.927 Y42.948 R0.235
G1 Y43.052
G3 X85.692 Y43.287 R0.235
G1 X85.64
G2 X83.915 Y44.437 R1.869
G3 X82.19 Y45.587 R1.869
G1 X41.092
G3 X40.773 Y45.268 R0.319
G1 Y40.732
G3 X41.092 Y40.413 R0.319
G1 X87.908
G3 X88.227 Y40.732 R0.319
G1 Y45.268
G3 X87.908 Y45.587 R0.319
G1 X82.19
G2 X80.465 Y46.737 R1.869
G3 X78.74 Y47.887 R1.869
G1 X38.792
G3 X38.473 Y47.568 R0.319
G1 Y38.432
G3 X38.792 Y38.113 R0.319
G1 X90.208
G3 X90.527 Y38.432 R0.319
G1 Y47.568
G3 X90.208 Y47.887 R0.319
G1 X78.74
G2 X77.015 Y49.037 R1.869
G3 X75.29 Y50.187 R1.869
G1 X36.492
G3 X36.173 Y49.868 R0.319
G1 Y36.132
G3 X36.492 Y35.813 R0.319
G1 X92.508
G3 X92.827 Y36.132 R0.319
G1 Y49.868
G3 X92.508 Y50.187 R0.319
G1 X75.29
G2 X73.565 Y51.337 R1.869
G3 X71.84 Y52.487 R1.869
G1 X34.192
G3 X33.873 Y52.168 R0.319
G1 Y33.832
G3 X34.192 Y33.513 R0.319
G1 X94.808
G3 X95.127 Y33.832 R0.319
G1 Y52.168
G3 X94.808 Y52.487 R0.319
G1 X71.84
G2 X70.115 Y53.637 R1.869
G3 X68.39 Y54.787 R1.869
G1 X31.892
G3 X31.573 Y54.468 R0.319
G1 Y31.532
G3 X31.892 Y31.213 R0.319
G1 X97.108
G3 X97.427 Y31.532 R0.319
G1 Y54.468
G3 X97.108 Y54.787 R0.319
G1 X68.39
G2 X66.665 Y55.937 R1.869
G3 X64.94 Y57.087 R1.869
G1 X29.592
G3 X29.273 Y56.768 R0.319
G1 Y29.232
G3 X29.592 Y28.913 R0.319
G1 X99.408
G3 X99.727 Y29.232 R0.319
G1 Y56.768
G3 X99.408 Y57.087 R0.319
G1 X64.94
G2 X63.215 Y58.237 R1.869
G3 X61.49 Y59.387 R1.869
G1 X27.292
G3 X26.973 Y59.068 R0.319
G1 Y26.932
G3 X27.292 Y26.613 R0.319
G1 X101.708
G3 X102.027 Y26.932 R0.319
G1 Y59.068
G3 X101.708 Y59.387 R0.319
G1 X61.49
G2 X59.765 Y60.537 R1.869
G3 X58.04 Y61.687 R1.869
G1 X24.992
G3 X24.673 Y61.368 R0.319
G1 Y24.632
G3 X24.992 Y24.313 R0.319
G1 X104.008
G3 X104.327 Y24.632 R0.319
G1 Y61.368
G3 X104.008 Y61.687 R0.319
G1 X58.04
G2 X56.315 Y62.837 R1.869
G3 X54.59 Y63.987 R1.869
G1 X22.692
G3 X22.373 Y63.668 R0.319
G1 Y22.332
G3 X22.692 Y22.013 R0.319
G1 X106.308
G3 X106.627 Y22.332 R0.319
G1 Y63.668
G3 X106.308 Y63.987 R0.319
G1 X54.59
G2 X52.865 Y65.137 R1.869
G3 X51.14 Y66.287 R1.869
G1 X20.392
G3 X20.073 Y65.968 R0.319
G1 Y20.032
G3 X20.392 Y19.713 R0.319
G1 X108.608
G3 X108.927 Y20.032 R0.319
G1 Y65.968
G3 X108.608 Y66.287 R0.319
G1 X51.14
G2 X49.415 Y67.437 R1.869
G3 X47.69 Y68.587 R1.869
G1 X18.092
G3 X17.773 Y68.268 R0.319
G1 Y17.732
G3 X18.092 Y17.413 R0.319
G1 X110.908
G3 X111.227 Y17.732 R0.319
G1 Y68.268
G3 X110.908 Y68.587 R0.319
G1 X47.69
G2 X45.965 Y69.737 R1.869
G3 X44.24 Y70.887 R1.869
G1 X15.792
G3 X15.473 Y70.568 R0.319
G1 Y15.432
G3 X15.792 Y15.113 R0.319
G1 X113.208
G3 X113.527 Y15.432 R0.319
G1 Y70.568
G3 X113.208 Y70.887 R0.319
G1 X44.24
G2 X42.515 Y72.037 R1.869
G3 X40.79 Y73.187 R1.869
G1 X13.492
G3 X13.173 Y72.868 R0.319
G1 Y13.132
G3 X13.492 Y12.813 R0.319
G1 X115.508
G3 X115.827 Y13.132 R0.319
G1 Y72.868
G3 X115.508 Y73.187 R0.319
G1 X40.79
G2 X39.065 Y74.337 R1.869
G3 X37.34 Y75.487 R1.869
G1 X11.818
G3 X10.873 Y74.542 R0.946
G1 Y11.458
G3 X11.818 Y10.513 R0.946
G1 X117.808
G3 X118.127 Y10.832 R0.319
G1 Y75.168
G3 X117.808 Y75.487 R0.319
G1 X37.34
G2 X35.615 Y76.637 R1.869
G3 X33.89 Y77.787 R1.869
G1 X10.929
G3 X10.05 Y77.423 R1.243
G1 X8.937 Y76.31
G3 X8.573 Y75.431 R1.243
G1 Y10.569
G3 X8.937 Y9.69 R1.243
G1 X10.05 Y8.577
G3 X10.929 Y8.213 R1.243
G1 X120.108
G3 X120.427 Y8.532 R0.319
G1 Y77.468
G3 X120.108 Y77.787 R0.319
G1 X33.89
G2 X32.165 Y78.937 R1.869
G3 X30.44 Y80.087 R1.869
G1 X9.976
G3 X9.097 Y79.723 R1.243
G1 X6.637 Y77.263
G3 X6.273 Y76.384 R1.243
G1 Y9.616
G3 X6.637 Y8.737 R1.243
G1 X9.097 Y6.277
G3 X9.976 Y5.913 R1.243
G1 X122.408
G3 X122.727 Y6.232 R0.319
G1 Y79.768
G3 X122.408 Y80.087 R0.319
G1 X30.44
G2 X28.711 Y81.24 R1.873
G3 X26.982 Y82.392 R1.873
G1 X8.507
X3.968 Y77.853
Y8.147
X8.507 Y3.608
X125.032
Y82.392
X26.982
X26.906 Y82.385 Z-2.789
X26.833 Y82.363 Z-2.774
X26.775 Y82.334 Z-2.731
X26.722 Y82.297 Z-2.688
X26.691 Y82.267 Z-2.623
X26.663 Y82.233 Z-2.558
X26.646 Y82.209 Z-2.405
G0 Z5.
X87.358 Y42.198
Z2.675
G1 Z0.095 F380.
X87.345 Y42.225 Z-0.055 F1500.
X87.307 Y42.298 Z-0.183
X87.243 Y42.406 Z-0.27
X87.159 Y42.528 Z-0.305
X87.048 Y42.663 Z-0.311
X86.926 Y42.786 Z-0.317
X86.792 Y42.898 Z-0.323
X86.649 Y42.997 Z-0.329
X86.497 Y43.083 Z-0.335
X86.339 Y43.154 Z-0.341
X86.174 Y43.211 Z-0.347
X86.005 Y43.252 Z-0.353
X85.833 Y43.278 Z-0.359
X85.659 Y43.287 Z-0.365
X85.485 Y43.281 Z-0.372
X85.312 Y43.259 Z-0.378
X85.142 Y43.221 Z-0.384
X84.977 Y43.168 Z-0.39
X84.816 Y43.1 Z-0.396
X84.663 Y43.017 Z-0.402
X84.518 Y42.921 Z-0.408
X84.382 Y42.812 Z-0.414
X84.257 Y42.691 Z-0.42
X84.144 Y42.559 Z-0.426
X84.043 Y42.417 Z-0.432
X83.955 Y42.267 Z-0.438
X83.882 Y42.109 Z-0.445
X83.823 Y41.945 Z-0.451
X83.78 Y41.776 Z-0.457
X83.752 Y41.605 Z-0.463
X83.74 Y41.431 Z-0.469
X83.744 Y41.257 Z-0.475
X83.764 Y41.084 Z-0.481
X83.8 Y40.914 Z-0.487
X83.851 Y40.747 Z-0.493
X83.917 Y40.586 Z-0.499
X83.997 Y40.432 Z-0.505
X84.092 Y40.286 Z-0.511
X84.199 Y40.148 Z-0.518
X84.319 Y40.022 Z-0.524
X84.449 Y39.907 Z-0.53
X84.59 Y39.804 Z-0.536
X84.739 Y39.714 Z-0.542
X84.896 Y39.639 Z-0.548
X85.059 Y39.578 Z-0.554
X85.227 Y39.533 Z-0.56
X85.398 Y39.503 Z-0.566
X85.572 Y39.489 Z-0.572
X85.746 Y39.49 Z-0.578
X85.919 Y39.508 Z-0.584
X86.09 Y39.542 Z-0.59
X86.257 Y39.591 Z-0.597
X86.419 Y39.655 Z-0.603
X86.574 Y39.733 Z-0.609
X86.722 Y39.826 Z-0.615
X86.86 Y39.931 Z-0.621
X86.988 Y40.049 Z-0.627
X87.105 Y40.178 Z-0.633
X87.21 Y40.317 Z-0.639
X87.301 Y40.465 Z-0.645
X87.378 Y40.621 Z-0.651
X87.441 Y40.784 Z-0.657
X87.489 Y40.951 Z-0.663
X87.521 Y41.122 Z-0.67
X87.537 Y41.296 Z-0.676
X87.538 Y41.47 Z-0.682
X87.522 Y41.643 Z-0.688
X87.491 Y41.814 Z-0.694
X87.444 Y41.982 Z-0.7
X87.382 Y42.145 Z-0.706
X87.306 Y42.301 Z-0.712
X87.215 Y42.45 Z-0.718
X87.111 Y42.589 Z-0.724
X86.995 Y42.719 Z-0.73
X86.867 Y42.837 Z-0.736
X86.73 Y42.944 Z-0.743
X86.583 Y43.037 Z-0.749
X86.428 Y43.116 Z-0.755
X86.266 Y43.181 Z-0.761
X86.099 Y43.231 Z-0.767
X85.929 Y43.265 Z-0.773
X85.756 Y43.284 Z-0.779
X85.582 Y43.287 Z-0.785
X85.408 Y43.273 Z-0.791
X85.236 Y43.244 Z-0.797
X85.068 Y43.199 Z-0.803
X84.905 Y43.14 Z-0.809
X84.747 Y43.065 Z-0.815
X84.598 Y42.976 Z-0.822
X84.457 Y42.874 Z-0.828
X84.325 Y42.76 Z-0.834
X84.205 Y42.634 Z-0.84
X84.097 Y42.497 Z-0.846
X84.002 Y42.351 Z-0.852
X83.921 Y42.197 Z-0.858
X83.854 Y42.037 Z-0.864
X83.802 Y41.871 Z-0.87
X83.766 Y41.7 Z-0.876
X83.745 Y41.528 Z-0.882
X83.74 Y41.354 Z-0.888
X83.751 Y41.18 Z-0.895
X83.778 Y41.008 Z-0.901
X83.82 Y40.839 Z-0.907
X83.878 Y40.675 Z-0.913
X83.951 Y40.517 Z-0.919
X84.038 Y40.366 Z-0.925
X84.138 Y40.223 Z-0.931
X84.251 Y40.091 Z-0.937
X84.375 Y39.969 Z-0.943
X84.51 Y39.859 Z-0.949
X84.655 Y39.762 Z-0.955
X84.808 Y39.679 Z-0.961
X84.968 Y39.61 Z-0.968
X85.133 Y39.556 Z-0.974
X85.303 Y39.517 Z-0.98
X85.475 Y39.495 Z-0.986
X85.649 Y39.487 Z-0.992
X85.823 Y39.496 Z-0.998
X85.995 Y39.521 Z-1.004
X86.165 Y39.561 Z-1.01
X86.33 Y39.617 Z-1.016
X86.489 Y39.688 Z-1.022
X86.641 Y39.773 Z-1.028
X86.784 Y39.871 Z-1.034
X86.918 Y39.982 Z-1.04
X87.042 Y40.105 Z-1.047
X87.153 Y40.239 Z-1.053
X87.252 Y40.382 Z-1.059
X87.337 Y40.534 Z-1.065
X87.408 Y40.693 Z-1.071
X87.464 Y40.858 Z-1.077
X87.505 Y41.027 Z-1.083
X87.53 Y41.199 Z-1.089
X87.54 Y41.373 Z-1.095
X87.533 Y41.547 Z-1.101
X87.51 Y41.719 Z-1.107
X87.472 Y41.889 Z-1.113
X87.419 Y42.055 Z-1.12
X87.35 Y42.215 Z-1.126
X87.267 Y42.368 Z-1.132
X87.17 Y42.513 Z-1.138
X87.061 Y42.648 Z-1.144
X86.94 Y42.773 Z-1.15
X86.807 Y42.886 Z-1.156
X86.665 Y42.987 Z-1.162
X86.515 Y43.074 Z-1.168
X86.357 Y43.147 Z-1.174
X86.193 Y43.205 Z-1.18
X86.024 Y43.248 Z-1.186
X85.852 Y43.275 Z-1.193
X85.678 Y43.287 Z-1.199
X85.504 Y43.283 Z-1.205
X85.331 Y43.262 Z-1.211
X85.161 Y43.226 Z-1.217
X84.995 Y43.175 Z-1.223
X84.834 Y43.108 Z-1.229
X84.68 Y43.027 Z-1.235
X84.534 Y42.932 Z-1.241
X84.397 Y42.825 Z-1.247
X84.271 Y42.705 Z-1.253
X84.156 Y42.574 Z-1.259
X84.053 Y42.433 Z-1.265
X83.964 Y42.284 Z-1.272
X83.889 Y42.127 Z-1.278
X83.829 Y41.963 Z-1.284
X83.784 Y41.795 Z-1.29
X83.754 Y41.624 Z-1.296
X83.741 Y41.45 Z-1.302
X83.743 Y41.276 Z-1.308
X83.761 Y41.103 Z-1.314
X83.795 Y40.932 Z-1.32
X83.844 Y40.765 Z-1.326
X83.909 Y40.604 Z-1.332
X83.988 Y40.449 Z-1.338
X84.081 Y40.301 Z-1.345
X84.187 Y40.163 Z-1.351
X84.305 Y40.035 Z-1.357
X84.434 Y39.919 Z-1.363
X84.573 Y39.815 Z-1.369
X84.722 Y39.724 Z-1.375
X84.878 Y39.647 Z-1.381
X85.041 Y39.584 Z-1.387
X85.208 Y39.537 Z-1.393
X85.379 Y39.505 Z-1.399
X85.553 Y39.489 Z-1.405
X85.727 Z-1.411
X85.9 Y39.505 Z-1.418
X86.071 Y39.537 Z-1.424
X86.239 Y39.584 Z-1.43
X86.401 Y39.647 Z-1.436
X86.557 Y39.724 Z-1.442
X86.706 Y39.815 Z-1.448
X86.845 Y39.919 Z-1.454
X86.975 Y40.035 Z-1.46
X87.093 Y40.163 Z-1.466
X87.199 Y40.301 Z-1.472
X87.291 Y40.449 Z-1.478
X87.37 Y40.604 Z-1.484
X87.435 Y40.765 Z-1.49
X87.484 Y40.932 Z-1.497
X87.518 Y41.103 Z-1.503
X87.536 Y41.276 Z-1.509
X87.539 Y41.45 Z-1.515
X87.525 Y41.624 Z-1.521
X87.495 Y41.795 Z-1.527
X87.45 Y41.963 Z-1.533
X87.39 Y42.127 Z-1.539
X87.315 Y42.284 Z-1.545
X87.226 Y42.433 Z-1.551
X87.123 Y42.574 Z-1.557
X87.009 Y42.705 Z-1.563
X86.882 Y42.825 Z-1.57
X86.745 Y42.932 Z-1.576
X86.599 Y43.027 Z-1.582
X86.445 Y43.108 Z-1.588
X86.284 Y43.175 Z-1.594
X86.118 Y43.226 Z-1.6
X85.948 Y43.262 Z-1.606
X85.775 Y43.283 Z-1.612
X85.601 Y43.287 Z-1.618
X85.427 Y43.275 Z-1.624
X85.255 Y43.248 Z-1.63
X85.087 Y43.205 Z-1.636
X84.923 Y43.147 Z-1.643
X84.765 Y43.074 Z-1.649
X84.614 Y42.987 Z-1.655
X84.472 Y42.886 Z-1.661
X84.34 Y42.773 Z-1.667
X84.218 Y42.648 Z-1.673
X84.109 Y42.513 Z-1.679
X84.012 Y42.368 Z-1.685
X83.929 Y42.215 Z-1.691
X83.861 Y42.055 Z-1.697
X83.807 Y41.889 Z-1.703
X83.769 Y41.719 Z-1.709
X83.746 Y41.547 Z-1.715
X83.74 Y41.373 Z-1.722
X83.749 Y41.199 Z-1.728
X83.774 Y41.027 Z-1.734
X83.815 Y40.858 Z-1.74
X83.871 Y40.693 Z-1.746
X83.942 Y40.534 Z-1.752
X84.027 Y40.382 Z-1.758
X84.126 Y40.239 Z-1.764
X84.238 Y40.105 Z-1.77
X84.361 Y39.982 Z-1.776
X84.495 Y39.871 Z-1.782
X84.638 Y39.773 Z-1.788
X84.79 Y39.688 Z-1.795
X84.95 Y39.617 Z-1.801
X85.114 Y39.561 Z-1.807
X85.284 Y39.521 Z-1.813
X85.456 Y39.496 Z-1.819
X85.63 Y39.487 Z-1.825
X85.804 Y39.495 Z-1.831
X85.976 Y39.517 Z-1.837
X86.146 Y39.556 Z-1.843
X86.312 Y39.61 Z-1.849
X86.471 Y39.679 Z-1.855
X86.624 Y39.762 Z-1.861
X86.769 Y39.859 Z-1.868
X86.904 Y39.969 Z-1.874
X87.028 Y40.091 Z-1.88
X87.141 Y40.223 Z-1.886
X87.242 Y40.366 Z-1.892
X87.328 Y40.517 Z-1.898
X87.401 Y40.675 Z-1.904
X87.459 Y40.839 Z-1.91
X87.501 Y41.008 Z-1.916
X87.528 Y41.18 Z-1.922
X87.539 Y41.354 Z-1.928
X87.534 Y41.528 Z-1.934
X87.514 Y41.7 Z-1.94
X87.477 Y41.871 Z-1.947
X87.425 Y42.037 Z-1.953
X87.358 Y42.197 Z-1.959
X87.277 Y42.351 Z-1.965
X87.182 Y42.497 Z-1.971
X87.074 Y42.634 Z-1.977
X86.954 Y42.76 Z-1.983
X86.823 Y42.874 Z-1.989
X86.682 Y42.976 Z-1.995
X86.532 Y43.065 Z-2.001
X86.375 Y43.14 Z-2.007
X86.211 Y43.199 Z-2.013
X86.043 Y43.244 Z-2.02
X85.871 Y43.273 Z-2.026
X85.698 Y43.287 Z-2.032
X85.524 Y43.284 Z-2.038
X85.351 Y43.265 Z-2.044
X85.18 Y43.231 Z-2.05
X85.013 Y43.181 Z-2.056
X84.852 Y43.116 Z-2.062
X84.697 Y43.037 Z-2.068
X84.55 Y42.944 Z-2.074
X84.412 Y42.837 Z-2.08
X84.284 Y42.719 Z-2.086
X84.168 Y42.589 Z-2.092
X84.064 Y42.45 Z-2.099
X83.974 Y42.301 Z-2.105
X83.897 Y42.145 Z-2.111
X83.835 Y41.982 Z-2.117
X83.788 Y41.814 Z-2.123
X83.757 Y41.643 Z-2.129
X83.741 Y41.47 Z-2.135
X83.742 Y41.296 Z-2.141
X83.758 Y41.122 Z-2.147
X83.79 Y40.951 Z-2.153
X83.838 Y40.784 Z-2.159
X83.901 Y40.621 Z-2.165
X83.978 Y40.465 Z-2.172
X84.07 Y40.317 Z-2.178
X84.174 Y40.178 Z-2.184
X84.291 Y40.049 Z-2.19
X84.419 Y39.931 Z-2.196
X84.558 Y39.826 Z-2.202
X84.705 Y39.733 Z-2.208
X84.86 Y39.655 Z-2.214
X85.022 Y39.591 Z-2.22
X85.189 Y39.542 Z-2.226
X85.36 Y39.508 Z-2.232
X85.533 Y39.49 Z-2.238
X85.707 Y39.489 Z-2.245
X85.881 Y39.503 Z-2.251
X86.052 Y39.533 Z-2.257
X86.22 Y39.578 Z-2.263
X86.383 Y39.639 Z-2.269
X86.54 Y39.714 Z-2.275
X86.69 Y39.804 Z-2.281
X86.83 Y39.907 Z-2.287
X86.961 Y40.022 Z-2.293
X87.08 Y40.148 Z-2.299
X87.187 Y40.286 Z-2.305
X87.282 Y40.432 Z-2.311
X87.362 Y40.586 Z-2.317
X87.428 Y40.747 Z-2.324
X87.48 Y40.914 Z-2.33
X87.515 Y41.084 Z-2.336
X87.535 Y41.257 Z-2.342
X87.539 Y41.431 Z-2.348
X87.527 Y41.605 Z-2.354
X87.499 Y41.776 Z-2.36
X87.456 Y41.945 Z-2.366
X87.397 Y42.109 Z-2.372
X87.324 Y42.267 Z-2.378
X87.236 Y42.417 Z-2.384
X87.135 Y42.559 Z-2.39
X87.022 Y42.691 Z-2.397
X86.897 Y42.812 Z-2.403
X86.761 Y42.921 Z-2.409
X86.616 Y43.017 Z-2.415
X86.463 Y43.1 Z-2.421
X86.303 Y43.168 Z-2.427
X86.137 Y43.221 Z-2.433
X85.967 Y43.259 Z-2.439
X85.794 Y43.281 Z-2.445
X85.62 Y43.287 Z-2.451
X85.446 Y43.278 Z-2.457
X85.274 Y43.252 Z-2.463
X85.105 Y43.211 Z-2.47
X84.941 Y43.154 Z-2.476
X84.782 Y43.083 Z-2.482
X84.63 Y42.997 Z-2.488
X84.487 Y42.898 Z-2.494
X84.354 Y42.786 Z-2.5
X84.231 Y42.663 Z-2.506
X84.12 Y42.528 Z-2.512
X84.022 Y42.384 Z-2.518
X83.938 Y42.232 Z-2.524
X83.868 Y42.073 Z-2.53
X83.812 Y41.908 Z-2.536
X83.772 Y41.738 Z-2.542
X83.748 Y41.566 Z-2.549
X83.74 Y41.392 Z-2.555
X83.747 Y41.218 Z-2.561
X83.771 Y41.046 Z-2.567
X83.81 Y40.876 Z-2.573
X83.864 Y40.711 Z-2.579
X83.934 Y40.551 Z-2.585
X84.017 Y40.399 Z-2.591
X84.115 Y40.254 Z-2.597
X84.225 Y40.119 Z-2.603
X84.347 Y39.995 Z-2.609
X84.479 Y39.883 Z-2.615
X84.622 Y39.783 Z-2.622
X84.773 Y39.696 Z-2.628
X84.932 Y39.624 Z-2.634
X85.096 Y39.567 Z-2.64
X85.265 Y39.525 Z-2.646
X85.437 Y39.498 Z-2.652
X85.611 Y39.488 Z-2.658
X85.785 Y39.493 Z-2.664
X85.957 Y39.514 Z-2.67
X86.127 Y39.551 Z-2.676
X86.293 Y39.603 Z-2.682
X86.454 Y39.671 Z-2.688
X86.608 Y39.753 Z-2.695
X86.753 Y39.848 Z-2.701
X86.889 Y39.956 Z-2.707
X87.015 Y40.077 Z-2.713
X87.129 Y40.208 Z-2.719
X87.231 Y40.349 Z-2.725
X87.319 Y40.499 Z-2.731
X87.394 Y40.657 Z-2.737
X87.453 Y40.821 Z-2.743
X87.497 Y40.989 Z-2.749
X87.526 Y41.161 Z-2.755
X87.539 Y41.334 Z-2.761
X87.536 Y41.508 Z-2.767
X87.517 Y41.681 Z-2.774
X87.482 Y41.852 Z-2.78
X87.432 Y42.019 Z-2.786
X87.366 Y42.18 Z-2.792
X87.287 Y42.335 Z-2.798
X87.193 Y42.481 Z-2.804
X87.086 Y42.619 Z-2.81
X86.968 Y42.746 Z-2.816
X86.838 Y42.862 Z-2.822
X86.698 Y42.966 Z-2.828
X86.549 Y43.056 Z-2.834
X86.392 Y43.132 Z-2.84
X86.23 Y43.194 Z-2.847
X86.062 Y43.24 Z-2.853
X85.89 Y43.271 Z-2.859
X85.717 Y43.286 Z-2.865
X85.543 Y43.285 Z-2.871
X85.37 Y43.268 Z-2.877
X85.199 Y43.236 Z-2.883
X85.031 Y43.187 Z-2.889
X84.869 Y43.124 Z-2.895
X84.713 Y43.046 Z-2.901
X84.566 Y42.955 Z-2.907
X84.427 Y42.85 Z-2.913
X84.298 Y42.733 Z-2.92
X84.18 Y42.604 Z-2.926
X84.075 Y42.465 Z-2.932
X83.983 Y42.318 Z-2.938
X83.905 Y42.162 Z-2.944
X83.841 Y42. Z-2.95
X83.793 Y41.833 Z-2.956
X83.76 Y41.662 Z-2.962
X83.742 Y41.489 Z-2.968
X83.741 Y41.315 Z-2.974
X83.756 Y41.141 Z-2.98
X83.786 Y40.97 Z-2.986
X83.832 Y40.802 Z-2.992
X83.893 Y40.639 Z-2.999
X83.969 Y40.482 Z-3.005
X84.059 Y40.333 Z-3.011
X84.162 Y40.193 Z-3.017
X84.277 Y40.063 Z-3.023
X84.404 Y39.944 Z-3.029
X84.542 Y39.837 Z-3.035
X84.688 Y39.743 Z-3.041
X84.843 Y39.663 Z-3.047
X85.004 Y39.597 Z-3.053
X85.17 Y39.546 Z-3.059
X85.341 Y39.511 Z-3.065
X85.514 Y39.492 Z-3.072
X85.688 Y39.488 Z-3.078
X85.862 Y39.5 Z-3.084
X86.033 Y39.529 Z-3.09
X86.202 Y39.572 Z-3.096
X86.366 Y39.632 Z-3.102
X86.523 Y39.705 Z-3.108
X86.673 Y39.793 Z-3.114
X86.815 Y39.895 Z-3.12
X86.947 Y40.008 Z-3.126
X87.067 Y40.134 Z-3.132
X87.176 Y40.27 Z-3.138
X87.272 Y40.415 Z-3.145
X87.354 Y40.569 Z-3.151
X87.422 Y40.729 Z-3.157
X87.475 Y40.895 Z-3.163
X87.512 Y41.065 Z-3.169
X87.534 Y41.238 Z-3.175
X87.539 Y41.412 Z-3.181
X87.529 Y41.585 Z-3.187
X87.503 Y41.757 Z-3.193
X87.462 Y41.926 Z-3.199
X87.405 Y42.091 Z-3.205
X87.333 Y42.25 Z-3.211
X87.247 Y42.401 Z-3.217
X87.147 Y42.544 Z-3.224
X87.035 Y42.677 Z-3.23
X86.911 Y42.799 Z-3.236
X86.777 Y42.91 Z-3.242
X86.633 Y43.007 Z-3.248
X86.48 Y43.091 Z-3.254
X86.321 Y43.161 Z-3.26
X86.155 Y43.216 Z-3.266
X85.986 Y43.256 Z-3.272
X85.814 Y43.279 Z-3.278
X85.64 Y43.287 Z-3.284
X43.308
G3 X43.073 Y43.052 R0.235
G1 Y42.948
G3 X43.308 Y42.713 R0.235
G1 X85.692
G3 X85.927 Y42.948 R0.235
G1 Y43.052
G3 X85.692 Y43.287 R0.235
G1 X85.64
G2 X83.915 Y44.437 R1.869
G3 X82.19 Y45.587 R1.869
G1 X41.092
G3 X40.773 Y45.268 R0.319
G1 Y40.732
G3 X41.092 Y40.413 R0.319
G1 X87.908
G3 X88.227 Y40.732 R0.319
G1 Y45.268
G3 X87.908 Y45.587 R0.319
G1 X82.19
G2 X80.465 Y46.737 R1.869
G3 X78.74 Y47.887 R1.869
G1 X38.792
G3 X38.473 Y47.568 R0.319
G1 Y38.432
G3 X38.792 Y38.113 R0.319
G1 X90.208
G3 X90.527 Y38.432 R0.319
G1 Y47.568
G3 X90.208 Y47.887 R0.319
G1 X78.74
G2 X77.015 Y49.037 R1.869
G3 X75.29 Y50.187 R1.869
G1 X36.492
G3 X36.173 Y49.868 R0.319
G1 Y36.132
G3 X36.492 Y35.813 R0.319
G1 X92.508
G3 X92.827 Y36.132 R0.319
G1 Y49.868
G3 X92.508 Y50.187 R0.319
G1 X75.29
G2 X73.565 Y51.337 R1.869
G3 X71.84 Y52.487 R1.869
G1 X34.192
G3 X33.873 Y52.168 R0.319
G1 Y33.832
G3 X34.192 Y33.513 R0.319
G1 X94.808
G3 X95.127 Y33.832 R0.319
G1 Y52.168
G3 X94.808 Y52.487 R0.319
G1 X71.84
G2 X70.115 Y53.637 R1.869
G3 X68.39 Y54.787 R1.869
G1 X31.892
G3 X31.573 Y54.468 R0.319
G1 Y31.532
G3 X31.892 Y31.213 R0.319
G1 X97.108
G3 X97.427 Y31.532 R0.319
G1 Y54.468
G3 X97.108 Y54.787 R0.319
G1 X68.39
G2 X66.665 Y55.937 R1.869
G3 X64.94 Y57.087 R1.869
G1 X29.592
G3 X29.273 Y56.768 R0.319
G1 Y29.232
G3 X29.592 Y28.913 R0.319
G1 X99.408
G3 X99.727 Y29.232 R0.319
G1 Y56.768
G3 X99.408 Y57.087 R0.319
G1 X64.94
G2 X63.215 Y58.237 R1.869
G3 X61.49 Y59.387 R1.869
G1 X27.292
G3 X26.973 Y59.068 R0.319
G1 Y26.932
G3 X27.292 Y26.613 R0.319
G1 X101.708
G3 X102.027 Y26.932 R0.319
G1 Y59.068
G3 X101.708 Y59.387 R0.319
G1 X61.49
G2 X59.765 Y60.537 R1.869
G3 X58.04 Y61.687 R1.869
G1 X24.992
G3 X24.673 Y61.368 R0.319
G1 Y24.632
G3 X24.992 Y24.313 R0.319
G1 X104.008
G3 X104.327 Y24.632 R0.319
G1 Y61.368
G3 X104.008 Y61.687 R0.319
G1 X58.04
G2 X56.315 Y62.837 R1.869
G3 X54.59 Y63.987 R1.869
G1 X22.692
G3 X22.373 Y63.668 R0.319
G1 Y22.332
G3 X22.692 Y22.013 R0.319
G1 X106.308
G3 X106.627 Y22.332 R0.319
G1 Y63.668
G3 X106.308 Y63.987 R0.319
G1 X54.59
G2 X52.865 Y65.137 R1.869
G3 X51.14 Y66.287 R1.869
G1 X20.392
G3 X20.073 Y65.968 R0.319
G1 Y20.032
G3 X20.392 Y19.713 R0.319
G1 X108.608
G3 X108.927 Y20.032 R0.319
G1 Y65.968
G3 X108.608 Y66.287 R0.319
G1 X51.14
G2 X49.415 Y67.437 R1.869
G3 X47.69 Y68.587 R1.869
G1 X18.092
G3 X17.773 Y68.268 R0.319
G1 Y17.732
G3 X18.092 Y17.413 R0.319
G1 X110.908
G3 X111.227 Y17.732 R0.319
G1 Y68.268
G3 X110.908 Y68.587 R0.319
G1 X47.69
G2 X45.965 Y69.737 R1.869
G3 X44.24 Y70.887 R1.869
G1 X15.792
G3 X15.473 Y70.568 R0.319
G1 Y15.432
G3 X15.792 Y15.113 R0.319
G1 X113.208
G3 X113.527 Y15.432 R0.319
G1 Y70.568
G3 X113.208 Y70.887 R0.319
G1 X44.24
G2 X42.515 Y72.037 R1.869
G3 X40.79 Y73.187 R1.869
G1 X13.492
G3 X13.173 Y72.868 R0.319
G1 Y13.132
G3 X13.492 Y12.813 R0.319
G1 X115.508
G3 X115.827 Y13.132 R0.319
G1 Y72.868
G3 X115.508 Y73.187 R0.319
G1 X40.79
G2 X39.065 Y74.337 R1.869
G3 X37.34 Y75.487 R1.869
G1 X11.818
G3 X10.873 Y74.542 R0.946
G1 Y11.458
G3 X11.818 Y10.513 R0.946
G1 X117.808
G3 X118.127 Y10.832 R0.319
G1 Y75.168
G3 X117.808 Y75.487 R0.319
G1 X37.34
G2 X35.615 Y76.637 R1.869
G3 X33.89 Y77.787 R1.869
G1 X10.929
G3 X10.05 Y77.423 R1.243
G1 X8.937 Y76.31
G3 X8.573 Y75.431 R1.243
G1 Y10.569
G3 X8.937 Y9.69 R1.243
G1 X10.05 Y8.577
G3 X10.929 Y8.213 R1.243
G1 X120.108
G3 X120.427 Y8.532 R0.319
G1 Y77.468
G3 X120.108 Y77.787 R0.319
G1 X33.89
G2 X32.165 Y78.937 R1.869
G3 X30.44 Y80.087 R1.869
G1 X9.976
G3 X9.097 Y79.723 R1.243
G1 X6.637 Y77.263
G3 X6.273 Y76.384 R1.243
G1 Y9.616
G3 X6.637 Y8.737 R1.243
G1 X9.097 Y6.277
G3 X9.976 Y5.913 R1.243
G1 X122.408
G3 X122.727 Y6.232 R0.319
G1 Y79.768
G3 X122.408 Y80.087 R0.319
G1 X30.44
G2 X28.711 Y81.24 R1.873
G3 X26.982 Y82.392 R1.873
G1 X8.507
X3.968 Y77.853
Y8.147
X8.507 Y3.608
X125.032
Y82.392
X26.982
X26.906 Y82.385 Z-3.269
X26.833 Y82.363 Z-3.254
X26.775 Y82.334 Z-3.211
X26.722 Y82.297 Z-3.167
X26.691 Y82.267 Z-3.102
X26.663 Y82.233 Z-3.037
X26.646 Y82.209 Z-2.884
G0 Z5.
X87.358 Y42.198
Z2.675
G1 Z-0.385 F380.
X87.345 Y42.225 Z-0.534 F1500.
X87.307 Y42.298 Z-0.662
X87.243 Y42.406 Z-0.75
X87.159 Y42.528 Z-0.784
X87.048 Y42.663 Z-0.79
X86.926 Y42.786 Z-0.797
X86.792 Y42.898 Z-0.803
X86.649 Y42.997 Z-0.809
X86.497 Y43.083 Z-0.815
X86.339 Y43.154 Z-0.821
X86.174 Y43.211 Z-0.827
X86.005 Y43.252 Z-0.833
X85.833 Y43.278 Z-0.839
X85.659 Y43.287 Z-0.845
X85.485 Y43.281 Z-0.851
X85.312 Y43.259 Z-0.857
X85.142 Y43.221 Z-0.863
X84.977 Y43.168 Z-0.87
X84.816 Y43.1 Z-0.876
X84.663 Y43.017 Z-0.882
X84.518 Y42.921 Z-0.888
X84.382 Y42.812 Z-0.894
X84.257 Y42.691 Z-0.9
X84.144 Y42.559 Z-0.906
X84.043 Y42.417 Z-0.912
X83.955 Y42.267 Z-0.918
X83.882 Y42.109 Z-0.924
X83.823 Y41.945 Z-0.93
X83.78 Y41.776 Z-0.936
X83.752 Y41.605 Z-0.942
X83.74 Y41.431 Z-0.949
X83.744 Y41.257 Z-0.955
X83.764 Y41.084 Z-0.961
X83.8 Y40.914 Z-0.967
X83.851 Y40.747 Z-0.973
X83.917 Y40.586 Z-0.979
X83.997 Y40.432 Z-0.985
X84.092 Y40.286 Z-0.991
X84.199 Y40.148 Z-0.997
X84.319 Y40.022 Z-1.003
X84.449 Y39.907 Z-1.009
X84.59 Y39.804 Z-1.015
X84.739 Y39.714 Z-1.022
X84.896 Y39.639 Z-1.028
X85.059 Y39.578 Z-1.034
X85.227 Y39.533 Z-1.04
X85.398 Y39.503 Z-1.046
X85.572 Y39.489 Z-1.052
X85.746 Y39.49 Z-1.058
X85.919 Y39.508 Z-1.064
X86.09 Y39.542 Z-1.07
X86.257 Y39.591 Z-1.076
X86.419 Y39.655 Z-1.082
X86.574 Y39.733 Z-1.088
X86.722 Y39.826 Z-1.095
X86.86 Y39.931 Z-1.101
X86.988 Y40.049 Z-1.107
X87.105 Y40.178 Z-1.113
X87.21 Y40.317 Z-1.119
X87.301 Y40.465 Z-1.125
X87.378 Y40.621 Z-1.131
X87.441 Y40.784 Z-1.137
X87.489 Y40.951 Z-1.143
X87.521 Y41.122 Z-1.149
X87.537 Y41.296 Z-1.155
X87.538 Y41.47 Z-1.161
X87.522 Y41.643 Z-1.167
X87.491 Y41.814 Z-1.174
X87.444 Y41.982 Z-1.18
X87.382 Y42.145 Z-1.186
X87.306 Y42.301 Z-1.192
X87.215 Y42.45 Z-1.198
X87.111 Y42.589 Z-1.204
X86.995 Y42.719 Z-1.21
X86.867 Y42.837 Z-1.216
X86.73 Y42.944 Z-1.222
X86.583 Y43.037 Z-1.228
X86.428 Y43.116 Z-1.234
X86.266 Y43.181 Z-1.24
X86.099 Y43.231 Z-1.247
X85.929 Y43.265 Z-1.253
X85.756 Y43.284 Z-1.259
X85.582 Y43.287 Z-1.265
X85.408 Y43.273 Z-1.271
X85.236 Y43.244 Z-1.277
X85.068 Y43.199 Z-1.283
X84.905 Y43.14 Z-1.289
X84.747 Y43.065 Z-1.295
X84.598 Y42.976 Z-1.301
X84.457 Y42.874 Z-1.307
X84.325 Y42.76 Z-1.313
X84.205 Y42.634 Z-1.32
X84.097 Y42.497 Z-1.326
X84.002 Y42.351 Z-1.332
X83.921 Y42.197 Z-1.338
X83.854 Y42.037 Z-1.344
X83.802 Y41.871 Z-1.35
X83.766 Y41.7 Z-1.356
X83.745 Y41.528 Z-1.362
X83.74 Y41.354 Z-1.368
X83.751 Y41.18 Z-1.374
X83.778 Y41.008 Z-1.38
X83.82 Y40.839 Z-1.386
X83.878 Y40.675 Z-1.392
X83.951 Y40.517 Z-1.399
X84.038 Y40.366 Z-1.405
X84.138 Y40.223 Z-1.411
X84.251 Y40.091 Z-1.417
X84.375 Y39.969 Z-1.423
X84.51 Y39.859 Z-1.429
X84.655 Y39.762 Z-1.435
X84.808 Y39.679 Z-1.441
X84.968 Y39.61 Z-1.447
X85.133 Y39.556 Z-1.453
X85.303 Y39.517 Z-1.459
X85.475 Y39.495 Z-1.465
X85.649 Y39.487 Z-1.472
X85.823 Y39.496 Z-1.478
X85.995 Y39.521 Z-1.484
X86.165 Y39.561 Z-1.49
X86.33 Y39.617 Z-1.496
X86.489 Y39.688 Z-1.502
X86.641 Y39.773 Z-1.508
X86.784 Y39.871 Z-1.514
X86.918 Y39.982 Z-1.52
X87.042 Y40.105 Z-1.526
X87.153 Y40.239 Z-1.532
X87.252 Y40.382 Z-1.538
X87.337 Y40.534 Z-1.544
X87.408 Y40.693 Z-1.551
X87.464 Y40.858 Z-1.557
X87.505 Y41.027 Z-1.563
X87.53 Y41.199 Z-1.569
X87.54 Y41.373 Z-1.575
X87.533 Y41.547 Z-1.581
X87.51 Y41.719 Z-1.587
X87.472 Y41.889 Z-1.593
X87.419 Y42.055 Z-1.599
X87.35 Y42.215 Z-1.605
X87.267 Y42.368 Z-1.611
X87.17 Y42.513 Z-1.617
X87.061 Y42.648 Z-1.624
X86.94 Y42.773 Z-1.63
X86.807 Y42.886 Z-1.636
X86.665 Y42.987 Z-1.642
X86.515 Y43.074 Z-1.648
X86.357 Y43.147 Z-1.654
X86.193 Y43.205 Z-1.66
X86.024 Y43.248 Z-1.666
X85.852 Y43.275 Z-1.672
X85.678 Y43.287 Z-1.678
X85.504 Y43.283 Z-1.684
X85.331 Y43.262 Z-1.69
X85.161 Y43.226 Z-1.697
X84.995 Y43.175 Z-1.703
X84.834 Y43.108 Z-1.709
X84.68 Y43.027 Z-1.715
X84.534 Y42.932 Z-1.721
X84.397 Y42.825 Z-1.727
X84.271 Y42.705 Z-1.733
X84.156 Y42.574 Z-1.739
X84.053 Y42.433 Z-1.745
X83.964 Y42.284 Z-1.751
X83.889 Y42.127 Z-1.757
X83.829 Y41.963 Z-1.763
X83.784 Y41.795 Z-1.769
X83.754 Y41.624 Z-1.776
X83.741 Y41.45 Z-1.782
X83.743 Y41.276 Z-1.788
X83.761 Y41.103 Z-1.794
X83.795 Y40.932 Z-1.8
X83.844 Y40.765 Z-1.806
X83.909 Y40.604 Z-1.812
X83.988 Y40.449 Z-1.818
X84.081 Y40.301 Z-1.824
X84.187 Y40.163 Z-1.83
X84.305 Y40.035 Z-1.836
X84.434 Y39.919 Z-1.842
X84.573 Y39.815 Z-1.849
X84.722 Y39.724 Z-1.855
X84.878 Y39.647 Z-1.861
X85.041 Y39.584 Z-1.867
X85.208 Y39.537 Z-1.873
X85.379 Y39.505 Z-1.879
X85.553 Y39.489 Z-1.885
X85.727 Z-1.891
X85.9 Y39.505 Z-1.897
X86.071 Y39.537 Z-1.903
X86.239 Y39.584 Z-1.909
X86.401 Y39.647 Z-1.915
X86.557 Y39.724 Z-1.922
X86.706 Y39.815 Z-1.928
X86.845 Y39.919 Z-1.934
X86.975 Y40.035 Z-1.94
X87.093 Y40.163 Z-1.946
X87.199 Y40.301 Z-1.952
X87.291 Y40.449 Z-1.958
X87.37 Y40.604 Z-1.964
X87.435 Y40.765 Z-1.97
X87.484 Y40.932 Z-1.976
X87.518 Y41.103 Z-1.982
X87.536 Y41.276 Z-1.988
X87.539 Y41.45 Z-1.994
X87.525 Y41.624 Z-2.001
X87.495 Y41.795 Z-2.007
X87.45 Y41.963 Z-2.013
X87.39 Y42.127 Z-2.019
X87.315 Y42.284 Z-2.025
X87.226 Y42.433 Z-2.031
X87.123 Y42.574 Z-2.037
X87.009 Y42.705 Z-2.043
X86.882 Y42.825 Z-2.049
X86.745 Y42.932 Z-2.055
X86.599 Y43.027 Z-2.061
X86.445 Y43.108 Z-2.067
X86.284 Y43.175 Z-2.074
X86.118 Y43.226 Z-2.08
X85.948 Y43.262 Z-2.086
X85.775 Y43.283 Z-2.092
X85.601 Y43.287 Z-2.098
X85.427 Y43.275 Z-2.104
X85.255 Y43.248 Z-2.11
X85.087 Y43.205 Z-2.116
X84.923 Y43.147 Z-2.122
X84.765 Y43.074 Z-2.128
X84.614 Y42.987 Z-2.134
X84.472 Y42.886 Z-2.14
X84.34 Y42.773 Z-2.147
X84.218 Y42.648 Z-2.153
X84.109 Y42.513 Z-2.159
X84.012 Y42.368 Z-2.165
X83.929 Y42.215 Z-2.171
X83.861 Y42.055 Z-2.177
X83.807 Y41.889 Z-2.183
X83.769 Y41.719 Z-2.189
X83.746 Y41.547 Z-2.195
X83.74 Y41.373 Z-2.201
X83.749 Y41.199 Z-2.207
X83.774 Y41.027 Z-2.213
X83.815 Y40.858 Z-2.219
X83.871 Y40.693 Z-2.226
X83.942 Y40.534 Z-2.232
X84.027 Y40.382 Z-2.238
X84.126 Y40.239 Z-2.244
X84.238 Y40.105 Z-2.25
X84.361 Y39.982 Z-2.256
X84.495 Y39.871 Z-2.262
X84.638 Y39.773 Z-2.268
X84.79 Y39.688 Z-2.274
X84.95 Y39.617 Z-2.28
X85.114 Y39.561 Z-2.286
X85.284 Y39.521 Z-2.292
X85.456 Y39.496 Z-2.299
X85.63 Y39.487 Z-2.305
X85.804 Y39.495 Z-2.311
X85.976 Y39.517 Z-2.317
X86.146 Y39.556 Z-2.323
X86.312 Y39.61 Z-2.329
X86.471 Y39.679 Z-2.335
X86.624 Y39.762 Z-2.341
X86.769 Y39.859 Z-2.347
X86.904 Y39.969 Z-2.353
X87.028 Y40.091 Z-2.359
X87.141 Y40.223 Z-2.365
X87.242 Y40.366 Z-2.372
X87.328 Y40.517 Z-2.378
X87.401 Y40.675 Z-2.384
X87.459 Y40.839 Z-2.39
X87.501 Y41.008 Z-2.396
X87.528 Y41.18 Z-2.402
X87.539 Y41.354 Z-2.408
X87.534 Y41.528 Z-2.414
X87.514 Y41.7 Z-2.42
X87.477 Y41.871 Z-2.426
X87.425 Y42.037 Z-2.432
X87.358 Y42.197 Z-2.438
X87.277 Y42.351 Z-2.444
X87.182 Y42.497 Z-2.451
X87.074 Y42.634 Z-2.457
X86.954 Y42.76 Z-2.463
X86.823 Y42.874 Z-2.469
X86.682 Y42.976 Z-2.475
X86.532 Y43.065 Z-2.481
X86.375 Y43.14 Z-2.487
X86.211 Y43.199 Z-2.493
X86.043 Y43.244 Z-2.499
X85.871 Y43.273 Z-2.505
X85.698 Y43.287 Z-2.511
X85.524 Y43.284 Z-2.517
X85.351 Y43.265 Z-2.524
X85.18 Y43.231 Z-2.53
X85.013 Y43.181 Z-2.536
X84.852 Y43.116 Z-2.542
X84.697 Y43.037 Z-2.548
X84.55 Y42.944 Z-2.554
X84.412 Y42.837 Z-2.56
X84.284 Y42.719 Z-2.566
X84.168 Y42.589 Z-2.572
X84.064 Y42.45 Z-2.578
X83.974 Y42.301 Z-2.584
X83.897 Y42.145 Z-2.59
X83.835 Y41.982 Z-2.597
X83.788 Y41.814 Z-2.603
X83.757 Y41.643 Z-2.609
X83.741 Y41.47 Z-2.615
X83.742 Y41.296 Z-2.621
X83.758 Y41.122 Z-2.627
X83.79 Y40.951 Z-2.633
X83.838 Y40.784 Z-2.639
X83.901 Y40.621 Z-2.645
X83.978 Y40.465 Z-2.651
X84.07 Y40.317 Z-2.657
X84.174 Y40.178 Z-2.663
X84.291 Y40.049 Z-2.669
X84.419 Y39.931 Z-2.676
X84.558 Y39.826 Z-2.682
X84.705 Y39.733 Z-2.688
X84.86 Y39.655 Z-2.694
X85.022 Y39.591 Z-2.7
X85.189 Y39.542 Z-2.706
X85.36 Y39.508 Z-2.712
X85.533 Y39.49 Z-2.718
X85.707 Y39.489 Z-2.724
X85.881 Y39.503 Z-2.73
X86.052 Y39.533 Z-2.736
X86.22 Y39.578 Z-2.742
X86.383 Y39.639 Z-2.749
X86.54 Y39.714 Z-2.755
X86.69 Y39.804 Z-2.761
X86.83 Y39.907 Z-2.767
X86.961 Y40.022 Z-2.773
X87.08 Y40.148 Z-2.779
X87.187 Y40.286 Z-2.785
X87.282 Y40.432 Z-2.791
X87.362 Y40.586 Z-2.797
X87.428 Y40.747 Z-2.803
X87.48 Y40.914 Z-2.809
X87.515 Y41.084 Z-2.815
X87.535 Y41.257 Z-2.822
X87.539 Y41.431 Z-2.828
X87.527 Y41.605 Z-2.834
X87.499 Y41.776 Z-2.84
X87.456 Y41.945 Z-2.846
X87.397 Y42.109 Z-2.852
X87.324 Y42.267 Z-2.858
X87.236 Y42.417 Z-2.864
X87.135 Y42.559 Z-2.87
X87.022 Y42.691 Z-2.876
X86.897 Y42.812 Z-2.882
X86.761 Y42.921 Z-2.888
X86.616 Y43.017 Z-2.894
X86.463 Y43.1 Z-2.901
X86.303 Y43.168 Z-2.907
X86.137 Y43.221 Z-2.913
X85.967 Y43.259 Z-2.919
X85.794 Y43.281 Z-2.925
X85.62 Y43.287 Z-2.931
X85.446 Y43.278 Z-2.937
X85.274 Y43.252 Z-2.943
X85.105 Y43.211 Z-2.949
X84.941 Y43.154 Z-2.955
X84.782 Y43.083 Z-2.961
X84.63 Y42.997 Z-2.967
X84.487 Y42.898 Z-2.974
X84.354 Y42.786 Z-2.98
X84.231 Y42.663 Z-2.986
X84.12 Y42.528 Z-2.992
X84.022 Y42.384 Z-2.998
X83.938 Y42.232 Z-3.004
X83.868 Y42.073 Z-3.01
X83.812 Y41.908 Z-3.016
X83.772 Y41.738 Z-3.022
X83.748 Y41.566 Z-3.028
X83.74 Y41.392 Z-3.034
X83.747 Y41.218 Z-3.04
X83.771 Y41.046 Z-3.047
X83.81 Y40.876 Z-3.053
X83.864 Y40.711 Z-3.059
X83.934 Y40.551 Z-3.065
X84.017 Y40.399 Z-3.071
X84.115 Y40.254 Z-3.077
X84.225 Y40.119 Z-3.083
X84.347 Y39.995 Z-3.089
X84.479 Y39.883 Z-3.095
X84.622 Y39.783 Z-3.101
X84.773 Y39.696 Z-3.107
X84.932 Y39.624 Z-3.113
X85.096 Y39.567 Z-3.119
X85.265 Y39.525 Z-3.126
X85.437 Y39.498 Z-3.132
X85.611 Y39.488 Z-3.138
X85.785 Y39.493 Z-3.144
X85.957 Y39.514 Z-3.15
X86.127 Y39.551 Z-3.156
X86.293 Y39.603 Z-3.162
X86.454 Y39.671 Z-3.168
X86.608 Y39.753 Z-3.174
X86.753 Y39.848 Z-3.18
X86.889 Y39.956 Z-3.186
X87.015 Y40.077 Z-3.192
X87.129 Y40.208 Z-3.199
X87.231 Y40.349 Z-3.205
X87.319 Y40.499 Z-3.211
X87.394 Y40.657 Z-3.217
X87.453 Y40.821 Z-3.223
X87.497 Y40.989 Z-3.229
X87.526 Y41.161 Z-3.235
X87.539 Y41.334 Z-3.241
X87.536 Y41.508 Z-3.247
X87.517 Y41.681 Z-3.253
X87.482 Y41.852 Z-3.259
X87.432 Y42.019 Z-3.265
X87.366 Y42.18 Z-3.272
X87.287 Y42.335 Z-3.278
X87.193 Y42.481 Z-3.284
X87.086 Y42.619 Z-3.29
X86.968 Y42.746 Z-3.296
X86.838 Y42.862 Z-3.302
X86.698 Y42.966 Z-3.308
X86.549 Y43.056 Z-3.314
X86.392 Y43.132 Z-3.32
X86.23 Y43.194 Z-3.326
X86.062 Y43.24 Z-3.332
X85.89 Y43.271 Z-3.338
X85.717 Y43.286 Z-3.344
X85.543 Y43.285 Z-3.351
X85.37 Y43.268 Z-3.357
X85.199 Y43.236 Z-3.363
X85.031 Y43.187 Z-3.369
X84.869 Y43.124 Z-3.375
X84.713 Y43.046 Z-3.381
X84.566 Y42.955 Z-3.387
X84.427 Y42.85 Z-3.393
X84.298 Y42.733 Z-3.399
X84.18 Y42.604 Z-3.405
X84.075 Y42.465 Z-3.411
X83.983 Y42.318 Z-3.417
X83.905 Y42.162 Z-3.424
X83.841 Y42. Z-3.43
X83.793 Y41.833 Z-3.436
X83.76 Y41.662 Z-3.442
X83.742 Y41.489 Z-3.448
X83.741 Y41.315 Z-3.454
X83.756 Y41.141 Z-3.46
X83.786 Y40.97 Z-3.466
X83.832 Y40.802 Z-3.472
X83.893 Y40.639 Z-3.478
X83.969 Y40.482 Z-3.484
X84.059 Y40.333 Z-3.49
X84.162 Y40.193 Z-3.496
X84.277 Y40.063 Z-3.503
X84.404 Y39.944 Z-3.509
X84.542 Y39.837 Z-3.515
X84.688 Y39.743 Z-3.521
X84.843 Y39.663 Z-3.527
X85.004 Y39.597 Z-3.533
X85.17 Y39.546 Z-3.539
X85.341 Y39.511 Z-3.545
X85.514 Y39.492 Z-3.551
X85.688 Y39.488 Z-3.557
X85.862 Y39.5 Z-3.563
X86.033 Y39.529 Z-3.569
X86.202 Y39.572 Z-3.576
X86.366 Y39.632 Z-3.582
X86.523 Y39.705 Z-3.588
X86.673 Y39.793 Z-3.594
X86.815 Y39.895 Z-3.6
X86.947 Y40.008 Z-3.606
X87.067 Y40.134 Z-3.612
X87.176 Y40.27 Z-3.618
X87.272 Y40.415 Z-3.624
X87.354 Y40.569 Z-3.63
X87.422 Y40.729 Z-3.636
X87.475 Y40.895 Z-3.642
X87.512 Y41.065 Z-3.649
X87.534 Y41.238 Z-3.655
X87.539 Y41.412 Z-3.661
X87.529 Y41.585 Z-3.667
X87.503 Y41.757 Z-3.673
X87.462 Y41.926 Z-3.679
X87.405 Y42.091 Z-3.685
X87.333 Y42.25 Z-3.691
X87.247 Y42.401 Z-3.697
X87.147 Y42.544 Z-3.703
X87.035 Y42.677 Z-3.709
X86.911 Y42.799 Z-3.715
X86.777 Y42.91 Z-3.721
X86.633 Y43.007 Z-3.728
X86.48 Y43.091 Z-3.734
X86.321 Y43.161 Z-3.74
X86.155 Y43.216 Z-3.746
X85.986 Y43.256 Z-3.752
X85.814 Y43.279 Z-3.758
X85.64 Y43.287 Z-3.764
X43.308
G3 X43.073 Y43.052 R0.235
G1 Y42.948
G3 X43.308 Y42.713 R0.235
G1 X85.692
G3 X85.927 Y42.948 R0.235
G1 Y43.052
G3 X85.692 Y43.287 R0.235
G1 X85.64
G2 X83.915 Y44.437 R1.869
G3 X82.19 Y45.587 R1.869
G1 X41.092
G3 X40.773 Y45.268 R0.319
G1 Y40.732
G3 X41.092 Y40.413 R0.319
G1 X87.908
G3 X88.227 Y40.732 R0.319
G1 Y45.268
G3 X87.908 Y45.587 R0.319
G1 X82.19
G2 X80.465 Y46.737 R1.869
G3 X78.74 Y47.887 R1.869
G1 X38.792
G3 X38.473 Y47.568 R0.319
G1 Y38.432
G3 X38.792 Y38.113 R0.319
G1 X90.208
G3 X90.527 Y38.432 R0.319
G1 Y47.568
G3 X90.208 Y47.887 R0.319
G1 X78.74
G2 X77.015 Y49.037 R1.869
G3 X75.29 Y50.187 R1.869
G1 X36.492
G3 X36.173 Y49.868 R0.319
G1 Y36.132
G3 X36.492 Y35.813 R0.319
G1 X92.508
G3 X92.827 Y36.132 R0.319
G1 Y49.868
G3 X92.508 Y50.187 R0.319
G1 X75.29
G2 X73.565 Y51.337 R1.869
G3 X71.84 Y52.487 R1.869
G1 X34.192
G3 X33.873 Y52.168 R0.319
G1 Y33.832
G3 X34.192 Y33.513 R0.319
G1 X94.808
G3 X95.127 Y33.832 R0.319
G1 Y52.168
G3 X94.808 Y52.487 R0.319
G1 X71.84
G2 X70.115 Y53.637 R1.869
G3 X68.39 Y54.787 R1.869
G1 X31.892
G3 X31.573 Y54.468 R0.319
G1 Y31.532
G3 X31.892 Y31.213 R0.319
G1 X97.108
G3 X97.427 Y31.532 R0.319
G1 Y54.468
G3 X97.108 Y54.787 R0.319
G1 X68.39
G2 X66.665 Y55.937 R1.869
G3 X64.94 Y57.087 R1.869
G1 X29.592
G3 X29.273 Y56.768 R0.319
G1 Y29.232
G3 X29.592 Y28.913 R0.319
G1 X99.408
G3 X99.727 Y29.232 R0.319
G1 Y56.768
G3 X99.408 Y57.087 R0.319
G1 X64.94
G2 X63.215 Y58.237 R1.869
G3 X61.49 Y59.387 R1.869
G1 X27.292
G3 X26.973 Y59.068 R0.319
G1 Y26.932
G3 X27.292 Y26.613 R0.319
G1 X101.708
G3 X102.027 Y26.932 R0.319
G1 Y59.068
G3 X101.708 Y59.387 R0.319
G1 X61.49
G2 X59.765 Y60.537 R1.869
G3 X58.04 Y61.687 R1.869
G1 X24.992
G3 X24.673 Y61.368 R0.319
G1 Y24.632
G3 X24.992 Y24.313 R0.319
G1 X104.008
G3 X104.327 Y24.632 R0.319
G1 Y61.368
G3 X104.008 Y61.687 R0.319
G1 X58.04
G2 X56.315 Y62.837 R1.869
G3 X54.59 Y63.987 R1.869
G1 X22.692
G3 X22.373 Y63.668 R0.319
G1 Y22.332
G3 X22.692 Y22.013 R0.319
G1 X106.308
G3 X106.627 Y22.332 R0.319
G1 Y63.668
G3 X106.308 Y63.987 R0.319
G1 X54.59
G2 X52.865 Y65.137 R1.869
G3 X51.14 Y66.287 R1.869
G1 X20.392
G3 X20.073 Y65.968 R0.319
G1 Y20.032
G3 X20.392 Y19.713 R0.319
G1 X108.608
G3 X108.927 Y20.032 R0.319
G1 Y65.968
G3 X108.608 Y66.287 R0.319
G1 X51.14
G2 X49.415 Y67.437 R1.869
G3 X47.69 Y68.587 R1.869
G1 X18.092
G3 X17.773 Y68.268 R0.319
G1 Y17.732
G3 X18.092 Y17.413 R0.319
G1 X110.908
G3 X111.227 Y17.732 R0.319
G1 Y68.268
G3 X110.908 Y68.587 R0.319
G1 X47.69
G2 X45.965 Y69.737 R1.869
G3 X44.24 Y70.887 R1.869
G1 X15.792
G3 X15.473 Y70.568 R0.319
G1 Y15.432
G3 X15.792 Y15.113 R0.319
G1 X113.208
G3 X113.527 Y15.432 R0.319
G1 Y70.568
G3 X113.208 Y70.887 R0.319
G1 X44.24
G2 X42.515 Y72.037 R1.869
G3 X40.79 Y73.187 R1.869
G1 X13.492
G3 X13.173 Y72.868 R0.319
G1 Y13.132
G3 X13.492 Y12.813 R0.319
G1 X115.508
G3 X115.827 Y13.132 R0.319
G1 Y72.868
G3 X115.508 Y73.187 R0.319
G1 X40.79
G2 X39.065 Y74.337 R1.869
G3 X37.34 Y75.487 R1.869
G1 X11.818
G3 X10.873 Y74.542 R0.946
G1 Y11.458
G3 X11.818 Y10.513 R0.946
G1 X117.808
G3 X118.127 Y10.832 R0.319
G1 Y75.168
G3 X117.808 Y75.487 R0.319
G1 X37.34
G2 X35.615 Y76.637 R1.869
G3 X33.89 Y77.787 R1.869
G1 X10.929
G3 X10.05 Y77.423 R1.243
G1 X8.937 Y76.31
G3 X8.573 Y75.431 R1.243
G1 Y10.569
G3 X8.937 Y9.69 R1.243
G1 X10.05 Y8.577
G3 X10.929 Y8.213 R1.243
G1 X120.108
G3 X120.427 Y8.532 R0.319
G1 Y77.468
G3 X120.108 Y77.787 R0.319
G1 X33.89
G2 X32.165 Y78.937 R1.869
G3 X30.44 Y80.087 R1.869
G1 X9.976
G3 X9.097 Y79.723 R1.243
G1 X6.637 Y77.263
G3 X6.273 Y76.384 R1.243
G1 Y9.616
G3 X6.637 Y8.737 R1.243
G1 X9.097 Y6.277
G3 X9.976 Y5.913 R1.243
G1 X122.408
G3 X122.727 Y6.232 R0.319
G1 Y79.768
G3 X122.408 Y80.087 R0.319
G1 X30.44
G2 X28.711 Y81.24 R1.873
G3 X26.982 Y82.392 R1.873
G1 X8.507
X3.968 Y77.853
Y8.147
X8.507 Y3.608
X125.032
Y82.392
X26.982
X26.906 Y82.385 Z-3.749
X26.833 Y82.363 Z-3.734
X26.775 Y82.334 Z-3.69
X26.722 Y82.297 Z-3.647
X26.691 Y82.267 Z-3.582
X26.663 Y82.233 Z-3.517
X26.646 Y82.209 Z-3.364
G0 Z5.
X87.358 Y42.198
Z2.675
G1 Z-0.864 F380.
X87.345 Y42.225 Z-1.014 F1500.
X87.307 Y42.298 Z-1.142
X87.243 Y42.406 Z-1.23
X87.159 Y42.528 Z-1.264
X87.048 Y42.663 Z-1.27
X86.926 Y42.786 Z-1.276
X86.792 Y42.898 Z-1.282
X86.649 Y42.997 Z-1.288
X86.497 Y43.083 Z-1.294
X86.339 Y43.154 Z-1.301
X86.174 Y43.211 Z-1.307
X86.005 Y43.252 Z-1.313
X85.833 Y43.278 Z-1.319
X85.659 Y43.287 Z-1.325
X85.485 Y43.281 Z-1.331
X85.312 Y43.259 Z-1.337
X85.142 Y43.221 Z-1.343
X84.977 Y43.168 Z-1.349
X84.816 Y43.1 Z-1.355
X84.663 Y43.017 Z-1.361
X84.518 Y42.921 Z-1.367
X84.382 Y42.812 Z-1.374
X84.257 Y42.691 Z-1.38
X84.144 Y42.559 Z-1.386
X84.043 Y42.417 Z-1.392
X83.955 Y42.267 Z-1.398
X83.882 Y42.109 Z-1.404
X83.823 Y41.945 Z-1.41
X83.78 Y41.776 Z-1.416
X83.752 Y41.605 Z-1.422
X83.74 Y41.431 Z-1.428
X83.744 Y41.257 Z-1.434
X83.764 Y41.084 Z-1.44
X83.8 Y40.914 Z-1.446
X83.851 Y40.747 Z-1.453
X83.917 Y40.586 Z-1.459
X83.997 Y40.432 Z-1.465
X84.092 Y40.286 Z-1.471
X84.199 Y40.148 Z-1.477
X84.319 Y40.022 Z-1.483
X84.449 Y39.907 Z-1.489
X84.59 Y39.804 Z-1.495
X84.739 Y39.714 Z-1.501
X84.896 Y39.639 Z-1.507
X85.059 Y39.578 Z-1.513
X85.227 Y39.533 Z-1.519
X85.398 Y39.503 Z-1.526
X85.572 Y39.489 Z-1.532
X85.746 Y39.49 Z-1.538
X85.919 Y39.508 Z-1.544
X86.09 Y39.542 Z-1.55
X86.257 Y39.591 Z-1.556
X86.419 Y39.655 Z-1.562
X86.574 Y39.733 Z-1.568
X86.722 Y39.826 Z-1.574
X86.86 Y39.931 Z-1.58
X86.988 Y40.049 Z-1.586
X87.105 Y40.178 Z-1.592
X87.21 Y40.317 Z-1.599
X87.301 Y40.465 Z-1.605
X87.378 Y40.621 Z-1.611
X87.441 Y40.784 Z-1.617
X87.489 Y40.951 Z-1.623
X87.521 Y41.122 Z-1.629
X87.537 Y41.296 Z-1.635
X87.538 Y41.47 Z-1.641
X87.522 Y41.643 Z-1.647
X87.491 Y41.814 Z-1.653
X87.444 Y41.982 Z-1.659
X87.382 Y42.145 Z-1.665
X87.306 Y42.301 Z-1.671
X87.215 Y42.45 Z-1.678
X87.111 Y42.589 Z-1.684
X86.995 Y42.719 Z-1.69
X86.867 Y42.837 Z-1.696
X86.73 Y42.944 Z-1.702
X86.583 Y43.037 Z-1.708
X86.428 Y43.116 Z-1.714
X86.266 Y43.181 Z-1.72
X86.099 Y43.231 Z-1.726
X85.929 Y43.265 Z-1.732
X85.756 Y43.284 Z-1.738
X85.582 Y43.287 Z-1.744
X85.408 Y43.273 Z-1.751
X85.236 Y43.244 Z-1.757
X85.068 Y43.199 Z-1.763
X84.905 Y43.14 Z-1.769
X84.747 Y43.065 Z-1.775
X84.598 Y42.976 Z-1.781
X84.457 Y42.874 Z-1.787
X84.325 Y42.76 Z-1.793
X84.205 Y42.634 Z-1.799
X84.097 Y42.497 Z-1.805
X84.002 Y42.351 Z-1.811
X83.921 Y42.197 Z-1.817
X83.854 Y42.037 Z-1.824
X83.802 Y41.871 Z-1.83
X83.766 Y41.7 Z-1.836
X83.745 Y41.528 Z-1.842
X83.74 Y41.354 Z-1.848
X83.751 Y41.18 Z-1.854
X83.778 Y41.008 Z-1.86
X83.82 Y40.839 Z-1.866
X83.878 Y40.675 Z-1.872
X83.951 Y40.517 Z-1.878
X84.038 Y40.366 Z-1.884
X84.138 Y40.223 Z-1.89
X84.251 Y40.091 Z-1.896
X84.375 Y39.969 Z-1.903
X84.51 Y39.859 Z-1.909
X84.655 Y39.762 Z-1.915
X84.808 Y39.679 Z-1.921
X84.968 Y39.61 Z-1.927
X85.133 Y39.556 Z-1.933
X85.303 Y39.517 Z-1.939
X85.475 Y39.495 Z-1.945
X85.649 Y39.487 Z-1.951
X85.823 Y39.496 Z-1.957
X85.995 Y39.521 Z-1.963
X86.165 Y39.561 Z-1.969
X86.33 Y39.617 Z-1.976
X86.489 Y39.688 Z-1.982
X86.641 Y39.773 Z-1.988
X86.784 Y39.871 Z-1.994
X86.918 Y39.982 Z-2.
X87.042 Y40.105 Z-2.006
X87.153 Y40.239 Z-2.012
X87.252 Y40.382 Z-2.018
X87.337 Y40.534 Z-2.024
X87.408 Y40.693 Z-2.03
X87.464 Y40.858 Z-2.036
X87.505 Y41.027 Z-2.042
X87.53 Y41.199 Z-2.049
X87.54 Y41.373 Z-2.055
X87.533 Y41.547 Z-2.061
X87.51 Y41.719 Z-2.067
X87.472 Y41.889 Z-2.073
X87.419 Y42.055 Z-2.079
X87.35 Y42.215 Z-2.085
X87.267 Y42.368 Z-2.091
X87.17 Y42.513 Z-2.097
X87.061 Y42.648 Z-2.103
X86.94 Y42.773 Z-2.109
X86.807 Y42.886 Z-2.115
X86.665 Y42.987 Z-2.121
X86.515 Y43.074 Z-2.128
X86.357 Y43.147 Z-2.134
X86.193 Y43.205 Z-2.14
X86.024 Y43.248 Z-2.146
X85.852 Y43.275 Z-2.152
X85.678 Y43.287 Z-2.158
X85.504 Y43.283 Z-2.164
X85.331 Y43.262 Z-2.17
X85.161 Y43.226 Z-2.176
X84.995 Y43.175 Z-2.182
X84.834 Y43.108 Z-2.188
X84.68 Y43.027 Z-2.194
X84.534 Y42.932 Z-2.201
X84.397 Y42.825 Z-2.207
X84.271 Y42.705 Z-2.213
X84.156 Y42.574 Z-2.219
X84.053 Y42.433 Z-2.225
X83.964 Y42.284 Z-2.231
X83.889 Y42.127 Z-2.237
X83.829 Y41.963 Z-2.243
X83.784 Y41.795 Z-2.249
X83.754 Y41.624 Z-2.255
X83.741 Y41.45 Z-2.261
X83.743 Y41.276 Z-2.267
X83.761 Y41.103 Z-2.274
X83.795 Y40.932 Z-2.28
X83.844 Y40.765 Z-2.286
X83.909 Y40.604 Z-2.292
X83.988 Y40.449 Z-2.298
X84.081 Y40.301 Z-2.304
X84.187 Y40.163 Z-2.31
X84.305 Y40.035 Z-2.316
X84.434 Y39.919 Z-2.322
X84.573 Y39.815 Z-2.328
X84.722 Y39.724 Z-2.334
X84.878 Y39.647 Z-2.34
X85.041 Y39.584 Z-2.346
X85.208 Y39.537 Z-2.353
X85.379 Y39.505 Z-2.359
X85.553 Y39.489 Z-2.365
X85.727 Z-2.371
X85.9 Y39.505 Z-2.377
X86.071 Y39.537 Z-2.383
X86.239 Y39.584 Z-2.389
X86.401 Y39.647 Z-2.395
X86.557 Y39.724 Z-2.401
X86.706 Y39.815 Z-2.407
X86.845 Y39.919 Z-2.413
X86.975 Y40.035 Z-2.419
X87.093 Y40.163 Z-2.426
X87.199 Y40.301 Z-2.432
X87.291 Y40.449 Z-2.438
X87.37 Y40.604 Z-2.444
X87.435 Y40.765 Z-2.45
X87.484 Y40.932 Z-2.456
X87.518 Y41.103 Z-2.462
X87.536 Y41.276 Z-2.468
X87.539 Y41.45 Z-2.474
X87.525 Y41.624 Z-2.48
X87.495 Y41.795 Z-2.486
X87.45 Y41.963 Z-2.492
X87.39 Y42.127 Z-2.499
X87.315 Y42.284 Z-2.505
X87.226 Y42.433 Z-2.511
X87.123 Y42.574 Z-2.517
X87.009 Y42.705 Z-2.523
X86.882 Y42.825 Z-2.529
X86.745 Y42.932 Z-2.535
X86.599 Y43.027 Z-2.541
X86.445 Y43.108 Z-2.547
X86.284 Y43.175 Z-2.553
X86.118 Y43.226 Z-2.559
X85.948 Y43.262 Z-2.565
X85.775 Y43.283 Z-2.571
X85.601 Y43.287 Z-2.578
X85.427 Y43.275 Z-2.584
X85.255 Y43.248 Z-2.59
X85.087 Y43.205 Z-2.596
X84.923 Y43.147 Z-2.602
X84.765 Y43.074 Z-2.608
X84.614 Y42.987 Z-2.614
X84.472 Y42.886 Z-2.62
X84.34 Y42.773 Z-2.626
X84.218 Y42.648 Z-2.632
X84.109 Y42.513 Z-2.638
X84.012 Y42.368 Z-2.644
X83.929 Y42.215 Z-2.651
X83.861 Y42.055 Z-2.657
X83.807 Y41.889 Z-2.663
X83.769 Y41.719 Z-2.669
X83.746 Y41.547 Z-2.675
X83.74 Y41.373 Z-2.681
X83.749 Y41.199 Z-2.687
X83.774 Y41.027 Z-2.693
X83.815 Y40.858 Z-2.699
X83.871 Y40.693 Z-2.705
X83.942 Y40.534 Z-2.711
X84.027 Y40.382 Z-2.717
X84.126 Y40.239 Z-2.724
X84.238 Y40.105 Z-2.73
X84.361 Y39.982 Z-2.736
X84.495 Y39.871 Z-2.742
X84.638 Y39.773 Z-2.748
X84.79 Y39.688 Z-2.754
X84.95 Y39.617 Z-2.76
X85.114 Y39.561 Z-2.766
X85.284 Y39.521 Z-2.772
X85.456 Y39.496 Z-2.778
X85.63 Y39.487 Z-2.784
X85.804 Y39.495 Z-2.79
X85.976 Y39.517 Z-2.796
X86.146 Y39.556 Z-2.803
X86.312 Y39.61 Z-2.809
X86.471 Y39.679 Z-2.815
X86.624 Y39.762 Z-2.821
X86.769 Y39.859 Z-2.827
X86.904 Y39.969 Z-2.833
X87.028 Y40.091 Z-2.839
X87.141 Y40.223 Z-2.845
X87.242 Y40.366 Z-2.851
X87.328 Y40.517 Z-2.857
X87.401 Y40.675 Z-2.863
X87.459 Y40.839 Z-2.869
X87.501 Y41.008 Z-2.876
X87.528 Y41.18 Z-2.882
X87.539 Y41.354 Z-2.888
X87.534 Y41.528 Z-2.894
X87.514 Y41.7 Z-2.9
X87.477 Y41.871 Z-2.906
X87.425 Y42.037 Z-2.912
X87.358 Y42.197 Z-2.918
X87.277 Y42.351 Z-2.924
X87.182 Y42.497 Z-2.93
X87.074 Y42.634 Z-2.936
X86.954 Y42.76 Z-2.942
X86.823 Y42.874 Z-2.948
X86.682 Y42.976 Z-2.955
X86.532 Y43.065 Z-2.961
X86.375 Y43.14 Z-2.967
X86.211 Y43.199 Z-2.973
X86.043 Y43.244 Z-2.979
X85.871 Y43.273 Z-2.985
X85.698 Y43.287 Z-2.991
X85.524 Y43.284 Z-2.997
X85.351 Y43.265 Z-3.003
X85.18 Y43.231 Z-3.009
X85.013 Y43.181 Z-3.015
X84.852 Y43.116 Z-3.021
X84.697 Y43.037 Z-3.028
X84.55 Y42.944 Z-3.034
X84.412 Y42.837 Z-3.04
X84.284 Y42.719 Z-3.046
X84.168 Y42.589 Z-3.052
X84.064 Y42.45 Z-3.058
X83.974 Y42.301 Z-3.064
X83.897 Y42.145 Z-3.07
X83.835 Y41.982 Z-3.076
X83.788 Y41.814 Z-3.082
X83.757 Y41.643 Z-3.088
X83.741 Y41.47 Z-3.094
X83.742 Y41.296 Z-3.101
X83.758 Y41.122 Z-3.107
X83.79 Y40.951 Z-3.113
X83.838 Y40.784 Z-3.119
X83.901 Y40.621 Z-3.125
X83.978 Y40.465 Z-3.131
X84.07 Y40.317 Z-3.137
X84.174 Y40.178 Z-3.143
X84.291 Y40.049 Z-3.149
X84.419 Y39.931 Z-3.155
X84.558 Y39.826 Z-3.161
X84.705 Y39.733 Z-3.167
X84.86 Y39.655 Z-3.173
X85.022 Y39.591 Z-3.18
X85.189 Y39.542 Z-3.186
X85.36 Y39.508 Z-3.192
X85.533 Y39.49 Z-3.198
X85.707 Y39.489 Z-3.204
X85.881 Y39.503 Z-3.21
X86.052 Y39.533 Z-3.216
X86.22 Y39.578 Z-3.222
X86.383 Y39.639 Z-3.228
X86.54 Y39.714 Z-3.234
X86.69 Y39.804 Z-3.24
X86.83 Y39.907 Z-3.246
X86.961 Y40.022 Z-3.253
X87.08 Y40.148 Z-3.259
X87.187 Y40.286 Z-3.265
X87.282 Y40.432 Z-3.271
X87.362 Y40.586 Z-3.277
X87.428 Y40.747 Z-3.283
X87.48 Y40.914 Z-3.289
X87.515 Y41.084 Z-3.295
X87.535 Y41.257 Z-3.301
X87.539 Y41.431 Z-3.307
X87.527 Y41.605 Z-3.313
X87.499 Y41.776 Z-3.319
X87.456 Y41.945 Z-3.326
X87.397 Y42.109 Z-3.332
X87.324 Y42.267 Z-3.338
X87.236 Y42.417 Z-3.344
X87.135 Y42.559 Z-3.35
X87.022 Y42.691 Z-3.356
X86.897 Y42.812 Z-3.362
X86.761 Y42.921 Z-3.368
X86.616 Y43.017 Z-3.374
X86.463 Y43.1 Z-3.38
X86.303 Y43.168 Z-3.386
X86.137 Y43.221 Z-3.392
X85.967 Y43.259 Z-3.398
X85.794 Y43.281 Z-3.405
X85.62 Y43.287 Z-3.411
X85.446 Y43.278 Z-3.417
X85.274 Y43.252 Z-3.423
X85.105 Y43.211 Z-3.429
X84.941 Y43.154 Z-3.435
X84.782 Y43.083 Z-3.441
X84.63 Y42.997 Z-3.447
X84.487 Y42.898 Z-3.453
X84.354 Y42.786 Z-3.459
X84.231 Y42.663 Z-3.465
X84.12 Y42.528 Z-3.471
X84.022 Y42.384 Z-3.478
X83.938 Y42.232 Z-3.484
X83.868 Y42.073 Z-3.49
X83.812 Y41.908 Z-3.496
X83.772 Y41.738 Z-3.502
X83.748 Y41.566 Z-3.508
X83.74 Y41.392 Z-3.514
X83.747 Y41.218 Z-3.52
X83.771 Y41.046 Z-3.526
X83.81 Y40.876 Z-3.532
X83.864 Y40.711 Z-3.538
X83.934 Y40.551 Z-3.544
X84.017 Y40.399 Z-3.551
X84.115 Y40.254 Z-3.557
X84.225 Y40.119 Z-3.563
X84.347 Y39.995 Z-3.569
X84.479 Y39.883 Z-3.575
X84.622 Y39.783 Z-3.581
X84.773 Y39.696 Z-3.587
X84.932 Y39.624 Z-3.593
X85.096 Y39.567 Z-3.599
X85.265 Y39.525 Z-3.605
X85.437 Y39.498 Z-3.611
X85.611 Y39.488 Z-3.617
X85.785 Y39.493 Z-3.623
X85.957 Y39.514 Z-3.63
X86.127 Y39.551 Z-3.636
X86.293 Y39.603 Z-3.642
X86.454 Y39.671 Z-3.648
X86.608 Y39.753 Z-3.654
X86.753 Y39.848 Z-3.66
X86.889 Y39.956 Z-3.666
X87.015 Y40.077 Z-3.672
X87.129 Y40.208 Z-3.678
X87.231 Y40.349 Z-3.684
X87.319 Y40.499 Z-3.69
X87.394 Y40.657 Z-3.696
X87.453 Y40.821 Z-3.703
X87.497 Y40.989 Z-3.709
X87.526 Y41.161 Z-3.715
X87.539 Y41.334 Z-3.721
X87.536 Y41.508 Z-3.727
X87.517 Y41.681 Z-3.733
X87.482 Y41.852 Z-3.739
X87.432 Y42.019 Z-3.745
X87.366 Y42.18 Z-3.751
X87.287 Y42.335 Z-3.757
X87.193 Y42.481 Z-3.763
X87.086 Y42.619 Z-3.769
X86.968 Y42.746 Z-3.776
X86.838 Y42.862 Z-3.782
X86.698 Y42.966 Z-3.788
X86.549 Y43.056 Z-3.794
X86.392 Y43.132 Z-3.8
X86.23 Y43.194 Z-3.806
X86.062 Y43.24 Z-3.812
X85.89 Y43.271 Z-3.818
X85.717 Y43.286 Z-3.824
X85.543 Y43.285 Z-3.83
X85.37 Y43.268 Z-3.836
X85.199 Y43.236 Z-3.842
X85.031 Y43.187 Z-3.848
X84.869 Y43.124 Z-3.855
X84.713 Y43.046 Z-3.861
X84.566 Y42.955 Z-3.867
X84.427 Y42.85 Z-3.873
X84.298 Y42.733 Z-3.879
X84.18 Y42.604 Z-3.885
X84.075 Y42.465 Z-3.891
X83.983 Y42.318 Z-3.897
X83.905 Y42.162 Z-3.903
X83.841 Y42. Z-3.909
X83.793 Y41.833 Z-3.915
X83.76 Y41.662 Z-3.921
X83.742 Y41.489 Z-3.928
X83.741 Y41.315 Z-3.934
X83.756 Y41.141 Z-3.94
X83.786 Y40.97 Z-3.946
X83.832 Y40.802 Z-3.952
X83.893 Y40.639 Z-3.958
X83.969 Y40.482 Z-3.964
X84.059 Y40.333 Z-3.97
X84.162 Y40.193 Z-3.976
X84.277 Y40.063 Z-3.982
X84.404 Y39.944 Z-3.988
X84.542 Y39.837 Z-3.994
X84.688 Y39.743 Z-4.001
X84.843 Y39.663 Z-4.007
X85.004 Y39.597 Z-4.013
X85.17 Y39.546 Z-4.019
X85.341 Y39.511 Z-4.025
X85.514 Y39.492 Z-4.031
X85.688 Y39.488 Z-4.037
X85.862 Y39.5 Z-4.043
X86.033 Y39.529 Z-4.049
X86.202 Y39.572 Z-4.055
X86.366 Y39.632 Z-4.061
X86.523 Y39.705 Z-4.067
X86.673 Y39.793 Z-4.073
X86.815 Y39.895 Z-4.08
X86.947 Y40.008 Z-4.086
X87.067 Y40.134 Z-4.092
X87.176 Y40.27 Z-4.098
X87.272 Y40.415 Z-4.104
X87.354 Y40.569 Z-4.11
X87.422 Y40.729 Z-4.116
X87.475 Y40.895 Z-4.122
X87.512 Y41.065 Z-4.128
X87.534 Y41.238 Z-4.134
X87.539 Y41.412 Z-4.14
X87.529 Y41.585 Z-4.146
X87.503 Y41.757 Z-4.153
X87.462 Y41.926 Z-4.159
X87.405 Y42.091 Z-4.165
X87.333 Y42.25 Z-4.171
X87.247 Y42.401 Z-4.177
X87.147 Y42.544 Z-4.183
X87.035 Y42.677 Z-4.189
X86.911 Y42.799 Z-4.195
X86.777 Y42.91 Z-4.201
X86.633 Y43.007 Z-4.207
X86.48 Y43.091 Z-4.213
X86.321 Y43.161 Z-4.219
X86.155 Y43.216 Z-4.226
X85.986 Y43.256 Z-4.232
X85.814 Y43.279 Z-4.238
X85.64 Y43.287 Z-4.244
X43.308
G3 X43.073 Y43.052 R0.235
G1 Y42.948
G3 X43.308 Y42.713 R0.235
G1 X85.692
G3 X85.927 Y42.948 R0.235
G1 Y43.052
G3 X85.692 Y43.287 R0.235
G1 X85.64
G2 X83.915 Y44.437 R1.869
G3 X82.19 Y45.587 R1.869
G1 X41.092
G3 X40.773 Y45.268 R0.319
G1 Y40.732
G3 X41.092 Y40.413 R0.319
G1 X87.908
G3 X88.227 Y40.732 R0.319
G1 Y45.268
G3 X87.908 Y45.587 R0.319
G1 X82.19
G2 X80.465 Y46.737 R1.869
G3 X78.74 Y47.887 R1.869
G1 X38.792
G3 X38.473 Y47.568 R0.319
G1 Y38.432
G3 X38.792 Y38.113 R0.319
G1 X90.208
G3 X90.527 Y38.432 R0.319
G1 Y47.568
G3 X90.208 Y47.887 R0.319
G1 X78.74
G2 X77.015 Y49.037 R1.869
G3 X75.29 Y50.187 R1.869
G1 X36.492
G3 X36.173 Y49.868 R0.319
G1 Y36.132
G3 X36.492 Y35.813 R0.319
G1 X92.508
G3 X92.827 Y36.132 R0.319
G1 Y49.868
G3 X92.508 Y50.187 R0.319
G1 X75.29
G2 X73.565 Y51.337 R1.869
G3 X71.84 Y52.487 R1.869
G1 X34.192
G3 X33.873 Y52.168 R0.319
G1 Y33.832
G3 X34.192 Y33.513 R0.319
G1 X94.808
G3 X95.127 Y33.832 R0.319
G1 Y52.168
G3 X94.808 Y52.487 R0.319
G1 X71.84
G2 X70.115 Y53.637 R1.869
G3 X68.39 Y54.787 R1.869
G1 X31.892
G3 X31.573 Y54.468 R0.319
G1 Y31.532
G3 X31.892 Y31.213 R0.319
G1 X97.108
G3 X97.427 Y31.532 R0.319
G1 Y54.468
G3 X97.108 Y54.787 R0.319
G1 X68.39
G2 X66.665 Y55.937 R1.869
G3 X64.94 Y57.087 R1.869
G1 X29.592
G3 X29.273 Y56.768 R0.319
G1 Y29.232
G3 X29.592 Y28.913 R0.319
G1 X99.408
G3 X99.727 Y29.232 R0.319
G1 Y56.768
G3 X99.408 Y57.087 R0.319
G1 X64.94
G2 X63.215 Y58.237 R1.869
G3 X61.49 Y59.387 R1.869
G1 X27.292
G3 X26.973 Y59.068 R0.319
G1 Y26.932
G3 X27.292 Y26.613 R0.319
G1 X101.708
G3 X102.027 Y26.932 R0.319
G1 Y59.068
G3 X101.708 Y59.387 R0.319
G1 X61.49
G2 X59.765 Y60.537 R1.869
G3 X58.04 Y61.687 R1.869
G1 X24.992
G3 X24.673 Y61.368 R0.319
G1 Y24.632
G3 X24.992 Y24.313 R0.319
G1 X104.008
G3 X104.327 Y24.632 R0.319
G1 Y61.368
G3 X104.008 Y61.687 R0.319
G1 X58.04
G2 X56.315 Y62.837 R1.869
G3 X54.59 Y63.987 R1.869
G1 X22.692
G3 X22.373 Y63.668 R0.319
G1 Y22.332
G3 X22.692 Y22.013 R0.319
G1 X106.308
G3 X106.627 Y22.332 R0.319
G1 Y63.668
G3 X106.308 Y63.987 R0.319
G1 X54.59
G2 X52.865 Y65.137 R1.869
G3 X51.14 Y66.287 R1.869
G1 X20.392
G3 X20.073 Y65.968 R0.319
G1 Y20.032
G3 X20.392 Y19.713 R0.319
G1 X108.608
G3 X108.927 Y20.032 R0.319
G1 Y65.968
G3 X108.608 Y66.287 R0.319
G1 X51.14
G2 X49.415 Y67.437 R1.869
G3 X47.69 Y68.587 R1.869
G1 X18.092
G3 X17.773 Y68.268 R0.319
G1 Y17.732
G3 X18.092 Y17.413 R0.319
G1 X110.908
G3 X111.227 Y17.732 R0.319
G1 Y68.268
G3 X110.908 Y68.587 R0.319
G1 X47.69
G2 X45.965 Y69.737 R1.869
G3 X44.24 Y70.887 R1.869
G1 X15.792
G3 X15.473 Y70.568 R0.319
G1 Y15.432
G3 X15.792 Y15.113 R0.319
G1 X113.208
G3 X113.527 Y15.432 R0.319
G1 Y70.568
G3 X113.208 Y70.887 R0.319
G1 X44.24
G2 X42.515 Y72.037 R1.869
G3 X40.79 Y73.187 R1.869
G1 X13.492
G3 X13.173 Y72.868 R0.319
G1 Y13.132
G3 X13.492 Y12.813 R0.319
G1 X115.508
G3 X115.827 Y13.132 R0.319
G1 Y72.868
G3 X115.508 Y73.187 R0.319
G1 X40.79
G2 X39.065 Y74.337 R1.869
G3 X37.34 Y75.487 R1.869
G1 X11.818
G3 X10.873 Y74.542 R0.946
G1 Y11.458
G3 X11.818 Y10.513 R0.946
G1 X117.808
G3 X118.127 Y10.832 R0.319
G1 Y75.168
G3 X117.808 Y75.487 R0.319
G1 X37.34
G2 X35.615 Y76.637 R1.869
G3 X33.89 Y77.787 R1.869
G1 X10.929
G3 X10.05 Y77.423 R1.243
G1 X8.937 Y76.31
G3 X8.573 Y75.431 R1.243
G1 Y10.569
G3 X8.937 Y9.69 R1.243
G1 X10.05 Y8.577
G3 X10.929 Y8.213 R1.243
G1 X120.108
G3 X120.427 Y8.532 R0.319
G1 Y77.468
G3 X120.108 Y77.787 R0.319
G1 X33.89
G2 X32.165 Y78.937 R1.869
G3 X30.44 Y80.087 R1.869
G1 X9.976
G3 X9.097 Y79.723 R1.243
G1 X6.637 Y77.263
G3 X6.273 Y76.384 R1.243
G1 Y9.616
G3 X6.637 Y8.737 R1.243
G1 X9.097 Y6.277
G3 X9.976 Y5.913 R1.243
G1 X122.408
G3 X122.727 Y6.232 R0.319
G1 Y79.768
G3 X122.408 Y80.087 R0.319
G1 X30.44
G2 X28.711 Y81.24 R1.873
G3 X26.982 Y82.392 R1.873
G1 X8.507
X3.968 Y77.853
Y8.147
X8.507 Y3.608
X125.032
Y82.392
X26.982
X26.906 Y82.385 Z-4.229
X26.833 Y82.363 Z-4.213
X26.775 Y82.334 Z-4.17
X26.722 Y82.297 Z-4.127
X26.691 Y82.267 Z-4.062
X26.663 Y82.233 Z-3.997
X26.646 Y82.209 Z-3.844
G0 Z5.
X87.358 Y42.198
Z2.675
G1 Z-1.344 F380.
X87.345 Y42.225 Z-1.494 F1500.
X87.307 Y42.298 Z-1.622
X87.243 Y42.406 Z-1.709
X87.159 Y42.528 Z-1.744
X87.048 Y42.663 Z-1.75
X86.926 Y42.786 Z-1.756
X86.792 Y42.898 Z-1.762
X86.649 Y42.997 Z-1.768
X86.497 Y43.083 Z-1.774
X86.339 Y43.154 Z-1.78
X86.174 Y43.211 Z-1.786
X86.005 Y43.252 Z-1.792
X85.833 Y43.278 Z-1.798
X85.659 Y43.287 Z-1.805
X85.485 Y43.281 Z-1.811
X85.312 Y43.259 Z-1.817
X85.142 Y43.221 Z-1.823
X84.977 Y43.168 Z-1.829
X84.816 Y43.1 Z-1.835
X84.663 Y43.017 Z-1.841
X84.518 Y42.921 Z-1.847
X84.382 Y42.812 Z-1.853
X84.257 Y42.691 Z-1.859
X84.144 Y42.559 Z-1.865
X84.043 Y42.417 Z-1.871
X83.955 Y42.267 Z-1.878
X83.882 Y42.109 Z-1.884
X83.823 Y41.945 Z-1.89
X83.78 Y41.776 Z-1.896
X83.752 Y41.605 Z-1.902
X83.74 Y41.431 Z-1.908
X83.744 Y41.257 Z-1.914
X83.764 Y41.084 Z-1.92
X83.8 Y40.914 Z-1.926
X83.851 Y40.747 Z-1.932
X83.917 Y40.586 Z-1.938
X83.997 Y40.432 Z-1.944
X84.092 Y40.286 Z-1.951
X84.199 Y40.148 Z-1.957
X84.319 Y40.022 Z-1.963
X84.449 Y39.907 Z-1.969
X84.59 Y39.804 Z-1.975
X84.739 Y39.714 Z-1.981
X84.896 Y39.639 Z-1.987
X85.059 Y39.578 Z-1.993
X85.227 Y39.533 Z-1.999
X85.398 Y39.503 Z-2.005
X85.572 Y39.489 Z-2.011
X85.746 Y39.49 Z-2.017
X85.919 Y39.508 Z-2.023
X86.09 Y39.542 Z-2.03
X86.257 Y39.591 Z-2.036
X86.419 Y39.655 Z-2.042
X86.574 Y39.733 Z-2.048
X86.722 Y39.826 Z-2.054
X86.86 Y39.931 Z-2.06
X86.988 Y40.049 Z-2.066
X87.105 Y40.178 Z-2.072
X87.21 Y40.317 Z-2.078
X87.301 Y40.465 Z-2.084
X87.378 Y40.621 Z-2.09
X87.441 Y40.784 Z-2.096
X87.489 Y40.951 Z-2.103
X87.521 Y41.122 Z-2.109
X87.537 Y41.296 Z-2.115
X87.538 Y41.47 Z-2.121
X87.522 Y41.643 Z-2.127
X87.491 Y41.814 Z-2.133
X87.444 Y41.982 Z-2.139
X87.382 Y42.145 Z-2.145
X87.306 Y42.301 Z-2.151
X87.215 Y42.45 Z-2.157
X87.111 Y42.589 Z-2.163
X86.995 Y42.719 Z-2.169
X86.867 Y42.837 Z-2.176
X86.73 Y42.944 Z-2.182
X86.583 Y43.037 Z-2.188
X86.428 Y43.116 Z-2.194
X86.266 Y43.181 Z-2.2
X86.099 Y43.231 Z-2.206
X85.929 Y43.265 Z-2.212
X85.756 Y43.284 Z-2.218
X85.582 Y43.287 Z-2.224
X85.408 Y43.273 Z-2.23
X85.236 Y43.244 Z-2.236
X85.068 Y43.199 Z-2.242
X84.905 Y43.14 Z-2.248
X84.747 Y43.065 Z-2.255
X84.598 Y42.976 Z-2.261
X84.457 Y42.874 Z-2.267
X84.325 Y42.76 Z-2.273
X84.205 Y42.634 Z-2.279
X84.097 Y42.497 Z-2.285
X84.002 Y42.351 Z-2.291
X83.921 Y42.197 Z-2.297
X83.854 Y42.037 Z-2.303
X83.802 Y41.871 Z-2.309
X83.766 Y41.7 Z-2.315
X83.745 Y41.528 Z-2.321
X83.74 Y41.354 Z-2.328
X83.751 Y41.18 Z-2.334
X83.778 Y41.008 Z-2.34
X83.82 Y40.839 Z-2.346
X83.878 Y40.675 Z-2.352
X83.951 Y40.517 Z-2.358
X84.038 Y40.366 Z-2.364
X84.138 Y40.223 Z-2.37
X84.251 Y40.091 Z-2.376
X84.375 Y39.969 Z-2.382
X84.51 Y39.859 Z-2.388
X84.655 Y39.762 Z-2.394
X84.808 Y39.679 Z-2.4
X84.968 Y39.61 Z-2.407
X85.133 Y39.556 Z-2.413
X85.303 Y39.517 Z-2.419
X85.475 Y39.495 Z-2.425
X85.649 Y39.487 Z-2.431
X85.823 Y39.496 Z-2.437
X85.995 Y39.521 Z-2.443
X86.165 Y39.561 Z-2.449
X86.33 Y39.617 Z-2.455
X86.489 Y39.688 Z-2.461
X86.641 Y39.773 Z-2.467
X86.784 Y39.871 Z-2.473
X86.918 Y39.982 Z-2.48
X87.042 Y40.105 Z-2.486
X87.153 Y40.239 Z-2.492
X87.252 Y40.382 Z-2.498
X87.337 Y40.534 Z-2.504
X87.408 Y40.693 Z-2.51
X87.464 Y40.858 Z-2.516
X87.505 Y41.027 Z-2.522
X87.53 Y41.199 Z-2.528
X87.54 Y41.373 Z-2.534
X87.533 Y41.547 Z-2.54
X87.51 Y41.719 Z-2.546
X87.472 Y41.889 Z-2.553
X87.419 Y42.055 Z-2.559
X87.35 Y42.215 Z-2.565
X87.267 Y42.368 Z-2.571
X87.17 Y42.513 Z-2.577
X87.061 Y42.648 Z-2.583
X86.94 Y42.773 Z-2.589
X86.807 Y42.886 Z-2.595
X86.665 Y42.987 Z-2.601
X86.515 Y43.074 Z-2.607
X86.357 Y43.147 Z-2.613
X86.193 Y43.205 Z-2.619
X86.024 Y43.248 Z-2.625
X85.852 Y43.275 Z-2.632
X85.678 Y43.287 Z-2.638
X85.504 Y43.283 Z-2.644
X85.331 Y43.262 Z-2.65
X85.161 Y43.226 Z-2.656
X84.995 Y43.175 Z-2.662
X84.834 Y43.108 Z-2.668
X84.68 Y43.027 Z-2.674
X84.534 Y42.932 Z-2.68
X84.397 Y42.825 Z-2.686
X84.271 Y42.705 Z-2.692
X84.156 Y42.574 Z-2.698
X84.053 Y42.433 Z-2.705
X83.964 Y42.284 Z-2.711
X83.889 Y42.127 Z-2.717
X83.829 Y41.963 Z-2.723
X83.784 Y41.795 Z-2.729
X83.754 Y41.624 Z-2.735
X83.741 Y41.45 Z-2.741
X83.743 Y41.276 Z-2.747
X83.761 Y41.103 Z-2.753
X83.795 Y40.932 Z-2.759
X83.844 Y40.765 Z-2.765
X83.909 Y40.604 Z-2.771
X83.988 Y40.449 Z-2.778
X84.081 Y40.301 Z-2.784
X84.187 Y40.163 Z-2.79
X84.305 Y40.035 Z-2.796
X84.434 Y39.919 Z-2.802
X84.573 Y39.815 Z-2.808
X84.722 Y39.724 Z-2.814
X84.878 Y39.647 Z-2.82
X85.041 Y39.584 Z-2.826
X85.208 Y39.537 Z-2.832
X85.379 Y39.505 Z-2.838
X85.553 Y39.489 Z-2.844
X85.727 Z-2.85
X85.9 Y39.505 Z-2.857
X86.071 Y39.537 Z-2.863
X86.239 Y39.584 Z-2.869
X86.401 Y39.647 Z-2.875
X86.557 Y39.724 Z-2.881
X86.706 Y39.815 Z-2.887
X86.845 Y39.919 Z-2.893
X86.975 Y40.035 Z-2.899
X87.093 Y40.163 Z-2.905
X87.199 Y40.301 Z-2.911
X87.291 Y40.449 Z-2.917
X87.37 Y40.604 Z-2.923
X87.435 Y40.765 Z-2.93
X87.484 Y40.932 Z-2.936
X87.518 Y41.103 Z-2.942
X87.536 Y41.276 Z-2.948
X87.539 Y41.45 Z-2.954
X87.525 Y41.624 Z-2.96
X87.495 Y41.795 Z-2.966
X87.45 Y41.963 Z-2.972
X87.39 Y42.127 Z-2.978
X87.315 Y42.284 Z-2.984
X87.226 Y42.433 Z-2.99
X87.123 Y42.574 Z-2.996
X87.009 Y42.705 Z-3.003
X86.882 Y42.825 Z-3.009
X86.745 Y42.932 Z-3.015
X86.599 Y43.027 Z-3.021
X86.445 Y43.108 Z-3.027
X86.284 Y43.175 Z-3.033
X86.118 Y43.226 Z-3.039
X85.948 Y43.262 Z-3.045
X85.775 Y43.283 Z-3.051
X85.601 Y43.287 Z-3.057
X85.427 Y43.275 Z-3.063
X85.255 Y43.248 Z-3.069
X85.087 Y43.205 Z-3.075
X84.923 Y43.147 Z-3.082
X84.765 Y43.074 Z-3.088
X84.614 Y42.987 Z-3.094
X84.472 Y42.886 Z-3.1
X84.34 Y42.773 Z-3.106
X84.218 Y42.648 Z-3.112
X84.109 Y42.513 Z-3.118
X84.012 Y42.368 Z-3.124
X83.929 Y42.215 Z-3.13
X83.861 Y42.055 Z-3.136
X83.807 Y41.889 Z-3.142
X83.769 Y41.719 Z-3.148
X83.746 Y41.547 Z-3.155
X83.74 Y41.373 Z-3.161
X83.749 Y41.199 Z-3.167
X83.774 Y41.027 Z-3.173
X83.815 Y40.858 Z-3.179
X83.871 Y40.693 Z-3.185
X83.942 Y40.534 Z-3.191
X84.027 Y40.382 Z-3.197
X84.126 Y40.239 Z-3.203
X84.238 Y40.105 Z-3.209
X84.361 Y39.982 Z-3.215
X84.495 Y39.871 Z-3.221
X84.638 Y39.773 Z-3.228
X84.79 Y39.688 Z-3.234
X84.95 Y39.617 Z-3.24
X85.114 Y39.561 Z-3.246
X85.284 Y39.521 Z-3.252
X85.456 Y39.496 Z-3.258
X85.63 Y39.487 Z-3.264
X85.804 Y39.495 Z-3.27
X85.976 Y39.517 Z-3.276
X86.146 Y39.556 Z-3.282
X86.312 Y39.61 Z-3.288
X86.471 Y39.679 Z-3.294
X86.624 Y39.762 Z-3.3
X86.769 Y39.859 Z-3.307
X86.904 Y39.969 Z-3.313
X87.028 Y40.091 Z-3.319
X87.141 Y40.223 Z-3.325
X87.242 Y40.366 Z-3.331
X87.328 Y40.517 Z-3.337
X87.401 Y40.675 Z-3.343
X87.459 Y40.839 Z-3.349
X87.501 Y41.008 Z-3.355
X87.528 Y41.18 Z-3.361
X87.539 Y41.354 Z-3.367
X87.534 Y41.528 Z-3.373
X87.514 Y41.7 Z-3.38
X87.477 Y41.871 Z-3.386
X87.425 Y42.037 Z-3.392
X87.358 Y42.197 Z-3.398
X87.277 Y42.351 Z-3.404
X87.182 Y42.497 Z-3.41
X87.074 Y42.634 Z-3.416
X86.954 Y42.76 Z-3.422
X86.823 Y42.874 Z-3.428
X86.682 Y42.976 Z-3.434
X86.532 Y43.065 Z-3.44
X86.375 Y43.14 Z-3.446
X86.211 Y43.199 Z-3.453
X86.043 Y43.244 Z-3.459
X85.871 Y43.273 Z-3.465
X85.698 Y43.287 Z-3.471
X85.524 Y43.284 Z-3.477
X85.351 Y43.265 Z-3.483
X85.18 Y43.231 Z-3.489
X85.013 Y43.181 Z-3.495
X84.852 Y43.116 Z-3.501
X84.697 Y43.037 Z-3.507
X84.55 Y42.944 Z-3.513
X84.412 Y42.837 Z-3.519
X84.284 Y42.719 Z-3.525
X84.168 Y42.589 Z-3.532
X84.064 Y42.45 Z-3.538
X83.974 Y42.301 Z-3.544
X83.897 Y42.145 Z-3.55
X83.835 Y41.982 Z-3.556
X83.788 Y41.814 Z-3.562
X83.757 Y41.643 Z-3.568
X83.741 Y41.47 Z-3.574
X83.742 Y41.296 Z-3.58
X83.758 Y41.122 Z-3.586
X83.79 Y40.951 Z-3.592
X83.838 Y40.784 Z-3.598
X83.901 Y40.621 Z-3.605
X83.978 Y40.465 Z-3.611
X84.07 Y40.317 Z-3.617
X84.174 Y40.178 Z-3.623
X84.291 Y40.049 Z-3.629
X84.419 Y39.931 Z-3.635
X84.558 Y39.826 Z-3.641
X84.705 Y39.733 Z-3.647
X84.86 Y39.655 Z-3.653
X85.022 Y39.591 Z-3.659
X85.189 Y39.542 Z-3.665
X85.36 Y39.508 Z-3.671
X85.533 Y39.49 Z-3.678
X85.707 Y39.489 Z-3.684
X85.881 Y39.503 Z-3.69
X86.052 Y39.533 Z-3.696
X86.22 Y39.578 Z-3.702
X86.383 Y39.639 Z-3.708
X86.54 Y39.714 Z-3.714
X86.69 Y39.804 Z-3.72
X86.83 Y39.907 Z-3.726
X86.961 Y40.022 Z-3.732
X87.08 Y40.148 Z-3.738
X87.187 Y40.286 Z-3.744
X87.282 Y40.432 Z-3.75
X87.362 Y40.586 Z-3.757
X87.428 Y40.747 Z-3.763
X87.48 Y40.914 Z-3.769
X87.515 Y41.084 Z-3.775
X87.535 Y41.257 Z-3.781
X87.539 Y41.431 Z-3.787
X87.527 Y41.605 Z-3.793
X87.499 Y41.776 Z-3.799
X87.456 Y41.945 Z-3.805
X87.397 Y42.109 Z-3.811
X87.324 Y42.267 Z-3.817
X87.236 Y42.417 Z-3.823
X87.135 Y42.559 Z-3.83
X87.022 Y42.691 Z-3.836
X86.897 Y42.812 Z-3.842
X86.761 Y42.921 Z-3.848
X86.616 Y43.017 Z-3.854
X86.463 Y43.1 Z-3.86
X86.303 Y43.168 Z-3.866
X86.137 Y43.221 Z-3.872
X85.967 Y43.259 Z-3.878
X85.794 Y43.281 Z-3.884
X85.62 Y43.287 Z-3.89
X85.446 Y43.278 Z-3.896
X85.274 Y43.252 Z-3.903
X85.105 Y43.211 Z-3.909
X84.941 Y43.154 Z-3.915
X84.782 Y43.083 Z-3.921
X84.63 Y42.997 Z-3.927
X84.487 Y42.898 Z-3.933
X84.354 Y42.786 Z-3.939
X84.231 Y42.663 Z-3.945
X84.12 Y42.528 Z-3.951
X84.022 Y42.384 Z-3.957
X83.938 Y42.232 Z-3.963
X83.868 Y42.073 Z-3.969
X83.812 Y41.908 Z-3.975
X83.772 Y41.738 Z-3.982
X83.748 Y41.566 Z-3.988
X83.74 Y41.392 Z-3.994
X83.747 Y41.218 Z-4.
X83.771 Y41.046 Z-4.006
X83.81 Y40.876 Z-4.012
X83.864 Y40.711 Z-4.018
X83.934 Y40.551 Z-4.024
X84.017 Y40.399 Z-4.03
X84.115 Y40.254 Z-4.036
X84.225 Y40.119 Z-4.042
X84.347 Y39.995 Z-4.048
X84.479 Y39.883 Z-4.055
X84.622 Y39.783 Z-4.061
X84.773 Y39.696 Z-4.067
X84.932 Y39.624 Z-4.073
X85.096 Y39.567 Z-4.079
X85.265 Y39.525 Z-4.085
X85.437 Y39.498 Z-4.091
X85.611 Y39.488 Z-4.097
X85.785 Y39.493 Z-4.103
X85.957 Y39.514 Z-4.109
X86.127 Y39.551 Z-4.115
X86.293 Y39.603 Z-4.121
X86.454 Y39.671 Z-4.127
X86.608 Y39.753 Z-4.134
X86.753 Y39.848 Z-4.14
X86.889 Y39.956 Z-4.146
X87.015 Y40.077 Z-4.152
X87.129 Y40.208 Z-4.158
X87.231 Y40.349 Z-4.164
X87.319 Y40.499 Z-4.17
X87.394 Y40.657 Z-4.176
X87.453 Y40.821 Z-4.182
X87.497 Y40.989 Z-4.188
X87.526 Y41.161 Z-4.194
X87.539 Y41.334 Z-4.2
X87.536 Y41.508 Z-4.207
X87.517 Y41.681 Z-4.213
X87.482 Y41.852 Z-4.219
X87.432 Y42.019 Z-4.225
X87.366 Y42.18 Z-4.231
X87.287 Y42.335 Z-4.237
X87.193 Y42.481 Z-4.243
X87.086 Y42.619 Z-4.249
X86.968 Y42.746 Z-4.255
X86.838 Y42.862 Z-4.261
X86.698 Y42.966 Z-4.267
X86.549 Y43.056 Z-4.273
X86.392 Y43.132 Z-4.28
X86.23 Y43.194 Z-4.286
X86.062 Y43.24 Z-4.292
X85.89 Y43.271 Z-4.298
X85.717 Y43.286 Z-4.304
X85.543 Y43.285 Z-4.31
X85.37 Y43.268 Z-4.316
X85.199 Y43.236 Z-4.322
X85.031 Y43.187 Z-4.328
X84.869 Y43.124 Z-4.334
X84.713 Y43.046 Z-4.34
X84.566 Y42.955 Z-4.346
X84.427 Y42.85 Z-4.352
X84.298 Y42.733 Z-4.359
X84.18 Y42.604 Z-4.365
X84.075 Y42.465 Z-4.371
X83.983 Y42.318 Z-4.377
X83.905 Y42.162 Z-4.383
X83.841 Y42. Z-4.389
X83.793 Y41.833 Z-4.395
X83.76 Y41.662 Z-4.401
X83.742 Y41.489 Z-4.407
X83.741 Y41.315 Z-4.413
X83.756 Y41.141 Z-4.419
X83.786 Y40.97 Z-4.425
X83.832 Y40.802 Z-4.432
X83.893 Y40.639 Z-4.438
X83.969 Y40.482 Z-4.444
X84.059 Y40.333 Z-4.45
X84.162 Y40.193 Z-4.456
X84.277 Y40.063 Z-4.462
X84.404 Y39.944 Z-4.468
X84.542 Y39.837 Z-4.474
X84.688 Y39.743 Z-4.48
X84.843 Y39.663 Z-4.486
X85.004 Y39.597 Z-4.492
X85.17 Y39.546 Z-4.498
X85.341 Y39.511 Z-4.505
X85.514 Y39.492 Z-4.511
X85.688 Y39.488 Z-4.517
X85.862 Y39.5 Z-4.523
X86.033 Y39.529 Z-4.529
X86.202 Y39.572 Z-4.535
X86.366 Y39.632 Z-4.541
X86.523 Y39.705 Z-4.547
X86.673 Y39.793 Z-4.553
X86.815 Y39.895 Z-4.559
X86.947 Y40.008 Z-4.565
X87.067 Y40.134 Z-4.571
X87.176 Y40.27 Z-4.577
X87.272 Y40.415 Z-4.584
X87.354 Y40.569 Z-4.59
X87.422 Y40.729 Z-4.596
X87.475 Y40.895 Z-4.602
X87.512 Y41.065 Z-4.608
X87.534 Y41.238 Z-4.614
X87.539 Y41.412 Z-4.62
X87.529 Y41.585 Z-4.626
X87.503 Y41.757 Z-4.632
X87.462 Y41.926 Z-4.638
X87.405 Y42.091 Z-4.644
X87.333 Y42.25 Z-4.65
X87.247 Y42.401 Z-4.657
X87.147 Y42.544 Z-4.663
X87.035 Y42.677 Z-4.669
X86.911 Y42.799 Z-4.675
X86.777 Y42.91 Z-4.681
X86.633 Y43.007 Z-4.687
X86.48 Y43.091 Z-4.693
X86.321 Y43.161 Z-4.699
X86.155 Y43.216 Z-4.705
X85.986 Y43.256 Z-4.711
X85.814 Y43.279 Z-4.717
X85.64 Y43.287 Z-4.723
X43.308
G3 X43.073 Y43.052 R0.235
G1 Y42.948
G3 X43.308 Y42.713 R0.235
G1 X85.692
G3 X85.927 Y42.948 R0.235
G1 Y43.052
G3 X85.692 Y43.287 R0.235
G1 X85.64
G2 X83.915 Y44.437 R1.869
G3 X82.19 Y45.587 R1.869
G1 X41.092
G3 X40.773 Y45.268 R0.319
G1 Y40.732
G3 X41.092 Y40.413 R0.319
G1 X87.908
G3 X88.227 Y40.732 R0.319
G1 Y45.268
G3 X87.908 Y45.587 R0.319
G1 X82.19
G2 X80.465 Y46.737 R1.869
G3 X78.74 Y47.887 R1.869
G1 X38.792
G3 X38.473 Y47.568 R0.319
G1 Y38.432
G3 X38.792 Y38.113 R0.319
G1 X90.208
G3 X90.527 Y38.432 R0.319
G1 Y47.568
G3 X90.208 Y47.887 R0.319
G1 X78.74
G2 X77.015 Y49.037 R1.869
G3 X75.29 Y50.187 R1.869
G1 X36.492
G3 X36.173 Y49.868 R0.319
G1 Y36.132
G3 X36.492 Y35.813 R0.319
G1 X92.508
G3 X92.827 Y36.132 R0.319
G1 Y49.868
G3 X92.508 Y50.187 R0.319
G1 X75.29
G2 X73.565 Y51.337 R1.869
G3 X71.84 Y52.487 R1.869
G1 X34.192
G3 X33.873 Y52.168 R0.319
G1 Y33.832
G3 X34.192 Y33.513 R0.319
G1 X94.808
G3 X95.127 Y33.832 R0.319
G1 Y52.168
G3 X94.808 Y52.487 R0.319
G1 X71.84
G2 X70.115 Y53.637 R1.869
G3 X68.39 Y54.787 R1.869
G1 X31.892
G3 X31.573 Y54.468 R0.319
G1 Y31.532
G3 X31.892 Y31.213 R0.319
G1 X97.108
G3 X97.427 Y31.532 R0.319
G1 Y54.468
G3 X97.108 Y54.787 R0.319
G1 X68.39
G2 X66.665 Y55.937 R1.869
G3 X64.94 Y57.087 R1.869
G1 X29.592
G3 X29.273 Y56.768 R0.319
G1 Y29.232
G3 X29.592 Y28.913 R0.319
G1 X99.408
G3 X99.727 Y29.232 R0.319
G1 Y56.768
G3 X99.408 Y57.087 R0.319
G1 X64.94
G2 X63.215 Y58.237 R1.869
G3 X61.49 Y59.387 R1.869
G1 X27.292
G3 X26.973 Y59.068 R0.319
G1 Y26.932
G3 X27.292 Y26.613 R0.319
G1 X101.708
G3 X102.027 Y26.932 R0.319
G1 Y59.068
G3 X101.708 Y59.387 R0.319
G1 X61.49
G2 X59.765 Y60.537 R1.869
G3 X58.04 Y61.687 R1.869
G1 X24.992
G3 X24.673 Y61.368 R0.319
G1 Y24.632
G3 X24.992 Y24.313 R0.319
G1 X104.008
G3 X104.327 Y24.632 R0.319
G1 Y61.368
G3 X104.008 Y61.687 R0.319
G1 X58.04
G2 X56.315 Y62.837 R1.869
G3 X54.59 Y63.987 R1.869
G1 X22.692
G3 X22.373 Y63.668 R0.319
G1 Y22.332
G3 X22.692 Y22.013 R0.319
G1 X106.308
G3 X106.627 Y22.332 R0.319
G1 Y63.668
G3 X106.308 Y63.987 R0.319
G1 X54.59
G2 X52.865 Y65.137 R1.869
G3 X51.14 Y66.287 R1.869
G1 X20.392
G3 X20.073 Y65.968 R0.319
G1 Y20.032
G3 X20.392 Y19.713 R0.319
G1 X108.608
G3 X108.927 Y20.032 R0.319
G1 Y65.968
G3 X108.608 Y66.287 R0.319
G1 X51.14
G2 X49.415 Y67.437 R1.869
G3 X47.69 Y68.587 R1.869
G1 X18.092
G3 X17.773 Y68.268 R0.319
G1 Y17.732
G3 X18.092 Y17.413 R0.319
G1 X110.908
G3 X111.227 Y17.732 R0.319
G1 Y68.268
G3 X110.908 Y68.587 R0.319
G1 X47.69
G2 X45.965 Y69.737 R1.869
G3 X44.24 Y70.887 R1.869
G1 X15.792
G3 X15.473 Y70.568 R0.319
G1 Y15.432
G3 X15.792 Y15.113 R0.319
G1 X113.208
G3 X113.527 Y15.432 R0.319
G1 Y70.568
G3 X113.208 Y70.887 R0.319
G1 X44.24
G2 X42.515 Y72.037 R1.869
G3 X40.79 Y73.187 R1.869
G1 X13.492
G3 X13.173 Y72.868 R0.319
G1 Y13.132
G3 X13.492 Y12.813 R0.319
G1 X115.508
G3 X115.827 Y13.132 R0.319
G1 Y72.868
G3 X115.508 Y73.187 R0.319
G1 X40.79
G2 X39.065 Y74.337 R1.869
G3 X37.34 Y75.487 R1.869
G1 X11.818
G3 X10.873 Y74.542 R0.946
G1 Y11.458
G3 X11.818 Y10.513 R0.946
G1 X117.808
G3 X118.127 Y10.832 R0.319
G1 Y75.168
G3 X117.808 Y75.487 R0.319
G1 X37.34
G2 X35.615 Y76.637 R1.869
G3 X33.89 Y77.787 R1.869
G1 X10.929
G3 X10.05 Y77.423 R1.243
G1 X8.937 Y76.31
G3 X8.573 Y75.431 R1.243
G1 Y10.569
G3 X8.937 Y9.69 R1.243
G1 X10.05 Y8.577
G3 X10.929 Y8.213 R1.243
G1 X120.108
G3 X120.427 Y8.532 R0.319
G1 Y77.468
G3 X120.108 Y77.787 R0.319
G1 X33.89
G2 X32.165 Y78.937 R1.869
G3 X30.44 Y80.087 R1.869
G1 X9.976
G3 X9.097 Y79.723 R1.243
G1 X6.637 Y77.263
G3 X6.273 Y76.384 R1.243
G1 Y9.616
G3 X6.637 Y8.737 R1.243
G1 X9.097 Y6.277
G3 X9.976 Y5.913 R1.243
G1 X122.408
G3 X122.727 Y6.232 R0.319
G1 Y79.768
G3 X122.408 Y80.087 R0.319
G1 X30.44
G2 X28.711 Y81.24 R1.873
G3 X26.982 Y82.392 R1.873
G1 X8.507
X3.968 Y77.853
Y8.147
X8.507 Y3.608
X125.032
Y82.392
X26.982
X26.906 Y82.385 Z-4.708
X26.833 Y82.363 Z-4.693
X26.775 Y82.334 Z-4.65
X26.722 Y82.297 Z-4.606
X26.691 Y82.267 Z-4.541
X26.663 Y82.233 Z-4.477
X26.646 Y82.209 Z-4.323
G0 Z5.
X87.358 Y42.198
Z2.675
G1 Z-1.824 F380.
X87.345 Y42.225 Z-1.974 F1500.
X87.307 Y42.298 Z-2.102
X87.243 Y42.406 Z-2.189
X87.159 Y42.528 Z-2.223
X87.048 Y42.663 Z-2.23
X86.926 Y42.786 Z-2.236
X86.792 Y42.898 Z-2.242
X86.649 Y42.997 Z-2.248
X86.497 Y43.083 Z-2.254
X86.339 Y43.154 Z-2.26
X86.174 Y43.211 Z-2.266
X86.005 Y43.252 Z-2.272
X85.833 Y43.278 Z-2.278
X85.659 Y43.287 Z-2.284
X85.485 Y43.281 Z-2.29
X85.312 Y43.259 Z-2.296
X85.142 Y43.221 Z-2.302
X84.977 Y43.168 Z-2.309
X84.816 Y43.1 Z-2.315
X84.663 Y43.017 Z-2.321
X84.518 Y42.921 Z-2.327
X84.382 Y42.812 Z-2.333
X84.257 Y42.691 Z-2.339
X84.144 Y42.559 Z-2.345
X84.043 Y42.417 Z-2.351
X83.955 Y42.267 Z-2.357
X83.882 Y42.109 Z-2.363
X83.823 Y41.945 Z-2.369
X83.78 Y41.776 Z-2.375
X83.752 Y41.605 Z-2.382
X83.74 Y41.431 Z-2.388
X83.744 Y41.257 Z-2.394
X83.764 Y41.084 Z-2.4
X83.8 Y40.914 Z-2.406
X83.851 Y40.747 Z-2.412
X83.917 Y40.586 Z-2.418
X83.997 Y40.432 Z-2.424
X84.092 Y40.286 Z-2.43
X84.199 Y40.148 Z-2.436
X84.319 Y40.022 Z-2.442
X84.449 Y39.907 Z-2.448
X84.59 Y39.804 Z-2.455
X84.739 Y39.714 Z-2.461
X84.896 Y39.639 Z-2.467
X85.059 Y39.578 Z-2.473
X85.227 Y39.533 Z-2.479
X85.398 Y39.503 Z-2.485
X85.572 Y39.489 Z-2.491
X85.746 Y39.49 Z-2.497
X85.919 Y39.508 Z-2.503
X86.09 Y39.542 Z-2.509
X86.257 Y39.591 Z-2.515
X86.419 Y39.655 Z-2.521
X86.574 Y39.733 Z-2.527
X86.722 Y39.826 Z-2.534
X86.86 Y39.931 Z-2.54
X86.988 Y40.049 Z-2.546
X87.105 Y40.178 Z-2.552
X87.21 Y40.317 Z-2.558
X87.301 Y40.465 Z-2.564
X87.378 Y40.621 Z-2.57
X87.441 Y40.784 Z-2.576
X87.489 Y40.951 Z-2.582
X87.521 Y41.122 Z-2.588
X87.537 Y41.296 Z-2.594
X87.538 Y41.47 Z-2.6
X87.522 Y41.643 Z-2.607
X87.491 Y41.814 Z-2.613
X87.444 Y41.982 Z-2.619
X87.382 Y42.145 Z-2.625
X87.306 Y42.301 Z-2.631
X87.215 Y42.45 Z-2.637
X87.111 Y42.589 Z-2.643
X86.995 Y42.719 Z-2.649
X86.867 Y42.837 Z-2.655
X86.73 Y42.944 Z-2.661
X86.583 Y43.037 Z-2.667
X86.428 Y43.116 Z-2.673
X86.266 Y43.181 Z-2.68
X86.099 Y43.231 Z-2.686
X85.929 Y43.265 Z-2.692
X85.756 Y43.284 Z-2.698
X85.582 Y43.287 Z-2.704
X85.408 Y43.273 Z-2.71
X85.236 Y43.244 Z-2.716
X85.068 Y43.199 Z-2.722
X84.905 Y43.14 Z-2.728
X84.747 Y43.065 Z-2.734
X84.598 Y42.976 Z-2.74
X84.457 Y42.874 Z-2.746
X84.325 Y42.76 Z-2.752
X84.205 Y42.634 Z-2.759
X84.097 Y42.497 Z-2.765
X84.002 Y42.351 Z-2.771
X83.921 Y42.197 Z-2.777
X83.854 Y42.037 Z-2.783
X83.802 Y41.871 Z-2.789
X83.766 Y41.7 Z-2.795
X83.745 Y41.528 Z-2.801
X83.74 Y41.354 Z-2.807
X83.751 Y41.18 Z-2.813
X83.778 Y41.008 Z-2.819
X83.82 Y40.839 Z-2.825
X83.878 Y40.675 Z-2.832
X83.951 Y40.517 Z-2.838
X84.038 Y40.366 Z-2.844
X84.138 Y40.223 Z-2.85
X84.251 Y40.091 Z-2.856
X84.375 Y39.969 Z-2.862
X84.51 Y39.859 Z-2.868
X84.655 Y39.762 Z-2.874
X84.808 Y39.679 Z-2.88
X84.968 Y39.61 Z-2.886
X85.133 Y39.556 Z-2.892
X85.303 Y39.517 Z-2.898
X85.475 Y39.495 Z-2.905
X85.649 Y39.487 Z-2.911
X85.823 Y39.496 Z-2.917
X85.995 Y39.521 Z-2.923
X86.165 Y39.561 Z-2.929
X86.33 Y39.617 Z-2.935
X86.489 Y39.688 Z-2.941
X86.641 Y39.773 Z-2.947
X86.784 Y39.871 Z-2.953
X86.918 Y39.982 Z-2.959
X87.042 Y40.105 Z-2.965
X87.153 Y40.239 Z-2.971
X87.252 Y40.382 Z-2.977
X87.337 Y40.534 Z-2.984
X87.408 Y40.693 Z-2.99
X87.464 Y40.858 Z-2.996
X87.505 Y41.027 Z-3.002
X87.53 Y41.199 Z-3.008
X87.54 Y41.373 Z-3.014
X87.533 Y41.547 Z-3.02
X87.51 Y41.719 Z-3.026
X87.472 Y41.889 Z-3.032
X87.419 Y42.055 Z-3.038
X87.35 Y42.215 Z-3.044
X87.267 Y42.368 Z-3.05
X87.17 Y42.513 Z-3.057
X87.061 Y42.648 Z-3.063
X86.94 Y42.773 Z-3.069
X86.807 Y42.886 Z-3.075
X86.665 Y42.987 Z-3.081
X86.515 Y43.074 Z-3.087
X86.357 Y43.147 Z-3.093
X86.193 Y43.205 Z-3.099
X86.024 Y43.248 Z-3.105
X85.852 Y43.275 Z-3.111
X85.678 Y43.287 Z-3.117
X85.504 Y43.283 Z-3.123
X85.331 Y43.262 Z-3.13
X85.161 Y43.226 Z-3.136
X84.995 Y43.175 Z-3.142
X84.834 Y43.108 Z-3.148
X84.68 Y43.027 Z-3.154
X84.534 Y42.932 Z-3.16
X84.397 Y42.825 Z-3.166
X84.271 Y42.705 Z-3.172
X84.156 Y42.574 Z-3.178
X84.053 Y42.433 Z-3.184
X83.964 Y42.284 Z-3.19
X83.889 Y42.127 Z-3.196
X83.829 Y41.963 Z-3.202
X83.784 Y41.795 Z-3.209
X83.754 Y41.624 Z-3.215
X83.741 Y41.45 Z-3.221
X83.743 Y41.276 Z-3.227
X83.761 Y41.103 Z-3.233
X83.795 Y40.932 Z-3.239
X83.844 Y40.765 Z-3.245
X83.909 Y40.604 Z-3.251
X83.988 Y40.449 Z-3.257
X84.081 Y40.301 Z-3.263
X84.187 Y40.163 Z-3.269
X84.305 Y40.035 Z-3.275
X84.434 Y39.919 Z-3.282
X84.573 Y39.815 Z-3.288
X84.722 Y39.724 Z-3.294
X84.878 Y39.647 Z-3.3
X85.041 Y39.584 Z-3.306
X85.208 Y39.537 Z-3.312
X85.379 Y39.505 Z-3.318
X85.553 Y39.489 Z-3.324
X85.727 Z-3.33
X85.9 Y39.505 Z-3.336
X86.071 Y39.537 Z-3.342
X86.239 Y39.584 Z-3.348
X86.401 Y39.647 Z-3.355
X86.557 Y39.724 Z-3.361
X86.706 Y39.815 Z-3.367
X86.845 Y39.919 Z-3.373
X86.975 Y40.035 Z-3.379
X87.093 Y40.163 Z-3.385
X87.199 Y40.301 Z-3.391
X87.291 Y40.449 Z-3.397
X87.37 Y40.604 Z-3.403
X87.435 Y40.765 Z-3.409
X87.484 Y40.932 Z-3.415
X87.518 Y41.103 Z-3.421
X87.536 Y41.276 Z-3.427
X87.539 Y41.45 Z-3.434
X87.525 Y41.624 Z-3.44
X87.495 Y41.795 Z-3.446
X87.45 Y41.963 Z-3.452
X87.39 Y42.127 Z-3.458
X87.315 Y42.284 Z-3.464
X87.226 Y42.433 Z-3.47
X87.123 Y42.574 Z-3.476
X87.009 Y42.705 Z-3.482
X86.882 Y42.825 Z-3.488
X86.745 Y42.932 Z-3.494
X86.599 Y43.027 Z-3.5
X86.445 Y43.108 Z-3.507
X86.284 Y43.175 Z-3.513
X86.118 Y43.226 Z-3.519
X85.948 Y43.262 Z-3.525
X85.775 Y43.283 Z-3.531
X85.601 Y43.287 Z-3.537
X85.427 Y43.275 Z-3.543
X85.255 Y43.248 Z-3.549
X85.087 Y43.205 Z-3.555
X84.923 Y43.147 Z-3.561
X84.765 Y43.074 Z-3.567
X84.614 Y42.987 Z-3.573
X84.472 Y42.886 Z-3.579
X84.34 Y42.773 Z-3.586
X84.218 Y42.648 Z-3.592
X84.109 Y42.513 Z-3.598
X84.012 Y42.368 Z-3.604
X83.929 Y42.215 Z-3.61
X83.861 Y42.055 Z-3.616
X83.807 Y41.889 Z-3.622
X83.769 Y41.719 Z-3.628
X83.746 Y41.547 Z-3.634
X83.74 Y41.373 Z-3.64
X83.749 Y41.199 Z-3.646
X83.774 Y41.027 Z-3.652
X83.815 Y40.858 Z-3.659
X83.871 Y40.693 Z-3.665
X83.942 Y40.534 Z-3.671
X84.027 Y40.382 Z-3.677
X84.126 Y40.239 Z-3.683
X84.238 Y40.105 Z-3.689
X84.361 Y39.982 Z-3.695
X84.495 Y39.871 Z-3.701
X84.638 Y39.773 Z-3.707
X84.79 Y39.688 Z-3.713
X84.95 Y39.617 Z-3.719
X85.114 Y39.561 Z-3.725
X85.284 Y39.521 Z-3.732
X85.456 Y39.496 Z-3.738
X85.63 Y39.487 Z-3.744
X85.804 Y39.495 Z-3.75
X85.976 Y39.517 Z-3.756
X86.146 Y39.556 Z-3.762
X86.312 Y39.61 Z-3.768
X86.471 Y39.679 Z-3.774
X86.624 Y39.762 Z-3.78
X86.769 Y39.859 Z-3.786
X86.904 Y39.969 Z-3.792
X87.028 Y40.091 Z-3.798
X87.141 Y40.223 Z-3.804
X87.242 Y40.366 Z-3.811
X87.328 Y40.517 Z-3.817
X87.401 Y40.675 Z-3.823
X87.459 Y40.839 Z-3.829
X87.501 Y41.008 Z-3.835
X87.528 Y41.18 Z-3.841
X87.539 Y41.354 Z-3.847
X87.534 Y41.528 Z-3.853
X87.514 Y41.7 Z-3.859
X87.477 Y41.871 Z-3.865
X87.425 Y42.037 Z-3.871
X87.358 Y42.197 Z-3.877
X87.277 Y42.351 Z-3.884
X87.182 Y42.497 Z-3.89
X87.074 Y42.634 Z-3.896
X86.954 Y42.76 Z-3.902
X86.823 Y42.874 Z-3.908
X86.682 Y42.976 Z-3.914
X86.532 Y43.065 Z-3.92
X86.375 Y43.14 Z-3.926
X86.211 Y43.199 Z-3.932
X86.043 Y43.244 Z-3.938
X85.871 Y43.273 Z-3.944
X85.698 Y43.287 Z-3.95
X85.524 Y43.284 Z-3.957
X85.351 Y43.265 Z-3.963
X85.18 Y43.231 Z-3.969
X85.013 Y43.181 Z-3.975
X84.852 Y43.116 Z-3.981
X84.697 Y43.037 Z-3.987
X84.55 Y42.944 Z-3.993
X84.412 Y42.837 Z-3.999
X84.284 Y42.719 Z-4.005
X84.168 Y42.589 Z-4.011
X84.064 Y42.45 Z-4.017
X83.974 Y42.301 Z-4.023
X83.897 Y42.145 Z-4.029
X83.835 Y41.982 Z-4.036
X83.788 Y41.814 Z-4.042
X83.757 Y41.643 Z-4.048
X83.741 Y41.47 Z-4.054
X83.742 Y41.296 Z-4.06
X83.758 Y41.122 Z-4.066
X83.79 Y40.951 Z-4.072
X83.838 Y40.784 Z-4.078
X83.901 Y40.621 Z-4.084
X83.978 Y40.465 Z-4.09
X84.07 Y40.317 Z-4.096
X84.174 Y40.178 Z-4.102
X84.291 Y40.049 Z-4.109
X84.419 Y39.931 Z-4.115
X84.558 Y39.826 Z-4.121
X84.705 Y39.733 Z-4.127
X84.86 Y39.655 Z-4.133
X85.022 Y39.591 Z-4.139
X85.189 Y39.542 Z-4.145
X85.36 Y39.508 Z-4.151
X85.533 Y39.49 Z-4.157
X85.707 Y39.489 Z-4.163
X85.881 Y39.503 Z-4.169
X86.052 Y39.533 Z-4.175
X86.22 Y39.578 Z-4.182
X86.383 Y39.639 Z-4.188
X86.54 Y39.714 Z-4.194
X86.69 Y39.804 Z-4.2
X86.83 Y39.907 Z-4.206
X86.961 Y40.022 Z-4.212
X87.08 Y40.148 Z-4.218
X87.187 Y40.286 Z-4.224
X87.282 Y40.432 Z-4.23
X87.362 Y40.586 Z-4.236
X87.428 Y40.747 Z-4.242
X87.48 Y40.914 Z-4.248
X87.515 Y41.084 Z-4.254
X87.535 Y41.257 Z-4.261
X87.539 Y41.431 Z-4.267
X87.527 Y41.605 Z-4.273
X87.499 Y41.776 Z-4.279
X87.456 Y41.945 Z-4.285
X87.397 Y42.109 Z-4.291
X87.324 Y42.267 Z-4.297
X87.236 Y42.417 Z-4.303
X87.135 Y42.559 Z-4.309
X87.022 Y42.691 Z-4.315
X86.897 Y42.812 Z-4.321
X86.761 Y42.921 Z-4.327
X86.616 Y43.017 Z-4.334
X86.463 Y43.1 Z-4.34
X86.303 Y43.168 Z-4.346
X86.137 Y43.221 Z-4.352
X85.967 Y43.259 Z-4.358
X85.794 Y43.281 Z-4.364
X85.62 Y43.287 Z-4.37
X85.446 Y43.278 Z-4.376
X85.274 Y43.252 Z-4.382
X85.105 Y43.211 Z-4.388
X84.941 Y43.154 Z-4.394
X84.782 Y43.083 Z-4.4
X84.63 Y42.997 Z-4.407
X84.487 Y42.898 Z-4.413
X84.354 Y42.786 Z-4.419
X84.231 Y42.663 Z-4.425
X84.12 Y42.528 Z-4.431
X84.022 Y42.384 Z-4.437
X83.938 Y42.232 Z-4.443
X83.868 Y42.073 Z-4.449
X83.812 Y41.908 Z-4.455
X83.772 Y41.738 Z-4.461
X83.748 Y41.566 Z-4.467
X83.74 Y41.392 Z-4.473
X83.747 Y41.218 Z-4.479
X83.771 Y41.046 Z-4.486
X83.81 Y40.876 Z-4.492
X83.864 Y40.711 Z-4.498
X83.934 Y40.551 Z-4.504
X84.017 Y40.399 Z-4.51
X84.115 Y40.254 Z-4.516
X84.225 Y40.119 Z-4.522
X84.347 Y39.995 Z-4.528
X84.479 Y39.883 Z-4.534
X84.622 Y39.783 Z-4.54
X84.773 Y39.696 Z-4.546
X84.932 Y39.624 Z-4.552
X85.096 Y39.567 Z-4.559
X85.265 Y39.525 Z-4.565
X85.437 Y39.498 Z-4.571
X85.611 Y39.488 Z-4.577
X85.785 Y39.493 Z-4.583
X85.957 Y39.514 Z-4.589
X86.127 Y39.551 Z-4.595
X86.293 Y39.603 Z-4.601
X86.454 Y39.671 Z-4.607
X86.608 Y39.753 Z-4.613
X86.753 Y39.848 Z-4.619
X86.889 Y39.956 Z-4.625
X87.015 Y40.077 Z-4.632
X87.129 Y40.208 Z-4.638
X87.231 Y40.349 Z-4.644
X87.319 Y40.499 Z-4.65
X87.394 Y40.657 Z-4.656
X87.453 Y40.821 Z-4.662
X87.497 Y40.989 Z-4.668
X87.526 Y41.161 Z-4.674
X87.539 Y41.334 Z-4.68
X87.536 Y41.508 Z-4.686
X87.517 Y41.681 Z-4.692
X87.482 Y41.852 Z-4.698
X87.432 Y42.019 Z-4.704
X87.366 Y42.18 Z-4.711
X87.287 Y42.335 Z-4.717
X87.193 Y42.481 Z-4.723
X87.086 Y42.619 Z-4.729
X86.968 Y42.746 Z-4.735
X86.838 Y42.862 Z-4.741
X86.698 Y42.966 Z-4.747
X86.549 Y43.056 Z-4.753
X86.392 Y43.132 Z-4.759
X86.23 Y43.194 Z-4.765
X86.062 Y43.24 Z-4.771
X85.89 Y43.271 Z-4.777
X85.717 Y43.286 Z-4.784
X85.543 Y43.285 Z-4.79
X85.37 Y43.268 Z-4.796
X85.199 Y43.236 Z-4.802
X85.031 Y43.187 Z-4.808
X84.869 Y43.124 Z-4.814
X84.713 Y43.046 Z-4.82
X84.566 Y42.955 Z-4.826
X84.427 Y42.85 Z-4.832
X84.298 Y42.733 Z-4.838
X84.18 Y42.604 Z-4.844
X84.075 Y42.465 Z-4.85
X83.983 Y42.318 Z-4.857
X83.905 Y42.162 Z-4.863
X83.841 Y42. Z-4.869
X83.793 Y41.833 Z-4.875
X83.76 Y41.662 Z-4.881
X83.742 Y41.489 Z-4.887
X83.741 Y41.315 Z-4.893
X83.756 Y41.141 Z-4.899
X83.786 Y40.97 Z-4.905
X83.832 Y40.802 Z-4.911
X83.893 Y40.639 Z-4.917
X83.969 Y40.482 Z-4.923
X84.059 Y40.333 Z-4.929
X84.162 Y40.193 Z-4.936
X84.277 Y40.063 Z-4.942
X84.404 Y39.944 Z-4.948
X84.542 Y39.837 Z-4.954
X84.688 Y39.743 Z-4.96
X84.843 Y39.663 Z-4.966
X85.004 Y39.597 Z-4.972
X85.17 Y39.546 Z-4.978
X85.341 Y39.511 Z-4.984
X85.514 Y39.492 Z-4.99
X85.688 Y39.488 Z-4.996
X85.862 Y39.5 Z-5.002
X86.033 Y39.529 Z-5.009
X86.202 Y39.572 Z-5.015
X86.366 Y39.632 Z-5.021
X86.523 Y39.705 Z-5.027
