(NMJSTIMLID_STEP1_4MM)
(T8  D=4. CR=0. - ZMIN=-2.325 - FLAT END MILL)
G0 G90 G94 G17
G21
G53 G0 Z0.

(FACE2)
M5
T8
M3 S5000
G55
M8
G0 X131.6 Y0.804
Z15.
Z5.
G1 Z0.107 F333.
X131.592 Z0.029 F1000.
X131.57 Z-0.046
X131.533 Z-0.115
X131.483 Z-0.176
X131.422 Z-0.226
X131.353 Z-0.263
X131.278 Z-0.285
X131.2 Z-0.293
X131.1
X-2.1
G2 X-3.488 Y2.191 R1.388
X-2.1 Y3.579 R1.388
G1 X131.1
G3 X132.488 Y4.967 R1.388
X131.1 Y6.355 R1.388
G1 X-2.1
G2 X-3.488 Y7.743 R1.388
X-2.1 Y9.13 R1.388
G1 X131.1
G3 X132.488 Y10.518 R1.388
X131.1 Y11.906 R1.388
G1 X-2.1
G2 X-3.488 Y13.294 R1.388
X-2.1 Y14.682 R1.388
G1 X131.1
G3 X132.488 Y16.069 R1.388
X131.1 Y17.457 R1.388
G1 X-2.1
G2 X-3.488 Y18.845 R1.388
X-2.1 Y20.233 R1.388
G1 X131.1
G3 X132.488 Y21.621 R1.388
X131.1 Y23.009 R1.388
G1 X-2.1
G2 X-3.488 Y24.396 R1.388
X-2.1 Y25.784 R1.388
G1 X131.1
G3 X132.488 Y27.172 R1.388
X131.1 Y28.56 R1.388
G1 X-2.1
G2 X-3.488 Y29.948 R1.388
X-2.1 Y31.335 R1.388
G1 X131.1
G3 X132.488 Y32.723 R1.388
X131.1 Y34.111 R1.388
G1 X-2.1
G2 X-3.488 Y35.499 R1.388
X-2.1 Y36.887 R1.388
G1 X131.1
G3 X132.488 Y38.274 R1.388
X131.1 Y39.662 R1.388
G1 X-2.1
G2 X-3.488 Y41.05 R1.388
X-2.1 Y42.438 R1.388
G1 X131.1
G3 X132.488 Y43.826 R1.388
X131.1 Y45.213 R1.388
G1 X-2.1
G2 X-3.488 Y46.601 R1.388
X-2.1 Y47.989 R1.388
G1 X131.1
G3 X132.488 Y49.377 R1.388
X131.1 Y50.765 R1.388
G1 X-2.1
G2 X-3.488 Y52.152 R1.388
X-2.1 Y53.54 R1.388
G1 X131.1
G3 X132.488 Y54.928 R1.388
X131.1 Y56.316 R1.388
G1 X-2.1
G2 X-3.488 Y57.704 R1.388
X-2.1 Y59.091 R1.388
G1 X131.1
G3 X132.488 Y60.479 R1.388
X131.1 Y61.867 R1.388
G1 X-2.1
G2 X-3.488 Y63.255 R1.388
X-2.1 Y64.643 R1.388
G1 X131.1
G3 X132.488 Y66.031 R1.388
X131.1 Y67.418 R1.388
G1 X-2.1
G2 X-3.488 Y68.806 R1.388
X-2.1 Y70.194 R1.388
G1 X131.1
G3 X132.488 Y71.582 R1.388
X131.1 Y72.97 R1.388
G1 X-2.1
G2 X-3.488 Y74.357 R1.388
X-2.1 Y75.745 R1.388
G1 X131.1
G3 X132.488 Y77.133 R1.388
X131.1 Y78.521 R1.388
G1 X-2.1
G2 X-3.488 Y79.909 R1.388
X-2.1 Y81.296 R1.388
G1 X131.1
G3 X132.488 Y82.684 R1.388
X131.1 Y84.072 R1.388
G1 X-2.1
X-2.178 Z-0.285
X-2.253 Z-0.263
X-2.322 Z-0.226
X-2.383 Z-0.176
X-2.433 Z-0.115
X-2.47 Z-0.046
X-2.492 Z0.029
X-2.5 Z0.107
G0 Z5.
X-2.6 Y0.804
G1 Z-0.401 F333.
X-2.592 Z-0.479 F1000.
X-2.57 Z-0.554
X-2.533 Z-0.623
X-2.483 Z-0.684
X-2.422 Z-0.734
X-2.353 Z-0.771
X-2.278 Z-0.793
X-2.2 Z-0.801
X-2.1
X131.1
G3 X132.488 Y2.191 R1.388
X131.1 Y3.579 R1.388
G1 X-2.1
G2 X-3.488 Y4.967 R1.388
X-2.1 Y6.355 R1.388
G1 X131.1
G3 X132.488 Y7.743 R1.388
X131.1 Y9.13 R1.388
G1 X-2.1
G2 X-3.488 Y10.518 R1.388
X-2.1 Y11.906 R1.388
G1 X131.1
G3 X132.488 Y13.294 R1.388
X131.1 Y14.682 R1.388
G1 X-2.1
G2 X-3.488 Y16.069 R1.388
X-2.1 Y17.457 R1.388
G1 X131.1
G3 X132.488 Y18.845 R1.388
X131.1 Y20.233 R1.388
G1 X-2.1
G2 X-3.488 Y21.621 R1.388
X-2.1 Y23.009 R1.388
G1 X131.1
G3 X132.488 Y24.396 R1.388
X131.1 Y25.784 R1.388
G1 X-2.1
G2 X-3.488 Y27.172 R1.388
X-2.1 Y28.56 R1.388
G1 X131.1
G3 X132.488 Y29.948 R1.388
X131.1 Y31.335 R1.388
G1 X-2.1
G2 X-3.488 Y32.723 R1.388
X-2.1 Y34.111 R1.388
G1 X131.1
G3 X132.488 Y35.499 R1.388
X131.1 Y36.887 R1.388
G1 X-2.1
G2 X-3.488 Y38.274 R1.388
X-2.1 Y39.662 R1.388
G1 X131.1
G3 X132.488 Y41.05 R1.388
X131.1 Y42.438 R1.388
G1 X-2.1
G2 X-3.488 Y43.826 R1.388
X-2.1 Y45.213 R1.388
G1 X131.1
G3 X132.488 Y46.601 R1.388
X131.1 Y47.989 R1.388
G1 X-2.1
G2 X-3.488 Y49.377 R1.388
X-2.1 Y50.765 R1.388
G1 X131.1
G3 X132.488 Y52.152 R1.388
X131.1 Y53.54 R1.388
G1 X-2.1
G2 X-3.488 Y54.928 R1.388
X-2.1 Y56.316 R1.388
G1 X131.1
G3 X132.488 Y57.704 R1.388
X131.1 Y59.091 R1.388
G1 X-2.1
G2 X-3.488 Y60.479 R1.388
X-2.1 Y61.867 R1.388
G1 X131.1
G3 X132.488 Y63.255 R1.388
X131.1 Y64.643 R1.388
G1 X-2.1
G2 X-3.488 Y66.031 R1.388
X-2.1 Y67.418 R1.388
G1 X131.1
G3 X132.488 Y68.806 R1.388
X131.1 Y70.194 R1.388
G1 X-2.1
G2 X-3.488 Y71.582 R1.388
X-2.1 Y72.97 R1.388
G1 X131.1
G3 X132.488 Y74.357 R1.388
X131.1 Y75.745 R1.388
G1 X-2.1
G2 X-3.488 Y77.133 R1.388
X-2.1 Y78.521 R1.388
G1 X131.1
G3 X132.488 Y79.909 R1.388
X131.1 Y81.296 R1.388
G1 X-2.1
G2 X-3.488 Y82.684 R1.388
X-2.1 Y84.072 R1.388
G1 X131.1
X131.178 Z-0.793
X131.253 Z-0.771
X131.322 Z-0.734
X131.383 Z-0.684
X131.433 Z-0.623
X131.47 Z-0.554
X131.492 Z-0.479
X131.5 Z-0.401
G0 Z5.
X131.6 Y0.804
G1 Z-0.909 F333.
X131.592 Z-0.987 F1000.
X131.57 Z-1.062
X131.533 Z-1.131
X131.483 Z-1.192
X131.422 Z-1.242
X131.353 Z-1.279
X131.278 Z-1.301
X131.2 Z-1.309
X131.1
X-2.1
G2 X-3.488 Y2.191 R1.388
X-2.1 Y3.579 R1.388
G1 X131.1
G3 X132.488 Y4.967 R1.388
X131.1 Y6.355 R1.388
G1 X-2.1
G2 X-3.488 Y7.743 R1.388
X-2.1 Y9.13 R1.388
G1 X131.1
G3 X132.488 Y10.518 R1.388
X131.1 Y11.906 R1.388
G1 X-2.1
G2 X-3.488 Y13.294 R1.388
X-2.1 Y14.682 R1.388
G1 X131.1
G3 X132.488 Y16.069 R1.388
X131.1 Y17.457 R1.388
G1 X-2.1
G2 X-3.488 Y18.845 R1.388
X-2.1 Y20.233 R1.388
G1 X131.1
G3 X132.488 Y21.621 R1.388
X131.1 Y23.009 R1.388
G1 X-2.1
G2 X-3.488 Y24.396 R1.388
X-2.1 Y25.784 R1.388
G1 X131.1
G3 X132.488 Y27.172 R1.388
X131.1 Y28.56 R1.388
G1 X-2.1
G2 X-3.488 Y29.948 R1.388
X-2.1 Y31.335 R1.388
G1 X131.1
G3 X132.488 Y32.723 R1.388
X131.1 Y34.111 R1.388
G1 X-2.1
G2 X-3.488 Y35.499 R1.388
X-2.1 Y36.887 R1.388
G1 X131.1
G3 X132.488 Y38.274 R1.388
X131.1 Y39.662 R1.388
G1 X-2.1
G2 X-3.488 Y41.05 R1.388
X-2.1 Y42.438 R1.388
G1 X131.1
G3 X132.488 Y43.826 R1.388
X131.1 Y45.213 R1.388
G1 X-2.1
G2 X-3.488 Y46.601 R1.388
X-2.1 Y47.989 R1.388
G1 X131.1
G3 X132.488 Y49.377 R1.388
X131.1 Y50.765 R1.388
G1 X-2.1
G2 X-3.488 Y52.152 R1.388
X-2.1 Y53.54 R1.388
G1 X131.1
G3 X132.488 Y54.928 R1.388
X131.1 Y56.316 R1.388
G1 X-2.1
G2 X-3.488 Y57.704 R1.388
X-2.1 Y59.091 R1.388
G1 X131.1
G3 X132.488 Y60.479 R1.388
X131.1 Y61.867 R1.388
G1 X-2.1
G2 X-3.488 Y63.255 R1.388
X-2.1 Y64.643 R1.388
G1 X131.1
G3 X132.488 Y66.031 R1.388
X131.1 Y67.418 R1.388
G1 X-2.1
G2 X-3.488 Y68.806 R1.388
X-2.1 Y70.194 R1.388
G1 X131.1
G3 X132.488 Y71.582 R1.388
X131.1 Y72.97 R1.388
G1 X-2.1
G2 X-3.488 Y74.357 R1.388
X-2.1 Y75.745 R1.388
G1 X131.1
G3 X132.488 Y77.133 R1.388
X131.1 Y78.521 R1.388
G1 X-2.1
G2 X-3.488 Y79.909 R1.388
X-2.1 Y81.296 R1.388
G1 X131.1
G3 X132.488 Y82.684 R1.388
X131.1 Y84.072 R1.388
G1 X-2.1
X-2.178 Z-1.301
X-2.253 Z-1.279
X-2.322 Z-1.242
X-2.383 Z-1.192
X-2.433 Z-1.131
X-2.47 Z-1.062
X-2.492 Z-0.987
X-2.5 Z-0.909
G0 Z5.
X-2.6 Y0.804
G1 Z-1.417 F333.
X-2.592 Z-1.495 F1000.
X-2.57 Z-1.57
X-2.533 Z-1.639
X-2.483 Z-1.7
X-2.422 Z-1.75
X-2.353 Z-1.787
X-2.278 Z-1.809
X-2.2 Z-1.817
X-2.1
X131.1
G3 X132.488 Y2.191 R1.388
X131.1 Y3.579 R1.388
G1 X-2.1
G2 X-3.488 Y4.967 R1.388
X-2.1 Y6.355 R1.388
G1 X131.1
G3 X132.488 Y7.743 R1.388
X131.1 Y9.13 R1.388
G1 X-2.1
G2 X-3.488 Y10.518 R1.388
X-2.1 Y11.906 R1.388
G1 X131.1
G3 X132.488 Y13.294 R1.388
X131.1 Y14.682 R1.388
G1 X-2.1
G2 X-3.488 Y16.069 R1.388
X-2.1 Y17.457 R1.388
G1 X131.1
G3 X132.488 Y18.845 R1.388
X131.1 Y20.233 R1.388
G1 X-2.1
G2 X-3.488 Y21.621 R1.388
X-2.1 Y23.009 R1.388
G1 X131.1
G3 X132.488 Y24.396 R1.388
X131.1 Y25.784 R1.388
G1 X-2.1
G2 X-3.488 Y27.172 R1.388
X-2.1 Y28.56 R1.388
G1 X131.1
G3 X132.488 Y29.948 R1.388
X131.1 Y31.335 R1.388
G1 X-2.1
G2 X-3.488 Y32.723 R1.388
X-2.1 Y34.111 R1.388
G1 X131.1
G3 X132.488 Y35.499 R1.388
X131.1 Y36.887 R1.388
G1 X-2.1
G2 X-3.488 Y38.274 R1.388
X-2.1 Y39.662 R1.388
G1 X131.1
G3 X132.488 Y41.05 R1.388
X131.1 Y42.438 R1.388
G1 X-2.1
G2 X-3.488 Y43.826 R1.388
X-2.1 Y45.213 R1.388
G1 X131.1
G3 X132.488 Y46.601 R1.388
X131.1 Y47.989 R1.388
G1 X-2.1
G2 X-3.488 Y49.377 R1.388
X-2.1 Y50.765 R1.388
G1 X131.1
G3 X132.488 Y52.152 R1.388
X131.1 Y53.54 R1.388
G1 X-2.1
G2 X-3.488 Y54.928 R1.388
X-2.1 Y56.316 R1.388
G1 X131.1
G3 X132.488 Y57.704 R1.388
X131.1 Y59.091 R1.388
G1 X-2.1
G2 X-3.488 Y60.479 R1.388
X-2.1 Y61.867 R1.388
G1 X131.1
G3 X132.488 Y63.255 R1.388
X131.1 Y64.643 R1.388
G1 X-2.1
G2 X-3.488 Y66.031 R1.388
X-2.1 Y67.418 R1.388
G1 X131.1
G3 X132.488 Y68.806 R1.388
X131.1 Y70.194 R1.388
G1 X-2.1
G2 X-3.488 Y71.582 R1.388
X-2.1 Y72.97 R1.388
G1 X131.1
G3 X132.488 Y74.357 R1.388
X131.1 Y75.745 R1.388
G1 X-2.1
G2 X-3.488 Y77.133 R1.388
X-2.1 Y78.521 R1.388
G1 X131.1
G3 X132.488 Y79.909 R1.388
X131.1 Y81.296 R1.388
G1 X-2.1
G2 X-3.488 Y82.684 R1.388
X-2.1 Y84.072 R1.388
G1 X131.1
X131.178 Z-1.809
X131.253 Z-1.787
X131.322 Z-1.75
X131.383 Z-1.7
X131.433 Z-1.639
X131.47 Z-1.57
X131.492 Z-1.495
X131.5 Z-1.417
G0 Z5.
X131.6 Y0.804
G1 Z-1.925 F333.
X131.592 Z-2.003 F1000.
X131.57 Z-2.078
X131.533 Z-2.147
X131.483 Z-2.208
X131.422 Z-2.258
X131.353 Z-2.295
X131.278 Z-2.317
X131.2 Z-2.325
X131.1
X-2.1
G2 X-3.488 Y2.191 R1.388
X-2.1 Y3.579 R1.388
G1 X131.1
G3 X132.488 Y4.967 R1.388
X131.1 Y6.355 R1.388
G1 X-2.1
G2 X-3.488 Y7.743 R1.388
X-2.1 Y9.13 R1.388
G1 X131.1
G3 X132.488 Y10.518 R1.388
X131.1 Y11.906 R1.388
G1 X-2.1
G2 X-3.488 Y13.294 R1.388
X-2.1 Y14.682 R1.388
G1 X131.1
G3 X132.488 Y16.069 R1.388
X131.1 Y17.457 R1.388
G1 X-2.1
G2 X-3.488 Y18.845 R1.388
X-2.1 Y20.233 R1.388
G1 X131.1
G3 X132.488 Y21.621 R1.388
X131.1 Y23.009 R1.388
G1 X-2.1
G2 X-3.488 Y24.396 R1.388
X-2.1 Y25.784 R1.388
G1 X131.1
G3 X132.488 Y27.172 R1.388
X131.1 Y28.56 R1.388
G1 X-2.1
G2 X-3.488 Y29.948 R1.388
X-2.1 Y31.335 R1.388
G1 X131.1
G3 X132.488 Y32.723 R1.388
X131.1 Y34.111 R1.388
G1 X-2.1
G2 X-3.488 Y35.499 R1.388
X-2.1 Y36.887 R1.388
G1 X131.1
G3 X132.488 Y38.274 R1.388
X131.1 Y39.662 R1.388
G1 X-2.1
G2 X-3.488 Y41.05 R1.388
X-2.1 Y42.438 R1.388
G1 X131.1
G3 X132.488 Y43.826 R1.388
X131.1 Y45.213 R1.388
G1 X-2.1
G2 X-3.488 Y46.601 R1.388
X-2.1 Y47.989 R1.388
G1 X131.1
G3 X132.488 Y49.377 R1.388
X131.1 Y50.765 R1.388
G1 X-2.1
G2 X-3.488 Y52.152 R1.388
X-2.1 Y53.54 R1.388
G1 X131.1
G3 X132.488 Y54.928 R1.388
X131.1 Y56.316 R1.388
G1 X-2.1
G2 X-3.488 Y57.704 R1.388
X-2.1 Y59.091 R1.388
G1 X131.1
G3 X132.488 Y60.479 R1.388
X131.1 Y61.867 R1.388
G1 X-2.1
G2 X-3.488 Y63.255 R1.388
X-2.1 Y64.643 R1.388
G1 X131.1
G3 X132.488 Y66.031 R1.388
X131.1 Y67.418 R1.388
G1 X-2.1
G2 X-3.488 Y68.806 R1.388
X-2.1 Y70.194 R1.388
G1 X131.1
G3 X132.488 Y71.582 R1.388
X131.1 Y72.97 R1.388
G1 X-2.1
G2 X-3.488 Y74.357 R1.388
X-2.1 Y75.745 R1.388
G1 X131.1
G3 X132.488 Y77.133 R1.388
X131.1 Y78.521 R1.388
G1 X-2.1
G2 X-3.488 Y79.909 R1.388
X-2.1 Y81.296 R1.388
G1 X131.1
G3 X132.488 Y82.684 R1.388
X131.1 Y84.072 R1.388
G1 X-2.1
X-2.178 Z-2.317
X-2.253 Z-2.295
X-2.322 Z-2.258
X-2.383 Z-2.208
X-2.433 Z-2.147
X-2.47 Z-2.078
X-2.492 Z-2.003
X-2.5 Z-1.925
G0 Z15.

M9
G53 G0 Z0.
M30
