(NMJSTIMLID_STEP1_4MM)
(T8  D=4. CR=0. - ZMIN=-10. - FLAT END MILL)
G0 G90 G94 G17
G21
G53 G0 Z0.

(FACE2)
M5
T8
M3 S16000
G55
M8
G0 X131.6 Y0.804
Z15.
Z5.
G1 Z0.075 F380.
X131.592 Z-0.003 F1500.
X131.57 Z-0.078
X131.533 Z-0.147
X131.483 Z-0.208
X131.422 Z-0.258
X131.353 Z-0.295
X131.278 Z-0.317
X131.2 Z-0.325
X131.1
X-2.1
G2 X-3.488 Y2.191 R1.388
X-2.1 Y3.579 R1.388
G1 X131.1
G3 X132.488 Y4.967 R1.388
X131.1 Y6.355 R1.388
G1 X-2.1
G2 X-3.488 Y7.743 R1.388
X-2.1 Y9.13 R1.388
G1 X131.1
G3 X132.488 Y10.518 R1.388
X131.1 Y11.906 R1.388
G1 X-2.1
G2 X-3.488 Y13.294 R1.388
X-2.1 Y14.682 R1.388
G1 X131.1
G3 X132.488 Y16.069 R1.388
X131.1 Y17.457 R1.388
G1 X-2.1
G2 X-3.488 Y18.845 R1.388
X-2.1 Y20.233 R1.388
G1 X131.1
G3 X132.488 Y21.621 R1.388
X131.1 Y23.009 R1.388
G1 X-2.1
G2 X-3.488 Y24.396 R1.388
X-2.1 Y25.784 R1.388
G1 X131.1
G3 X132.488 Y27.172 R1.388
X131.1 Y28.56 R1.388
G1 X-2.1
G2 X-3.488 Y29.948 R1.388
X-2.1 Y31.335 R1.388
G1 X131.1
G3 X132.488 Y32.723 R1.388
X131.1 Y34.111 R1.388
G1 X-2.1
G2 X-3.488 Y35.499 R1.388
X-2.1 Y36.887 R1.388
G1 X131.1
G3 X132.488 Y38.274 R1.388
X131.1 Y39.662 R1.388
G1 X-2.1
G2 X-3.488 Y41.05 R1.388
X-2.1 Y42.438 R1.388
G1 X131.1
G3 X132.488 Y43.826 R1.388
X131.1 Y45.213 R1.388
G1 X-2.1
G2 X-3.488 Y46.601 R1.388
X-2.1 Y47.989 R1.388
G1 X131.1
G3 X132.488 Y49.377 R1.388
X131.1 Y50.765 R1.388
G1 X-2.1
G2 X-3.488 Y52.152 R1.388
X-2.1 Y53.54 R1.388
G1 X131.1
G3 X132.488 Y54.928 R1.388
X131.1 Y56.316 R1.388
G1 X-2.1
G2 X-3.488 Y57.704 R1.388
X-2.1 Y59.091 R1.388
G1 X131.1
G3 X132.488 Y60.479 R1.388
X131.1 Y61.867 R1.388
G1 X-2.1
G2 X-3.488 Y63.255 R1.388
X-2.1 Y64.643 R1.388
G1 X131.1
G3 X132.488 Y66.031 R1.388
X131.1 Y67.418 R1.388
G1 X-2.1
G2 X-3.488 Y68.806 R1.388
X-2.1 Y70.194 R1.388
G1 X131.1
G3 X132.488 Y71.582 R1.388
X131.1 Y72.97 R1.388
G1 X-2.1
G2 X-3.488 Y74.357 R1.388
X-2.1 Y75.745 R1.388
G1 X131.1
G3 X132.488 Y77.133 R1.388
X131.1 Y78.521 R1.388
G1 X-2.1
G2 X-3.488 Y79.909 R1.388
X-2.1 Y81.296 R1.388
G1 X131.1
G3 X132.488 Y82.684 R1.388
X131.1 Y84.072 R1.388
G1 X-2.1
X-2.178 Z-0.317
X-2.253 Z-0.295
X-2.322 Z-0.258
X-2.383 Z-0.208
X-2.433 Z-0.147
X-2.47 Z-0.078
X-2.492 Z-0.003
X-2.5 Z0.075
G0 Z5.
X-2.6 Y0.804
G1 Z-0.925 F380.
X-2.592 Z-1.003 F1500.
X-2.57 Z-1.078
X-2.533 Z-1.147
X-2.483 Z-1.208
X-2.422 Z-1.258
X-2.353 Z-1.295
X-2.278 Z-1.317
X-2.2 Z-1.325
X-2.1
X131.1
G3 X132.488 Y2.191 R1.388
X131.1 Y3.579 R1.388
G1 X-2.1
G2 X-3.488 Y4.967 R1.388
X-2.1 Y6.355 R1.388
G1 X131.1
G3 X132.488 Y7.743 R1.388
X131.1 Y9.13 R1.388
G1 X-2.1
G2 X-3.488 Y10.518 R1.388
X-2.1 Y11.906 R1.388
G1 X131.1
G3 X132.488 Y13.294 R1.388
X131.1 Y14.682 R1.388
G1 X-2.1
G2 X-3.488 Y16.069 R1.388
X-2.1 Y17.457 R1.388
G1 X131.1
G3 X132.488 Y18.845 R1.388
X131.1 Y20.233 R1.388
G1 X-2.1
G2 X-3.488 Y21.621 R1.388
X-2.1 Y23.009 R1.388
G1 X131.1
G3 X132.488 Y24.396 R1.388
X131.1 Y25.784 R1.388
G1 X-2.1
G2 X-3.488 Y27.172 R1.388
X-2.1 Y28.56 R1.388
G1 X131.1
G3 X132.488 Y29.948 R1.388
X131.1 Y31.335 R1.388
G1 X-2.1
G2 X-3.488 Y32.723 R1.388
X-2.1 Y34.111 R1.388
G1 X131.1
G3 X132.488 Y35.499 R1.388
X131.1 Y36.887 R1.388
G1 X-2.1
G2 X-3.488 Y38.274 R1.388
X-2.1 Y39.662 R1.388
G1 X131.1
G3 X132.488 Y41.05 R1.388
X131.1 Y42.438 R1.388
G1 X-2.1
G2 X-3.488 Y43.826 R1.388
X-2.1 Y45.213 R1.388
G1 X131.1
G3 X132.488 Y46.601 R1.388
X131.1 Y47.989 R1.388
G1 X-2.1
G2 X-3.488 Y49.377 R1.388
X-2.1 Y50.765 R1.388
G1 X131.1
G3 X132.488 Y52.152 R1.388
X131.1 Y53.54 R1.388
G1 X-2.1
G2 X-3.488 Y54.928 R1.388
X-2.1 Y56.316 R1.388
G1 X131.1
G3 X132.488 Y57.704 R1.388
X131.1 Y59.091 R1.388
G1 X-2.1
G2 X-3.488 Y60.479 R1.388
X-2.1 Y61.867 R1.388
G1 X131.1
G3 X132.488 Y63.255 R1.388
X131.1 Y64.643 R1.388
G1 X-2.1
G2 X-3.488 Y66.031 R1.388
X-2.1 Y67.418 R1.388
G1 X131.1
G3 X132.488 Y68.806 R1.388
X131.1 Y70.194 R1.388
G1 X-2.1
G2 X-3.488 Y71.582 R1.388
X-2.1 Y72.97 R1.388
G1 X131.1
G3 X132.488 Y74.357 R1.388
X131.1 Y75.745 R1.388
G1 X-2.1
G2 X-3.488 Y77.133 R1.388
X-2.1 Y78.521 R1.388
G1 X131.1
G3 X132.488 Y79.909 R1.388
X131.1 Y81.296 R1.388
G1 X-2.1
G2 X-3.488 Y82.684 R1.388
X-2.1 Y84.072 R1.388
G1 X131.1
X131.178 Z-1.317
X131.253 Z-1.295
X131.322 Z-1.258
X131.383 Z-1.208
X131.433 Z-1.147
X131.47 Z-1.078
X131.492 Z-1.003
X131.5 Z-0.925
G0 Z5.
X131.6 Y0.804
G1 Z-1.925 F380.
X131.592 Z-2.003 F1500.
X131.57 Z-2.078
X131.533 Z-2.147
X131.483 Z-2.208
X131.422 Z-2.258
X131.353 Z-2.295
X131.278 Z-2.317
X131.2 Z-2.325
X131.1
X-2.1
G2 X-3.488 Y2.191 R1.388
X-2.1 Y3.579 R1.388
G1 X131.1
G3 X132.488 Y4.967 R1.388
X131.1 Y6.355 R1.388
G1 X-2.1
G2 X-3.488 Y7.743 R1.388
X-2.1 Y9.13 R1.388
G1 X131.1
G3 X132.488 Y10.518 R1.388
X131.1 Y11.906 R1.388
G1 X-2.1
G2 X-3.488 Y13.294 R1.388
X-2.1 Y14.682 R1.388
G1 X131.1
G3 X132.488 Y16.069 R1.388
X131.1 Y17.457 R1.388
G1 X-2.1
G2 X-3.488 Y18.845 R1.388
X-2.1 Y20.233 R1.388
G1 X131.1
G3 X132.488 Y21.621 R1.388
X131.1 Y23.009 R1.388
G1 X-2.1
G2 X-3.488 Y24.396 R1.388
X-2.1 Y25.784 R1.388
G1 X131.1
G3 X132.488 Y27.172 R1.388
X131.1 Y28.56 R1.388
G1 X-2.1
G2 X-3.488 Y29.948 R1.388
X-2.1 Y31.335 R1.388
G1 X131.1
G3 X132.488 Y32.723 R1.388
X131.1 Y34.111 R1.388
G1 X-2.1
G2 X-3.488 Y35.499 R1.388
X-2.1 Y36.887 R1.388
G1 X131.1
G3 X132.488 Y38.274 R1.388
X131.1 Y39.662 R1.388
G1 X-2.1
G2 X-3.488 Y41.05 R1.388
X-2.1 Y42.438 R1.388
G1 X131.1
G3 X132.488 Y43.826 R1.388
X131.1 Y45.213 R1.388
G1 X-2.1
G2 X-3.488 Y46.601 R1.388
X-2.1 Y47.989 R1.388
G1 X131.1
G3 X132.488 Y49.377 R1.388
X131.1 Y50.765 R1.388
G1 X-2.1
G2 X-3.488 Y52.152 R1.388
X-2.1 Y53.54 R1.388
G1 X131.1
G3 X132.488 Y54.928 R1.388
X131.1 Y56.316 R1.388
G1 X-2.1
G2 X-3.488 Y57.704 R1.388
X-2.1 Y59.091 R1.388
G1 X131.1
G3 X132.488 Y60.479 R1.388
X131.1 Y61.867 R1.388
G1 X-2.1
G2 X-3.488 Y63.255 R1.388
X-2.1 Y64.643 R1.388
G1 X131.1
G3 X132.488 Y66.031 R1.388
X131.1 Y67.418 R1.388
G1 X-2.1
G2 X-3.488 Y68.806 R1.388
X-2.1 Y70.194 R1.388
G1 X131.1
G3 X132.488 Y71.582 R1.388
X131.1 Y72.97 R1.388
G1 X-2.1
G2 X-3.488 Y74.357 R1.388
X-2.1 Y75.745 R1.388
G1 X131.1
G3 X132.488 Y77.133 R1.388
X131.1 Y78.521 R1.388
G1 X-2.1
G2 X-3.488 Y79.909 R1.388
X-2.1 Y81.296 R1.388
G1 X131.1
G3 X132.488 Y82.684 R1.388
X131.1 Y84.072 R1.388
G1 X-2.1
X-2.178 Z-2.317
X-2.253 Z-2.295
X-2.322 Z-2.258
X-2.383 Z-2.208
X-2.433 Z-2.147
X-2.47 Z-2.078
X-2.492 Z-2.003
X-2.5 Z-1.925
G0 Z15.

(2D POCKET1)
G55
G0 X86.471 Y39.679
Z15.
Z5.
G1 Z2.9 F380.
X86.497 Y39.692 Z2.75 F1500.
X86.57 Y39.731 Z2.622
X86.677 Y39.796 Z2.534
X86.799 Y39.882 Z2.5
X86.932 Y39.994 Z2.494
X87.054 Y40.119 Z2.488
X87.164 Y40.254 Z2.482
X87.262 Y40.398 Z2.476
X87.345 Y40.551 Z2.47
X87.415 Y40.71 Z2.463
X87.469 Y40.876 Z2.457
X87.509 Y41.046 Z2.451
X87.532 Y41.218 Z2.445
X87.54 Y41.393 Z2.439
X87.531 Y41.567 Z2.433
X87.507 Y41.739 Z2.427
X87.467 Y41.909 Z2.421
X87.411 Y42.074 Z2.415
X87.341 Y42.233 Z2.409
X87.256 Y42.386 Z2.403
X87.158 Y42.529 Z2.397
X87.047 Y42.664 Z2.39
X86.924 Y42.787 Z2.384
X86.791 Y42.899 Z2.378
X86.647 Y42.998 Z2.372
X86.495 Y43.084 Z2.366
X86.336 Y43.155 Z2.36
X86.171 Y43.211 Z2.354
X86.002 Y43.252 Z2.348
X85.83 Y43.278 Z2.342
X85.656 Y43.287 Z2.336
X85.482 Y43.281 Z2.33
X85.309 Y43.258 Z2.323
X85.139 Y43.22 Z2.317
X84.973 Y43.167 Z2.311
X84.813 Y43.098 Z2.305
X84.66 Y43.015 Z2.299
X84.515 Y42.919 Z2.293
X84.379 Y42.809 Z2.287
X84.254 Y42.688 Z2.281
X84.141 Y42.555 Z2.275
X84.04 Y42.413 Z2.269
X83.953 Y42.262 Z2.263
X83.88 Y42.104 Z2.257
X83.822 Y41.94 Z2.25
X83.779 Y41.771 Z2.244
X83.751 Y41.599 Z2.238
X83.74 Y41.425 Z2.232
X83.745 Y41.251 Z2.226
X83.765 Y41.078 Z2.22
X83.801 Y40.907 Z2.214
X83.853 Y40.741 Z2.208
X83.92 Y40.58 Z2.202
X84.001 Y40.426 Z2.196
X84.096 Y40.28 Z2.19
X84.204 Y40.143 Z2.183
X84.324 Y40.017 Z2.177
X84.455 Y39.902 Z2.171
X84.596 Y39.8 Z2.165
X84.746 Y39.711 Z2.159
X84.903 Y39.636 Z2.153
X85.067 Y39.576 Z2.147
X85.235 Y39.531 Z2.141
X85.407 Y39.502 Z2.135
X85.581 Y39.488 Z2.129
X85.755 Y39.491 Z2.123
X85.928 Y39.509 Z2.117
X86.099 Y39.544 Z2.11
X86.266 Y39.594 Z2.104
X86.428 Y39.659 Z2.098
X86.583 Y39.738 Z2.092
X86.73 Y39.831 Z2.086
X86.868 Y39.938 Z2.08
X86.996 Y40.057 Z2.074
X87.112 Y40.186 Z2.068
X87.216 Y40.326 Z2.062
X87.306 Y40.475 Z2.056
X87.383 Y40.632 Z2.05
X87.445 Y40.795 Z2.043
X87.491 Y40.962 Z2.037
X87.523 Y41.134 Z2.031
X87.538 Y41.307 Z2.025
X87.537 Y41.482 Z2.019
X87.521 Y41.655 Z2.013
X87.488 Y41.826 Z2.007
X87.44 Y41.994 Z2.001
X87.377 Y42.156 Z1.995
X87.299 Y42.312 Z1.989
X87.208 Y42.46 Z1.983
X87.103 Y42.599 Z1.977
X86.986 Y42.728 Z1.97
X86.857 Y42.846 Z1.964
X86.718 Y42.951 Z1.958
X86.57 Y43.044 Z1.952
X86.415 Y43.122 Z1.946
X86.253 Y43.186 Z1.94
X86.085 Y43.234 Z1.934
X85.914 Y43.267 Z1.928
X85.741 Y43.285 Z1.922
X85.567 Y43.286 Z1.916
X85.393 Y43.271 Z1.91
X85.221 Y43.241 Z1.903
X85.053 Y43.195 Z1.897
X84.89 Y43.133 Z1.891
X84.733 Y43.057 Z1.885
X84.584 Y42.967 Z1.879
X84.444 Y42.864 Z1.873
X84.314 Y42.748 Z1.867
X84.195 Y42.621 Z1.861
X84.088 Y42.484 Z1.855
X83.994 Y42.337 Z1.849
X83.914 Y42.182 Z1.843
X83.848 Y42.021 Z1.837
X83.798 Y41.854 Z1.83
X83.763 Y41.683 Z1.824
X83.744 Y41.51 Z1.818
X83.74 Y41.336 Z1.812
X83.753 Y41.162 Z1.806
X83.782 Y40.99 Z1.8
X83.826 Y40.821 Z1.794
X83.885 Y40.658 Z1.788
X83.96 Y40.5 Z1.782
X84.048 Y40.35 Z1.776
X84.15 Y40.208 Z1.77
X84.264 Y40.077 Z1.763
X84.39 Y39.956 Z1.757
X84.526 Y39.848 Z1.751
X84.672 Y39.752 Z1.745
X84.826 Y39.671 Z1.739
X84.986 Y39.603 Z1.733
X85.153 Y39.551 Z1.727
X85.323 Y39.514 Z1.721
X85.496 Y39.493 Z1.715
X85.67 Y39.488 Z1.709
X85.844 Y39.498 Z1.703
X86.016 Y39.525 Z1.697
X86.185 Y39.567 Z1.69
X86.35 Y39.625 Z1.684
X86.508 Y39.698 Z1.678
X86.659 Y39.784 Z1.672
X86.802 Y39.884 Z1.666
X86.935 Y39.997 Z1.66
X87.057 Y40.122 Z1.654
X87.167 Y40.257 Z1.648
X87.264 Y40.401 Z1.642
X87.347 Y40.554 Z1.636
X87.416 Y40.714 Z1.63
X87.471 Y40.88 Z1.623
X87.509 Y41.05 Z1.617
X87.532 Y41.222 Z1.611
X87.54 Y41.397 Z1.605
X87.531 Y41.571 Z1.599
X87.506 Y41.743 Z1.593
X87.466 Y41.913 Z1.587
X87.41 Y42.078 Z1.581
X87.339 Y42.237 Z1.575
X87.254 Y42.389 Z1.569
X87.156 Y42.533 Z1.563
X87.044 Y42.667 Z1.557
X86.921 Y42.79 Z1.55
X86.787 Y42.902 Z1.544
X86.644 Y43. Z1.538
X86.492 Y43.086 Z1.532
X86.333 Y43.157 Z1.526
X86.168 Y43.213 Z1.52
X85.998 Y43.253 Z1.514
X85.826 Y43.278 Z1.508
X85.652 Y43.287 Z1.502
X85.478 Y43.28 Z1.496
X85.305 Y43.258 Z1.49
X85.135 Y43.219 Z1.483
X84.969 Y43.165 Z1.477
X84.809 Y43.096 Z1.471
X84.656 Y43.013 Z1.465
X84.511 Y42.916 Z1.459
X84.376 Y42.806 Z1.453
X84.251 Y42.685 Z1.447
X84.138 Y42.552 Z1.441
X84.038 Y42.41 Z1.435
X83.951 Y42.259 Z1.429
X83.878 Y42.1 Z1.423
X83.82 Y41.936 Z1.417
X83.778 Y41.767 Z1.41
X83.751 Y41.595 Z1.404
X83.74 Y41.421 Z1.398
X83.745 Y41.247 Z1.392
X83.766 Y41.074 Z1.386
X83.802 Y40.903 Z1.38
X83.854 Y40.737 Z1.374
X83.921 Y40.576 Z1.368
X84.003 Y40.422 Z1.362
X84.098 Y40.276 Z1.356
X84.207 Y40.14 Z1.35
X84.327 Y40.014 Z1.343
X84.458 Y39.899 Z1.337
X84.6 Y39.797 Z1.331
X84.75 Y39.709 Z1.325
X84.907 Y39.634 Z1.319
X85.071 Y39.575 Z1.313
X85.239 Y39.53 Z1.307
X85.411 Y39.501 Z1.301
X85.585 Y39.488 Z1.295
X85.759 Y39.491 Z1.289
X85.932 Y39.51 Z1.283
X86.103 Y39.545 Z1.277
X86.27 Y39.595 Z1.27
X86.432 Y39.66 Z1.264
X86.586 Y39.74 Z1.258
X86.733 Y39.834 Z1.252
X86.871 Y39.941 Z1.246
X86.998 Y40.059 Z1.24
X87.114 Y40.189 Z1.234
X87.218 Y40.33 Z1.228
X87.308 Y40.479 Z1.222
X87.384 Y40.635 Z1.216
X87.446 Y40.798 Z1.21
X87.492 Y40.966 Z1.203
X87.523 Y41.138 Z1.197
X87.538 Y41.311 Z1.191
X87.537 Y41.486 Z1.185
X87.52 Y41.659 Z1.179
X87.487 Y41.83 Z1.173
X87.439 Y41.998 Z1.167
X87.375 Y42.16 Z1.161
X87.297 Y42.316 Z1.155
X87.205 Y42.464 Z1.149
X87.1 Y42.603 Z1.143
X86.983 Y42.731 Z1.137
X86.854 Y42.849 Z1.13
X86.715 Y42.954 Z1.124
X86.567 Y43.046 Z1.118
X86.411 Y43.124 Z1.112
X86.249 Y43.187 Z1.106
X86.081 Y43.235 Z1.1
X85.91 Y43.268 Z1.094
X85.737 Y43.285 Z1.088
X85.563 Y43.286 Z1.082
X85.389 Y43.271 Z1.076
X85.217 Y43.24 Z1.07
X85.05 Y43.193 Z1.063
X84.887 Y43.132 Z1.057
X84.73 Y43.055 Z1.051
X84.581 Y42.965 Z1.045
X84.441 Y42.862 Z1.039
X84.311 Y42.745 Z1.033
X84.192 Y42.618 Z1.027
X84.085 Y42.48 Z1.021
X83.992 Y42.333 Z1.015
X83.912 Y42.178 Z1.009
X83.847 Y42.017 Z1.003
X83.797 Y41.85 Z0.997
X83.762 Y41.679 Z0.99
X83.743 Y41.506 Z0.984
X83.74 Y41.332 Z0.978
X83.754 Y41.158 Z0.972
X83.782 Y40.986 Z0.966
X83.827 Y40.818 Z0.96
X83.887 Y40.654 Z0.954
X83.961 Y40.496 Z0.948
X84.05 Y40.346 Z0.942
X84.152 Y40.205 Z0.936
X84.267 Y40.074 Z0.93
X84.393 Y39.954 Z0.923
X84.529 Y39.846 Z0.917
X84.675 Y39.75 Z0.911
X84.829 Y39.669 Z0.905
X84.99 Y39.602 Z0.899
X85.157 Y39.55 Z0.893
X85.327 Y39.513 Z0.887
X85.5 Y39.493 Z0.881
X85.674 Y39.488 Z0.875
X85.848 Y39.499 Z0.869
X86.02 Y39.526 Z0.863
X86.189 Y39.569 Z0.857
X86.353 Y39.627 Z0.85
X86.512 Y39.699 Z0.844
X86.663 Y39.786 Z0.838
X86.805 Y39.887 Z0.832
X86.938 Y40. Z0.826
X87.059 Y40.125 Z0.82
X87.169 Y40.26 Z0.814
X87.266 Y40.405 Z0.808
X87.349 Y40.558 Z0.802
X87.418 Y40.718 Z0.796
X87.472 Y40.884 Z0.79
X87.51 Y41.054 Z0.783
X87.533 Y41.226 Z0.777
X87.54 Y41.401 Z0.771
X87.53 Y41.575 Z0.765
X87.505 Y41.747 Z0.759
X87.464 Y41.916 Z0.753
X87.408 Y42.081 Z0.747
X87.337 Y42.241 Z0.741
X87.252 Y42.392 Z0.735
X87.153 Y42.536 Z0.729
X87.042 Y42.67 Z0.723
X86.918 Y42.793 Z0.717
X86.784 Y42.904 Z0.71
X86.64 Y43.003 Z0.704
X86.488 Y43.087 Z0.698
X86.329 Y43.158 Z0.692
X86.164 Y43.214 Z0.686
X85.994 Y43.254 Z0.68
X85.822 Y43.279 Z0.674
X85.648 Y43.287 Z0.668
X85.474 Y43.28 Z0.662
X85.301 Y43.257 Z0.656
X85.131 Y43.218 Z0.65
X84.965 Y43.164 Z0.643
X84.806 Y43.095 Z0.637
X84.653 Y43.011 Z0.631
X84.508 Y42.914 Z0.625
X84.373 Y42.804 Z0.619
X84.249 Y42.682 Z0.613
X84.136 Y42.549 Z0.607
X84.036 Y42.406 Z0.601
X83.949 Y42.255 Z0.595
X83.877 Y42.096 Z0.589
X83.819 Y41.932 Z0.583
X83.777 Y41.763 Z0.577
X83.751 Y41.591 Z0.57
X83.74 Y41.417 Z0.564
X83.745 Y41.243 Z0.558
X83.766 Y41.07 Z0.552
X83.803 Y40.899 Z0.546
X83.856 Y40.733 Z0.54
X83.923 Y40.573 Z0.534
X84.005 Y40.419 Z0.528
X84.101 Y40.273 Z0.522
X84.209 Y40.137 Z0.516
X84.33 Y40.011 Z0.51
X84.461 Y39.897 Z0.503
X84.603 Y39.795 Z0.497
X84.753 Y39.707 Z0.491
X84.911 Y39.633 Z0.485
X85.075 Y39.573 Z0.479
X85.243 Y39.529 Z0.473
X85.415 Y39.501 Z0.467
X85.589 Y39.488 Z0.461
X85.763 Y39.491 Z0.455
X85.936 Y39.511 Z0.449
X86.107 Y39.546 Z0.443
X86.274 Y39.596 Z0.437
X86.435 Y39.662 Z0.43
X86.59 Y39.742 Z0.424
X86.737 Y39.836 Z0.418
X86.874 Y39.943 Z0.412
X87.001 Y40.062 Z0.406
X87.117 Y40.193 Z0.4
X87.22 Y40.333 Z0.394
X87.31 Y40.482 Z0.388
X87.386 Y40.639 Z0.382
X87.447 Y40.802 Z0.376
X87.493 Y40.97 Z0.37
X87.524 Y41.142 Z0.363
X87.538 Y41.315 Z0.357
X87.537 Y41.49 Z0.351
X87.519 Y41.663 Z0.345
X87.486 Y41.834 Z0.339
X87.438 Y42.001 Z0.333
X87.374 Y42.164 Z0.327
X87.295 Y42.319 Z0.321
X87.203 Y42.467 Z0.315
X87.098 Y42.606 Z0.309
X86.98 Y42.734 Z0.303
X86.851 Y42.851 Z0.297
X86.712 Y42.956 Z0.29
X86.563 Y43.048 Z0.284
X86.407 Y43.125 Z0.278
X86.245 Y43.188 Z0.272
X86.077 Y43.236 Z0.266
X85.906 Y43.269 Z0.26
X85.733 Y43.285 Z0.254
X85.559 Y43.286 Z0.248
X85.385 Y43.27 Z0.242
X85.214 Y43.239 Z0.236
X85.046 Y43.192 Z0.23
X84.883 Y43.13 Z0.223
X84.726 Y43.054 Z0.217
X84.578 Y42.963 Z0.211
X84.438 Y42.859 Z0.205
X84.308 Y42.743 Z0.199
X84.189 Y42.615 Z0.193
X84.083 Y42.477 Z0.187
X83.99 Y42.33 Z0.181
X83.91 Y42.175 Z0.175
X83.846 Y42.013 Z0.169
X83.796 Y41.846 Z0.163
X83.762 Y41.675 Z0.157
X83.743 Y41.502 Z0.15
X83.741 Y41.328 Z0.144
X83.754 Y41.154 Z0.138
X83.783 Y40.982 Z0.132
X83.828 Y40.814 Z0.126
X83.888 Y40.65 Z0.12
X83.963 Y40.493 Z0.114
X84.052 Y40.343 Z0.108
X84.155 Y40.202 Z0.102
X84.27 Y40.071 Z0.096
X84.396 Y39.951 Z0.09
X84.533 Y39.843 Z0.083
X84.679 Y39.748 Z0.077
X84.833 Y39.667 Z0.071
X84.994 Y39.6 Z0.065
X85.16 Y39.549 Z0.059
X85.331 Y39.513 Z0.053
X85.504 Y39.492 Z0.047
X85.678 Y39.488 Z0.041
X85.852 Y39.499 Z0.035
X86.024 Y39.527 Z0.029
X86.193 Y39.57 Z0.023
X86.357 Y39.628 Z0.017
X86.515 Y39.701 Z0.01
X86.666 Y39.789 Z0.004
X86.808 Y39.889 Z-0.002
X86.941 Y40.003 Z-0.008
X87.062 Y40.128 Z-0.014
X87.171 Y40.263 Z-0.02
X87.268 Y40.408 Z-0.026
X87.351 Y40.562 Z-0.032
X87.419 Y40.722 Z-0.038
X87.473 Y40.888 Z-0.044
X87.511 Y41.058 Z-0.05
X87.533 Y41.231 Z-0.057
X87.54 Y41.405 Z-0.063
X87.53 Y41.579 Z-0.069
X87.504 Y41.751 Z-0.075
X87.463 Y41.92 Z-0.081
X87.407 Y42.085 Z-0.087
X87.335 Y42.244 Z-0.093
X87.25 Y42.396 Z-0.099
X87.151 Y42.539 Z-0.105
X87.039 Y42.673 Z-0.111
X86.915 Y42.796 Z-0.117
X86.781 Y42.906 Z-0.123
X86.637 Y43.005 Z-0.13
X86.485 Y43.089 Z-0.136
X86.325 Y43.159 Z-0.142
X86.16 Y43.215 Z-0.148
X85.99 Y43.255 Z-0.154
X85.818 Y43.279 Z-0.16
X85.644 Y43.287 Z-0.166
X85.47 Y43.28 Z-0.172
X85.297 Y43.256 Z-0.178
X85.127 Y43.217 Z-0.184
X84.962 Y43.162 Z-0.19
X84.802 Y43.093 Z-0.197
X84.649 Y43.009 Z-0.203
X84.505 Y42.911 Z-0.209
X84.37 Y42.801 Z-0.215
X84.246 Y42.679 Z-0.221
X84.133 Y42.546 Z-0.227
X84.034 Y42.403 Z-0.233
X83.947 Y42.251 Z-0.239
X83.875 Y42.093 Z-0.245
X83.818 Y41.928 Z-0.251
X83.776 Y41.759 Z-0.257
X83.75 Y41.587 Z-0.263
X83.74 Y41.413 Z-0.27
X83.745 Y41.239 Z-0.276
X83.767 Y41.066 Z-0.282
X83.804 Y40.895 Z-0.288
X83.857 Y40.729 Z-0.294
X83.925 Y40.569 Z-0.3
X84.007 Y40.415 Z-0.306
X84.103 Y40.27 Z-0.312
X84.212 Y40.134 Z-0.318
X84.333 Y40.008 Z-0.324
X84.465 Y39.894 Z-0.33
X84.606 Y39.793 Z-0.337
X84.757 Y39.705 Z-0.343
X84.915 Y39.631 Z-0.349
X85.079 Y39.572 Z-0.355
X85.247 Y39.528 Z-0.361
X85.419 Y39.5 Z-0.367
X85.593 Y39.488 Z-0.373
X85.767 Y39.492 Z-0.379
X85.94 Y39.511 Z-0.385
X86.111 Y39.547 Z-0.391
X86.278 Y39.598 Z-0.397
X86.439 Y39.664 Z-0.403
X86.593 Y39.744 Z-0.41
X86.74 Y39.838 Z-0.416
X86.877 Y39.946 Z-0.422
X87.004 Y40.065 Z-0.428
X87.119 Y40.196 Z-0.434
X87.222 Y40.336 Z-0.44
X87.312 Y40.486 Z-0.446
X87.388 Y40.643 Z-0.452
X87.448 Y40.806 Z-0.458
X87.494 Y40.974 Z-0.464
X87.524 Y41.146 Z-0.47
X87.538 Y41.32 Z-0.477
X87.537 Y41.494 Z-0.483
X87.519 Y41.667 Z-0.489
X87.485 Y41.838 Z-0.495
X87.436 Y42.005 Z-0.501
X87.372 Y42.167 Z-0.507
X87.293 Y42.323 Z-0.513
X87.201 Y42.47 Z-0.519
X87.095 Y42.609 Z-0.525
X86.977 Y42.737 Z-0.531
X86.848 Y42.854 Z-0.537
X86.708 Y42.958 Z-0.543
X86.56 Y43.05 Z-0.55
X86.404 Y43.127 Z-0.556
X86.241 Y43.19 Z-0.562
X86.074 Y43.237 Z-0.568
X85.902 Y43.269 Z-0.574
X85.729 Y43.285 Z-0.58
X85.555 Z-0.586
X85.381 Y43.27 Z-0.592
X85.21 Y43.238 Z-0.598
X85.042 Y43.191 Z-0.604
X84.879 Y43.129 Z-0.61
X84.723 Y43.052 Z-0.617
X84.574 Y42.961 Z-0.623
X84.435 Y42.856 Z-0.629
X84.305 Y42.74 Z-0.635
X84.187 Y42.612 Z-0.641
X84.081 Y42.474 Z-0.647
X83.988 Y42.326 Z-0.653
X83.909 Y42.171 Z-0.659
X83.844 Y42.009 Z-0.665
X83.795 Y41.842 Z-0.671
X83.761 Y41.671 Z-0.677
X83.743 Y41.498 Z-0.683
X83.741 Y41.324 Z-0.69
X83.755 Y41.15 Z-0.696
X83.784 Y40.978 Z-0.702
X83.83 Y40.81 Z-0.708
X83.89 Y40.647 Z-0.714
X83.965 Y40.489 Z-0.72
X84.055 Y40.34 Z-0.726
X84.157 Y40.199 Z-0.732
X84.272 Y40.068 Z-0.738
X84.399 Y39.948 Z-0.744
X84.536 Y39.841 Z-0.75
X84.682 Y39.746 Z-0.757
X84.837 Y39.665 Z-0.763
X84.998 Y39.599 Z-0.769
X85.164 Y39.548 Z-0.775
X85.335 Y39.512 Z-0.781
X85.508 Y39.492 Z-0.787
X85.682 Y39.488 Z-0.793
X85.856 Y39.5 Z-0.799
X86.028 Y39.528 Z-0.805
X86.197 Y39.571 Z-0.811
X86.361 Y39.63 Z-0.817
X86.519 Y39.703 Z-0.823
X86.669 Y39.791 Z-0.83
X86.811 Y39.892 Z-0.836
X86.943 Y40.005 Z-0.842
X87.065 Y40.131 Z-0.848
X87.174 Y40.267 Z-0.854
X87.27 Y40.412 Z-0.86
X87.353 Y40.565 Z-0.866
X87.421 Y40.726 Z-0.872
X87.474 Y40.892 Z-0.878
X87.511 Y41.062 Z-0.884
X87.533 Y41.235 Z-0.89
X87.539 Y41.409 Z-0.897
X87.53 Y41.583 Z-0.903
X87.504 Y41.755 Z-0.909
X87.462 Y41.924 Z-0.915
X87.405 Y42.089 Z-0.921
X87.334 Y42.248 Z-0.927
X87.248 Y42.399 Z-0.933
X87.148 Y42.542 Z-0.939
X87.036 Y42.676 Z-0.945
X86.912 Y42.798 Z-0.951
X86.778 Y42.909 Z-0.957
X86.633 Y43.007 Z-0.963
X86.481 Y43.091 Z-0.97
X86.321 Y43.161 Z-0.976
X86.156 Y43.216 Z-0.982
X85.986 Y43.256 Z-0.988
X85.814 Y43.279 Z-0.994
X85.64 Y43.287 Z-1.
X43.308
G3 X43.073 Y43.052 R0.235
G1 Y42.948
G3 X43.308 Y42.713 R0.235
G1 X85.692
G3 X85.927 Y42.948 R0.235
G1 Y43.052
G3 X85.692 Y43.287 R0.235
G1 X85.64
G2 X83.915 Y44.437 R1.869
G3 X82.19 Y45.587 R1.869
G1 X41.092
G3 X40.773 Y45.268 R0.319
G1 Y40.732
G3 X41.092 Y40.413 R0.319
G1 X87.908
G3 X88.227 Y40.732 R0.319
G1 Y45.268
G3 X87.908 Y45.587 R0.319
G1 X82.19
G2 X80.465 Y46.737 R1.869
G3 X78.74 Y47.887 R1.869
G1 X38.792
G3 X38.473 Y47.568 R0.319
G1 Y38.432
G3 X38.792 Y38.113 R0.319
G1 X90.208
G3 X90.527 Y38.432 R0.319
G1 Y47.568
G3 X90.208 Y47.887 R0.319
G1 X78.74
G2 X77.015 Y49.037 R1.869
G3 X75.29 Y50.187 R1.869
G1 X36.492
G3 X36.173 Y49.868 R0.319
G1 Y36.132
G3 X36.492 Y35.813 R0.319
G1 X92.508
G3 X92.827 Y36.132 R0.319
G1 Y49.868
G3 X92.508 Y50.187 R0.319
G1 X75.29
G2 X73.565 Y51.337 R1.869
G3 X71.84 Y52.487 R1.869
G1 X34.192
G3 X33.873 Y52.168 R0.319
G1 Y33.832
G3 X34.192 Y33.513 R0.319
G1 X94.808
G3 X95.127 Y33.832 R0.319
G1 Y52.168
G3 X94.808 Y52.487 R0.319
G1 X71.84
G2 X70.115 Y53.637 R1.869
G3 X68.39 Y54.787 R1.869
G1 X31.892
G3 X31.573 Y54.468 R0.319
G1 Y31.532
G3 X31.892 Y31.213 R0.319
G1 X97.108
G3 X97.427 Y31.532 R0.319
G1 Y54.468
G3 X97.108 Y54.787 R0.319
G1 X68.39
G2 X66.665 Y55.937 R1.869
G3 X64.94 Y57.087 R1.869
G1 X29.592
G3 X29.273 Y56.768 R0.319
G1 Y29.232
G3 X29.592 Y28.913 R0.319
G1 X99.408
G3 X99.727 Y29.232 R0.319
G1 Y56.768
G3 X99.408 Y57.087 R0.319
G1 X64.94
G2 X63.215 Y58.237 R1.869
G3 X61.49 Y59.387 R1.869
G1 X27.292
G3 X26.973 Y59.068 R0.319
G1 Y26.932
G3 X27.292 Y26.613 R0.319
G1 X101.708
G3 X102.027 Y26.932 R0.319
G1 Y59.068
G3 X101.708 Y59.387 R0.319
G1 X61.49
G2 X59.765 Y60.537 R1.869
G3 X58.04 Y61.687 R1.869
G1 X24.992
G3 X24.673 Y61.368 R0.319
G1 Y24.632
G3 X24.992 Y24.313 R0.319
G1 X104.008
G3 X104.327 Y24.632 R0.319
G1 Y61.368
G3 X104.008 Y61.687 R0.319
G1 X58.04
G2 X56.315 Y62.837 R1.869
G3 X54.59 Y63.987 R1.869
G1 X22.692
G3 X22.373 Y63.668 R0.319
G1 Y22.332
G3 X22.692 Y22.013 R0.319
G1 X106.308
G3 X106.627 Y22.332 R0.319
G1 Y63.668
G3 X106.308 Y63.987 R0.319
G1 X54.59
G2 X52.865 Y65.137 R1.869
G3 X51.14 Y66.287 R1.869
G1 X20.392
G3 X20.073 Y65.968 R0.319
G1 Y20.032
G3 X20.392 Y19.713 R0.319
G1 X108.608
G3 X108.927 Y20.032 R0.319
G1 Y65.968
G3 X108.608 Y66.287 R0.319
G1 X51.14
G2 X49.415 Y67.437 R1.869
G3 X47.69 Y68.587 R1.869
G1 X18.092
G3 X17.773 Y68.268 R0.319
G1 Y17.732
G3 X18.092 Y17.413 R0.319
G1 X110.908
G3 X111.227 Y17.732 R0.319
G1 Y68.268
G3 X110.908 Y68.587 R0.319
G1 X47.69
G2 X45.965 Y69.737 R1.869
G3 X44.24 Y70.887 R1.869
G1 X15.792
G3 X15.473 Y70.568 R0.319
G1 Y15.432
G3 X15.792 Y15.113 R0.319
G1 X113.208
G3 X113.527 Y15.432 R0.319
G1 Y70.568
G3 X113.208 Y70.887 R0.319
G1 X44.24
G2 X42.515 Y72.037 R1.869
G3 X40.79 Y73.187 R1.869
G1 X13.492
G3 X13.173 Y72.868 R0.319
G1 Y13.132
G3 X13.492 Y12.813 R0.319
G1 X115.508
G3 X115.827 Y13.132 R0.319
G1 Y72.868
G3 X115.508 Y73.187 R0.319
G1 X40.79
G2 X39.065 Y74.337 R1.869
G3 X37.34 Y75.487 R1.869
G1 X11.818
G3 X10.873 Y74.542 R0.946
G1 Y11.458
G3 X11.818 Y10.513 R0.946
G1 X117.808
G3 X118.127 Y10.832 R0.319
G1 Y75.168
G3 X117.808 Y75.487 R0.319
G1 X37.34
G2 X35.615 Y76.637 R1.869
G3 X33.89 Y77.787 R1.869
G1 X10.929
G3 X10.05 Y77.423 R1.243
G1 X8.937 Y76.31
G3 X8.573 Y75.431 R1.243
G1 Y10.569
G3 X8.937 Y9.69 R1.243
G1 X10.05 Y8.577
G3 X10.929 Y8.213 R1.243
G1 X120.108
G3 X120.427 Y8.532 R0.319
G1 Y77.468
G3 X120.108 Y77.787 R0.319
G1 X33.89
G2 X32.165 Y78.937 R1.869
G3 X30.44 Y80.087 R1.869
G1 X9.976
G3 X9.097 Y79.723 R1.243
G1 X6.637 Y77.263
G3 X6.273 Y76.384 R1.243
G1 Y9.616
G3 X6.637 Y8.737 R1.243
G1 X9.097 Y6.277
G3 X9.976 Y5.913 R1.243
G1 X122.408
G3 X122.727 Y6.232 R0.319
G1 Y79.768
G3 X122.408 Y80.087 R0.319
G1 X30.44
G2 X28.711 Y81.24 R1.873
G3 X26.982 Y82.392 R1.873
G1 X8.507
X3.968 Y77.853
Y8.147
X8.507 Y3.608
X125.032
Y82.392
X26.982
X26.906 Y82.385 Z-0.985
X26.833 Y82.363 Z-0.97
X26.775 Y82.334 Z-0.926
X26.722 Y82.297 Z-0.883
X26.691 Y82.267 Z-0.818
X26.663 Y82.233 Z-0.753
X26.646 Y82.209 Z-0.6
G0 Z5.
X86.471 Y39.679
G1 Z1.9 F380.
X86.497 Y39.692 Z1.75 F1500.
X86.57 Y39.731 Z1.622
X86.677 Y39.796 Z1.534
X86.799 Y39.882 Z1.5
X86.932 Y39.994 Z1.494
X87.054 Y40.119 Z1.488
X87.164 Y40.254 Z1.482
X87.262 Y40.398 Z1.476
X87.345 Y40.551 Z1.47
X87.415 Y40.71 Z1.463
X87.469 Y40.876 Z1.457
X87.509 Y41.046 Z1.451
X87.532 Y41.218 Z1.445
X87.54 Y41.393 Z1.439
X87.531 Y41.567 Z1.433
X87.507 Y41.739 Z1.427
X87.467 Y41.909 Z1.421
X87.411 Y42.074 Z1.415
X87.341 Y42.233 Z1.409
X87.256 Y42.386 Z1.403
X87.158 Y42.529 Z1.397
X87.047 Y42.664 Z1.39
X86.924 Y42.787 Z1.384
X86.791 Y42.899 Z1.378
X86.647 Y42.998 Z1.372
X86.495 Y43.084 Z1.366
X86.336 Y43.155 Z1.36
X86.171 Y43.211 Z1.354
X86.002 Y43.252 Z1.348
X85.83 Y43.278 Z1.342
X85.656 Y43.287 Z1.336
X85.482 Y43.281 Z1.33
X85.309 Y43.258 Z1.323
X85.139 Y43.22 Z1.317
X84.973 Y43.167 Z1.311
X84.813 Y43.098 Z1.305
X84.66 Y43.015 Z1.299
X84.515 Y42.919 Z1.293
X84.379 Y42.809 Z1.287
X84.254 Y42.688 Z1.281
X84.141 Y42.555 Z1.275
X84.04 Y42.413 Z1.269
X83.953 Y42.262 Z1.263
X83.88 Y42.104 Z1.257
X83.822 Y41.94 Z1.25
X83.779 Y41.771 Z1.244
X83.751 Y41.599 Z1.238
X83.74 Y41.425 Z1.232
X83.745 Y41.251 Z1.226
X83.765 Y41.078 Z1.22
X83.801 Y40.907 Z1.214
X83.853 Y40.741 Z1.208
X83.92 Y40.58 Z1.202
X84.001 Y40.426 Z1.196
X84.096 Y40.28 Z1.19
X84.204 Y40.143 Z1.183
X84.324 Y40.017 Z1.177
X84.455 Y39.902 Z1.171
X84.596 Y39.8 Z1.165
X84.746 Y39.711 Z1.159
X84.903 Y39.636 Z1.153
X85.067 Y39.576 Z1.147
X85.235 Y39.531 Z1.141
X85.407 Y39.502 Z1.135
X85.581 Y39.488 Z1.129
X85.755 Y39.491 Z1.123
X85.928 Y39.509 Z1.117
X86.099 Y39.544 Z1.11
X86.266 Y39.594 Z1.104
X86.428 Y39.659 Z1.098
X86.583 Y39.738 Z1.092
X86.73 Y39.831 Z1.086
X86.868 Y39.938 Z1.08
X86.996 Y40.057 Z1.074
X87.112 Y40.186 Z1.068
X87.216 Y40.326 Z1.062
X87.306 Y40.475 Z1.056
X87.383 Y40.632 Z1.05
X87.445 Y40.795 Z1.043
X87.491 Y40.962 Z1.037
X87.523 Y41.134 Z1.031
X87.538 Y41.307 Z1.025
X87.537 Y41.482 Z1.019
X87.521 Y41.655 Z1.013
X87.488 Y41.826 Z1.007
X87.44 Y41.994 Z1.001
X87.377 Y42.156 Z0.995
X87.299 Y42.312 Z0.989
X87.208 Y42.46 Z0.983
X87.103 Y42.599 Z0.977
X86.986 Y42.728 Z0.97
X86.857 Y42.846 Z0.964
X86.718 Y42.951 Z0.958
X86.57 Y43.044 Z0.952
X86.415 Y43.122 Z0.946
X86.253 Y43.186 Z0.94
X86.085 Y43.234 Z0.934
X85.914 Y43.267 Z0.928
X85.741 Y43.285 Z0.922
X85.567 Y43.286 Z0.916
X85.393 Y43.271 Z0.91
X85.221 Y43.241 Z0.903
X85.053 Y43.195 Z0.897
X84.89 Y43.133 Z0.891
X84.733 Y43.057 Z0.885
X84.584 Y42.967 Z0.879
X84.444 Y42.864 Z0.873
X84.314 Y42.748 Z0.867
X84.195 Y42.621 Z0.861
X84.088 Y42.484 Z0.855
X83.994 Y42.337 Z0.849
X83.914 Y42.182 Z0.843
X83.848 Y42.021 Z0.837
X83.798 Y41.854 Z0.83
X83.763 Y41.683 Z0.824
X83.744 Y41.51 Z0.818
X83.74 Y41.336 Z0.812
X83.753 Y41.162 Z0.806
X83.782 Y40.99 Z0.8
X83.826 Y40.821 Z0.794
X83.885 Y40.658 Z0.788
X83.96 Y40.5 Z0.782
X84.048 Y40.35 Z0.776
X84.15 Y40.208 Z0.77
X84.264 Y40.077 Z0.763
X84.39 Y39.956 Z0.757
X84.526 Y39.848 Z0.751
X84.672 Y39.752 Z0.745
X84.826 Y39.671 Z0.739
X84.986 Y39.603 Z0.733
X85.153 Y39.551 Z0.727
X85.323 Y39.514 Z0.721
X85.496 Y39.493 Z0.715
X85.67 Y39.488 Z0.709
X85.844 Y39.498 Z0.703
X86.016 Y39.525 Z0.697
X86.185 Y39.567 Z0.69
X86.35 Y39.625 Z0.684
X86.508 Y39.698 Z0.678
X86.659 Y39.784 Z0.672
X86.802 Y39.884 Z0.666
X86.935 Y39.997 Z0.66
X87.057 Y40.122 Z0.654
X87.167 Y40.257 Z0.648
X87.264 Y40.401 Z0.642
X87.347 Y40.554 Z0.636
X87.416 Y40.714 Z0.63
X87.471 Y40.88 Z0.623
X87.509 Y41.05 Z0.617
X87.532 Y41.222 Z0.611
X87.54 Y41.397 Z0.605
X87.531 Y41.571 Z0.599
X87.506 Y41.743 Z0.593
X87.466 Y41.913 Z0.587
X87.41 Y42.078 Z0.581
X87.339 Y42.237 Z0.575
X87.254 Y42.389 Z0.569
X87.156 Y42.533 Z0.563
X87.044 Y42.667 Z0.557
X86.921 Y42.79 Z0.55
X86.787 Y42.902 Z0.544
X86.644 Y43. Z0.538
X86.492 Y43.086 Z0.532
X86.333 Y43.157 Z0.526
X86.168 Y43.213 Z0.52
X85.998 Y43.253 Z0.514
X85.826 Y43.278 Z0.508
X85.652 Y43.287 Z0.502
X85.478 Y43.28 Z0.496
X85.305 Y43.258 Z0.49
X85.135 Y43.219 Z0.483
X84.969 Y43.165 Z0.477
X84.809 Y43.096 Z0.471
X84.656 Y43.013 Z0.465
X84.511 Y42.916 Z0.459
X84.376 Y42.806 Z0.453
X84.251 Y42.685 Z0.447
X84.138 Y42.552 Z0.441
X84.038 Y42.41 Z0.435
X83.951 Y42.259 Z0.429
X83.878 Y42.1 Z0.423
X83.82 Y41.936 Z0.417
X83.778 Y41.767 Z0.41
X83.751 Y41.595 Z0.404
X83.74 Y41.421 Z0.398
X83.745 Y41.247 Z0.392
X83.766 Y41.074 Z0.386
X83.802 Y40.903 Z0.38
X83.854 Y40.737 Z0.374
X83.921 Y40.576 Z0.368
X84.003 Y40.422 Z0.362
X84.098 Y40.276 Z0.356
X84.207 Y40.14 Z0.35
X84.327 Y40.014 Z0.343
X84.458 Y39.899 Z0.337
X84.6 Y39.797 Z0.331
X84.75 Y39.709 Z0.325
X84.907 Y39.634 Z0.319
X85.071 Y39.575 Z0.313
X85.239 Y39.53 Z0.307
X85.411 Y39.501 Z0.301
X85.585 Y39.488 Z0.295
X85.759 Y39.491 Z0.289
X85.932 Y39.51 Z0.283
X86.103 Y39.545 Z0.277
X86.27 Y39.595 Z0.27
X86.432 Y39.66 Z0.264
X86.586 Y39.74 Z0.258
X86.733 Y39.834 Z0.252
X86.871 Y39.941 Z0.246
X86.998 Y40.059 Z0.24
X87.114 Y40.189 Z0.234
X87.218 Y40.33 Z0.228
X87.308 Y40.479 Z0.222
X87.384 Y40.635 Z0.216
X87.446 Y40.798 Z0.21
X87.492 Y40.966 Z0.203
X87.523 Y41.138 Z0.197
X87.538 Y41.311 Z0.191
X87.537 Y41.486 Z0.185
X87.52 Y41.659 Z0.179
X87.487 Y41.83 Z0.173
X87.439 Y41.998 Z0.167
X87.375 Y42.16 Z0.161
X87.297 Y42.316 Z0.155
X87.205 Y42.464 Z0.149
X87.1 Y42.603 Z0.143
X86.983 Y42.731 Z0.137
X86.854 Y42.849 Z0.13
X86.715 Y42.954 Z0.124
X86.567 Y43.046 Z0.118
X86.411 Y43.124 Z0.112
X86.249 Y43.187 Z0.106
X86.081 Y43.235 Z0.1
X85.91 Y43.268 Z0.094
X85.737 Y43.285 Z0.088
X85.563 Y43.286 Z0.082
X85.389 Y43.271 Z0.076
X85.217 Y43.24 Z0.07
X85.05 Y43.193 Z0.063
X84.887 Y43.132 Z0.057
X84.73 Y43.055 Z0.051
X84.581 Y42.965 Z0.045
X84.441 Y42.862 Z0.039
X84.311 Y42.745 Z0.033
X84.192 Y42.618 Z0.027
X84.085 Y42.48 Z0.021
X83.992 Y42.333 Z0.015
X83.912 Y42.178 Z0.009
X83.847 Y42.017 Z0.003
X83.797 Y41.85 Z-0.003
X83.762 Y41.679 Z-0.01
X83.743 Y41.506 Z-0.016
X83.74 Y41.332 Z-0.022
X83.754 Y41.158 Z-0.028
X83.782 Y40.986 Z-0.034
X83.827 Y40.818 Z-0.04
X83.887 Y40.654 Z-0.046
X83.961 Y40.496 Z-0.052
X84.05 Y40.346 Z-0.058
X84.152 Y40.205 Z-0.064
X84.267 Y40.074 Z-0.07
X84.393 Y39.954 Z-0.077
X84.529 Y39.846 Z-0.083
X84.675 Y39.75 Z-0.089
X84.829 Y39.669 Z-0.095
X84.99 Y39.602 Z-0.101
X85.157 Y39.55 Z-0.107
X85.327 Y39.513 Z-0.113
X85.5 Y39.493 Z-0.119
X85.674 Y39.488 Z-0.125
X85.848 Y39.499 Z-0.131
X86.02 Y39.526 Z-0.137
X86.189 Y39.569 Z-0.143
X86.353 Y39.627 Z-0.15
X86.512 Y39.699 Z-0.156
X86.663 Y39.786 Z-0.162
X86.805 Y39.887 Z-0.168
X86.938 Y40. Z-0.174
X87.059 Y40.125 Z-0.18
X87.169 Y40.26 Z-0.186
X87.266 Y40.405 Z-0.192
X87.349 Y40.558 Z-0.198
X87.418 Y40.718 Z-0.204
X87.472 Y40.884 Z-0.21
X87.51 Y41.054 Z-0.217
X87.533 Y41.226 Z-0.223
X87.54 Y41.401 Z-0.229
X87.53 Y41.575 Z-0.235
X87.505 Y41.747 Z-0.241
X87.464 Y41.916 Z-0.247
X87.408 Y42.081 Z-0.253
X87.337 Y42.241 Z-0.259
X87.252 Y42.392 Z-0.265
X87.153 Y42.536 Z-0.271
X87.042 Y42.67 Z-0.277
X86.918 Y42.793 Z-0.283
X86.784 Y42.904 Z-0.29
X86.64 Y43.003 Z-0.296
X86.488 Y43.087 Z-0.302
X86.329 Y43.158 Z-0.308
X86.164 Y43.214 Z-0.314
X85.994 Y43.254 Z-0.32
X85.822 Y43.279 Z-0.326
X85.648 Y43.287 Z-0.332
X85.474 Y43.28 Z-0.338
X85.301 Y43.257 Z-0.344
X85.131 Y43.218 Z-0.35
X84.965 Y43.164 Z-0.357
X84.806 Y43.095 Z-0.363
X84.653 Y43.011 Z-0.369
X84.508 Y42.914 Z-0.375
X84.373 Y42.804 Z-0.381
X84.249 Y42.682 Z-0.387
X84.136 Y42.549 Z-0.393
X84.036 Y42.406 Z-0.399
X83.949 Y42.255 Z-0.405
X83.877 Y42.096 Z-0.411
X83.819 Y41.932 Z-0.417
X83.777 Y41.763 Z-0.423
X83.751 Y41.591 Z-0.43
X83.74 Y41.417 Z-0.436
X83.745 Y41.243 Z-0.442
X83.766 Y41.07 Z-0.448
X83.803 Y40.899 Z-0.454
X83.856 Y40.733 Z-0.46
X83.923 Y40.573 Z-0.466
X84.005 Y40.419 Z-0.472
X84.101 Y40.273 Z-0.478
X84.209 Y40.137 Z-0.484
X84.33 Y40.011 Z-0.49
X84.461 Y39.897 Z-0.497
X84.603 Y39.795 Z-0.503
X84.753 Y39.707 Z-0.509
X84.911 Y39.633 Z-0.515
X85.075 Y39.573 Z-0.521
X85.243 Y39.529 Z-0.527
X85.415 Y39.501 Z-0.533
X85.589 Y39.488 Z-0.539
X85.763 Y39.491 Z-0.545
X85.936 Y39.511 Z-0.551
X86.107 Y39.546 Z-0.557
X86.274 Y39.596 Z-0.563
X86.435 Y39.662 Z-0.57
X86.59 Y39.742 Z-0.576
X86.737 Y39.836 Z-0.582
X86.874 Y39.943 Z-0.588
X87.001 Y40.062 Z-0.594
X87.117 Y40.193 Z-0.6
X87.22 Y40.333 Z-0.606
X87.31 Y40.482 Z-0.612
X87.386 Y40.639 Z-0.618
X87.447 Y40.802 Z-0.624
X87.493 Y40.97 Z-0.63
X87.524 Y41.142 Z-0.637
X87.538 Y41.315 Z-0.643
X87.537 Y41.49 Z-0.649
X87.519 Y41.663 Z-0.655
X87.486 Y41.834 Z-0.661
X87.438 Y42.001 Z-0.667
X87.374 Y42.164 Z-0.673
X87.295 Y42.319 Z-0.679
X87.203 Y42.467 Z-0.685
X87.098 Y42.606 Z-0.691
X86.98 Y42.734 Z-0.697
X86.851 Y42.851 Z-0.703
X86.712 Y42.956 Z-0.71
X86.563 Y43.048 Z-0.716
X86.407 Y43.125 Z-0.722
X86.245 Y43.188 Z-0.728
X86.077 Y43.236 Z-0.734
X85.906 Y43.269 Z-0.74
X85.733 Y43.285 Z-0.746
X85.559 Y43.286 Z-0.752
X85.385 Y43.27 Z-0.758
X85.214 Y43.239 Z-0.764
X85.046 Y43.192 Z-0.77
X84.883 Y43.13 Z-0.777
X84.726 Y43.054 Z-0.783
X84.578 Y42.963 Z-0.789
X84.438 Y42.859 Z-0.795
X84.308 Y42.743 Z-0.801
X84.189 Y42.615 Z-0.807
X84.083 Y42.477 Z-0.813
X83.99 Y42.33 Z-0.819
X83.91 Y42.175 Z-0.825
X83.846 Y42.013 Z-0.831
X83.796 Y41.846 Z-0.837
X83.762 Y41.675 Z-0.843
X83.743 Y41.502 Z-0.85
X83.741 Y41.328 Z-0.856
X83.754 Y41.154 Z-0.862
X83.783 Y40.982 Z-0.868
X83.828 Y40.814 Z-0.874
X83.888 Y40.65 Z-0.88
X83.963 Y40.493 Z-0.886
X84.052 Y40.343 Z-0.892
X84.155 Y40.202 Z-0.898
X84.27 Y40.071 Z-0.904
X84.396 Y39.951 Z-0.91
X84.533 Y39.843 Z-0.917
X84.679 Y39.748 Z-0.923
X84.833 Y39.667 Z-0.929
X84.994 Y39.6 Z-0.935
X85.16 Y39.549 Z-0.941
X85.331 Y39.513 Z-0.947
X85.504 Y39.492 Z-0.953
X85.678 Y39.488 Z-0.959
X85.852 Y39.499 Z-0.965
X86.024 Y39.527 Z-0.971
X86.193 Y39.57 Z-0.977
X86.357 Y39.628 Z-0.983
X86.515 Y39.701 Z-0.99
X86.666 Y39.789 Z-0.996
X86.808 Y39.889 Z-1.002
X86.941 Y40.003 Z-1.008
X87.062 Y40.128 Z-1.014
X87.171 Y40.263 Z-1.02
X87.268 Y40.408 Z-1.026
X87.351 Y40.562 Z-1.032
X87.419 Y40.722 Z-1.038
X87.473 Y40.888 Z-1.044
X87.511 Y41.058 Z-1.05
X87.533 Y41.231 Z-1.057
X87.54 Y41.405 Z-1.063
X87.53 Y41.579 Z-1.069
X87.504 Y41.751 Z-1.075
X87.463 Y41.92 Z-1.081
X87.407 Y42.085 Z-1.087
X87.335 Y42.244 Z-1.093
X87.25 Y42.396 Z-1.099
X87.151 Y42.539 Z-1.105
X87.039 Y42.673 Z-1.111
X86.915 Y42.796 Z-1.117
X86.781 Y42.906 Z-1.123
X86.637 Y43.005 Z-1.13
X86.485 Y43.089 Z-1.136
X86.325 Y43.159 Z-1.142
X86.16 Y43.215 Z-1.148
X85.99 Y43.255 Z-1.154
X85.818 Y43.279 Z-1.16
X85.644 Y43.287 Z-1.166
X85.47 Y43.28 Z-1.172
X85.297 Y43.256 Z-1.178
X85.127 Y43.217 Z-1.184
X84.962 Y43.162 Z-1.19
X84.802 Y43.093 Z-1.197
X84.649 Y43.009 Z-1.203
X84.505 Y42.911 Z-1.209
X84.37 Y42.801 Z-1.215
X84.246 Y42.679 Z-1.221
X84.133 Y42.546 Z-1.227
X84.034 Y42.403 Z-1.233
X83.947 Y42.251 Z-1.239
X83.875 Y42.093 Z-1.245
X83.818 Y41.928 Z-1.251
X83.776 Y41.759 Z-1.257
X83.75 Y41.587 Z-1.263
X83.74 Y41.413 Z-1.27
X83.745 Y41.239 Z-1.276
X83.767 Y41.066 Z-1.282
X83.804 Y40.895 Z-1.288
X83.857 Y40.729 Z-1.294
X83.925 Y40.569 Z-1.3
X84.007 Y40.415 Z-1.306
X84.103 Y40.27 Z-1.312
X84.212 Y40.134 Z-1.318
X84.333 Y40.008 Z-1.324
X84.465 Y39.894 Z-1.33
X84.606 Y39.793 Z-1.337
X84.757 Y39.705 Z-1.343
X84.915 Y39.631 Z-1.349
X85.079 Y39.572 Z-1.355
X85.247 Y39.528 Z-1.361
X85.419 Y39.5 Z-1.367
X85.593 Y39.488 Z-1.373
X85.767 Y39.492 Z-1.379
X85.94 Y39.511 Z-1.385
X86.111 Y39.547 Z-1.391
X86.278 Y39.598 Z-1.397
X86.439 Y39.664 Z-1.403
X86.593 Y39.744 Z-1.41
X86.74 Y39.838 Z-1.416
X86.877 Y39.946 Z-1.422
X87.004 Y40.065 Z-1.428
X87.119 Y40.196 Z-1.434
X87.222 Y40.336 Z-1.44
X87.312 Y40.486 Z-1.446
X87.388 Y40.643 Z-1.452
X87.448 Y40.806 Z-1.458
X87.494 Y40.974 Z-1.464
X87.524 Y41.146 Z-1.47
X87.538 Y41.32 Z-1.477
X87.537 Y41.494 Z-1.483
X87.519 Y41.667 Z-1.489
X87.485 Y41.838 Z-1.495
X87.436 Y42.005 Z-1.501
X87.372 Y42.167 Z-1.507
X87.293 Y42.323 Z-1.513
X87.201 Y42.47 Z-1.519
X87.095 Y42.609 Z-1.525
X86.977 Y42.737 Z-1.531
X86.848 Y42.854 Z-1.537
X86.708 Y42.958 Z-1.543
X86.56 Y43.05 Z-1.55
X86.404 Y43.127 Z-1.556
X86.241 Y43.19 Z-1.562
X86.074 Y43.237 Z-1.568
X85.902 Y43.269 Z-1.574
X85.729 Y43.285 Z-1.58
X85.555 Z-1.586
X85.381 Y43.27 Z-1.592
X85.21 Y43.238 Z-1.598
X85.042 Y43.191 Z-1.604
X84.879 Y43.129 Z-1.61
X84.723 Y43.052 Z-1.617
X84.574 Y42.961 Z-1.623
X84.435 Y42.856 Z-1.629
X84.305 Y42.74 Z-1.635
X84.187 Y42.612 Z-1.641
X84.081 Y42.474 Z-1.647
X83.988 Y42.326 Z-1.653
X83.909 Y42.171 Z-1.659
X83.844 Y42.009 Z-1.665
X83.795 Y41.842 Z-1.671
X83.761 Y41.671 Z-1.677
X83.743 Y41.498 Z-1.683
X83.741 Y41.324 Z-1.69
X83.755 Y41.15 Z-1.696
X83.784 Y40.978 Z-1.702
X83.83 Y40.81 Z-1.708
X83.89 Y40.647 Z-1.714
X83.965 Y40.489 Z-1.72
X84.055 Y40.34 Z-1.726
X84.157 Y40.199 Z-1.732
X84.272 Y40.068 Z-1.738
X84.399 Y39.948 Z-1.744
X84.536 Y39.841 Z-1.75
X84.682 Y39.746 Z-1.757
X84.837 Y39.665 Z-1.763
X84.998 Y39.599 Z-1.769
X85.164 Y39.548 Z-1.775
X85.335 Y39.512 Z-1.781
X85.508 Y39.492 Z-1.787
X85.682 Y39.488 Z-1.793
X85.856 Y39.5 Z-1.799
X86.028 Y39.528 Z-1.805
X86.197 Y39.571 Z-1.811
X86.361 Y39.63 Z-1.817
X86.519 Y39.703 Z-1.823
X86.669 Y39.791 Z-1.83
X86.811 Y39.892 Z-1.836
X86.943 Y40.005 Z-1.842
X87.065 Y40.131 Z-1.848
X87.174 Y40.267 Z-1.854
X87.27 Y40.412 Z-1.86
X87.353 Y40.565 Z-1.866
X87.421 Y40.726 Z-1.872
X87.474 Y40.892 Z-1.878
X87.511 Y41.062 Z-1.884
X87.533 Y41.235 Z-1.89
X87.539 Y41.409 Z-1.897
X87.53 Y41.583 Z-1.903
X87.504 Y41.755 Z-1.909
X87.462 Y41.924 Z-1.915
X87.405 Y42.089 Z-1.921
X87.334 Y42.248 Z-1.927
X87.248 Y42.399 Z-1.933
X87.148 Y42.542 Z-1.939
X87.036 Y42.676 Z-1.945
X86.912 Y42.798 Z-1.951
X86.778 Y42.909 Z-1.957
X86.633 Y43.007 Z-1.963
X86.481 Y43.091 Z-1.97
X86.321 Y43.161 Z-1.976
X86.156 Y43.216 Z-1.982
X85.986 Y43.256 Z-1.988
X85.814 Y43.279 Z-1.994
X85.64 Y43.287 Z-2.
X43.308
G3 X43.073 Y43.052 R0.235
G1 Y42.948
G3 X43.308 Y42.713 R0.235
G1 X85.692
G3 X85.927 Y42.948 R0.235
G1 Y43.052
G3 X85.692 Y43.287 R0.235
G1 X85.64
G2 X83.915 Y44.437 R1.869
G3 X82.19 Y45.587 R1.869
G1 X41.092
G3 X40.773 Y45.268 R0.319
G1 Y40.732
G3 X41.092 Y40.413 R0.319
G1 X87.908
G3 X88.227 Y40.732 R0.319
G1 Y45.268
G3 X87.908 Y45.587 R0.319
G1 X82.19
G2 X80.465 Y46.737 R1.869
G3 X78.74 Y47.887 R1.869
G1 X38.792
G3 X38.473 Y47.568 R0.319
G1 Y38.432
G3 X38.792 Y38.113 R0.319
G1 X90.208
G3 X90.527 Y38.432 R0.319
G1 Y47.568
G3 X90.208 Y47.887 R0.319
G1 X78.74
G2 X77.015 Y49.037 R1.869
G3 X75.29 Y50.187 R1.869
G1 X36.492
G3 X36.173 Y49.868 R0.319
G1 Y36.132
G3 X36.492 Y35.813 R0.319
G1 X92.508
G3 X92.827 Y36.132 R0.319
G1 Y49.868
G3 X92.508 Y50.187 R0.319
G1 X75.29
G2 X73.565 Y51.337 R1.869
G3 X71.84 Y52.487 R1.869
G1 X34.192
G3 X33.873 Y52.168 R0.319
G1 Y33.832
G3 X34.192 Y33.513 R0.319
G1 X94.808
G3 X95.127 Y33.832 R0.319
G1 Y52.168
G3 X94.808 Y52.487 R0.319
G1 X71.84
G2 X70.115 Y53.637 R1.869
G3 X68.39 Y54.787 R1.869
G1 X31.892
G3 X31.573 Y54.468 R0.319
G1 Y31.532
G3 X31.892 Y31.213 R0.319
G1 X97.108
G3 X97.427 Y31.532 R0.319
G1 Y54.468
G3 X97.108 Y54.787 R0.319
G1 X68.39
G2 X66.665 Y55.937 R1.869
G3 X64.94 Y57.087 R1.869
G1 X29.592
G3 X29.273 Y56.768 R0.319
G1 Y29.232
G3 X29.592 Y28.913 R0.319
G1 X99.408
G3 X99.727 Y29.232 R0.319
G1 Y56.768
G3 X99.408 Y57.087 R0.319
G1 X64.94
G2 X63.215 Y58.237 R1.869
G3 X61.49 Y59.387 R1.869
G1 X27.292
G3 X26.973 Y59.068 R0.319
G1 Y26.932
G3 X27.292 Y26.613 R0.319
G1 X101.708
G3 X102.027 Y26.932 R0.319
G1 Y59.068
G3 X101.708 Y59.387 R0.319
G1 X61.49
G2 X59.765 Y60.537 R1.869
G3 X58.04 Y61.687 R1.869
G1 X24.992
G3 X24.673 Y61.368 R0.319
G1 Y24.632
G3 X24.992 Y24.313 R0.319
G1 X104.008
G3 X104.327 Y24.632 R0.319
G1 Y61.368
G3 X104.008 Y61.687 R0.319
G1 X58.04
G2 X56.315 Y62.837 R1.869
G3 X54.59 Y63.987 R1.869
G1 X22.692
G3 X22.373 Y63.668 R0.319
G1 Y22.332
G3 X22.692 Y22.013 R0.319
G1 X106.308
G3 X106.627 Y22.332 R0.319
G1 Y63.668
G3 X106.308 Y63.987 R0.319
G1 X54.59
G2 X52.865 Y65.137 R1.869
G3 X51.14 Y66.287 R1.869
G1 X20.392
G3 X20.073 Y65.968 R0.319
G1 Y20.032
G3 X20.392 Y19.713 R0.319
G1 X108.608
G3 X108.927 Y20.032 R0.319
G1 Y65.968
G3 X108.608 Y66.287 R0.319
G1 X51.14
G2 X49.415 Y67.437 R1.869
G3 X47.69 Y68.587 R1.869
G1 X18.092
G3 X17.773 Y68.268 R0.319
G1 Y17.732
G3 X18.092 Y17.413 R0.319
G1 X110.908
G3 X111.227 Y17.732 R0.319
G1 Y68.268
G3 X110.908 Y68.587 R0.319
G1 X47.69
G2 X45.965 Y69.737 R1.869
G3 X44.24 Y70.887 R1.869
G1 X15.792
G3 X15.473 Y70.568 R0.319
G1 Y15.432
G3 X15.792 Y15.113 R0.319
G1 X113.208
G3 X113.527 Y15.432 R0.319
G1 Y70.568
G3 X113.208 Y70.887 R0.319
G1 X44.24
G2 X42.515 Y72.037 R1.869
G3 X40.79 Y73.187 R1.869
G1 X13.492
G3 X13.173 Y72.868 R0.319
G1 Y13.132
G3 X13.492 Y12.813 R0.319
G1 X115.508
G3 X115.827 Y13.132 R0.319
G1 Y72.868
G3 X115.508 Y73.187 R0.319
G1 X40.79
G2 X39.065 Y74.337 R1.869
G3 X37.34 Y75.487 R1.869
G1 X11.818
G3 X10.873 Y74.542 R0.946
G1 Y11.458
G3 X11.818 Y10.513 R0.946
G1 X117.808
G3 X118.127 Y10.832 R0.319
G1 Y75.168
G3 X117.808 Y75.487 R0.319
G1 X37.34
G2 X35.615 Y76.637 R1.869
G3 X33.89 Y77.787 R1.869
G1 X10.929
G3 X10.05 Y77.423 R1.243
G1 X8.937 Y76.31
G3 X8.573 Y75.431 R1.243
G1 Y10.569
G3 X8.937 Y9.69 R1.243
G1 X10.05 Y8.577
G3 X10.929 Y8.213 R1.243
G1 X120.108
G3 X120.427 Y8.532 R0.319
G1 Y77.468
G3 X120.108 Y77.787 R0.319
G1 X33.89
G2 X32.165 Y78.937 R1.869
G3 X30.44 Y80.087 R1.869
G1 X9.976
G3 X9.097 Y79.723 R1.243
G1 X6.637 Y77.263
G3 X6.273 Y76.384 R1.243
G1 Y9.616
G3 X6.637 Y8.737 R1.243
G1 X9.097 Y6.277
G3 X9.976 Y5.913 R1.243
G1 X122.408
G3 X122.727 Y6.232 R0.319
G1 Y79.768
G3 X122.408 Y80.087 R0.319
G1 X30.44
G2 X28.711 Y81.24 R1.873
G3 X26.982 Y82.392 R1.873
G1 X8.507
X3.968 Y77.853
Y8.147
X8.507 Y3.608
X125.032
Y82.392
X26.982
X26.906 Y82.385 Z-1.985
X26.833 Y82.363 Z-1.97
X26.775 Y82.334 Z-1.926
X26.722 Y82.297 Z-1.883
X26.691 Y82.267 Z-1.818
X26.663 Y82.233 Z-1.753
X26.646 Y82.209 Z-1.6
G0 Z5.
X86.471 Y39.679
G1 Z0.9 F380.
X86.497 Y39.692 Z0.75 F1500.
X86.57 Y39.731 Z0.622
X86.677 Y39.796 Z0.534
X86.799 Y39.882 Z0.5
X86.932 Y39.994 Z0.494
X87.054 Y40.119 Z0.488
X87.164 Y40.254 Z0.482
X87.262 Y40.398 Z0.476
X87.345 Y40.551 Z0.47
X87.415 Y40.71 Z0.463
X87.469 Y40.876 Z0.457
X87.509 Y41.046 Z0.451
X87.532 Y41.218 Z0.445
X87.54 Y41.393 Z0.439
X87.531 Y41.567 Z0.433
X87.507 Y41.739 Z0.427
X87.467 Y41.909 Z0.421
X87.411 Y42.074 Z0.415
X87.341 Y42.233 Z0.409
X87.256 Y42.386 Z0.403
X87.158 Y42.529 Z0.397
X87.047 Y42.664 Z0.39
X86.924 Y42.787 Z0.384
X86.791 Y42.899 Z0.378
X86.647 Y42.998 Z0.372
X86.495 Y43.084 Z0.366
X86.336 Y43.155 Z0.36
X86.171 Y43.211 Z0.354
X86.002 Y43.252 Z0.348
X85.83 Y43.278 Z0.342
X85.656 Y43.287 Z0.336
X85.482 Y43.281 Z0.33
X85.309 Y43.258 Z0.323
X85.139 Y43.22 Z0.317
X84.973 Y43.167 Z0.311
X84.813 Y43.098 Z0.305
X84.66 Y43.015 Z0.299
X84.515 Y42.919 Z0.293
X84.379 Y42.809 Z0.287
X84.254 Y42.688 Z0.281
X84.141 Y42.555 Z0.275
X84.04 Y42.413 Z0.269
X83.953 Y42.262 Z0.263
X83.88 Y42.104 Z0.257
X83.822 Y41.94 Z0.25
X83.779 Y41.771 Z0.244
X83.751 Y41.599 Z0.238
X83.74 Y41.425 Z0.232
X83.745 Y41.251 Z0.226
X83.765 Y41.078 Z0.22
X83.801 Y40.907 Z0.214
X83.853 Y40.741 Z0.208
X83.92 Y40.58 Z0.202
X84.001 Y40.426 Z0.196
X84.096 Y40.28 Z0.19
X84.204 Y40.143 Z0.183
X84.324 Y40.017 Z0.177
X84.455 Y39.902 Z0.171
X84.596 Y39.8 Z0.165
X84.746 Y39.711 Z0.159
X84.903 Y39.636 Z0.153
X85.067 Y39.576 Z0.147
X85.235 Y39.531 Z0.141
X85.407 Y39.502 Z0.135
X85.581 Y39.488 Z0.129
X85.755 Y39.491 Z0.123
X85.928 Y39.509 Z0.117
X86.099 Y39.544 Z0.11
X86.266 Y39.594 Z0.104
X86.428 Y39.659 Z0.098
X86.583 Y39.738 Z0.092
X86.73 Y39.831 Z0.086
X86.868 Y39.938 Z0.08
X86.996 Y40.057 Z0.074
X87.112 Y40.186 Z0.068
X87.216 Y40.326 Z0.062
X87.306 Y40.475 Z0.056
X87.383 Y40.632 Z0.05
X87.445 Y40.795 Z0.043
X87.491 Y40.962 Z0.037
X87.523 Y41.134 Z0.031
X87.538 Y41.307 Z0.025
X87.537 Y41.482 Z0.019
X87.521 Y41.655 Z0.013
X87.488 Y41.826 Z0.007
X87.44 Y41.994 Z0.001
X87.377 Y42.156 Z-0.005
X87.299 Y42.312 Z-0.011
X87.208 Y42.46 Z-0.017
X87.103 Y42.599 Z-0.023
X86.986 Y42.728 Z-0.03
X86.857 Y42.846 Z-0.036
X86.718 Y42.951 Z-0.042
X86.57 Y43.044 Z-0.048
X86.415 Y43.122 Z-0.054
X86.253 Y43.186 Z-0.06
X86.085 Y43.234 Z-0.066
X85.914 Y43.267 Z-0.072
X85.741 Y43.285 Z-0.078
X85.567 Y43.286 Z-0.084
X85.393 Y43.271 Z-0.09
X85.221 Y43.241 Z-0.097
X85.053 Y43.195 Z-0.103
X84.89 Y43.133 Z-0.109
X84.733 Y43.057 Z-0.115
X84.584 Y42.967 Z-0.121
X84.444 Y42.864 Z-0.127
X84.314 Y42.748 Z-0.133
X84.195 Y42.621 Z-0.139
X84.088 Y42.484 Z-0.145
X83.994 Y42.337 Z-0.151
X83.914 Y42.182 Z-0.157
X83.848 Y42.021 Z-0.163
X83.798 Y41.854 Z-0.17
X83.763 Y41.683 Z-0.176
X83.744 Y41.51 Z-0.182
X83.74 Y41.336 Z-0.188
X83.753 Y41.162 Z-0.194
X83.782 Y40.99 Z-0.2
X83.826 Y40.821 Z-0.206
X83.885 Y40.658 Z-0.212
X83.96 Y40.5 Z-0.218
X84.048 Y40.35 Z-0.224
X84.15 Y40.208 Z-0.23
X84.264 Y40.077 Z-0.237
X84.39 Y39.956 Z-0.243
X84.526 Y39.848 Z-0.249
X84.672 Y39.752 Z-0.255
X84.826 Y39.671 Z-0.261
X84.986 Y39.603 Z-0.267
X85.153 Y39.551 Z-0.273
X85.323 Y39.514 Z-0.279
X85.496 Y39.493 Z-0.285
X85.67 Y39.488 Z-0.291
X85.844 Y39.498 Z-0.297
X86.016 Y39.525 Z-0.303
X86.185 Y39.567 Z-0.31
X86.35 Y39.625 Z-0.316
X86.508 Y39.698 Z-0.322
X86.659 Y39.784 Z-0.328
X86.802 Y39.884 Z-0.334
X86.935 Y39.997 Z-0.34
X87.057 Y40.122 Z-0.346
X87.167 Y40.257 Z-0.352
X87.264 Y40.401 Z-0.358
X87.347 Y40.554 Z-0.364
X87.416 Y40.714 Z-0.37
X87.471 Y40.88 Z-0.377
X87.509 Y41.05 Z-0.383
X87.532 Y41.222 Z-0.389
X87.54 Y41.397 Z-0.395
X87.531 Y41.571 Z-0.401
X87.506 Y41.743 Z-0.407
X87.466 Y41.913 Z-0.413
X87.41 Y42.078 Z-0.419
X87.339 Y42.237 Z-0.425
X87.254 Y42.389 Z-0.431
X87.156 Y42.533 Z-0.437
X87.044 Y42.667 Z-0.443
X86.921 Y42.79 Z-0.45
X86.787 Y42.902 Z-0.456
X86.644 Y43. Z-0.462
X86.492 Y43.086 Z-0.468
X86.333 Y43.157 Z-0.474
X86.168 Y43.213 Z-0.48
X85.998 Y43.253 Z-0.486
X85.826 Y43.278 Z-0.492
X85.652 Y43.287 Z-0.498
X85.478 Y43.28 Z-0.504
X85.305 Y43.258 Z-0.51
X85.135 Y43.219 Z-0.517
X84.969 Y43.165 Z-0.523
X84.809 Y43.096 Z-0.529
X84.656 Y43.013 Z-0.535
X84.511 Y42.916 Z-0.541
X84.376 Y42.806 Z-0.547
X84.251 Y42.685 Z-0.553
X84.138 Y42.552 Z-0.559
X84.038 Y42.41 Z-0.565
X83.951 Y42.259 Z-0.571
X83.878 Y42.1 Z-0.577
X83.82 Y41.936 Z-0.583
X83.778 Y41.767 Z-0.59
X83.751 Y41.595 Z-0.596
X83.74 Y41.421 Z-0.602
X83.745 Y41.247 Z-0.608
X83.766 Y41.074 Z-0.614
X83.802 Y40.903 Z-0.62
X83.854 Y40.737 Z-0.626
X83.921 Y40.576 Z-0.632
X84.003 Y40.422 Z-0.638
X84.098 Y40.276 Z-0.644
X84.207 Y40.14 Z-0.65
X84.327 Y40.014 Z-0.657
X84.458 Y39.899 Z-0.663
X84.6 Y39.797 Z-0.669
X84.75 Y39.709 Z-0.675
X84.907 Y39.634 Z-0.681
X85.071 Y39.575 Z-0.687
X85.239 Y39.53 Z-0.693
X85.411 Y39.501 Z-0.699
X85.585 Y39.488 Z-0.705
X85.759 Y39.491 Z-0.711
X85.932 Y39.51 Z-0.717
X86.103 Y39.545 Z-0.723
X86.27 Y39.595 Z-0.73
X86.432 Y39.66 Z-0.736
X86.586 Y39.74 Z-0.742
X86.733 Y39.834 Z-0.748
X86.871 Y39.941 Z-0.754
X86.998 Y40.059 Z-0.76
X87.114 Y40.189 Z-0.766
X87.218 Y40.33 Z-0.772
X87.308 Y40.479 Z-0.778
X87.384 Y40.635 Z-0.784
X87.446 Y40.798 Z-0.79
X87.492 Y40.966 Z-0.797
X87.523 Y41.138 Z-0.803
X87.538 Y41.311 Z-0.809
X87.537 Y41.486 Z-0.815
X87.52 Y41.659 Z-0.821
X87.487 Y41.83 Z-0.827
X87.439 Y41.998 Z-0.833
X87.375 Y42.16 Z-0.839
X87.297 Y42.316 Z-0.845
X87.205 Y42.464 Z-0.851
X87.1 Y42.603 Z-0.857
X86.983 Y42.731 Z-0.863
X86.854 Y42.849 Z-0.87
X86.715 Y42.954 Z-0.876
X86.567 Y43.046 Z-0.882
X86.411 Y43.124 Z-0.888
X86.249 Y43.187 Z-0.894
X86.081 Y43.235 Z-0.9
X85.91 Y43.268 Z-0.906
X85.737 Y43.285 Z-0.912
X85.563 Y43.286 Z-0.918
X85.389 Y43.271 Z-0.924
X85.217 Y43.24 Z-0.93
X85.05 Y43.193 Z-0.937
X84.887 Y43.132 Z-0.943
X84.73 Y43.055 Z-0.949
X84.581 Y42.965 Z-0.955
X84.441 Y42.862 Z-0.961
X84.311 Y42.745 Z-0.967
X84.192 Y42.618 Z-0.973
X84.085 Y42.48 Z-0.979
X83.992 Y42.333 Z-0.985
X83.912 Y42.178 Z-0.991
X83.847 Y42.017 Z-0.997
X83.797 Y41.85 Z-1.003
X83.762 Y41.679 Z-1.01
X83.743 Y41.506 Z-1.016
X83.74 Y41.332 Z-1.022
X83.754 Y41.158 Z-1.028
X83.782 Y40.986 Z-1.034
X83.827 Y40.818 Z-1.04
X83.887 Y40.654 Z-1.046
X83.961 Y40.496 Z-1.052
X84.05 Y40.346 Z-1.058
X84.152 Y40.205 Z-1.064
X84.267 Y40.074 Z-1.07
X84.393 Y39.954 Z-1.077
X84.529 Y39.846 Z-1.083
X84.675 Y39.75 Z-1.089
X84.829 Y39.669 Z-1.095
X84.99 Y39.602 Z-1.101
X85.157 Y39.55 Z-1.107
X85.327 Y39.513 Z-1.113
X85.5 Y39.493 Z-1.119
X85.674 Y39.488 Z-1.125
X85.848 Y39.499 Z-1.131
X86.02 Y39.526 Z-1.137
X86.189 Y39.569 Z-1.143
X86.353 Y39.627 Z-1.15
X86.512 Y39.699 Z-1.156
X86.663 Y39.786 Z-1.162
X86.805 Y39.887 Z-1.168
X86.938 Y40. Z-1.174
X87.059 Y40.125 Z-1.18
X87.169 Y40.26 Z-1.186
X87.266 Y40.405 Z-1.192
X87.349 Y40.558 Z-1.198
X87.418 Y40.718 Z-1.204
X87.472 Y40.884 Z-1.21
X87.51 Y41.054 Z-1.217
X87.533 Y41.226 Z-1.223
X87.54 Y41.401 Z-1.229
X87.53 Y41.575 Z-1.235
X87.505 Y41.747 Z-1.241
X87.464 Y41.916 Z-1.247
X87.408 Y42.081 Z-1.253
X87.337 Y42.241 Z-1.259
X87.252 Y42.392 Z-1.265
X87.153 Y42.536 Z-1.271
X87.042 Y42.67 Z-1.277
X86.918 Y42.793 Z-1.283
X86.784 Y42.904 Z-1.29
X86.64 Y43.003 Z-1.296
X86.488 Y43.087 Z-1.302
X86.329 Y43.158 Z-1.308
X86.164 Y43.214 Z-1.314
X85.994 Y43.254 Z-1.32
X85.822 Y43.279 Z-1.326
X85.648 Y43.287 Z-1.332
X85.474 Y43.28 Z-1.338
X85.301 Y43.257 Z-1.344
X85.131 Y43.218 Z-1.35
X84.965 Y43.164 Z-1.357
X84.806 Y43.095 Z-1.363
X84.653 Y43.011 Z-1.369
X84.508 Y42.914 Z-1.375
X84.373 Y42.804 Z-1.381
X84.249 Y42.682 Z-1.387
X84.136 Y42.549 Z-1.393
X84.036 Y42.406 Z-1.399
X83.949 Y42.255 Z-1.405
X83.877 Y42.096 Z-1.411
X83.819 Y41.932 Z-1.417
X83.777 Y41.763 Z-1.423
X83.751 Y41.591 Z-1.43
X83.74 Y41.417 Z-1.436
X83.745 Y41.243 Z-1.442
X83.766 Y41.07 Z-1.448
X83.803 Y40.899 Z-1.454
X83.856 Y40.733 Z-1.46
X83.923 Y40.573 Z-1.466
X84.005 Y40.419 Z-1.472
X84.101 Y40.273 Z-1.478
X84.209 Y40.137 Z-1.484
X84.33 Y40.011 Z-1.49
X84.461 Y39.897 Z-1.497
X84.603 Y39.795 Z-1.503
X84.753 Y39.707 Z-1.509
X84.911 Y39.633 Z-1.515
X85.075 Y39.573 Z-1.521
X85.243 Y39.529 Z-1.527
X85.415 Y39.501 Z-1.533
X85.589 Y39.488 Z-1.539
X85.763 Y39.491 Z-1.545
X85.936 Y39.511 Z-1.551
X86.107 Y39.546 Z-1.557
X86.274 Y39.596 Z-1.563
X86.435 Y39.662 Z-1.57
X86.59 Y39.742 Z-1.576
X86.737 Y39.836 Z-1.582
X86.874 Y39.943 Z-1.588
X87.001 Y40.062 Z-1.594
X87.117 Y40.193 Z-1.6
X87.22 Y40.333 Z-1.606
X87.31 Y40.482 Z-1.612
X87.386 Y40.639 Z-1.618
X87.447 Y40.802 Z-1.624
X87.493 Y40.97 Z-1.63
X87.524 Y41.142 Z-1.637
X87.538 Y41.315 Z-1.643
X87.537 Y41.49 Z-1.649
X87.519 Y41.663 Z-1.655
X87.486 Y41.834 Z-1.661
X87.438 Y42.001 Z-1.667
X87.374 Y42.164 Z-1.673
X87.295 Y42.319 Z-1.679
X87.203 Y42.467 Z-1.685
X87.098 Y42.606 Z-1.691
X86.98 Y42.734 Z-1.697
X86.851 Y42.851 Z-1.703
X86.712 Y42.956 Z-1.71
X86.563 Y43.048 Z-1.716
X86.407 Y43.125 Z-1.722
X86.245 Y43.188 Z-1.728
X86.077 Y43.236 Z-1.734
X85.906 Y43.269 Z-1.74
X85.733 Y43.285 Z-1.746
X85.559 Y43.286 Z-1.752
X85.385 Y43.27 Z-1.758
X85.214 Y43.239 Z-1.764
X85.046 Y43.192 Z-1.77
X84.883 Y43.13 Z-1.777
X84.726 Y43.054 Z-1.783
X84.578 Y42.963 Z-1.789
X84.438 Y42.859 Z-1.795
X84.308 Y42.743 Z-1.801
X84.189 Y42.615 Z-1.807
X84.083 Y42.477 Z-1.813
X83.99 Y42.33 Z-1.819
X83.91 Y42.175 Z-1.825
X83.846 Y42.013 Z-1.831
X83.796 Y41.846 Z-1.837
X83.762 Y41.675 Z-1.843
X83.743 Y41.502 Z-1.85
X83.741 Y41.328 Z-1.856
X83.754 Y41.154 Z-1.862
X83.783 Y40.982 Z-1.868
X83.828 Y40.814 Z-1.874
X83.888 Y40.65 Z-1.88
X83.963 Y40.493 Z-1.886
X84.052 Y40.343 Z-1.892
X84.155 Y40.202 Z-1.898
X84.27 Y40.071 Z-1.904
X84.396 Y39.951 Z-1.91
X84.533 Y39.843 Z-1.917
X84.679 Y39.748 Z-1.923
X84.833 Y39.667 Z-1.929
X84.994 Y39.6 Z-1.935
X85.16 Y39.549 Z-1.941
X85.331 Y39.513 Z-1.947
X85.504 Y39.492 Z-1.953
X85.678 Y39.488 Z-1.959
X85.852 Y39.499 Z-1.965
X86.024 Y39.527 Z-1.971
X86.193 Y39.57 Z-1.977
X86.357 Y39.628 Z-1.983
X86.515 Y39.701 Z-1.99
X86.666 Y39.789 Z-1.996
X86.808 Y39.889 Z-2.002
X86.941 Y40.003 Z-2.008
X87.062 Y40.128 Z-2.014
X87.171 Y40.263 Z-2.02
X87.268 Y40.408 Z-2.026
X87.351 Y40.562 Z-2.032
X87.419 Y40.722 Z-2.038
X87.473 Y40.888 Z-2.044
X87.511 Y41.058 Z-2.05
X87.533 Y41.231 Z-2.057
X87.54 Y41.405 Z-2.063
X87.53 Y41.579 Z-2.069
X87.504 Y41.751 Z-2.075
X87.463 Y41.92 Z-2.081
X87.407 Y42.085 Z-2.087
X87.335 Y42.244 Z-2.093
X87.25 Y42.396 Z-2.099
X87.151 Y42.539 Z-2.105
X87.039 Y42.673 Z-2.111
X86.915 Y42.796 Z-2.117
X86.781 Y42.906 Z-2.123
X86.637 Y43.005 Z-2.13
X86.485 Y43.089 Z-2.136
X86.325 Y43.159 Z-2.142
X86.16 Y43.215 Z-2.148
X85.99 Y43.255 Z-2.154
X85.818 Y43.279 Z-2.16
X85.644 Y43.287 Z-2.166
X85.47 Y43.28 Z-2.172
X85.297 Y43.256 Z-2.178
X85.127 Y43.217 Z-2.184
X84.962 Y43.162 Z-2.19
X84.802 Y43.093 Z-2.197
X84.649 Y43.009 Z-2.203
X84.505 Y42.911 Z-2.209
X84.37 Y42.801 Z-2.215
X84.246 Y42.679 Z-2.221
X84.133 Y42.546 Z-2.227
X84.034 Y42.403 Z-2.233
X83.947 Y42.251 Z-2.239
X83.875 Y42.093 Z-2.245
X83.818 Y41.928 Z-2.251
X83.776 Y41.759 Z-2.257
X83.75 Y41.587 Z-2.263
X83.74 Y41.413 Z-2.27
X83.745 Y41.239 Z-2.276
X83.767 Y41.066 Z-2.282
X83.804 Y40.895 Z-2.288
X83.857 Y40.729 Z-2.294
X83.925 Y40.569 Z-2.3
X84.007 Y40.415 Z-2.306
X84.103 Y40.27 Z-2.312
X84.212 Y40.134 Z-2.318
X84.333 Y40.008 Z-2.324
X84.465 Y39.894 Z-2.33
X84.606 Y39.793 Z-2.337
X84.757 Y39.705 Z-2.343
X84.915 Y39.631 Z-2.349
X85.079 Y39.572 Z-2.355
X85.247 Y39.528 Z-2.361
X85.419 Y39.5 Z-2.367
X85.593 Y39.488 Z-2.373
X85.767 Y39.492 Z-2.379
X85.94 Y39.511 Z-2.385
X86.111 Y39.547 Z-2.391
X86.278 Y39.598 Z-2.397
X86.439 Y39.664 Z-2.403
X86.593 Y39.744 Z-2.41
X86.74 Y39.838 Z-2.416
X86.877 Y39.946 Z-2.422
X87.004 Y40.065 Z-2.428
X87.119 Y40.196 Z-2.434
X87.222 Y40.336 Z-2.44
X87.312 Y40.486 Z-2.446
X87.388 Y40.643 Z-2.452
X87.448 Y40.806 Z-2.458
X87.494 Y40.974 Z-2.464
X87.524 Y41.146 Z-2.47
X87.538 Y41.32 Z-2.477
X87.537 Y41.494 Z-2.483
X87.519 Y41.667 Z-2.489
X87.485 Y41.838 Z-2.495
X87.436 Y42.005 Z-2.501
X87.372 Y42.167 Z-2.507
X87.293 Y42.323 Z-2.513
X87.201 Y42.47 Z-2.519
X87.095 Y42.609 Z-2.525
X86.977 Y42.737 Z-2.531
X86.848 Y42.854 Z-2.537
X86.708 Y42.958 Z-2.543
X86.56 Y43.05 Z-2.55
X86.404 Y43.127 Z-2.556
X86.241 Y43.19 Z-2.562
X86.074 Y43.237 Z-2.568
X85.902 Y43.269 Z-2.574
X85.729 Y43.285 Z-2.58
X85.555 Z-2.586
X85.381 Y43.27 Z-2.592
X85.21 Y43.238 Z-2.598
X85.042 Y43.191 Z-2.604
X84.879 Y43.129 Z-2.61
X84.723 Y43.052 Z-2.617
X84.574 Y42.961 Z-2.623
X84.435 Y42.856 Z-2.629
X84.305 Y42.74 Z-2.635
X84.187 Y42.612 Z-2.641
X84.081 Y42.474 Z-2.647
X83.988 Y42.326 Z-2.653
X83.909 Y42.171 Z-2.659
X83.844 Y42.009 Z-2.665
X83.795 Y41.842 Z-2.671
X83.761 Y41.671 Z-2.677
X83.743 Y41.498 Z-2.683
X83.741 Y41.324 Z-2.69
X83.755 Y41.15 Z-2.696
X83.784 Y40.978 Z-2.702
X83.83 Y40.81 Z-2.708
X83.89 Y40.647 Z-2.714
X83.965 Y40.489 Z-2.72
X84.055 Y40.34 Z-2.726
X84.157 Y40.199 Z-2.732
X84.272 Y40.068 Z-2.738
X84.399 Y39.948 Z-2.744
X84.536 Y39.841 Z-2.75
X84.682 Y39.746 Z-2.757
X84.837 Y39.665 Z-2.763
X84.998 Y39.599 Z-2.769
X85.164 Y39.548 Z-2.775
X85.335 Y39.512 Z-2.781
X85.508 Y39.492 Z-2.787
X85.682 Y39.488 Z-2.793
X85.856 Y39.5 Z-2.799
X86.028 Y39.528 Z-2.805
X86.197 Y39.571 Z-2.811
X86.361 Y39.63 Z-2.817
X86.519 Y39.703 Z-2.823
X86.669 Y39.791 Z-2.83
X86.811 Y39.892 Z-2.836
X86.943 Y40.005 Z-2.842
X87.065 Y40.131 Z-2.848
X87.174 Y40.267 Z-2.854
X87.27 Y40.412 Z-2.86
X87.353 Y40.565 Z-2.866
X87.421 Y40.726 Z-2.872
X87.474 Y40.892 Z-2.878
X87.511 Y41.062 Z-2.884
X87.533 Y41.235 Z-2.89
X87.539 Y41.409 Z-2.897
X87.53 Y41.583 Z-2.903
X87.504 Y41.755 Z-2.909
X87.462 Y41.924 Z-2.915
X87.405 Y42.089 Z-2.921
X87.334 Y42.248 Z-2.927
X87.248 Y42.399 Z-2.933
X87.148 Y42.542 Z-2.939
X87.036 Y42.676 Z-2.945
X86.912 Y42.798 Z-2.951
X86.778 Y42.909 Z-2.957
X86.633 Y43.007 Z-2.963
X86.481 Y43.091 Z-2.97
X86.321 Y43.161 Z-2.976
X86.156 Y43.216 Z-2.982
X85.986 Y43.256 Z-2.988
X85.814 Y43.279 Z-2.994
X85.64 Y43.287 Z-3.
X43.308
G3 X43.073 Y43.052 R0.235
G1 Y42.948
G3 X43.308 Y42.713 R0.235
G1 X85.692
G3 X85.927 Y42.948 R0.235
G1 Y43.052
G3 X85.692 Y43.287 R0.235
G1 X85.64
G2 X83.915 Y44.437 R1.869
G3 X82.19 Y45.587 R1.869
G1 X41.092
G3 X40.773 Y45.268 R0.319
G1 Y40.732
G3 X41.092 Y40.413 R0.319
G1 X87.908
G3 X88.227 Y40.732 R0.319
G1 Y45.268
G3 X87.908 Y45.587 R0.319
G1 X82.19
G2 X80.465 Y46.737 R1.869
G3 X78.74 Y47.887 R1.869
G1 X38.792
G3 X38.473 Y47.568 R0.319
G1 Y38.432
G3 X38.792 Y38.113 R0.319
G1 X90.208
G3 X90.527 Y38.432 R0.319
G1 Y47.568
G3 X90.208 Y47.887 R0.319
G1 X78.74
G2 X77.015 Y49.037 R1.869
G3 X75.29 Y50.187 R1.869
G1 X36.492
G3 X36.173 Y49.868 R0.319
G1 Y36.132
G3 X36.492 Y35.813 R0.319
G1 X92.508
G3 X92.827 Y36.132 R0.319
G1 Y49.868
G3 X92.508 Y50.187 R0.319
G1 X75.29
G2 X73.565 Y51.337 R1.869
G3 X71.84 Y52.487 R1.869
G1 X34.192
G3 X33.873 Y52.168 R0.319
G1 Y33.832
G3 X34.192 Y33.513 R0.319
G1 X94.808
G3 X95.127 Y33.832 R0.319
G1 Y52.168
G3 X94.808 Y52.487 R0.319
G1 X71.84
G2 X70.115 Y53.637 R1.869
G3 X68.39 Y54.787 R1.869
G1 X31.892
G3 X31.573 Y54.468 R0.319
G1 Y31.532
G3 X31.892 Y31.213 R0.319
G1 X97.108
G3 X97.427 Y31.532 R0.319
G1 Y54.468
G3 X97.108 Y54.787 R0.319
G1 X68.39
G2 X66.665 Y55.937 R1.869
G3 X64.94 Y57.087 R1.869
G1 X29.592
G3 X29.273 Y56.768 R0.319
G1 Y29.232
G3 X29.592 Y28.913 R0.319
G1 X99.408
G3 X99.727 Y29.232 R0.319
G1 Y56.768
G3 X99.408 Y57.087 R0.319
G1 X64.94
G2 X63.215 Y58.237 R1.869
G3 X61.49 Y59.387 R1.869
G1 X27.292
G3 X26.973 Y59.068 R0.319
G1 Y26.932
G3 X27.292 Y26.613 R0.319
G1 X101.708
G3 X102.027 Y26.932 R0.319
G1 Y59.068
G3 X101.708 Y59.387 R0.319
G1 X61.49
G2 X59.765 Y60.537 R1.869
G3 X58.04 Y61.687 R1.869
G1 X24.992
G3 X24.673 Y61.368 R0.319
G1 Y24.632
G3 X24.992 Y24.313 R0.319
G1 X104.008
G3 X104.327 Y24.632 R0.319
G1 Y61.368
G3 X104.008 Y61.687 R0.319
G1 X58.04
G2 X56.315 Y62.837 R1.869
G3 X54.59 Y63.987 R1.869
G1 X22.692
G3 X22.373 Y63.668 R0.319
G1 Y22.332
G3 X22.692 Y22.013 R0.319
G1 X106.308
G3 X106.627 Y22.332 R0.319
G1 Y63.668
G3 X106.308 Y63.987 R0.319
G1 X54.59
G2 X52.865 Y65.137 R1.869
G3 X51.14 Y66.287 R1.869
G1 X20.392
G3 X20.073 Y65.968 R0.319
G1 Y20.032
G3 X20.392 Y19.713 R0.319
G1 X108.608
G3 X108.927 Y20.032 R0.319
G1 Y65.968
G3 X108.608 Y66.287 R0.319
G1 X51.14
G2 X49.415 Y67.437 R1.869
G3 X47.69 Y68.587 R1.869
G1 X18.092
G3 X17.773 Y68.268 R0.319
G1 Y17.732
G3 X18.092 Y17.413 R0.319
G1 X110.908
G3 X111.227 Y17.732 R0.319
G1 Y68.268
G3 X110.908 Y68.587 R0.319
G1 X47.69
G2 X45.965 Y69.737 R1.869
G3 X44.24 Y70.887 R1.869
G1 X15.792
G3 X15.473 Y70.568 R0.319
G1 Y15.432
G3 X15.792 Y15.113 R0.319
G1 X113.208
G3 X113.527 Y15.432 R0.319
G1 Y70.568
G3 X113.208 Y70.887 R0.319
G1 X44.24
G2 X42.515 Y72.037 R1.869
G3 X40.79 Y73.187 R1.869
G1 X13.492
G3 X13.173 Y72.868 R0.319
G1 Y13.132
G3 X13.492 Y12.813 R0.319
G1 X115.508
G3 X115.827 Y13.132 R0.319
G1 Y72.868
G3 X115.508 Y73.187 R0.319
G1 X40.79
G2 X39.065 Y74.337 R1.869
G3 X37.34 Y75.487 R1.869
G1 X11.818
G3 X10.873 Y74.542 R0.946
G1 Y11.458
G3 X11.818 Y10.513 R0.946
G1 X117.808
G3 X118.127 Y10.832 R0.319
G1 Y75.168
G3 X117.808 Y75.487 R0.319
G1 X37.34
G2 X35.615 Y76.637 R1.869
G3 X33.89 Y77.787 R1.869
G1 X10.929
G3 X10.05 Y77.423 R1.243
G1 X8.937 Y76.31
G3 X8.573 Y75.431 R1.243
G1 Y10.569
G3 X8.937 Y9.69 R1.243
G1 X10.05 Y8.577
G3 X10.929 Y8.213 R1.243
G1 X120.108
G3 X120.427 Y8.532 R0.319
G1 Y77.468
G3 X120.108 Y77.787 R0.319
G1 X33.89
G2 X32.165 Y78.937 R1.869
G3 X30.44 Y80.087 R1.869
G1 X9.976
G3 X9.097 Y79.723 R1.243
G1 X6.637 Y77.263
G3 X6.273 Y76.384 R1.243
G1 Y9.616
G3 X6.637 Y8.737 R1.243
G1 X9.097 Y6.277
G3 X9.976 Y5.913 R1.243
G1 X122.408
G3 X122.727 Y6.232 R0.319
G1 Y79.768
G3 X122.408 Y80.087 R0.319
G1 X30.44
G2 X28.711 Y81.24 R1.873
G3 X26.982 Y82.392 R1.873
G1 X8.507
X3.968 Y77.853
Y8.147
X8.507 Y3.608
X125.032
Y82.392
X26.982
X26.906 Y82.385 Z-2.985
X26.833 Y82.363 Z-2.97
X26.775 Y82.334 Z-2.926
X26.722 Y82.297 Z-2.883
X26.691 Y82.267 Z-2.818
X26.663 Y82.233 Z-2.753
X26.646 Y82.209 Z-2.6
G0 Z5.
X86.471 Y39.679
G1 Z0.1 F380.
Z-0.1 F1500.
X86.497 Y39.692 Z-0.25
X86.57 Y39.731 Z-0.378
X86.677 Y39.796 Z-0.466
X86.799 Y39.882 Z-0.5
X86.932 Y39.994 Z-0.506
X87.054 Y40.119 Z-0.512
X87.164 Y40.254 Z-0.518
X87.262 Y40.398 Z-0.524
X87.345 Y40.551 Z-0.53
X87.415 Y40.71 Z-0.537
X87.469 Y40.876 Z-0.543
X87.509 Y41.046 Z-0.549
X87.532 Y41.218 Z-0.555
X87.54 Y41.393 Z-0.561
X87.531 Y41.567 Z-0.567
X87.507 Y41.739 Z-0.573
X87.467 Y41.909 Z-0.579
X87.411 Y42.074 Z-0.585
X87.341 Y42.233 Z-0.591
X87.256 Y42.386 Z-0.597
X87.158 Y42.529 Z-0.603
X87.047 Y42.664 Z-0.61
X86.924 Y42.787 Z-0.616
X86.791 Y42.899 Z-0.622
X86.647 Y42.998 Z-0.628
X86.495 Y43.084 Z-0.634
X86.336 Y43.155 Z-0.64
X86.171 Y43.211 Z-0.646
X86.002 Y43.252 Z-0.652
X85.83 Y43.278 Z-0.658
X85.656 Y43.287 Z-0.664
X85.482 Y43.281 Z-0.67
X85.309 Y43.258 Z-0.677
X85.139 Y43.22 Z-0.683
X84.973 Y43.167 Z-0.689
X84.813 Y43.098 Z-0.695
X84.66 Y43.015 Z-0.701
X84.515 Y42.919 Z-0.707
X84.379 Y42.809 Z-0.713
X84.254 Y42.688 Z-0.719
X84.141 Y42.555 Z-0.725
X84.04 Y42.413 Z-0.731
X83.953 Y42.262 Z-0.737
X83.88 Y42.104 Z-0.743
X83.822 Y41.94 Z-0.75
X83.779 Y41.771 Z-0.756
X83.751 Y41.599 Z-0.762
X83.74 Y41.425 Z-0.768
X83.745 Y41.251 Z-0.774
X83.765 Y41.078 Z-0.78
X83.801 Y40.907 Z-0.786
X83.853 Y40.741 Z-0.792
X83.92 Y40.58 Z-0.798
X84.001 Y40.426 Z-0.804
X84.096 Y40.28 Z-0.81
X84.204 Y40.143 Z-0.817
X84.324 Y40.017 Z-0.823
X84.455 Y39.902 Z-0.829
X84.596 Y39.8 Z-0.835
X84.746 Y39.711 Z-0.841
X84.903 Y39.636 Z-0.847
X85.067 Y39.576 Z-0.853
X85.235 Y39.531 Z-0.859
X85.407 Y39.502 Z-0.865
X85.581 Y39.488 Z-0.871
X85.755 Y39.491 Z-0.877
X85.928 Y39.509 Z-0.883
X86.099 Y39.544 Z-0.89
X86.266 Y39.594 Z-0.896
X86.428 Y39.659 Z-0.902
X86.583 Y39.738 Z-0.908
X86.73 Y39.831 Z-0.914
X86.868 Y39.938 Z-0.92
X86.996 Y40.057 Z-0.926
X87.112 Y40.186 Z-0.932
X87.216 Y40.326 Z-0.938
X87.306 Y40.475 Z-0.944
X87.383 Y40.632 Z-0.95
X87.445 Y40.795 Z-0.957
X87.491 Y40.962 Z-0.963
X87.523 Y41.134 Z-0.969
X87.538 Y41.307 Z-0.975
X87.537 Y41.482 Z-0.981
X87.521 Y41.655 Z-0.987
X87.488 Y41.826 Z-0.993
X87.44 Y41.994 Z-0.999
X87.377 Y42.156 Z-1.005
X87.299 Y42.312 Z-1.011
X87.208 Y42.46 Z-1.017
X87.103 Y42.599 Z-1.023
X86.986 Y42.728 Z-1.03
X86.857 Y42.846 Z-1.036
X86.718 Y42.951 Z-1.042
X86.57 Y43.044 Z-1.048
X86.415 Y43.122 Z-1.054
X86.253 Y43.186 Z-1.06
X86.085 Y43.234 Z-1.066
X85.914 Y43.267 Z-1.072
X85.741 Y43.285 Z-1.078
X85.567 Y43.286 Z-1.084
X85.393 Y43.271 Z-1.09
X85.221 Y43.241 Z-1.097
X85.053 Y43.195 Z-1.103
X84.89 Y43.133 Z-1.109
X84.733 Y43.057 Z-1.115
X84.584 Y42.967 Z-1.121
X84.444 Y42.864 Z-1.127
X84.314 Y42.748 Z-1.133
X84.195 Y42.621 Z-1.139
X84.088 Y42.484 Z-1.145
X83.994 Y42.337 Z-1.151
X83.914 Y42.182 Z-1.157
X83.848 Y42.021 Z-1.163
X83.798 Y41.854 Z-1.17
X83.763 Y41.683 Z-1.176
X83.744 Y41.51 Z-1.182
X83.74 Y41.336 Z-1.188
X83.753 Y41.162 Z-1.194
X83.782 Y40.99 Z-1.2
X83.826 Y40.821 Z-1.206
X83.885 Y40.658 Z-1.212
X83.96 Y40.5 Z-1.218
X84.048 Y40.35 Z-1.224
X84.15 Y40.208 Z-1.23
X84.264 Y40.077 Z-1.237
X84.39 Y39.956 Z-1.243
X84.526 Y39.848 Z-1.249
X84.672 Y39.752 Z-1.255
X84.826 Y39.671 Z-1.261
X84.986 Y39.603 Z-1.267
X85.153 Y39.551 Z-1.273
X85.323 Y39.514 Z-1.279
X85.496 Y39.493 Z-1.285
X85.67 Y39.488 Z-1.291
X85.844 Y39.498 Z-1.297
X86.016 Y39.525 Z-1.303
X86.185 Y39.567 Z-1.31
X86.35 Y39.625 Z-1.316
X86.508 Y39.698 Z-1.322
X86.659 Y39.784 Z-1.328
X86.802 Y39.884 Z-1.334
X86.935 Y39.997 Z-1.34
X87.057 Y40.122 Z-1.346
X87.167 Y40.257 Z-1.352
X87.264 Y40.401 Z-1.358
X87.347 Y40.554 Z-1.364
X87.416 Y40.714 Z-1.37
X87.471 Y40.88 Z-1.377
X87.509 Y41.05 Z-1.383
X87.532 Y41.222 Z-1.389
X87.54 Y41.397 Z-1.395
X87.531 Y41.571 Z-1.401
X87.506 Y41.743 Z-1.407
X87.466 Y41.913 Z-1.413
X87.41 Y42.078 Z-1.419
X87.339 Y42.237 Z-1.425
X87.254 Y42.389 Z-1.431
X87.156 Y42.533 Z-1.437
X87.044 Y42.667 Z-1.443
X86.921 Y42.79 Z-1.45
X86.787 Y42.902 Z-1.456
X86.644 Y43. Z-1.462
X86.492 Y43.086 Z-1.468
X86.333 Y43.157 Z-1.474
X86.168 Y43.213 Z-1.48
X85.998 Y43.253 Z-1.486
X85.826 Y43.278 Z-1.492
X85.652 Y43.287 Z-1.498
X85.478 Y43.28 Z-1.504
X85.305 Y43.258 Z-1.51
X85.135 Y43.219 Z-1.517
X84.969 Y43.165 Z-1.523
X84.809 Y43.096 Z-1.529
X84.656 Y43.013 Z-1.535
X84.511 Y42.916 Z-1.541
X84.376 Y42.806 Z-1.547
X84.251 Y42.685 Z-1.553
X84.138 Y42.552 Z-1.559
X84.038 Y42.41 Z-1.565
X83.951 Y42.259 Z-1.571
X83.878 Y42.1 Z-1.577
X83.82 Y41.936 Z-1.583
X83.778 Y41.767 Z-1.59
X83.751 Y41.595 Z-1.596
X83.74 Y41.421 Z-1.602
X83.745 Y41.247 Z-1.608
X83.766 Y41.074 Z-1.614
X83.802 Y40.903 Z-1.62
X83.854 Y40.737 Z-1.626
X83.921 Y40.576 Z-1.632
X84.003 Y40.422 Z-1.638
X84.098 Y40.276 Z-1.644
X84.207 Y40.14 Z-1.65
X84.327 Y40.014 Z-1.657
X84.458 Y39.899 Z-1.663
X84.6 Y39.797 Z-1.669
X84.75 Y39.709 Z-1.675
X84.907 Y39.634 Z-1.681
X85.071 Y39.575 Z-1.687
X85.239 Y39.53 Z-1.693
X85.411 Y39.501 Z-1.699
X85.585 Y39.488 Z-1.705
X85.759 Y39.491 Z-1.711
X85.932 Y39.51 Z-1.717
X86.103 Y39.545 Z-1.723
X86.27 Y39.595 Z-1.73
X86.432 Y39.66 Z-1.736
X86.586 Y39.74 Z-1.742
X86.733 Y39.834 Z-1.748
X86.871 Y39.941 Z-1.754
X86.998 Y40.059 Z-1.76
X87.114 Y40.189 Z-1.766
X87.218 Y40.33 Z-1.772
X87.308 Y40.479 Z-1.778
X87.384 Y40.635 Z-1.784
X87.446 Y40.798 Z-1.79
X87.492 Y40.966 Z-1.797
X87.523 Y41.138 Z-1.803
X87.538 Y41.311 Z-1.809
X87.537 Y41.486 Z-1.815
X87.52 Y41.659 Z-1.821
X87.487 Y41.83 Z-1.827
X87.439 Y41.998 Z-1.833
X87.375 Y42.16 Z-1.839
X87.297 Y42.316 Z-1.845
X87.205 Y42.464 Z-1.851
X87.1 Y42.603 Z-1.857
X86.983 Y42.731 Z-1.863
X86.854 Y42.849 Z-1.87
X86.715 Y42.954 Z-1.876
X86.567 Y43.046 Z-1.882
X86.411 Y43.124 Z-1.888
X86.249 Y43.187 Z-1.894
X86.081 Y43.235 Z-1.9
X85.91 Y43.268 Z-1.906
X85.737 Y43.285 Z-1.912
X85.563 Y43.286 Z-1.918
X85.389 Y43.271 Z-1.924
X85.217 Y43.24 Z-1.93
X85.05 Y43.193 Z-1.937
X84.887 Y43.132 Z-1.943
X84.73 Y43.055 Z-1.949
X84.581 Y42.965 Z-1.955
X84.441 Y42.862 Z-1.961
X84.311 Y42.745 Z-1.967
X84.192 Y42.618 Z-1.973
X84.085 Y42.48 Z-1.979
X83.992 Y42.333 Z-1.985
X83.912 Y42.178 Z-1.991
X83.847 Y42.017 Z-1.997
X83.797 Y41.85 Z-2.003
X83.762 Y41.679 Z-2.01
X83.743 Y41.506 Z-2.016
X83.74 Y41.332 Z-2.022
X83.754 Y41.158 Z-2.028
X83.782 Y40.986 Z-2.034
X83.827 Y40.818 Z-2.04
X83.887 Y40.654 Z-2.046
X83.961 Y40.496 Z-2.052
X84.05 Y40.346 Z-2.058
X84.152 Y40.205 Z-2.064
X84.267 Y40.074 Z-2.07
X84.393 Y39.954 Z-2.077
X84.529 Y39.846 Z-2.083
X84.675 Y39.75 Z-2.089
X84.829 Y39.669 Z-2.095
X84.99 Y39.602 Z-2.101
X85.157 Y39.55 Z-2.107
X85.327 Y39.513 Z-2.113
X85.5 Y39.493 Z-2.119
X85.674 Y39.488 Z-2.125
X85.848 Y39.499 Z-2.131
X86.02 Y39.526 Z-2.137
X86.189 Y39.569 Z-2.143
X86.353 Y39.627 Z-2.15
X86.512 Y39.699 Z-2.156
X86.663 Y39.786 Z-2.162
X86.805 Y39.887 Z-2.168
X86.938 Y40. Z-2.174
X87.059 Y40.125 Z-2.18
X87.169 Y40.26 Z-2.186
X87.266 Y40.405 Z-2.192
X87.349 Y40.558 Z-2.198
X87.418 Y40.718 Z-2.204
X87.472 Y40.884 Z-2.21
X87.51 Y41.054 Z-2.217
X87.533 Y41.226 Z-2.223
X87.54 Y41.401 Z-2.229
X87.53 Y41.575 Z-2.235
X87.505 Y41.747 Z-2.241
X87.464 Y41.916 Z-2.247
X87.408 Y42.081 Z-2.253
X87.337 Y42.241 Z-2.259
X87.252 Y42.392 Z-2.265
X87.153 Y42.536 Z-2.271
X87.042 Y42.67 Z-2.277
X86.918 Y42.793 Z-2.283
X86.784 Y42.904 Z-2.29
X86.64 Y43.003 Z-2.296
X86.488 Y43.087 Z-2.302
X86.329 Y43.158 Z-2.308
X86.164 Y43.214 Z-2.314
X85.994 Y43.254 Z-2.32
X85.822 Y43.279 Z-2.326
X85.648 Y43.287 Z-2.332
X85.474 Y43.28 Z-2.338
X85.301 Y43.257 Z-2.344
X85.131 Y43.218 Z-2.35
X84.965 Y43.164 Z-2.357
X84.806 Y43.095 Z-2.363
X84.653 Y43.011 Z-2.369
X84.508 Y42.914 Z-2.375
X84.373 Y42.804 Z-2.381
X84.249 Y42.682 Z-2.387
X84.136 Y42.549 Z-2.393
X84.036 Y42.406 Z-2.399
X83.949 Y42.255 Z-2.405
X83.877 Y42.096 Z-2.411
X83.819 Y41.932 Z-2.417
X83.777 Y41.763 Z-2.423
X83.751 Y41.591 Z-2.43
X83.74 Y41.417 Z-2.436
X83.745 Y41.243 Z-2.442
X83.766 Y41.07 Z-2.448
X83.803 Y40.899 Z-2.454
X83.856 Y40.733 Z-2.46
X83.923 Y40.573 Z-2.466
X84.005 Y40.419 Z-2.472
X84.101 Y40.273 Z-2.478
X84.209 Y40.137 Z-2.484
X84.33 Y40.011 Z-2.49
X84.461 Y39.897 Z-2.497
X84.603 Y39.795 Z-2.503
X84.753 Y39.707 Z-2.509
X84.911 Y39.633 Z-2.515
X85.075 Y39.573 Z-2.521
X85.243 Y39.529 Z-2.527
X85.415 Y39.501 Z-2.533
X85.589 Y39.488 Z-2.539
X85.763 Y39.491 Z-2.545
X85.936 Y39.511 Z-2.551
X86.107 Y39.546 Z-2.557
X86.274 Y39.596 Z-2.563
X86.435 Y39.662 Z-2.57
X86.59 Y39.742 Z-2.576
X86.737 Y39.836 Z-2.582
X86.874 Y39.943 Z-2.588
X87.001 Y40.062 Z-2.594
X87.117 Y40.193 Z-2.6
X87.22 Y40.333 Z-2.606
X87.31 Y40.482 Z-2.612
X87.386 Y40.639 Z-2.618
X87.447 Y40.802 Z-2.624
X87.493 Y40.97 Z-2.63
X87.524 Y41.142 Z-2.637
X87.538 Y41.315 Z-2.643
X87.537 Y41.49 Z-2.649
X87.519 Y41.663 Z-2.655
X87.486 Y41.834 Z-2.661
X87.438 Y42.001 Z-2.667
X87.374 Y42.164 Z-2.673
X87.295 Y42.319 Z-2.679
X87.203 Y42.467 Z-2.685
X87.098 Y42.606 Z-2.691
X86.98 Y42.734 Z-2.697
X86.851 Y42.851 Z-2.703
X86.712 Y42.956 Z-2.71
X86.563 Y43.048 Z-2.716
X86.407 Y43.125 Z-2.722
X86.245 Y43.188 Z-2.728
X86.077 Y43.236 Z-2.734
X85.906 Y43.269 Z-2.74
X85.733 Y43.285 Z-2.746
X85.559 Y43.286 Z-2.752
X85.385 Y43.27 Z-2.758
X85.214 Y43.239 Z-2.764
X85.046 Y43.192 Z-2.77
X84.883 Y43.13 Z-2.777
X84.726 Y43.054 Z-2.783
X84.578 Y42.963 Z-2.789
X84.438 Y42.859 Z-2.795
X84.308 Y42.743 Z-2.801
X84.189 Y42.615 Z-2.807
X84.083 Y42.477 Z-2.813
X83.99 Y42.33 Z-2.819
X83.91 Y42.175 Z-2.825
X83.846 Y42.013 Z-2.831
X83.796 Y41.846 Z-2.837
X83.762 Y41.675 Z-2.843
X83.743 Y41.502 Z-2.85
X83.741 Y41.328 Z-2.856
X83.754 Y41.154 Z-2.862
X83.783 Y40.982 Z-2.868
X83.828 Y40.814 Z-2.874
X83.888 Y40.65 Z-2.88
X83.963 Y40.493 Z-2.886
X84.052 Y40.343 Z-2.892
X84.155 Y40.202 Z-2.898
X84.27 Y40.071 Z-2.904
X84.396 Y39.951 Z-2.91
X84.533 Y39.843 Z-2.917
X84.679 Y39.748 Z-2.923
X84.833 Y39.667 Z-2.929
X84.994 Y39.6 Z-2.935
X85.16 Y39.549 Z-2.941
X85.331 Y39.513 Z-2.947
X85.504 Y39.492 Z-2.953
X85.678 Y39.488 Z-2.959
X85.852 Y39.499 Z-2.965
X86.024 Y39.527 Z-2.971
X86.193 Y39.57 Z-2.977
X86.357 Y39.628 Z-2.983
X86.515 Y39.701 Z-2.99
X86.666 Y39.789 Z-2.996
X86.808 Y39.889 Z-3.002
X86.941 Y40.003 Z-3.008
X87.062 Y40.128 Z-3.014
X87.171 Y40.263 Z-3.02
X87.268 Y40.408 Z-3.026
X87.351 Y40.562 Z-3.032
X87.419 Y40.722 Z-3.038
X87.473 Y40.888 Z-3.044
X87.511 Y41.058 Z-3.05
X87.533 Y41.231 Z-3.057
X87.54 Y41.405 Z-3.063
X87.53 Y41.579 Z-3.069
X87.504 Y41.751 Z-3.075
X87.463 Y41.92 Z-3.081
X87.407 Y42.085 Z-3.087
X87.335 Y42.244 Z-3.093
X87.25 Y42.396 Z-3.099
X87.151 Y42.539 Z-3.105
X87.039 Y42.673 Z-3.111
X86.915 Y42.796 Z-3.117
X86.781 Y42.906 Z-3.123
X86.637 Y43.005 Z-3.13
X86.485 Y43.089 Z-3.136
X86.325 Y43.159 Z-3.142
X86.16 Y43.215 Z-3.148
X85.99 Y43.255 Z-3.154
X85.818 Y43.279 Z-3.16
X85.644 Y43.287 Z-3.166
X85.47 Y43.28 Z-3.172
X85.297 Y43.256 Z-3.178
X85.127 Y43.217 Z-3.184
X84.962 Y43.162 Z-3.19
X84.802 Y43.093 Z-3.197
X84.649 Y43.009 Z-3.203
X84.505 Y42.911 Z-3.209
X84.37 Y42.801 Z-3.215
X84.246 Y42.679 Z-3.221
X84.133 Y42.546 Z-3.227
X84.034 Y42.403 Z-3.233
X83.947 Y42.251 Z-3.239
X83.875 Y42.093 Z-3.245
X83.818 Y41.928 Z-3.251
X83.776 Y41.759 Z-3.257
X83.75 Y41.587 Z-3.263
X83.74 Y41.413 Z-3.27
X83.745 Y41.239 Z-3.276
X83.767 Y41.066 Z-3.282
X83.804 Y40.895 Z-3.288
X83.857 Y40.729 Z-3.294
X83.925 Y40.569 Z-3.3
X84.007 Y40.415 Z-3.306
X84.103 Y40.27 Z-3.312
X84.212 Y40.134 Z-3.318
X84.333 Y40.008 Z-3.324
X84.465 Y39.894 Z-3.33
X84.606 Y39.793 Z-3.337
X84.757 Y39.705 Z-3.343
X84.915 Y39.631 Z-3.349
X85.079 Y39.572 Z-3.355
X85.247 Y39.528 Z-3.361
X85.419 Y39.5 Z-3.367
X85.593 Y39.488 Z-3.373
X85.767 Y39.492 Z-3.379
X85.94 Y39.511 Z-3.385
X86.111 Y39.547 Z-3.391
X86.278 Y39.598 Z-3.397
X86.439 Y39.664 Z-3.403
X86.593 Y39.744 Z-3.41
X86.74 Y39.838 Z-3.416
X86.877 Y39.946 Z-3.422
X87.004 Y40.065 Z-3.428
X87.119 Y40.196 Z-3.434
X87.222 Y40.336 Z-3.44
X87.312 Y40.486 Z-3.446
X87.388 Y40.643 Z-3.452
X87.448 Y40.806 Z-3.458
X87.494 Y40.974 Z-3.464
X87.524 Y41.146 Z-3.47
X87.538 Y41.32 Z-3.477
X87.537 Y41.494 Z-3.483
X87.519 Y41.667 Z-3.489
X87.485 Y41.838 Z-3.495
X87.436 Y42.005 Z-3.501
X87.372 Y42.167 Z-3.507
X87.293 Y42.323 Z-3.513
X87.201 Y42.47 Z-3.519
X87.095 Y42.609 Z-3.525
X86.977 Y42.737 Z-3.531
X86.848 Y42.854 Z-3.537
X86.708 Y42.958 Z-3.543
X86.56 Y43.05 Z-3.55
X86.404 Y43.127 Z-3.556
X86.241 Y43.19 Z-3.562
X86.074 Y43.237 Z-3.568
X85.902 Y43.269 Z-3.574
X85.729 Y43.285 Z-3.58
X85.555 Z-3.586
X85.381 Y43.27 Z-3.592
X85.21 Y43.238 Z-3.598
X85.042 Y43.191 Z-3.604
X84.879 Y43.129 Z-3.61
X84.723 Y43.052 Z-3.617
X84.574 Y42.961 Z-3.623
X84.435 Y42.856 Z-3.629
X84.305 Y42.74 Z-3.635
X84.187 Y42.612 Z-3.641
X84.081 Y42.474 Z-3.647
X83.988 Y42.326 Z-3.653
X83.909 Y42.171 Z-3.659
X83.844 Y42.009 Z-3.665
X83.795 Y41.842 Z-3.671
X83.761 Y41.671 Z-3.677
X83.743 Y41.498 Z-3.683
X83.741 Y41.324 Z-3.69
X83.755 Y41.15 Z-3.696
X83.784 Y40.978 Z-3.702
X83.83 Y40.81 Z-3.708
X83.89 Y40.647 Z-3.714
X83.965 Y40.489 Z-3.72
X84.055 Y40.34 Z-3.726
X84.157 Y40.199 Z-3.732
X84.272 Y40.068 Z-3.738
X84.399 Y39.948 Z-3.744
X84.536 Y39.841 Z-3.75
X84.682 Y39.746 Z-3.757
X84.837 Y39.665 Z-3.763
X84.998 Y39.599 Z-3.769
X85.164 Y39.548 Z-3.775
X85.335 Y39.512 Z-3.781
X85.508 Y39.492 Z-3.787
X85.682 Y39.488 Z-3.793
X85.856 Y39.5 Z-3.799
X86.028 Y39.528 Z-3.805
X86.197 Y39.571 Z-3.811
X86.361 Y39.63 Z-3.817
X86.519 Y39.703 Z-3.823
X86.669 Y39.791 Z-3.83
X86.811 Y39.892 Z-3.836
X86.943 Y40.005 Z-3.842
X87.065 Y40.131 Z-3.848
X87.174 Y40.267 Z-3.854
X87.27 Y40.412 Z-3.86
X87.353 Y40.565 Z-3.866
X87.421 Y40.726 Z-3.872
X87.474 Y40.892 Z-3.878
X87.511 Y41.062 Z-3.884
X87.533 Y41.235 Z-3.89
X87.539 Y41.409 Z-3.897
X87.53 Y41.583 Z-3.903
X87.504 Y41.755 Z-3.909
X87.462 Y41.924 Z-3.915
X87.405 Y42.089 Z-3.921
X87.334 Y42.248 Z-3.927
X87.248 Y42.399 Z-3.933
X87.148 Y42.542 Z-3.939
X87.036 Y42.676 Z-3.945
X86.912 Y42.798 Z-3.951
X86.778 Y42.909 Z-3.957
X86.633 Y43.007 Z-3.963
X86.481 Y43.091 Z-3.97
X86.321 Y43.161 Z-3.976
X86.156 Y43.216 Z-3.982
X85.986 Y43.256 Z-3.988
X85.814 Y43.279 Z-3.994
X85.64 Y43.287 Z-4.
X43.308
G3 X43.073 Y43.052 R0.235
G1 Y42.948
G3 X43.308 Y42.713 R0.235
G1 X85.692
G3 X85.927 Y42.948 R0.235
G1 Y43.052
G3 X85.692 Y43.287 R0.235
G1 X85.64
G2 X83.915 Y44.437 R1.869
G3 X82.19 Y45.587 R1.869
G1 X41.092
G3 X40.773 Y45.268 R0.319
G1 Y40.732
G3 X41.092 Y40.413 R0.319
G1 X87.908
G3 X88.227 Y40.732 R0.319
G1 Y45.268
G3 X87.908 Y45.587 R0.319
G1 X82.19
G2 X80.465 Y46.737 R1.869
G3 X78.74 Y47.887 R1.869
G1 X38.792
G3 X38.473 Y47.568 R0.319
G1 Y38.432
G3 X38.792 Y38.113 R0.319
G1 X90.208
G3 X90.527 Y38.432 R0.319
G1 Y47.568
G3 X90.208 Y47.887 R0.319
G1 X78.74
G2 X77.015 Y49.037 R1.869
G3 X75.29 Y50.187 R1.869
G1 X36.492
G3 X36.173 Y49.868 R0.319
G1 Y36.132
G3 X36.492 Y35.813 R0.319
G1 X92.508
G3 X92.827 Y36.132 R0.319
G1 Y49.868
G3 X92.508 Y50.187 R0.319
G1 X75.29
G2 X73.565 Y51.337 R1.869
G3 X71.84 Y52.487 R1.869
G1 X34.192
G3 X33.873 Y52.168 R0.319
G1 Y33.832
G3 X34.192 Y33.513 R0.319
G1 X94.808
G3 X95.127 Y33.832 R0.319
G1 Y52.168
G3 X94.808 Y52.487 R0.319
G1 X71.84
G2 X70.115 Y53.637 R1.869
G3 X68.39 Y54.787 R1.869
G1 X31.892
G3 X31.573 Y54.468 R0.319
G1 Y31.532
G3 X31.892 Y31.213 R0.319
G1 X97.108
G3 X97.427 Y31.532 R0.319
G1 Y54.468
G3 X97.108 Y54.787 R0.319
G1 X68.39
G2 X66.665 Y55.937 R1.869
G3 X64.94 Y57.087 R1.869
G1 X29.592
G3 X29.273 Y56.768 R0.319
G1 Y29.232
G3 X29.592 Y28.913 R0.319
G1 X99.408
G3 X99.727 Y29.232 R0.319
G1 Y56.768
G3 X99.408 Y57.087 R0.319
G1 X64.94
G2 X63.215 Y58.237 R1.869
G3 X61.49 Y59.387 R1.869
G1 X27.292
G3 X26.973 Y59.068 R0.319
G1 Y26.932
G3 X27.292 Y26.613 R0.319
G1 X101.708
G3 X102.027 Y26.932 R0.319
G1 Y59.068
G3 X101.708 Y59.387 R0.319
G1 X61.49
G2 X59.765 Y60.537 R1.869
G3 X58.04 Y61.687 R1.869
G1 X24.992
G3 X24.673 Y61.368 R0.319
G1 Y24.632
G3 X24.992 Y24.313 R0.319
G1 X104.008
G3 X104.327 Y24.632 R0.319
G1 Y61.368
G3 X104.008 Y61.687 R0.319
G1 X58.04
G2 X56.315 Y62.837 R1.869
G3 X54.59 Y63.987 R1.869
G1 X22.692
G3 X22.373 Y63.668 R0.319
G1 Y22.332
G3 X22.692 Y22.013 R0.319
G1 X106.308
G3 X106.627 Y22.332 R0.319
G1 Y63.668
G3 X106.308 Y63.987 R0.319
G1 X54.59
G2 X52.865 Y65.137 R1.869
G3 X51.14 Y66.287 R1.869
G1 X20.392
G3 X20.073 Y65.968 R0.319
G1 Y20.032
G3 X20.392 Y19.713 R0.319
G1 X108.608
G3 X108.927 Y20.032 R0.319
G1 Y65.968
G3 X108.608 Y66.287 R0.319
G1 X51.14
G2 X49.415 Y67.437 R1.869
G3 X47.69 Y68.587 R1.869
G1 X18.092
G3 X17.773 Y68.268 R0.319
G1 Y17.732
G3 X18.092 Y17.413 R0.319
G1 X110.908
G3 X111.227 Y17.732 R0.319
G1 Y68.268
G3 X110.908 Y68.587 R0.319
G1 X47.69
G2 X45.965 Y69.737 R1.869
G3 X44.24 Y70.887 R1.869
G1 X15.792
G3 X15.473 Y70.568 R0.319
G1 Y15.432
G3 X15.792 Y15.113 R0.319
G1 X113.208
G3 X113.527 Y15.432 R0.319
G1 Y70.568
G3 X113.208 Y70.887 R0.319
G1 X44.24
G2 X42.515 Y72.037 R1.869
G3 X40.79 Y73.187 R1.869
G1 X13.492
G3 X13.173 Y72.868 R0.319
G1 Y13.132
G3 X13.492 Y12.813 R0.319
G1 X115.508
G3 X115.827 Y13.132 R0.319
G1 Y72.868
G3 X115.508 Y73.187 R0.319
G1 X40.79
G2 X39.065 Y74.337 R1.869
G3 X37.34 Y75.487 R1.869
G1 X11.818
G3 X10.873 Y74.542 R0.946
G1 Y11.458
G3 X11.818 Y10.513 R0.946
G1 X117.808
G3 X118.127 Y10.832 R0.319
G1 Y75.168
G3 X117.808 Y75.487 R0.319
G1 X37.34
G2 X35.615 Y76.637 R1.869
G3 X33.89 Y77.787 R1.869
G1 X10.929
G3 X10.05 Y77.423 R1.243
G1 X8.937 Y76.31
G3 X8.573 Y75.431 R1.243
G1 Y10.569
G3 X8.937 Y9.69 R1.243
G1 X10.05 Y8.577
G3 X10.929 Y8.213 R1.243
G1 X120.108
G3 X120.427 Y8.532 R0.319
G1 Y77.468
G3 X120.108 Y77.787 R0.319
G1 X33.89
G2 X32.165 Y78.937 R1.869
G3 X30.44 Y80.087 R1.869
G1 X9.976
G3 X9.097 Y79.723 R1.243
G1 X6.637 Y77.263
G3 X6.273 Y76.384 R1.243
G1 Y9.616
G3 X6.637 Y8.737 R1.243
G1 X9.097 Y6.277
G3 X9.976 Y5.913 R1.243
G1 X122.408
G3 X122.727 Y6.232 R0.319
G1 Y79.768
G3 X122.408 Y80.087 R0.319
G1 X30.44
G2 X28.711 Y81.24 R1.873
G3 X26.982 Y82.392 R1.873
G1 X8.507
X3.968 Y77.853
Y8.147
X8.507 Y3.608
X125.032
Y82.392
X26.982
X26.906 Y82.385 Z-3.985
X26.833 Y82.363 Z-3.97
X26.775 Y82.334 Z-3.926
X26.722 Y82.297 Z-3.883
X26.691 Y82.267 Z-3.818
X26.663 Y82.233 Z-3.753
X26.646 Y82.209 Z-3.6
G0 Z5.
X86.471 Y39.679
G1 Z0. F380.
Z-1.1 F1500.
X86.497 Y39.692 Z-1.25
X86.57 Y39.731 Z-1.378
X86.677 Y39.796 Z-1.466
X86.799 Y39.882 Z-1.5
X86.932 Y39.994 Z-1.506
X87.054 Y40.119 Z-1.512
X87.164 Y40.254 Z-1.518
X87.262 Y40.398 Z-1.524
X87.345 Y40.551 Z-1.53
X87.415 Y40.71 Z-1.537
X87.469 Y40.876 Z-1.543
X87.509 Y41.046 Z-1.549
X87.532 Y41.218 Z-1.555
X87.54 Y41.393 Z-1.561
X87.531 Y41.567 Z-1.567
X87.507 Y41.739 Z-1.573
X87.467 Y41.909 Z-1.579
X87.411 Y42.074 Z-1.585
X87.341 Y42.233 Z-1.591
X87.256 Y42.386 Z-1.597
X87.158 Y42.529 Z-1.603
X87.047 Y42.664 Z-1.61
X86.924 Y42.787 Z-1.616
X86.791 Y42.899 Z-1.622
X86.647 Y42.998 Z-1.628
X86.495 Y43.084 Z-1.634
X86.336 Y43.155 Z-1.64
X86.171 Y43.211 Z-1.646
X86.002 Y43.252 Z-1.652
X85.83 Y43.278 Z-1.658
X85.656 Y43.287 Z-1.664
X85.482 Y43.281 Z-1.67
X85.309 Y43.258 Z-1.677
X85.139 Y43.22 Z-1.683
X84.973 Y43.167 Z-1.689
X84.813 Y43.098 Z-1.695
X84.66 Y43.015 Z-1.701
X84.515 Y42.919 Z-1.707
X84.379 Y42.809 Z-1.713
X84.254 Y42.688 Z-1.719
X84.141 Y42.555 Z-1.725
X84.04 Y42.413 Z-1.731
X83.953 Y42.262 Z-1.737
X83.88 Y42.104 Z-1.743
X83.822 Y41.94 Z-1.75
X83.779 Y41.771 Z-1.756
X83.751 Y41.599 Z-1.762
X83.74 Y41.425 Z-1.768
X83.745 Y41.251 Z-1.774
X83.765 Y41.078 Z-1.78
X83.801 Y40.907 Z-1.786
X83.853 Y40.741 Z-1.792
X83.92 Y40.58 Z-1.798
X84.001 Y40.426 Z-1.804
X84.096 Y40.28 Z-1.81
X84.204 Y40.143 Z-1.817
X84.324 Y40.017 Z-1.823
X84.455 Y39.902 Z-1.829
X84.596 Y39.8 Z-1.835
X84.746 Y39.711 Z-1.841
X84.903 Y39.636 Z-1.847
X85.067 Y39.576 Z-1.853
X85.235 Y39.531 Z-1.859
X85.407 Y39.502 Z-1.865
X85.581 Y39.488 Z-1.871
X85.755 Y39.491 Z-1.877
X85.928 Y39.509 Z-1.883
X86.099 Y39.544 Z-1.89
X86.266 Y39.594 Z-1.896
X86.428 Y39.659 Z-1.902
X86.583 Y39.738 Z-1.908
X86.73 Y39.831 Z-1.914
X86.868 Y39.938 Z-1.92
X86.996 Y40.057 Z-1.926
X87.112 Y40.186 Z-1.932
X87.216 Y40.326 Z-1.938
X87.306 Y40.475 Z-1.944
X87.383 Y40.632 Z-1.95
X87.445 Y40.795 Z-1.957
X87.491 Y40.962 Z-1.963
X87.523 Y41.134 Z-1.969
X87.538 Y41.307 Z-1.975
X87.537 Y41.482 Z-1.981
X87.521 Y41.655 Z-1.987
X87.488 Y41.826 Z-1.993
X87.44 Y41.994 Z-1.999
X87.377 Y42.156 Z-2.005
X87.299 Y42.312 Z-2.011
X87.208 Y42.46 Z-2.017
X87.103 Y42.599 Z-2.023
X86.986 Y42.728 Z-2.03
X86.857 Y42.846 Z-2.036
X86.718 Y42.951 Z-2.042
X86.57 Y43.044 Z-2.048
X86.415 Y43.122 Z-2.054
X86.253 Y43.186 Z-2.06
X86.085 Y43.234 Z-2.066
X85.914 Y43.267 Z-2.072
X85.741 Y43.285 Z-2.078
X85.567 Y43.286 Z-2.084
X85.393 Y43.271 Z-2.09
X85.221 Y43.241 Z-2.097
X85.053 Y43.195 Z-2.103
X84.89 Y43.133 Z-2.109
X84.733 Y43.057 Z-2.115
X84.584 Y42.967 Z-2.121
X84.444 Y42.864 Z-2.127
X84.314 Y42.748 Z-2.133
X84.195 Y42.621 Z-2.139
X84.088 Y42.484 Z-2.145
X83.994 Y42.337 Z-2.151
X83.914 Y42.182 Z-2.157
X83.848 Y42.021 Z-2.163
X83.798 Y41.854 Z-2.17
X83.763 Y41.683 Z-2.176
X83.744 Y41.51 Z-2.182
X83.74 Y41.336 Z-2.188
X83.753 Y41.162 Z-2.194
X83.782 Y40.99 Z-2.2
X83.826 Y40.821 Z-2.206
X83.885 Y40.658 Z-2.212
X83.96 Y40.5 Z-2.218
X84.048 Y40.35 Z-2.224
X84.15 Y40.208 Z-2.23
X84.264 Y40.077 Z-2.237
X84.39 Y39.956 Z-2.243
X84.526 Y39.848 Z-2.249
X84.672 Y39.752 Z-2.255
X84.826 Y39.671 Z-2.261
X84.986 Y39.603 Z-2.267
X85.153 Y39.551 Z-2.273
X85.323 Y39.514 Z-2.279
X85.496 Y39.493 Z-2.285
X85.67 Y39.488 Z-2.291
X85.844 Y39.498 Z-2.297
X86.016 Y39.525 Z-2.303
X86.185 Y39.567 Z-2.31
X86.35 Y39.625 Z-2.316
X86.508 Y39.698 Z-2.322
X86.659 Y39.784 Z-2.328
X86.802 Y39.884 Z-2.334
X86.935 Y39.997 Z-2.34
X87.057 Y40.122 Z-2.346
X87.167 Y40.257 Z-2.352
X87.264 Y40.401 Z-2.358
X87.347 Y40.554 Z-2.364
X87.416 Y40.714 Z-2.37
X87.471 Y40.88 Z-2.377
X87.509 Y41.05 Z-2.383
X87.532 Y41.222 Z-2.389
X87.54 Y41.397 Z-2.395
X87.531 Y41.571 Z-2.401
X87.506 Y41.743 Z-2.407
X87.466 Y41.913 Z-2.413
X87.41 Y42.078 Z-2.419
X87.339 Y42.237 Z-2.425
X87.254 Y42.389 Z-2.431
X87.156 Y42.533 Z-2.437
X87.044 Y42.667 Z-2.443
X86.921 Y42.79 Z-2.45
X86.787 Y42.902 Z-2.456
X86.644 Y43. Z-2.462
X86.492 Y43.086 Z-2.468
X86.333 Y43.157 Z-2.474
X86.168 Y43.213 Z-2.48
X85.998 Y43.253 Z-2.486
X85.826 Y43.278 Z-2.492
X85.652 Y43.287 Z-2.498
X85.478 Y43.28 Z-2.504
X85.305 Y43.258 Z-2.51
X85.135 Y43.219 Z-2.517
X84.969 Y43.165 Z-2.523
X84.809 Y43.096 Z-2.529
X84.656 Y43.013 Z-2.535
X84.511 Y42.916 Z-2.541
X84.376 Y42.806 Z-2.547
X84.251 Y42.685 Z-2.553
X84.138 Y42.552 Z-2.559
X84.038 Y42.41 Z-2.565
X83.951 Y42.259 Z-2.571
X83.878 Y42.1 Z-2.577
X83.82 Y41.936 Z-2.583
X83.778 Y41.767 Z-2.59
X83.751 Y41.595 Z-2.596
X83.74 Y41.421 Z-2.602
X83.745 Y41.247 Z-2.608
X83.766 Y41.074 Z-2.614
X83.802 Y40.903 Z-2.62
X83.854 Y40.737 Z-2.626
X83.921 Y40.576 Z-2.632
X84.003 Y40.422 Z-2.638
X84.098 Y40.276 Z-2.644
X84.207 Y40.14 Z-2.65
X84.327 Y40.014 Z-2.657
X84.458 Y39.899 Z-2.663
X84.6 Y39.797 Z-2.669
X84.75 Y39.709 Z-2.675
X84.907 Y39.634 Z-2.681
X85.071 Y39.575 Z-2.687
X85.239 Y39.53 Z-2.693
X85.411 Y39.501 Z-2.699
X85.585 Y39.488 Z-2.705
X85.759 Y39.491 Z-2.711
X85.932 Y39.51 Z-2.717
X86.103 Y39.545 Z-2.723
X86.27 Y39.595 Z-2.73
X86.432 Y39.66 Z-2.736
X86.586 Y39.74 Z-2.742
X86.733 Y39.834 Z-2.748
X86.871 Y39.941 Z-2.754
X86.998 Y40.059 Z-2.76
X87.114 Y40.189 Z-2.766
X87.218 Y40.33 Z-2.772
X87.308 Y40.479 Z-2.778
X87.384 Y40.635 Z-2.784
X87.446 Y40.798 Z-2.79
X87.492 Y40.966 Z-2.797
X87.523 Y41.138 Z-2.803
X87.538 Y41.311 Z-2.809
X87.537 Y41.486 Z-2.815
X87.52 Y41.659 Z-2.821
X87.487 Y41.83 Z-2.827
X87.439 Y41.998 Z-2.833
X87.375 Y42.16 Z-2.839
X87.297 Y42.316 Z-2.845
X87.205 Y42.464 Z-2.851
X87.1 Y42.603 Z-2.857
X86.983 Y42.731 Z-2.863
X86.854 Y42.849 Z-2.87
X86.715 Y42.954 Z-2.876
X86.567 Y43.046 Z-2.882
X86.411 Y43.124 Z-2.888
X86.249 Y43.187 Z-2.894
X86.081 Y43.235 Z-2.9
X85.91 Y43.268 Z-2.906
X85.737 Y43.285 Z-2.912
X85.563 Y43.286 Z-2.918
X85.389 Y43.271 Z-2.924
X85.217 Y43.24 Z-2.93
X85.05 Y43.193 Z-2.937
X84.887 Y43.132 Z-2.943
X84.73 Y43.055 Z-2.949
X84.581 Y42.965 Z-2.955
X84.441 Y42.862 Z-2.961
X84.311 Y42.745 Z-2.967
X84.192 Y42.618 Z-2.973
X84.085 Y42.48 Z-2.979
X83.992 Y42.333 Z-2.985
X83.912 Y42.178 Z-2.991
X83.847 Y42.017 Z-2.997
X83.797 Y41.85 Z-3.003
X83.762 Y41.679 Z-3.01
X83.743 Y41.506 Z-3.016
X83.74 Y41.332 Z-3.022
X83.754 Y41.158 Z-3.028
X83.782 Y40.986 Z-3.034
X83.827 Y40.818 Z-3.04
X83.887 Y40.654 Z-3.046
X83.961 Y40.496 Z-3.052
X84.05 Y40.346 Z-3.058
X84.152 Y40.205 Z-3.064
X84.267 Y40.074 Z-3.07
X84.393 Y39.954 Z-3.077
X84.529 Y39.846 Z-3.083
X84.675 Y39.75 Z-3.089
X84.829 Y39.669 Z-3.095
X84.99 Y39.602 Z-3.101
X85.157 Y39.55 Z-3.107
X85.327 Y39.513 Z-3.113
X85.5 Y39.493 Z-3.119
X85.674 Y39.488 Z-3.125
X85.848 Y39.499 Z-3.131
X86.02 Y39.526 Z-3.137
X86.189 Y39.569 Z-3.143
X86.353 Y39.627 Z-3.15
X86.512 Y39.699 Z-3.156
X86.663 Y39.786 Z-3.162
X86.805 Y39.887 Z-3.168
X86.938 Y40. Z-3.174
X87.059 Y40.125 Z-3.18
X87.169 Y40.26 Z-3.186
X87.266 Y40.405 Z-3.192
X87.349 Y40.558 Z-3.198
X87.418 Y40.718 Z-3.204
X87.472 Y40.884 Z-3.21
X87.51 Y41.054 Z-3.217
X87.533 Y41.226 Z-3.223
X87.54 Y41.401 Z-3.229
X87.53 Y41.575 Z-3.235
X87.505 Y41.747 Z-3.241
X87.464 Y41.916 Z-3.247
X87.408 Y42.081 Z-3.253
X87.337 Y42.241 Z-3.259
X87.252 Y42.392 Z-3.265
X87.153 Y42.536 Z-3.271
X87.042 Y42.67 Z-3.277
X86.918 Y42.793 Z-3.283
X86.784 Y42.904 Z-3.29
X86.64 Y43.003 Z-3.296
X86.488 Y43.087 Z-3.302
X86.329 Y43.158 Z-3.308
X86.164 Y43.214 Z-3.314
X85.994 Y43.254 Z-3.32
X85.822 Y43.279 Z-3.326
X85.648 Y43.287 Z-3.332
X85.474 Y43.28 Z-3.338
X85.301 Y43.257 Z-3.344
X85.131 Y43.218 Z-3.35
X84.965 Y43.164 Z-3.357
X84.806 Y43.095 Z-3.363
X84.653 Y43.011 Z-3.369
X84.508 Y42.914 Z-3.375
X84.373 Y42.804 Z-3.381
X84.249 Y42.682 Z-3.387
X84.136 Y42.549 Z-3.393
X84.036 Y42.406 Z-3.399
X83.949 Y42.255 Z-3.405
X83.877 Y42.096 Z-3.411
X83.819 Y41.932 Z-3.417
X83.777 Y41.763 Z-3.423
X83.751 Y41.591 Z-3.43
X83.74 Y41.417 Z-3.436
X83.745 Y41.243 Z-3.442
X83.766 Y41.07 Z-3.448
X83.803 Y40.899 Z-3.454
X83.856 Y40.733 Z-3.46
X83.923 Y40.573 Z-3.466
X84.005 Y40.419 Z-3.472
X84.101 Y40.273 Z-3.478
X84.209 Y40.137 Z-3.484
X84.33 Y40.011 Z-3.49
X84.461 Y39.897 Z-3.497
X84.603 Y39.795 Z-3.503
X84.753 Y39.707 Z-3.509
X84.911 Y39.633 Z-3.515
X85.075 Y39.573 Z-3.521
X85.243 Y39.529 Z-3.527
X85.415 Y39.501 Z-3.533
X85.589 Y39.488 Z-3.539
X85.763 Y39.491 Z-3.545
X85.936 Y39.511 Z-3.551
X86.107 Y39.546 Z-3.557
X86.274 Y39.596 Z-3.563
X86.435 Y39.662 Z-3.57
X86.59 Y39.742 Z-3.576
X86.737 Y39.836 Z-3.582
X86.874 Y39.943 Z-3.588
X87.001 Y40.062 Z-3.594
X87.117 Y40.193 Z-3.6
X87.22 Y40.333 Z-3.606
X87.31 Y40.482 Z-3.612
X87.386 Y40.639 Z-3.618
X87.447 Y40.802 Z-3.624
X87.493 Y40.97 Z-3.63
X87.524 Y41.142 Z-3.637
X87.538 Y41.315 Z-3.643
X87.537 Y41.49 Z-3.649
X87.519 Y41.663 Z-3.655
X87.486 Y41.834 Z-3.661
X87.438 Y42.001 Z-3.667
X87.374 Y42.164 Z-3.673
X87.295 Y42.319 Z-3.679
X87.203 Y42.467 Z-3.685
X87.098 Y42.606 Z-3.691
X86.98 Y42.734 Z-3.697
X86.851 Y42.851 Z-3.703
X86.712 Y42.956 Z-3.71
X86.563 Y43.048 Z-3.716
X86.407 Y43.125 Z-3.722
X86.245 Y43.188 Z-3.728
X86.077 Y43.236 Z-3.734
X85.906 Y43.269 Z-3.74
X85.733 Y43.285 Z-3.746
X85.559 Y43.286 Z-3.752
X85.385 Y43.27 Z-3.758
X85.214 Y43.239 Z-3.764
X85.046 Y43.192 Z-3.77
X84.883 Y43.13 Z-3.777
X84.726 Y43.054 Z-3.783
X84.578 Y42.963 Z-3.789
X84.438 Y42.859 Z-3.795
X84.308 Y42.743 Z-3.801
X84.189 Y42.615 Z-3.807
X84.083 Y42.477 Z-3.813
X83.99 Y42.33 Z-3.819
X83.91 Y42.175 Z-3.825
X83.846 Y42.013 Z-3.831
X83.796 Y41.846 Z-3.837
X83.762 Y41.675 Z-3.843
X83.743 Y41.502 Z-3.85
X83.741 Y41.328 Z-3.856
X83.754 Y41.154 Z-3.862
X83.783 Y40.982 Z-3.868
X83.828 Y40.814 Z-3.874
X83.888 Y40.65 Z-3.88
X83.963 Y40.493 Z-3.886
X84.052 Y40.343 Z-3.892
X84.155 Y40.202 Z-3.898
X84.27 Y40.071 Z-3.904
X84.396 Y39.951 Z-3.91
X84.533 Y39.843 Z-3.917
X84.679 Y39.748 Z-3.923
X84.833 Y39.667 Z-3.929
X84.994 Y39.6 Z-3.935
X85.16 Y39.549 Z-3.941
X85.331 Y39.513 Z-3.947
X85.504 Y39.492 Z-3.953
X85.678 Y39.488 Z-3.959
X85.852 Y39.499 Z-3.965
X86.024 Y39.527 Z-3.971
X86.193 Y39.57 Z-3.977
X86.357 Y39.628 Z-3.983
X86.515 Y39.701 Z-3.99
X86.666 Y39.789 Z-3.996
X86.808 Y39.889 Z-4.002
X86.941 Y40.003 Z-4.008
X87.062 Y40.128 Z-4.014
X87.171 Y40.263 Z-4.02
X87.268 Y40.408 Z-4.026
X87.351 Y40.562 Z-4.032
X87.419 Y40.722 Z-4.038
X87.473 Y40.888 Z-4.044
X87.511 Y41.058 Z-4.05
X87.533 Y41.231 Z-4.057
X87.54 Y41.405 Z-4.063
X87.53 Y41.579 Z-4.069
X87.504 Y41.751 Z-4.075
X87.463 Y41.92 Z-4.081
X87.407 Y42.085 Z-4.087
X87.335 Y42.244 Z-4.093
X87.25 Y42.396 Z-4.099
X87.151 Y42.539 Z-4.105
X87.039 Y42.673 Z-4.111
X86.915 Y42.796 Z-4.117
X86.781 Y42.906 Z-4.123
X86.637 Y43.005 Z-4.13
X86.485 Y43.089 Z-4.136
X86.325 Y43.159 Z-4.142
X86.16 Y43.215 Z-4.148
X85.99 Y43.255 Z-4.154
X85.818 Y43.279 Z-4.16
X85.644 Y43.287 Z-4.166
X85.47 Y43.28 Z-4.172
X85.297 Y43.256 Z-4.178
X85.127 Y43.217 Z-4.184
X84.962 Y43.162 Z-4.19
X84.802 Y43.093 Z-4.197
X84.649 Y43.009 Z-4.203
X84.505 Y42.911 Z-4.209
X84.37 Y42.801 Z-4.215
X84.246 Y42.679 Z-4.221
X84.133 Y42.546 Z-4.227
X84.034 Y42.403 Z-4.233
X83.947 Y42.251 Z-4.239
X83.875 Y42.093 Z-4.245
X83.818 Y41.928 Z-4.251
X83.776 Y41.759 Z-4.257
X83.75 Y41.587 Z-4.263
X83.74 Y41.413 Z-4.27
X83.745 Y41.239 Z-4.276
X83.767 Y41.066 Z-4.282
X83.804 Y40.895 Z-4.288
X83.857 Y40.729 Z-4.294
X83.925 Y40.569 Z-4.3
X84.007 Y40.415 Z-4.306
X84.103 Y40.27 Z-4.312
X84.212 Y40.134 Z-4.318
X84.333 Y40.008 Z-4.324
X84.465 Y39.894 Z-4.33
X84.606 Y39.793 Z-4.337
X84.757 Y39.705 Z-4.343
X84.915 Y39.631 Z-4.349
X85.079 Y39.572 Z-4.355
X85.247 Y39.528 Z-4.361
X85.419 Y39.5 Z-4.367
X85.593 Y39.488 Z-4.373
X85.767 Y39.492 Z-4.379
X85.94 Y39.511 Z-4.385
X86.111 Y39.547 Z-4.391
X86.278 Y39.598 Z-4.397
X86.439 Y39.664 Z-4.403
X86.593 Y39.744 Z-4.41
X86.74 Y39.838 Z-4.416
X86.877 Y39.946 Z-4.422
X87.004 Y40.065 Z-4.428
X87.119 Y40.196 Z-4.434
X87.222 Y40.336 Z-4.44
X87.312 Y40.486 Z-4.446
X87.388 Y40.643 Z-4.452
X87.448 Y40.806 Z-4.458
X87.494 Y40.974 Z-4.464
X87.524 Y41.146 Z-4.47
X87.538 Y41.32 Z-4.477
X87.537 Y41.494 Z-4.483
X87.519 Y41.667 Z-4.489
X87.485 Y41.838 Z-4.495
X87.436 Y42.005 Z-4.501
X87.372 Y42.167 Z-4.507
X87.293 Y42.323 Z-4.513
X87.201 Y42.47 Z-4.519
X87.095 Y42.609 Z-4.525
X86.977 Y42.737 Z-4.531
X86.848 Y42.854 Z-4.537
X86.708 Y42.958 Z-4.543
X86.56 Y43.05 Z-4.55
X86.404 Y43.127 Z-4.556
X86.241 Y43.19 Z-4.562
X86.074 Y43.237 Z-4.568
X85.902 Y43.269 Z-4.574
X85.729 Y43.285 Z-4.58
X85.555 Z-4.586
X85.381 Y43.27 Z-4.592
X85.21 Y43.238 Z-4.598
X85.042 Y43.191 Z-4.604
X84.879 Y43.129 Z-4.61
X84.723 Y43.052 Z-4.617
X84.574 Y42.961 Z-4.623
X84.435 Y42.856 Z-4.629
X84.305 Y42.74 Z-4.635
X84.187 Y42.612 Z-4.641
X84.081 Y42.474 Z-4.647
X83.988 Y42.326 Z-4.653
X83.909 Y42.171 Z-4.659
X83.844 Y42.009 Z-4.665
X83.795 Y41.842 Z-4.671
X83.761 Y41.671 Z-4.677
X83.743 Y41.498 Z-4.683
X83.741 Y41.324 Z-4.69
X83.755 Y41.15 Z-4.696
X83.784 Y40.978 Z-4.702
X83.83 Y40.81 Z-4.708
X83.89 Y40.647 Z-4.714
X83.965 Y40.489 Z-4.72
X84.055 Y40.34 Z-4.726
X84.157 Y40.199 Z-4.732
X84.272 Y40.068 Z-4.738
X84.399 Y39.948 Z-4.744
X84.536 Y39.841 Z-4.75
X84.682 Y39.746 Z-4.757
X84.837 Y39.665 Z-4.763
X84.998 Y39.599 Z-4.769
X85.164 Y39.548 Z-4.775
X85.335 Y39.512 Z-4.781
X85.508 Y39.492 Z-4.787
X85.682 Y39.488 Z-4.793
X85.856 Y39.5 Z-4.799
X86.028 Y39.528 Z-4.805
X86.197 Y39.571 Z-4.811
X86.361 Y39.63 Z-4.817
X86.519 Y39.703 Z-4.823
X86.669 Y39.791 Z-4.83
X86.811 Y39.892 Z-4.836
X86.943 Y40.005 Z-4.842
X87.065 Y40.131 Z-4.848
X87.174 Y40.267 Z-4.854
X87.27 Y40.412 Z-4.86
X87.353 Y40.565 Z-4.866
X87.421 Y40.726 Z-4.872
X87.474 Y40.892 Z-4.878
X87.511 Y41.062 Z-4.884
X87.533 Y41.235 Z-4.89
X87.539 Y41.409 Z-4.897
X87.53 Y41.583 Z-4.903
X87.504 Y41.755 Z-4.909
X87.462 Y41.924 Z-4.915
X87.405 Y42.089 Z-4.921
X87.334 Y42.248 Z-4.927
X87.248 Y42.399 Z-4.933
X87.148 Y42.542 Z-4.939
X87.036 Y42.676 Z-4.945
X86.912 Y42.798 Z-4.951
X86.778 Y42.909 Z-4.957
X86.633 Y43.007 Z-4.963
X86.481 Y43.091 Z-4.97
X86.321 Y43.161 Z-4.976
X86.156 Y43.216 Z-4.982
X85.986 Y43.256 Z-4.988
X85.814 Y43.279 Z-4.994
X85.64 Y43.287 Z-5.
X43.308
G3 X43.073 Y43.052 R0.235
G1 Y42.948
G3 X43.308 Y42.713 R0.235
G1 X85.692
G3 X85.927 Y42.948 R0.235
G1 Y43.052
G3 X85.692 Y43.287 R0.235
G1 X85.64
G2 X83.915 Y44.437 R1.869
G3 X82.19 Y45.587 R1.869
G1 X41.092
G3 X40.773 Y45.268 R0.319
G1 Y40.732
G3 X41.092 Y40.413 R0.319
G1 X87.908
G3 X88.227 Y40.732 R0.319
G1 Y45.268
G3 X87.908 Y45.587 R0.319
G1 X82.19
G2 X80.465 Y46.737 R1.869
G3 X78.74 Y47.887 R1.869
G1 X38.792
G3 X38.473 Y47.568 R0.319
G1 Y38.432
G3 X38.792 Y38.113 R0.319
G1 X90.208
G3 X90.527 Y38.432 R0.319
G1 Y47.568
G3 X90.208 Y47.887 R0.319
G1 X78.74
G2 X77.015 Y49.037 R1.869
G3 X75.29 Y50.187 R1.869
G1 X36.492
G3 X36.173 Y49.868 R0.319
G1 Y36.132
G3 X36.492 Y35.813 R0.319
G1 X92.508
G3 X92.827 Y36.132 R0.319
G1 Y49.868
G3 X92.508 Y50.187 R0.319
G1 X75.29
G2 X73.565 Y51.337 R1.869
G3 X71.84 Y52.487 R1.869
G1 X34.192
G3 X33.873 Y52.168 R0.319
G1 Y33.832
G3 X34.192 Y33.513 R0.319
G1 X94.808
G3 X95.127 Y33.832 R0.319
G1 Y52.168
G3 X94.808 Y52.487 R0.319
G1 X71.84
G2 X70.115 Y53.637 R1.869
G3 X68.39 Y54.787 R1.869
G1 X31.892
G3 X31.573 Y54.468 R0.319
G1 Y31.532
G3 X31.892 Y31.213 R0.319
G1 X97.108
G3 X97.427 Y31.532 R0.319
G1 Y54.468
G3 X97.108 Y54.787 R0.319
G1 X68.39
G2 X66.665 Y55.937 R1.869
G3 X64.94 Y57.087 R1.869
G1 X29.592
G3 X29.273 Y56.768 R0.319
G1 Y29.232
G3 X29.592 Y28.913 R0.319
G1 X99.408
G3 X99.727 Y29.232 R0.319
G1 Y56.768
G3 X99.408 Y57.087 R0.319
G1 X64.94
G2 X63.215 Y58.237 R1.869
G3 X61.49 Y59.387 R1.869
G1 X27.292
G3 X26.973 Y59.068 R0.319
G1 Y26.932
G3 X27.292 Y26.613 R0.319
G1 X101.708
G3 X102.027 Y26.932 R0.319
G1 Y59.068
G3 X101.708 Y59.387 R0.319
G1 X61.49
G2 X59.765 Y60.537 R1.869
G3 X58.04 Y61.687 R1.869
G1 X24.992
G3 X24.673 Y61.368 R0.319
G1 Y24.632
G3 X24.992 Y24.313 R0.319
G1 X104.008
G3 X104.327 Y24.632 R0.319
G1 Y61.368
G3 X104.008 Y61.687 R0.319
G1 X58.04
G2 X56.315 Y62.837 R1.869
G3 X54.59 Y63.987 R1.869
G1 X22.692
G3 X22.373 Y63.668 R0.319
G1 Y22.332
G3 X22.692 Y22.013 R0.319
G1 X106.308
G3 X106.627 Y22.332 R0.319
G1 Y63.668
G3 X106.308 Y63.987 R0.319
G1 X54.59
G2 X52.865 Y65.137 R1.869
G3 X51.14 Y66.287 R1.869
G1 X20.392
G3 X20.073 Y65.968 R0.319
G1 Y20.032
G3 X20.392 Y19.713 R0.319
G1 X108.608
G3 X108.927 Y20.032 R0.319
G1 Y65.968
G3 X108.608 Y66.287 R0.319
G1 X51.14
G2 X49.415 Y67.437 R1.869
G3 X47.69 Y68.587 R1.869
G1 X18.092
G3 X17.773 Y68.268 R0.319
G1 Y17.732
G3 X18.092 Y17.413 R0.319
G1 X110.908
G3 X111.227 Y17.732 R0.319
G1 Y68.268
G3 X110.908 Y68.587 R0.319
G1 X47.69
G2 X45.965 Y69.737 R1.869
G3 X44.24 Y70.887 R1.869
G1 X15.792
G3 X15.473 Y70.568 R0.319
G1 Y15.432
G3 X15.792 Y15.113 R0.319
G1 X113.208
G3 X113.527 Y15.432 R0.319
G1 Y70.568
G3 X113.208 Y70.887 R0.319
G1 X44.24
G2 X42.515 Y72.037 R1.869
G3 X40.79 Y73.187 R1.869
G1 X13.492
G3 X13.173 Y72.868 R0.319
G1 Y13.132
G3 X13.492 Y12.813 R0.319
G1 X115.508
G3 X115.827 Y13.132 R0.319
G1 Y72.868
G3 X115.508 Y73.187 R0.319
G1 X40.79
G2 X39.065 Y74.337 R1.869
G3 X37.34 Y75.487 R1.869
G1 X11.818
G3 X10.873 Y74.542 R0.946
G1 Y11.458
G3 X11.818 Y10.513 R0.946
G1 X117.808
G3 X118.127 Y10.832 R0.319
G1 Y75.168
G3 X117.808 Y75.487 R0.319
G1 X37.34
G2 X35.615 Y76.637 R1.869
G3 X33.89 Y77.787 R1.869
G1 X10.929
G3 X10.05 Y77.423 R1.243
G1 X8.937 Y76.31
G3 X8.573 Y75.431 R1.243
G1 Y10.569
G3 X8.937 Y9.69 R1.243
G1 X10.05 Y8.577
G3 X10.929 Y8.213 R1.243
G1 X120.108
G3 X120.427 Y8.532 R0.319
G1 Y77.468
G3 X120.108 Y77.787 R0.319
G1 X33.89
G2 X32.165 Y78.937 R1.869
G3 X30.44 Y80.087 R1.869
G1 X9.976
G3 X9.097 Y79.723 R1.243
G1 X6.637 Y77.263
G3 X6.273 Y76.384 R1.243
G1 Y9.616
G3 X6.637 Y8.737 R1.243
G1 X9.097 Y6.277
G3 X9.976 Y5.913 R1.243
G1 X122.408
G3 X122.727 Y6.232 R0.319
G1 Y79.768
G3 X122.408 Y80.087 R0.319
G1 X30.44
G2 X28.711 Y81.24 R1.873
G3 X26.982 Y82.392 R1.873
G1 X8.507
X3.968 Y77.853
Y8.147
X8.507 Y3.608
X125.032
Y82.392
X26.982
X26.906 Y82.385 Z-4.985
X26.833 Y82.363 Z-4.97
X26.775 Y82.334 Z-4.926
X26.722 Y82.297 Z-4.883
X26.691 Y82.267 Z-4.818
X26.663 Y82.233 Z-4.753
X26.646 Y82.209 Z-4.6
G0 Z5.
X86.471 Y39.679
G1 Z-1. F380.
Z-2.1 F1500.
X86.497 Y39.692 Z-2.25
X86.57 Y39.731 Z-2.378
X86.677 Y39.796 Z-2.466
X86.799 Y39.882 Z-2.5
X86.932 Y39.994 Z-2.506
X87.054 Y40.119 Z-2.512
X87.164 Y40.254 Z-2.518
X87.262 Y40.398 Z-2.524
X87.345 Y40.551 Z-2.53
X87.415 Y40.71 Z-2.537
X87.469 Y40.876 Z-2.543
X87.509 Y41.046 Z-2.549
X87.532 Y41.218 Z-2.555
X87.54 Y41.393 Z-2.561
X87.531 Y41.567 Z-2.567
X87.507 Y41.739 Z-2.573
X87.467 Y41.909 Z-2.579
X87.411 Y42.074 Z-2.585
X87.341 Y42.233 Z-2.591
X87.256 Y42.386 Z-2.597
X87.158 Y42.529 Z-2.603
X87.047 Y42.664 Z-2.61
X86.924 Y42.787 Z-2.616
X86.791 Y42.899 Z-2.622
X86.647 Y42.998 Z-2.628
X86.495 Y43.084 Z-2.634
X86.336 Y43.155 Z-2.64
X86.171 Y43.211 Z-2.646
X86.002 Y43.252 Z-2.652
X85.83 Y43.278 Z-2.658
X85.656 Y43.287 Z-2.664
X85.482 Y43.281 Z-2.67
X85.309 Y43.258 Z-2.677
X85.139 Y43.22 Z-2.683
X84.973 Y43.167 Z-2.689
X84.813 Y43.098 Z-2.695
X84.66 Y43.015 Z-2.701
X84.515 Y42.919 Z-2.707
X84.379 Y42.809 Z-2.713
X84.254 Y42.688 Z-2.719
X84.141 Y42.555 Z-2.725
X84.04 Y42.413 Z-2.731
X83.953 Y42.262 Z-2.737
X83.88 Y42.104 Z-2.743
X83.822 Y41.94 Z-2.75
X83.779 Y41.771 Z-2.756
X83.751 Y41.599 Z-2.762
X83.74 Y41.425 Z-2.768
X83.745 Y41.251 Z-2.774
X83.765 Y41.078 Z-2.78
X83.801 Y40.907 Z-2.786
X83.853 Y40.741 Z-2.792
X83.92 Y40.58 Z-2.798
X84.001 Y40.426 Z-2.804
X84.096 Y40.28 Z-2.81
X84.204 Y40.143 Z-2.817
X84.324 Y40.017 Z-2.823
X84.455 Y39.902 Z-2.829
X84.596 Y39.8 Z-2.835
X84.746 Y39.711 Z-2.841
X84.903 Y39.636 Z-2.847
X85.067 Y39.576 Z-2.853
X85.235 Y39.531 Z-2.859
X85.407 Y39.502 Z-2.865
X85.581 Y39.488 Z-2.871
X85.755 Y39.491 Z-2.877
X85.928 Y39.509 Z-2.883
X86.099 Y39.544 Z-2.89
X86.266 Y39.594 Z-2.896
X86.428 Y39.659 Z-2.902
X86.583 Y39.738 Z-2.908
X86.73 Y39.831 Z-2.914
X86.868 Y39.938 Z-2.92
X86.996 Y40.057 Z-2.926
X87.112 Y40.186 Z-2.932
X87.216 Y40.326 Z-2.938
X87.306 Y40.475 Z-2.944
X87.383 Y40.632 Z-2.95
X87.445 Y40.795 Z-2.957
X87.491 Y40.962 Z-2.963
X87.523 Y41.134 Z-2.969
X87.538 Y41.307 Z-2.975
X87.537 Y41.482 Z-2.981
X87.521 Y41.655 Z-2.987
X87.488 Y41.826 Z-2.993
X87.44 Y41.994 Z-2.999
X87.377 Y42.156 Z-3.005
X87.299 Y42.312 Z-3.011
X87.208 Y42.46 Z-3.017
X87.103 Y42.599 Z-3.023
X86.986 Y42.728 Z-3.03
X86.857 Y42.846 Z-3.036
X86.718 Y42.951 Z-3.042
X86.57 Y43.044 Z-3.048
X86.415 Y43.122 Z-3.054
X86.253 Y43.186 Z-3.06
X86.085 Y43.234 Z-3.066
X85.914 Y43.267 Z-3.072
X85.741 Y43.285 Z-3.078
X85.567 Y43.286 Z-3.084
X85.393 Y43.271 Z-3.09
X85.221 Y43.241 Z-3.097
X85.053 Y43.195 Z-3.103
X84.89 Y43.133 Z-3.109
X84.733 Y43.057 Z-3.115
X84.584 Y42.967 Z-3.121
X84.444 Y42.864 Z-3.127
X84.314 Y42.748 Z-3.133
X84.195 Y42.621 Z-3.139
X84.088 Y42.484 Z-3.145
X83.994 Y42.337 Z-3.151
X83.914 Y42.182 Z-3.157
X83.848 Y42.021 Z-3.163
X83.798 Y41.854 Z-3.17
X83.763 Y41.683 Z-3.176
X83.744 Y41.51 Z-3.182
X83.74 Y41.336 Z-3.188
X83.753 Y41.162 Z-3.194
X83.782 Y40.99 Z-3.2
X83.826 Y40.821 Z-3.206
X83.885 Y40.658 Z-3.212
X83.96 Y40.5 Z-3.218
X84.048 Y40.35 Z-3.224
X84.15 Y40.208 Z-3.23
X84.264 Y40.077 Z-3.237
X84.39 Y39.956 Z-3.243
X84.526 Y39.848 Z-3.249
X84.672 Y39.752 Z-3.255
X84.826 Y39.671 Z-3.261
X84.986 Y39.603 Z-3.267
X85.153 Y39.551 Z-3.273
X85.323 Y39.514 Z-3.279
X85.496 Y39.493 Z-3.285
X85.67 Y39.488 Z-3.291
X85.844 Y39.498 Z-3.297
X86.016 Y39.525 Z-3.303
X86.185 Y39.567 Z-3.31
X86.35 Y39.625 Z-3.316
X86.508 Y39.698 Z-3.322
X86.659 Y39.784 Z-3.328
X86.802 Y39.884 Z-3.334
X86.935 Y39.997 Z-3.34
X87.057 Y40.122 Z-3.346
X87.167 Y40.257 Z-3.352
X87.264 Y40.401 Z-3.358
X87.347 Y40.554 Z-3.364
X87.416 Y40.714 Z-3.37
X87.471 Y40.88 Z-3.377
X87.509 Y41.05 Z-3.383
X87.532 Y41.222 Z-3.389
X87.54 Y41.397 Z-3.395
X87.531 Y41.571 Z-3.401
X87.506 Y41.743 Z-3.407
X87.466 Y41.913 Z-3.413
X87.41 Y42.078 Z-3.419
X87.339 Y42.237 Z-3.425
X87.254 Y42.389 Z-3.431
X87.156 Y42.533 Z-3.437
X87.044 Y42.667 Z-3.443
X86.921 Y42.79 Z-3.45
X86.787 Y42.902 Z-3.456
X86.644 Y43. Z-3.462
X86.492 Y43.086 Z-3.468
X86.333 Y43.157 Z-3.474
X86.168 Y43.213 Z-3.48
X85.998 Y43.253 Z-3.486
X85.826 Y43.278 Z-3.492
X85.652 Y43.287 Z-3.498
X85.478 Y43.28 Z-3.504
X85.305 Y43.258 Z-3.51
X85.135 Y43.219 Z-3.517
X84.969 Y43.165 Z-3.523
X84.809 Y43.096 Z-3.529
X84.656 Y43.013 Z-3.535
X84.511 Y42.916 Z-3.541
X84.376 Y42.806 Z-3.547
X84.251 Y42.685 Z-3.553
X84.138 Y42.552 Z-3.559
X84.038 Y42.41 Z-3.565
X83.951 Y42.259 Z-3.571
X83.878 Y42.1 Z-3.577
X83.82 Y41.936 Z-3.583
X83.778 Y41.767 Z-3.59
X83.751 Y41.595 Z-3.596
X83.74 Y41.421 Z-3.602
X83.745 Y41.247 Z-3.608
X83.766 Y41.074 Z-3.614
X83.802 Y40.903 Z-3.62
X83.854 Y40.737 Z-3.626
X83.921 Y40.576 Z-3.632
X84.003 Y40.422 Z-3.638
X84.098 Y40.276 Z-3.644
X84.207 Y40.14 Z-3.65
X84.327 Y40.014 Z-3.657
X84.458 Y39.899 Z-3.663
X84.6 Y39.797 Z-3.669
X84.75 Y39.709 Z-3.675
X84.907 Y39.634 Z-3.681
X85.071 Y39.575 Z-3.687
X85.239 Y39.53 Z-3.693
X85.411 Y39.501 Z-3.699
X85.585 Y39.488 Z-3.705
X85.759 Y39.491 Z-3.711
X85.932 Y39.51 Z-3.717
X86.103 Y39.545 Z-3.723
X86.27 Y39.595 Z-3.73
X86.432 Y39.66 Z-3.736
X86.586 Y39.74 Z-3.742
X86.733 Y39.834 Z-3.748
X86.871 Y39.941 Z-3.754
X86.998 Y40.059 Z-3.76
X87.114 Y40.189 Z-3.766
X87.218 Y40.33 Z-3.772
X87.308 Y40.479 Z-3.778
X87.384 Y40.635 Z-3.784
X87.446 Y40.798 Z-3.79
X87.492 Y40.966 Z-3.797
X87.523 Y41.138 Z-3.803
X87.538 Y41.311 Z-3.809
X87.537 Y41.486 Z-3.815
X87.52 Y41.659 Z-3.821
X87.487 Y41.83 Z-3.827
X87.439 Y41.998 Z-3.833
X87.375 Y42.16 Z-3.839
X87.297 Y42.316 Z-3.845
X87.205 Y42.464 Z-3.851
X87.1 Y42.603 Z-3.857
X86.983 Y42.731 Z-3.863
X86.854 Y42.849 Z-3.87
X86.715 Y42.954 Z-3.876
X86.567 Y43.046 Z-3.882
X86.411 Y43.124 Z-3.888
X86.249 Y43.187 Z-3.894
X86.081 Y43.235 Z-3.9
X85.91 Y43.268 Z-3.906
X85.737 Y43.285 Z-3.912
X85.563 Y43.286 Z-3.918
X85.389 Y43.271 Z-3.924
X85.217 Y43.24 Z-3.93
X85.05 Y43.193 Z-3.937
X84.887 Y43.132 Z-3.943
X84.73 Y43.055 Z-3.949
X84.581 Y42.965 Z-3.955
X84.441 Y42.862 Z-3.961
X84.311 Y42.745 Z-3.967
X84.192 Y42.618 Z-3.973
X84.085 Y42.48 Z-3.979
X83.992 Y42.333 Z-3.985
X83.912 Y42.178 Z-3.991
X83.847 Y42.017 Z-3.997
X83.797 Y41.85 Z-4.003
X83.762 Y41.679 Z-4.01
X83.743 Y41.506 Z-4.016
X83.74 Y41.332 Z-4.022
X83.754 Y41.158 Z-4.028
