(NMJSTIMLID_STEP1_4MM)
(T8  D=4. CR=0. - ZMIN=-10. - FLAT END MILL)
G0 G90 G94 G17
G21
G53 G0 Z0.

(2D POCKET1)
M5
T8
M3 S16000
G55
M8
G0 X62.927 Y89.005
Z15.
Z5.
G1 Z1.5 F380.
Z-0.065 F1500.
X62.934 Y89.004 Z-0.143
X62.957 Y89. Z-0.218
X62.993 Y88.995 Z-0.287
X63.043 Y88.987 Z-0.348
X63.102 Y88.977 Z-0.398
X63.171 Y88.967 Z-0.435
X63.245 Y88.955 Z-0.457
X63.322 Y88.943 Z-0.465
G3 X64.506 Y88.849 R7.568
G1 X125.617 Y88.841
G3 X126.412 Y88.758 R14.987
G2 X127.189 Y88.572 R2.544
G3 X127.934 Y88.286 R14.985
G2 X128.636 Y87.905 R2.545
G1 X129.527 Y87.222
G2 X130.076 Y86.642 R2.547
G3 X130.545 Y85.996 R14.979
G2 X130.926 Y85.294 R2.545
G3 X131.212 Y84.548 R14.983
G2 X131.398 Y83.771 R2.542
G3 X131.481 Y82.976 R14.996
G1 X131.496 Y3.26
G2 X131.279 Y1.802 R5.009
X130.782 Y0.414 R15.126
X130.364 Y-0.267 R2.545
G3 X129.861 Y-0.887 R14.988
G2 X129.282 Y-1.436 R2.546
G3 X128.636 Y-1.905 R14.982
G2 X127.934 Y-2.286 R2.545
G3 X127.189 Y-2.572 R14.984
G2 X126.412 Y-2.758 R2.544
G3 X125.617 Y-2.841 R14.987
G1 X6.581 Y-2.857
G2 X5.298 Y-2.325 R1.814
G1 X-1.965 Y4.938
G2 X-2.497 Y6.221 R1.814
G1 Y79.78
G2 X-1.965 Y81.062 R1.814
G1 X5.298 Y88.325
G2 X6.581 Y88.857 R1.814
G1 X64.506 Y88.849
G2 X66.208 Y87.714 R1.844
G3 X67.909 Y86.579 R1.844
G1 X125.348 Y86.557
G2 X126.347 Y86.411 R6.336
X127.286 Y86.042 R3.389
X128.659 Y84.614 R3.568
X129.196 Y82.708 R4.756
G1 Y3.292
G2 X129.051 Y2.293 R6.339
X128.682 Y1.354 R3.385
X127.254 Y-0.019 R3.568
X125.348 Y-0.557 R4.76
G1 X7.278 Y-0.602
G2 X6.399 Y-0.238 R1.243
G1 X0.122 Y6.039
G2 X-0.242 Y6.918 R1.243
G1 Y79.082
G2 X0.122 Y79.961 R1.243
G1 X6.399 Y86.238
G2 X7.278 Y86.602 R1.243
G1 X67.909 Y86.579
G2 X69.634 Y85.428 R1.869
G3 X71.358 Y84.277 R1.869
G1 X125.197 Y84.257
G2 X125.675 Y84.198 R4.252
X126.126 Y84.033 R1.399
X126.696 Y83.392 R1.363
X126.896 Y82.558 R2.523
G1 Y3.442
G2 X126.838 Y2.965 R4.257
X126.673 Y2.514 R1.396
X126.032 Y1.944 R1.363
X125.197 Y1.743 R2.527
G1 X8.231 Y1.698
G2 X7.352 Y2.062 R1.243
G1 X2.422 Y6.992
G2 X2.058 Y7.871 R1.243
G1 Y78.129
G2 X2.422 Y79.008 R1.243
G1 X7.352 Y83.938
G2 X8.231 Y84.302 R1.243
G1 X71.358 Y84.277
X71.512 Y84.284 Z-0.47
X71.664 Y84.302 Z-0.474
X71.814 Y84.333 Z-0.479
X71.961 Y84.376 Z-0.484
X85.043 Y88.748 Z-0.911
X85.19 Y88.791 Z-0.916
X85.34 Y88.822 Z-0.921
X85.492 Y88.84 Z-0.925
X85.646 Y88.846 Z-0.93
X125.617 Y88.841
G3 X126.412 Y88.758 R14.987
G2 X127.189 Y88.572 R2.544
G3 X127.934 Y88.286 R14.985
G2 X128.636 Y87.905 R2.545
G1 X129.527 Y87.222
G2 X130.076 Y86.642 R2.547
G3 X130.545 Y85.996 R14.979
G2 X130.926 Y85.294 R2.545
G3 X131.212 Y84.548 R14.983
G2 X131.398 Y83.771 R2.542
G3 X131.481 Y82.976 R14.996
G1 X131.496 Y3.26
G2 X131.279 Y1.802 R5.009
X130.782 Y0.414 R15.126
X130.364 Y-0.267 R2.545
G3 X129.861 Y-0.887 R14.988
G2 X129.282 Y-1.436 R2.546
G3 X128.636 Y-1.905 R14.982
G2 X127.934 Y-2.286 R2.545
G3 X127.189 Y-2.572 R14.984
G2 X126.412 Y-2.758 R2.544
G3 X125.617 Y-2.841 R14.987
G1 X6.581 Y-2.857
G2 X5.298 Y-2.325 R1.814
G1 X-1.965 Y4.938
G2 X-2.497 Y6.221 R1.814
G1 Y79.78
G2 X-1.965 Y81.062 R1.814
G1 X5.298 Y88.325
G2 X6.581 Y88.857 R1.814
G1 X85.646 Y88.846
G2 X87.351 Y87.709 R1.848
G3 X89.057 Y86.571 R1.849
G1 X125.348 Y86.557
G2 X126.347 Y86.411 R6.336
X127.286 Y86.042 R3.389
X128.659 Y84.614 R3.568
X129.196 Y82.708 R4.756
G1 Y3.292
G2 X129.051 Y2.293 R6.339
X128.682 Y1.354 R3.385
X127.254 Y-0.019 R3.568
X125.348 Y-0.557 R4.76
G1 X7.278 Y-0.602
G2 X6.399 Y-0.238 R1.243
G1 X0.122 Y6.039
G2 X-0.242 Y6.918 R1.243
G1 Y79.082
G2 X0.122 Y79.961 R1.243
G1 X6.399 Y86.238
G2 X7.278 Y86.602 R1.243
G1 X89.057 Y86.571
G2 X90.782 Y85.42 R1.869
G3 X92.506 Y84.269 R1.869
G1 X125.197 Y84.257
G2 X125.675 Y84.198 R4.252
X126.126 Y84.033 R1.399
X126.696 Y83.392 R1.363
X126.896 Y82.558 R2.523
G1 Y3.442
G2 X126.838 Y2.965 R4.257
X126.673 Y2.514 R1.396
X126.032 Y1.944 R1.363
X125.197 Y1.743 R2.527
G1 X8.231 Y1.698
G2 X7.352 Y2.062 R1.243
G1 X2.422 Y6.992
G2 X2.058 Y7.871 R1.243
G1 Y78.129
G2 X2.422 Y79.008 R1.243
G1 X7.352 Y83.938
G2 X8.231 Y84.302 R1.243
G1 X92.506 Y84.269
X92.677 Y84.277 Z-0.934
X92.847 Y84.3 Z-0.938
X93.015 Y84.338 Z-0.942
X93.178 Y84.392 Z-0.946
X93.335 Y84.459 Z-0.95
X93.486 Y84.541 Z-0.955
X93.629 Y84.636 Z-0.959
X93.763 Y84.743 Z-0.963
X93.886 Y84.862 Z-0.967
X93.998 Y84.992 Z-0.971
X94.098 Y85.131 Z-0.975
X94.185 Y85.279 Z-0.979
X94.259 Y85.434 Z-0.983
X94.318 Y85.595 Z-0.987
X94.362 Y85.761 Z-0.991
X94.392 Y85.93 Z-0.995
X94.406 Y86.101 Z-1.
X94.404 Y86.272 Z-1.004
X94.387 Y86.443 Z-1.008
X94.355 Y86.611 Z-1.012
X94.307 Y86.776 Z-1.016
X94.245 Y86.936 Z-1.02
X94.169 Y87.09 Z-1.024
X94.079 Y87.236 Z-1.028
X93.977 Y87.373 Z-1.032
X93.862 Y87.501 Z-1.036
X93.737 Y87.618 Z-1.041
X93.601 Y87.723 Z-1.045
X93.456 Y87.815 Z-1.049
X93.304 Y87.894 Z-1.053
X93.145 Y87.959 Z-1.057
X92.981 Y88.009 Z-1.061
X92.814 Y88.044 Z-1.065
X92.643 Y88.064 Z-1.069
X92.472 Y88.069 Z-1.073
X92.301 Y88.058 Z-1.077
X92.131 Y88.032 Z-1.081
X91.965 Y87.99 Z-1.086
X91.803 Y87.934 Z-1.09
X91.646 Y87.863 Z-1.094
X86.506 Y85.252 Z-1.231
X86.349 Y85.182 Z-1.235
X86.187 Y85.125 Z-1.239
X86.021 Y85.084 Z-1.244
X85.852 Y85.058 Z-1.248
X85.68 Y85.047 Z-1.252
X85.509 Y85.051 Z-1.256
X85.339 Y85.071 Z-1.26
X85.171 Y85.107 Z-1.264
X85.007 Y85.157 Z-1.268
X84.848 Y85.222 Z-1.272
X84.696 Y85.301 Z-1.276
X84.551 Y85.393 Z-1.28
X84.416 Y85.498 Z-1.284
X84.29 Y85.615 Z-1.289
X84.176 Y85.742 Z-1.293
X84.073 Y85.88 Z-1.297
X83.983 Y86.026 Z-1.301
X83.907 Y86.18 Z-1.305
X83.845 Y86.339 Z-1.309
X83.798 Y86.504 Z-1.313
X83.765 Y86.673 Z-1.317
X83.748 Y86.843 Z-1.321
X83.747 Y87.015 Z-1.325
X83.76 Y87.186 Z-1.33
X83.79 Y87.355 Z-1.334
X83.834 Y87.52 Z-1.338
X83.893 Y87.681 Z-1.342
X83.967 Y87.836 Z-1.346
X84.054 Y87.984 Z-1.35
X84.154 Y88.123 Z-1.354
X84.266 Y88.253 Z-1.358
X84.389 Y88.372 Z-1.362
X84.523 Y88.48 Z-1.366
X84.666 Y88.575 Z-1.37
X84.817 Y88.656 Z-1.375
X84.974 Y88.724 Z-1.379
X85.137 Y88.777 Z-1.383
X85.304 Y88.816 Z-1.387
X85.474 Y88.839 Z-1.391
X85.646 Y88.846 Z-1.395
X125.617 Y88.841
G3 X126.412 Y88.758 R14.987
G2 X127.189 Y88.572 R2.544
G3 X127.934 Y88.286 R14.985
G2 X128.636 Y87.905 R2.545
G1 X129.527 Y87.222
G2 X130.076 Y86.642 R2.547
G3 X130.545 Y85.996 R14.979
G2 X130.926 Y85.294 R2.545
G3 X131.212 Y84.548 R14.983
G2 X131.398 Y83.771 R2.542
G3 X131.481 Y82.976 R14.996
G1 X131.496 Y3.26
G2 X131.279 Y1.802 R5.009
X130.782 Y0.414 R15.126
X130.364 Y-0.267 R2.545
G3 X129.861 Y-0.887 R14.988
G2 X129.282 Y-1.436 R2.546
G3 X128.636 Y-1.905 R14.982
G2 X127.934 Y-2.286 R2.545
G3 X127.189 Y-2.572 R14.984
G2 X126.412 Y-2.758 R2.544
G3 X125.617 Y-2.841 R14.987
G1 X6.581 Y-2.857
G2 X5.298 Y-2.325 R1.814
G1 X-1.965 Y4.938
G2 X-2.497 Y6.221 R1.814
G1 Y79.78
G2 X-1.965 Y81.062 R1.814
G1 X5.298 Y88.325
G2 X6.581 Y88.857 R1.814
G1 X85.646 Y88.846
G2 X87.351 Y87.709 R1.848
G3 X89.057 Y86.571 R1.849
G1 X125.348 Y86.557
G2 X126.347 Y86.411 R6.336
X127.286 Y86.042 R3.389
X128.659 Y84.614 R3.568
X129.196 Y82.708 R4.756
G1 Y3.292
G2 X129.051 Y2.293 R6.339
X128.682 Y1.354 R3.385
X127.254 Y-0.019 R3.568
X125.348 Y-0.557 R4.76
G1 X7.278 Y-0.602
G2 X6.399 Y-0.238 R1.243
G1 X0.122 Y6.039
G2 X-0.242 Y6.918 R1.243
G1 Y79.082
G2 X0.122 Y79.961 R1.243
G1 X6.399 Y86.238
G2 X7.278 Y86.602 R1.243
G1 X89.057 Y86.571
G2 X90.782 Y85.42 R1.869
G3 X92.506 Y84.269 R1.869
G1 X125.197 Y84.257
G2 X125.675 Y84.198 R4.252
X126.126 Y84.033 R1.399
X126.696 Y83.392 R1.363
X126.896 Y82.558 R2.523
G1 Y3.442
G2 X126.838 Y2.965 R4.257
X126.673 Y2.514 R1.396
X126.032 Y1.944 R1.363
X125.197 Y1.743 R2.527
G1 X8.231 Y1.698
G2 X7.352 Y2.062 R1.243
G1 X2.422 Y6.992
G2 X2.058 Y7.871 R1.243
G1 Y78.129
G2 X2.422 Y79.008 R1.243
G1 X7.352 Y83.938
G2 X8.231 Y84.302 R1.243
G1 X92.506 Y84.269
X92.677 Y84.277 Z-1.399
X92.847 Y84.3 Z-1.403
X93.015 Y84.338 Z-1.407
X93.178 Y84.392 Z-1.411
X93.335 Y84.459 Z-1.415
X93.486 Y84.541 Z-1.42
X93.629 Y84.636 Z-1.424
X93.763 Y84.743 Z-1.428
X93.886 Y84.862 Z-1.432
X93.998 Y84.992 Z-1.436
X94.098 Y85.131 Z-1.44
X94.185 Y85.279 Z-1.444
X94.259 Y85.434 Z-1.448
X94.318 Y85.595 Z-1.452
X94.362 Y85.761 Z-1.456
X94.392 Y85.93 Z-1.46
X94.406 Y86.101 Z-1.465
X94.404 Y86.272 Z-1.469
X94.387 Y86.443 Z-1.473
X94.355 Y86.611 Z-1.477
X94.307 Y86.776 Z-1.481
X94.245 Y86.936 Z-1.485
X94.169 Y87.09 Z-1.489
X94.079 Y87.236 Z-1.493
X93.977 Y87.373 Z-1.497
X93.862 Y87.501 Z-1.501
X93.737 Y87.618 Z-1.506
X93.601 Y87.723 Z-1.51
X93.456 Y87.815 Z-1.514
X93.304 Y87.894 Z-1.518
X93.145 Y87.959 Z-1.522
X92.981 Y88.009 Z-1.526
X92.814 Y88.044 Z-1.53
X92.643 Y88.064 Z-1.534
X92.472 Y88.069 Z-1.538
X92.301 Y88.058 Z-1.542
X92.131 Y88.032 Z-1.546
X91.965 Y87.99 Z-1.551
X91.803 Y87.934 Z-1.555
X91.646 Y87.863 Z-1.559
X86.506 Y85.252 Z-1.696
X86.349 Y85.182 Z-1.7
X86.187 Y85.125 Z-1.704
X86.021 Y85.084 Z-1.709
X85.852 Y85.058 Z-1.713
X85.68 Y85.047 Z-1.717
X85.509 Y85.051 Z-1.721
X85.339 Y85.071 Z-1.725
X85.171 Y85.107 Z-1.729
X85.007 Y85.157 Z-1.733
X84.848 Y85.222 Z-1.737
X84.696 Y85.301 Z-1.741
X84.551 Y85.393 Z-1.745
X84.416 Y85.498 Z-1.749
X84.29 Y85.615 Z-1.754
X84.176 Y85.742 Z-1.758
X84.073 Y85.88 Z-1.762
X83.983 Y86.026 Z-1.766
X83.907 Y86.18 Z-1.77
X83.845 Y86.339 Z-1.774
X83.798 Y86.504 Z-1.778
X83.765 Y86.673 Z-1.782
X83.748 Y86.843 Z-1.786
X83.747 Y87.015 Z-1.79
X83.76 Y87.186 Z-1.795
X83.79 Y87.355 Z-1.799
X83.834 Y87.52 Z-1.803
X83.893 Y87.681 Z-1.807
X83.967 Y87.836 Z-1.811
X84.054 Y87.984 Z-1.815
X84.154 Y88.123 Z-1.819
X84.266 Y88.253 Z-1.823
X84.389 Y88.372 Z-1.827
X84.523 Y88.48 Z-1.831
X84.666 Y88.575 Z-1.835
X84.817 Y88.656 Z-1.84
X84.974 Y88.724 Z-1.844
X85.137 Y88.777 Z-1.848
X85.304 Y88.816 Z-1.852
X85.474 Y88.839 Z-1.856
X85.646 Y88.846 Z-1.86
X125.617 Y88.841
G3 X126.412 Y88.758 R14.987
G2 X127.189 Y88.572 R2.544
G3 X127.934 Y88.286 R14.985
G2 X128.636 Y87.905 R2.545
G1 X129.527 Y87.222
G2 X130.076 Y86.642 R2.547
G3 X130.545 Y85.996 R14.979
G2 X130.926 Y85.294 R2.545
G3 X131.212 Y84.548 R14.983
G2 X131.398 Y83.771 R2.542
G3 X131.481 Y82.976 R14.996
G1 X131.496 Y3.26
G2 X131.279 Y1.802 R5.009
X130.782 Y0.414 R15.126
X130.364 Y-0.267 R2.545
G3 X129.861 Y-0.887 R14.988
G2 X129.282 Y-1.436 R2.546
G3 X128.636 Y-1.905 R14.982
G2 X127.934 Y-2.286 R2.545
G3 X127.189 Y-2.572 R14.984
G2 X126.412 Y-2.758 R2.544
G3 X125.617 Y-2.841 R14.987
G1 X6.581 Y-2.857
G2 X5.298 Y-2.325 R1.814
G1 X-1.965 Y4.938
G2 X-2.497 Y6.221 R1.814
G1 Y79.78
G2 X-1.965 Y81.062 R1.814
G1 X5.298 Y88.325
G2 X6.581 Y88.857 R1.814
G1 X85.646 Y88.846
G2 X87.351 Y87.709 R1.848
G3 X89.057 Y86.571 R1.849
G1 X125.348 Y86.557
G2 X126.347 Y86.411 R6.336
X127.286 Y86.042 R3.389
X128.659 Y84.614 R3.568
X129.196 Y82.708 R4.756
G1 Y3.292
G2 X129.051 Y2.293 R6.339
X128.682 Y1.354 R3.385
X127.254 Y-0.019 R3.568
X125.348 Y-0.557 R4.76
G1 X7.278 Y-0.602
G2 X6.399 Y-0.238 R1.243
G1 X0.122 Y6.039
G2 X-0.242 Y6.918 R1.243
G1 Y79.082
G2 X0.122 Y79.961 R1.243
G1 X6.399 Y86.238
G2 X7.278 Y86.602 R1.243
G1 X89.057 Y86.571
G2 X90.782 Y85.42 R1.869
G3 X92.506 Y84.269 R1.869
G1 X125.197 Y84.257
G2 X125.675 Y84.198 R4.252
X126.126 Y84.033 R1.399
X126.696 Y83.392 R1.363
X126.896 Y82.558 R2.523
G1 Y3.442
G2 X126.838 Y2.965 R4.257
X126.673 Y2.514 R1.396
X126.032 Y1.944 R1.363
X125.197 Y1.743 R2.527
G1 X8.231 Y1.698
G2 X7.352 Y2.062 R1.243
G1 X2.422 Y6.992
G2 X2.058 Y7.871 R1.243
G1 Y78.129
G2 X2.422 Y79.008 R1.243
G1 X7.352 Y83.938
G2 X8.231 Y84.302 R1.243
G1 X92.506 Y84.269
X92.677 Y84.277 Z-1.864
X92.847 Y84.3 Z-1.868
X93.015 Y84.338 Z-1.872
X93.178 Y84.392 Z-1.876
X93.335 Y84.459 Z-1.88
X93.486 Y84.541 Z-1.885
X93.629 Y84.636 Z-1.889
X93.763 Y84.743 Z-1.893
X93.886 Y84.862 Z-1.897
X93.998 Y84.992 Z-1.901
X94.098 Y85.131 Z-1.905
X94.185 Y85.279 Z-1.909
X94.259 Y85.434 Z-1.913
X94.318 Y85.595 Z-1.917
X94.362 Y85.761 Z-1.921
X94.392 Y85.93 Z-1.925
X94.406 Y86.101 Z-1.93
X94.404 Y86.272 Z-1.934
X94.387 Y86.443 Z-1.938
X94.355 Y86.611 Z-1.942
X94.307 Y86.776 Z-1.946
X94.245 Y86.936 Z-1.95
X94.169 Y87.09 Z-1.954
X94.079 Y87.236 Z-1.958
X93.977 Y87.373 Z-1.962
X93.862 Y87.501 Z-1.966
X93.737 Y87.618 Z-1.971
X93.601 Y87.723 Z-1.975
X93.456 Y87.815 Z-1.979
X93.304 Y87.894 Z-1.983
X93.145 Y87.959 Z-1.987
X92.981 Y88.009 Z-1.991
X92.814 Y88.044 Z-1.995
X92.643 Y88.064 Z-1.999
X92.472 Y88.069 Z-2.003
X92.301 Y88.058 Z-2.007
X92.131 Y88.032 Z-2.011
X91.965 Y87.99 Z-2.016
X91.803 Y87.934 Z-2.02
X91.646 Y87.863 Z-2.024
X86.506 Y85.252 Z-2.161
X86.349 Y85.182 Z-2.165
X86.187 Y85.125 Z-2.169
X86.021 Y85.084 Z-2.174
X85.852 Y85.058 Z-2.178
X85.68 Y85.047 Z-2.182
X85.509 Y85.051 Z-2.186
X85.339 Y85.071 Z-2.19
X85.171 Y85.107 Z-2.194
X85.007 Y85.157 Z-2.198
X84.848 Y85.222 Z-2.202
X84.696 Y85.301 Z-2.206
X84.551 Y85.393 Z-2.21
X84.416 Y85.498 Z-2.214
X84.29 Y85.615 Z-2.219
X84.176 Y85.742 Z-2.223
X84.073 Y85.88 Z-2.227
X83.983 Y86.026 Z-2.231
X83.907 Y86.18 Z-2.235
X83.845 Y86.339 Z-2.239
X83.798 Y86.504 Z-2.243
X83.765 Y86.673 Z-2.247
X83.748 Y86.843 Z-2.251
X83.747 Y87.015 Z-2.255
X83.76 Y87.186 Z-2.26
X83.79 Y87.355 Z-2.264
X83.834 Y87.52 Z-2.268
X83.893 Y87.681 Z-2.272
X83.967 Y87.836 Z-2.276
X84.054 Y87.984 Z-2.28
X84.154 Y88.123 Z-2.284
X84.266 Y88.253 Z-2.288
X84.389 Y88.372 Z-2.292
X84.523 Y88.48 Z-2.296
X84.666 Y88.575 Z-2.3
X84.817 Y88.656 Z-2.305
X84.974 Y88.724 Z-2.309
X85.137 Y88.777 Z-2.313
X85.304 Y88.816 Z-2.317
X85.474 Y88.839 Z-2.321
X85.646 Y88.846 Z-2.325
X125.617 Y88.841
G3 X126.412 Y88.758 R14.987
G2 X127.189 Y88.572 R2.544
G3 X127.934 Y88.286 R14.985
G2 X128.636 Y87.905 R2.545
G1 X129.527 Y87.222
G2 X130.076 Y86.642 R2.547
G3 X130.545 Y85.996 R14.979
G2 X130.926 Y85.294 R2.545
G3 X131.212 Y84.548 R14.983
G2 X131.398 Y83.771 R2.542
G3 X131.481 Y82.976 R14.996
G1 X131.496 Y3.26
G2 X131.279 Y1.802 R5.009
X130.782 Y0.414 R15.126
X130.364 Y-0.267 R2.545
G3 X129.861 Y-0.887 R14.988
G2 X129.282 Y-1.436 R2.546
G3 X128.636 Y-1.905 R14.982
G2 X127.934 Y-2.286 R2.545
G3 X127.189 Y-2.572 R14.984
G2 X126.412 Y-2.758 R2.544
G3 X125.617 Y-2.841 R14.987
G1 X6.581 Y-2.857
G2 X5.298 Y-2.325 R1.814
G1 X-1.965 Y4.938
G2 X-2.497 Y6.221 R1.814
G1 Y79.78
G2 X-1.965 Y81.062 R1.814
G1 X5.298 Y88.325
G2 X6.581 Y88.857 R1.814
G1 X85.646 Y88.846
G2 X87.351 Y87.709 R1.848
G3 X89.057 Y86.571 R1.849
G1 X125.348 Y86.557
G2 X126.347 Y86.411 R6.336
X127.286 Y86.042 R3.389
X128.659 Y84.614 R3.568
X129.196 Y82.708 R4.756
G1 Y3.292
G2 X129.051 Y2.293 R6.339
X128.682 Y1.354 R3.385
X127.254 Y-0.019 R3.568
X125.348 Y-0.557 R4.76
G1 X7.278 Y-0.602
G2 X6.399 Y-0.238 R1.243
G1 X0.122 Y6.039
G2 X-0.242 Y6.918 R1.243
G1 Y79.082
G2 X0.122 Y79.961 R1.243
G1 X6.399 Y86.238
G2 X7.278 Y86.602 R1.243
G1 X89.057 Y86.571
G2 X90.782 Y85.42 R1.869
G3 X92.506 Y84.269 R1.869
G1 X125.197 Y84.257
G2 X125.675 Y84.198 R4.252
X126.126 Y84.033 R1.399
X126.696 Y83.392 R1.363
X126.896 Y82.558 R2.523
G1 Y3.442
G2 X126.838 Y2.965 R4.257
X126.673 Y2.514 R1.396
X126.032 Y1.944 R1.363
X125.197 Y1.743 R2.527
G1 X8.231 Y1.698
G2 X7.352 Y2.062 R1.243
G1 X2.422 Y6.992
G2 X2.058 Y7.871 R1.243
G1 Y78.129
G2 X2.422 Y79.008 R1.243
G1 X7.352 Y83.938
G2 X8.231 Y84.302 R1.243
G1 X92.506 Y84.269
G2 X92.83 Y84.104 R0.4
G1 X93.995 Y82.499
X94.041 Y82.435 Z-2.317
X94.085 Y82.375 Z-2.295
X94.126 Y82.319 Z-2.258
X94.162 Y82.27 Z-2.208
X94.191 Y82.229 Z-2.147
X94.213 Y82.199 Z-2.078
X94.226 Y82.181 Z-2.003
X94.23 Y82.175 Z-1.925
G0 Z15.
X87.522 Y41.643
Z5.
G1 Z2.9 F380.
X87.518 Y41.672 Z2.75 F1500.
X87.504 Y41.753 Z2.622
X87.476 Y41.875 Z2.534
X87.432 Y42.017 Z2.5
X87.367 Y42.179 Z2.494
X87.287 Y42.334 Z2.488
X87.194 Y42.481 Z2.482
X87.087 Y42.618 Z2.476
X86.968 Y42.746 Z2.47
X86.838 Y42.862 Z2.463
X86.698 Y42.965 Z2.457
X86.549 Y43.056 Z2.451
X86.392 Y43.132 Z2.445
X86.23 Y43.194 Z2.439
X86.062 Y43.24 Z2.433
X85.89 Y43.271 Z2.427
X85.717 Y43.286 Z2.421
X85.542 Y43.285 Z2.415
X85.369 Y43.268 Z2.409
X85.198 Y43.235 Z2.403
X85.031 Y43.187 Z2.397
X84.868 Y43.124 Z2.39
X84.713 Y43.046 Z2.384
X84.565 Y42.954 Z2.378
X84.426 Y42.849 Z2.372
X84.297 Y42.732 Z2.366
X84.179 Y42.603 Z2.36
X84.074 Y42.464 Z2.354
X83.982 Y42.316 Z2.348
X83.904 Y42.161 Z2.342
X83.841 Y41.998 Z2.336
X83.792 Y41.831 Z2.33
X83.759 Y41.66 Z2.324
X83.742 Y41.487 Z2.317
X83.741 Y41.312 Z2.311
X83.756 Y41.139 Z2.305
X83.787 Y40.967 Z2.299
X83.833 Y40.799 Z2.293
X83.894 Y40.636 Z2.287
X83.97 Y40.48 Z2.281
X84.061 Y40.331 Z2.275
X84.164 Y40.19 Z2.269
X84.28 Y40.06 Z2.263
X84.407 Y39.941 Z2.257
X84.545 Y39.835 Z2.251
X84.692 Y39.741 Z2.244
X84.846 Y39.661 Z2.238
X85.008 Y39.596 Z2.232
X85.175 Y39.545 Z2.226
X85.345 Y39.51 Z2.22
X85.518 Y39.491 Z2.214
X85.693 Y39.488 Z2.208
X85.866 Y39.501 Z2.202
X86.038 Y39.53 Z2.196
X86.207 Y39.574 Z2.19
X86.37 Y39.633 Z2.184
X86.528 Y39.708 Z2.177
X86.678 Y39.796 Z2.171
X86.819 Y39.898 Z2.165
X86.951 Y40.012 Z2.159
X87.071 Y40.138 Z2.153
X87.18 Y40.274 Z2.147
X87.275 Y40.42 Z2.141
X87.357 Y40.574 Z2.135
X87.424 Y40.735 Z2.129
X87.476 Y40.901 Z2.123
X87.513 Y41.071 Z2.117
X87.534 Y41.244 Z2.111
X87.539 Y41.418 Z2.104
X87.529 Y41.592 Z2.098
X87.502 Y41.764 Z2.092
X87.46 Y41.933 Z2.086
X87.402 Y42.098 Z2.08
X87.329 Y42.256 Z2.074
X87.243 Y42.407 Z2.068
X87.143 Y42.55 Z2.062
X87.03 Y42.682 Z2.056
X86.905 Y42.804 Z2.05
X86.77 Y42.914 Z2.044
X86.626 Y43.011 Z2.038
X86.473 Y43.095 Z2.031
X86.313 Y43.164 Z2.025
X86.147 Y43.218 Z2.019
X85.978 Y43.257 Z2.013
X85.805 Y43.28 Z2.007
X85.631 Y43.287 Z2.001
X85.457 Y43.279 Z1.995
X85.285 Y43.254 Z1.989
X85.115 Y43.214 Z1.983
X84.95 Y43.158 Z1.977
X84.791 Y43.087 Z1.971
X84.639 Y43.002 Z1.965
X84.495 Y42.904 Z1.958
X84.361 Y42.793 Z1.952
X84.238 Y42.67 Z1.946
X84.126 Y42.536 Z1.94
X84.027 Y42.392 Z1.934
X83.942 Y42.241 Z1.928
X83.871 Y42.081 Z1.922
X83.815 Y41.917 Z1.916
X83.774 Y41.747 Z1.91
X83.749 Y41.575 Z1.904
X83.74 Y41.401 Z1.898
X83.746 Y41.227 Z1.891
X83.769 Y41.054 Z1.885
X83.807 Y40.884 Z1.879
X83.861 Y40.719 Z1.873
X83.93 Y40.558 Z1.867
X84.013 Y40.405 Z1.861
X84.11 Y40.261 Z1.855
X84.219 Y40.125 Z1.849
X84.341 Y40. Z1.843
X84.474 Y39.887 Z1.837
X84.616 Y39.787 Z1.831
X84.767 Y39.7 Z1.825
X84.925 Y39.627 Z1.818
X85.089 Y39.569 Z1.812
X85.258 Y39.526 Z1.806
X85.43 Y39.499 Z1.8
X85.604 Y39.488 Z1.794
X85.778 Y39.492 Z1.788
X85.951 Y39.513 Z1.782
X86.121 Y39.55 Z1.776
X86.288 Y39.601 Z1.77
X86.449 Y39.668 Z1.764
X86.603 Y39.75 Z1.758
X86.749 Y39.845 Z1.752
X86.885 Y39.953 Z1.745
X87.011 Y40.073 Z1.739
X87.126 Y40.204 Z1.733
X87.228 Y40.345 Z1.727
X87.317 Y40.495 Z1.721
X87.392 Y40.652 Z1.715
X87.452 Y40.816 Z1.709
X87.496 Y40.984 Z1.703
X87.525 Y41.156 Z1.697
X87.539 Y41.33 Z1.691
X87.536 Y41.504 Z1.685
X87.517 Y41.677 Z1.678
X87.483 Y41.848 Z1.672
X87.433 Y42.015 Z1.666
X87.368 Y42.176 Z1.66
X87.289 Y42.331 Z1.654
X87.195 Y42.478 Z1.648
X87.089 Y42.616 Z1.642
X86.97 Y42.744 Z1.636
X86.84 Y42.86 Z1.63
X86.7 Y42.964 Z1.624
X86.552 Y43.054 Z1.618
X86.395 Y43.131 Z1.612
X86.232 Y43.193 Z1.605
X86.064 Y43.239 Z1.599
X85.893 Y43.27 Z1.593
X85.72 Y43.286 Z1.587
X85.545 Y43.285 Z1.581
X85.372 Y43.268 Z1.575
X85.201 Y43.236 Z1.569
X85.033 Y43.188 Z1.563
X84.871 Y43.125 Z1.557
X84.715 Y43.047 Z1.551
X84.567 Y42.956 Z1.545
X84.428 Y42.851 Z1.539
X84.299 Y42.734 Z1.532
X84.181 Y42.605 Z1.526
X84.076 Y42.467 Z1.52
X83.984 Y42.319 Z1.514
X83.905 Y42.163 Z1.508
X83.841 Y42.001 Z1.502
X83.793 Y41.834 Z1.496
X83.76 Y41.663 Z1.49
X83.742 Y41.489 Z1.484
X83.741 Y41.315 Z1.478
X83.756 Y41.142 Z1.472
X83.786 Y40.97 Z1.466
X83.832 Y40.802 Z1.459
X83.893 Y40.639 Z1.453
X83.969 Y40.482 Z1.447
X84.059 Y40.333 Z1.441
X84.162 Y40.193 Z1.435
X84.278 Y40.062 Z1.429
X84.405 Y39.943 Z1.423
X84.542 Y39.836 Z1.417
X84.689 Y39.742 Z1.411
X84.844 Y39.662 Z1.405
X85.005 Y39.596 Z1.399
X85.172 Y39.546 Z1.392
X85.342 Y39.511 Z1.386
X85.515 Y39.491 Z1.38
X85.69 Y39.488 Z1.374
X85.863 Y39.501 Z1.368
X86.035 Y39.529 Z1.362
X86.204 Y39.573 Z1.356
X86.368 Y39.632 Z1.35
X86.525 Y39.706 Z1.344
X86.675 Y39.795 Z1.338
X86.817 Y39.896 Z1.332
X86.949 Y40.01 Z1.326
X87.069 Y40.136 Z1.319
X87.178 Y40.272 Z1.313
X87.274 Y40.418 Z1.307
X87.355 Y40.571 Z1.301
X87.423 Y40.732 Z1.295
X87.476 Y40.898 Z1.289
X87.513 Y41.068 Z1.283
X87.534 Y41.241 Z1.277
X87.539 Y41.415 Z1.271
X87.529 Y41.589 Z1.265
X87.502 Y41.761 Z1.259
X87.46 Y41.93 Z1.253
X87.403 Y42.095 Z1.246
X87.331 Y42.253 Z1.24
X87.244 Y42.405 Z1.234
X87.144 Y42.547 Z1.228
X87.032 Y42.68 Z1.222
X86.908 Y42.802 Z1.216
X86.773 Y42.913 Z1.21
X86.628 Y43.01 Z1.204
X86.476 Y43.094 Z1.198
X86.316 Y43.163 Z1.192
X86.15 Y43.217 Z1.186
X85.981 Y43.257 Z1.18
X85.808 Y43.28 Z1.173
X85.634 Y43.287 Z1.167
X85.46 Y43.279 Z1.161
X85.287 Y43.254 Z1.155
X85.118 Y43.214 Z1.149
X84.953 Y43.159 Z1.143
X84.793 Y43.089 Z1.137
X84.641 Y43.004 Z1.131
X84.497 Y42.906 Z1.125
X84.363 Y42.795 Z1.119
X84.24 Y42.672 Z1.113
X84.128 Y42.538 Z1.106
X84.029 Y42.395 Z1.1
X83.943 Y42.243 Z1.094
X83.872 Y42.084 Z1.088
X83.816 Y41.919 Z1.082
X83.775 Y41.75 Z1.076
X83.749 Y41.578 Z1.07
X83.74 Y41.404 Z1.064
X83.746 Y41.23 Z1.058
X83.769 Y41.057 Z1.052
X83.807 Y40.887 Z1.046
X83.86 Y40.721 Z1.04
X83.929 Y40.561 Z1.033
X84.012 Y40.408 Z1.027
X84.108 Y40.263 Z1.021
X84.218 Y40.127 Z1.015
X84.339 Y40.002 Z1.009
X84.471 Y39.889 Z1.003
X84.613 Y39.788 Z0.997
X84.764 Y39.701 Z0.991
X84.922 Y39.628 Z0.985
X85.086 Y39.57 Z0.979
X85.255 Y39.527 Z0.973
X85.427 Y39.499 Z0.967
X85.601 Y39.488 Z0.96
X85.775 Y39.492 Z0.954
X85.948 Y39.513 Z0.948
X86.119 Y39.549 Z0.942
X86.285 Y39.6 Z0.936
X86.446 Y39.667 Z0.93
X86.6 Y39.748 Z0.924
X86.746 Y39.843 Z0.918
X86.883 Y39.951 Z0.912
X87.009 Y40.071 Z0.906
X87.124 Y40.202 Z0.9
X87.227 Y40.343 Z0.894
X87.316 Y40.492 Z0.887
X87.391 Y40.65 Z0.881
X87.451 Y40.813 Z0.875
X87.496 Y40.981 Z0.869
X87.525 Y41.153 Z0.863
X87.539 Y41.327 Z0.857
X87.536 Y41.501 Z0.851
X87.518 Y41.674 Z0.845
X87.484 Y41.845 Z0.839
X87.434 Y42.012 Z0.833
X87.369 Y42.174 Z0.827
X87.29 Y42.329 Z0.82
X87.197 Y42.476 Z0.814
X87.091 Y42.614 Z0.808
X86.972 Y42.742 Z0.802
X86.843 Y42.858 Z0.796
X86.703 Y42.962 Z0.79
X86.554 Y43.053 Z0.784
X86.398 Y43.13 Z0.778
X86.235 Y43.192 Z0.772
X86.067 Y43.239 Z0.766
X85.896 Y43.27 Z0.76
X85.722 Y43.286 Z0.754
X85.548 Y43.285 Z0.747
X85.375 Y43.269 Z0.741
X85.204 Y43.237 Z0.735
X85.036 Y43.189 Z0.729
X84.874 Y43.126 Z0.723
X84.718 Y43.049 Z0.717
X84.569 Y42.957 Z0.711
X84.43 Y42.853 Z0.705
X84.301 Y42.736 Z0.699
X84.183 Y42.607 Z0.693
X84.077 Y42.469 Z0.687
X83.985 Y42.321 Z0.681
X83.906 Y42.166 Z0.674
X83.842 Y42.004 Z0.668
X83.793 Y41.837 Z0.662
X83.76 Y41.666 Z0.656
X83.743 Y41.492 Z0.65
X83.741 Y41.318 Z0.644
X83.755 Y41.145 Z0.638
X83.785 Y40.973 Z0.632
X83.831 Y40.805 Z0.626
X83.892 Y40.642 Z0.62
X83.968 Y40.485 Z0.614
X84.057 Y40.335 Z0.608
X84.16 Y40.195 Z0.601
X84.276 Y40.064 Z0.595
X84.403 Y39.945 Z0.589
X84.54 Y39.838 Z0.583
X84.687 Y39.744 Z0.577
X84.841 Y39.663 Z0.571
X85.002 Y39.597 Z0.565
X85.169 Y39.547 Z0.559
X85.34 Y39.511 Z0.553
X85.513 Y39.492 Z0.547
X85.687 Y39.488 Z0.541
X85.861 Y39.5 Z0.534
X86.032 Y39.528 Z0.528
X86.201 Y39.572 Z0.522
X86.365 Y39.631 Z0.516
X86.523 Y39.705 Z0.51
X86.673 Y39.793 Z0.504
X86.815 Y39.894 Z0.498
X86.947 Y40.008 Z0.492
X87.067 Y40.134 Z0.486
X87.176 Y40.27 Z0.48
X87.272 Y40.415 Z0.474
X87.354 Y40.569 Z0.468
X87.422 Y40.729 Z0.461
X87.475 Y40.895 Z0.455
X87.512 Y41.065 Z0.449
X87.534 Y41.238 Z0.443
X87.539 Y41.412 Z0.437
X87.529 Y41.586 Z0.431
X87.503 Y41.759 Z0.425
X87.461 Y41.928 Z0.419
X87.404 Y42.092 Z0.413
X87.332 Y42.251 Z0.407
X87.246 Y42.402 Z0.401
X87.146 Y42.545 Z0.395
X87.034 Y42.678 Z0.388
X86.91 Y42.8 Z0.382
X86.775 Y42.911 Z0.376
X86.631 Y43.008 Z0.37
X86.478 Y43.092 Z0.364
X86.318 Y43.162 Z0.358
X86.153 Y43.217 Z0.352
X85.983 Y43.256 Z0.346
X85.811 Y43.28 Z0.34
X85.637 Y43.287 Z0.334
X85.463 Y43.279 Z0.328
X85.29 Y43.255 Z0.322
X85.121 Y43.215 Z0.315
X84.955 Y43.16 Z0.309
X84.796 Y43.09 Z0.303
X84.644 Y43.005 Z0.297
X84.5 Y42.907 Z0.291
X84.365 Y42.797 Z0.285
X84.241 Y42.674 Z0.279
X84.13 Y42.54 Z0.273
X84.03 Y42.397 Z0.267
X83.945 Y42.246 Z0.261
X83.873 Y42.087 Z0.255
X83.816 Y41.922 Z0.248
X83.775 Y41.753 Z0.242
X83.749 Y41.581 Z0.236
X83.74 Y41.407 Z0.23
X83.746 Y41.233 Z0.224
X83.768 Y41.06 Z0.218
X83.806 Y40.89 Z0.212
X83.859 Y40.724 Z0.206
X83.927 Y40.564 Z0.2
X84.01 Y40.41 Z0.194
X84.106 Y40.265 Z0.188
X84.216 Y40.129 Z0.182
X84.337 Y40.004 Z0.175
X84.469 Y39.891 Z0.169
X84.611 Y39.79 Z0.163
X84.762 Y39.702 Z0.157
X84.92 Y39.629 Z0.151
X85.084 Y39.571 Z0.145
X85.252 Y39.527 Z0.139
X85.424 Y39.5 Z0.133
X85.598 Y39.488 Z0.127
X85.772 Y39.492 Z0.121
X85.945 Y39.512 Z0.115
X86.116 Y39.548 Z0.109
X86.282 Y39.599 Z0.102
X86.443 Y39.666 Z0.096
X86.598 Y39.747 Z0.09
X86.744 Y39.841 Z0.084
X86.881 Y39.949 Z0.078
X87.007 Y40.069 Z0.072
X87.122 Y40.199 Z0.066
X87.225 Y40.34 Z0.06
X87.314 Y40.49 Z0.054
X87.389 Y40.647 Z0.048
X87.45 Y40.81 Z0.042
X87.495 Y40.979 Z0.035
X87.525 Y41.15 Z0.029
X87.539 Y41.324 Z0.023
X87.536 Y41.498 Z0.017
X87.518 Y41.671 Z0.011
X87.484 Y41.842 Z0.005
X87.435 Y42.009 Z-0.001
X87.37 Y42.171 Z-0.007
X87.291 Y42.326 Z-0.013
X87.199 Y42.474 Z-0.019
X87.092 Y42.612 Z-0.025
X86.974 Y42.74 Z-0.031
X86.845 Y42.856 Z-0.038
X86.705 Y42.96 Z-0.044
X86.557 Y43.051 Z-0.05
X86.4 Y43.128 Z-0.056
X86.238 Y43.191 Z-0.062
X86.07 Y43.238 Z-0.068
X85.899 Y43.27 Z-0.074
X85.725 Y43.285 Z-0.08
X85.551 Z-0.086
X85.378 Y43.269 Z-0.092
X85.206 Y43.237 Z-0.098
X85.039 Y43.19 Z-0.104
X84.876 Y43.127 Z-0.111
X84.72 Y43.05 Z-0.117
X84.572 Y42.959 Z-0.123
X84.432 Y42.854 Z-0.129
X84.303 Y42.738 Z-0.135
X84.185 Y42.61 Z-0.141
X84.079 Y42.471 Z-0.147
X83.986 Y42.324 Z-0.153
X83.908 Y42.168 Z-0.159
X83.843 Y42.006 Z-0.165
X83.794 Y41.839 Z-0.171
X83.761 Y41.668 Z-0.177
X83.743 Y41.495 Z-0.184
X83.741 Y41.321 Z-0.19
X83.755 Y41.147 Z-0.196
X83.785 Y40.976 Z-0.202
X83.83 Y40.808 Z-0.208
X83.891 Y40.644 Z-0.214
X83.966 Y40.487 Z-0.22
X84.056 Y40.338 Z-0.226
X84.159 Y40.197 Z-0.232
X84.274 Y40.067 Z-0.238
X84.401 Y39.947 Z-0.244
X84.538 Y39.84 Z-0.251
X84.684 Y39.745 Z-0.257
X84.838 Y39.665 Z-0.263
X85. Y39.598 Z-0.269
X85.166 Y39.547 Z-0.275
X85.337 Y39.512 Z-0.281
X85.51 Y39.492 Z-0.287
X85.684 Y39.488 Z-0.293
X85.858 Y39.5 Z-0.299
X86.03 Y39.528 Z-0.305
X86.198 Y39.571 Z-0.311
X86.362 Y39.63 Z-0.317
X86.52 Y39.704 Z-0.324
X86.671 Y39.791 Z-0.33
X86.812 Y39.893 Z-0.336
X86.944 Y40.006 Z-0.342
X87.065 Y40.132 Z-0.348
X87.174 Y40.267 Z-0.354
X87.271 Y40.413 Z-0.36
X87.353 Y40.566 Z-0.366
X87.421 Y40.727 Z-0.372
X87.474 Y40.893 Z-0.378
X87.512 Y41.063 Z-0.384
X87.534 Y41.235 Z-0.39
X87.539 Y41.41 Z-0.397
X87.529 Y41.583 Z-0.403
X87.504 Y41.756 Z-0.409
X87.462 Y41.925 Z-0.415
X87.405 Y42.09 Z-0.421
X87.333 Y42.248 Z-0.427
X87.247 Y42.4 Z-0.433
X87.148 Y42.543 Z-0.439
X87.036 Y42.676 Z-0.445
X86.912 Y42.799 Z-0.451
X86.777 Y42.909 Z-0.457
X86.633 Y43.007 Z-0.463
X86.481 Y43.091 Z-0.47
X86.321 Y43.161 Z-0.476
X86.156 Y43.216 Z-0.482
X85.986 Y43.256 Z-0.488
X85.814 Y43.279 Z-0.494
X85.64 Y43.287 Z-0.5
X43.308
G3 X43.073 Y43.052 R0.235
G1 Y42.948
G3 X43.308 Y42.713 R0.235
G1 X85.692
G3 X85.927 Y42.948 R0.235
G1 Y43.052
G3 X85.692 Y43.287 R0.235
G1 X85.64
G2 X83.915 Y44.437 R1.869
G3 X82.19 Y45.587 R1.869
G1 X41.092
G3 X40.773 Y45.268 R0.319
G1 Y40.732
G3 X41.092 Y40.413 R0.319
G1 X87.908
G3 X88.227 Y40.732 R0.319
G1 Y45.268
G3 X87.908 Y45.587 R0.319
G1 X82.19
G2 X80.465 Y46.737 R1.869
G3 X78.74 Y47.887 R1.869
G1 X38.792
G3 X38.473 Y47.568 R0.319
G1 Y38.432
G3 X38.792 Y38.113 R0.319
G1 X90.208
G3 X90.527 Y38.432 R0.319
G1 Y47.568
G3 X90.208 Y47.887 R0.319
G1 X78.74
G2 X77.015 Y49.037 R1.869
G3 X75.29 Y50.187 R1.869
G1 X36.492
G3 X36.173 Y49.868 R0.319
G1 Y36.132
G3 X36.492 Y35.813 R0.319
G1 X92.508
G3 X92.827 Y36.132 R0.319
G1 Y49.868
G3 X92.508 Y50.187 R0.319
G1 X75.29
G2 X73.565 Y51.337 R1.869
G3 X71.84 Y52.487 R1.869
G1 X34.192
G3 X33.873 Y52.168 R0.319
G1 Y33.832
G3 X34.192 Y33.513 R0.319
G1 X94.808
G3 X95.127 Y33.832 R0.319
G1 Y52.168
G3 X94.808 Y52.487 R0.319
G1 X71.84
G2 X70.115 Y53.637 R1.869
G3 X68.39 Y54.787 R1.869
G1 X31.892
G3 X31.573 Y54.468 R0.319
G1 Y31.532
G3 X31.892 Y31.213 R0.319
G1 X97.108
G3 X97.427 Y31.532 R0.319
G1 Y54.468
G3 X97.108 Y54.787 R0.319
G1 X68.39
G2 X66.665 Y55.937 R1.869
G3 X64.94 Y57.087 R1.869
G1 X29.592
G3 X29.273 Y56.768 R0.319
G1 Y29.232
G3 X29.592 Y28.913 R0.319
G1 X99.408
G3 X99.727 Y29.232 R0.319
G1 Y56.768
G3 X99.408 Y57.087 R0.319
G1 X64.94
G2 X63.215 Y58.237 R1.869
G3 X61.49 Y59.387 R1.869
G1 X27.292
G3 X26.973 Y59.068 R0.319
G1 Y26.932
G3 X27.292 Y26.613 R0.319
G1 X101.708
G3 X102.027 Y26.932 R0.319
G1 Y59.068
G3 X101.708 Y59.387 R0.319
G1 X61.49
G2 X59.765 Y60.537 R1.869
G3 X58.04 Y61.687 R1.869
G1 X24.992
G3 X24.673 Y61.368 R0.319
G1 Y24.632
G3 X24.992 Y24.313 R0.319
G1 X104.008
G3 X104.327 Y24.632 R0.319
G1 Y61.368
G3 X104.008 Y61.687 R0.319
G1 X58.04
G2 X56.315 Y62.837 R1.869
G3 X54.59 Y63.987 R1.869
G1 X22.692
G3 X22.373 Y63.668 R0.319
G1 Y22.332
G3 X22.692 Y22.013 R0.319
G1 X106.308
G3 X106.627 Y22.332 R0.319
G1 Y63.668
G3 X106.308 Y63.987 R0.319
G1 X54.59
G2 X52.865 Y65.137 R1.869
G3 X51.14 Y66.287 R1.869
G1 X20.392
G3 X20.073 Y65.968 R0.319
G1 Y20.032
G3 X20.392 Y19.713 R0.319
G1 X108.608
G3 X108.927 Y20.032 R0.319
G1 Y65.968
G3 X108.608 Y66.287 R0.319
G1 X51.14
G2 X49.415 Y67.437 R1.869
G3 X47.69 Y68.587 R1.869
G1 X18.092
G3 X17.773 Y68.268 R0.319
G1 Y17.732
G3 X18.092 Y17.413 R0.319
G1 X110.908
G3 X111.227 Y17.732 R0.319
G1 Y68.268
G3 X110.908 Y68.587 R0.319
G1 X47.69
G2 X45.965 Y69.737 R1.869
G3 X44.24 Y70.887 R1.869
G1 X15.792
G3 X15.473 Y70.568 R0.319
G1 Y15.432
G3 X15.792 Y15.113 R0.319
G1 X113.208
G3 X113.527 Y15.432 R0.319
G1 Y70.568
G3 X113.208 Y70.887 R0.319
G1 X44.24
G2 X42.515 Y72.037 R1.869
G3 X40.79 Y73.187 R1.869
G1 X13.492
G3 X13.173 Y72.868 R0.319
G1 Y13.132
G3 X13.492 Y12.813 R0.319
G1 X115.508
G3 X115.827 Y13.132 R0.319
G1 Y72.868
G3 X115.508 Y73.187 R0.319
G1 X40.79
G2 X39.065 Y74.337 R1.869
G3 X37.34 Y75.487 R1.869
G1 X11.818
G3 X10.873 Y74.542 R0.946
G1 Y11.458
G3 X11.818 Y10.513 R0.946
G1 X117.808
G3 X118.127 Y10.832 R0.319
G1 Y75.168
G3 X117.808 Y75.487 R0.319
G1 X37.34
G2 X35.615 Y76.637 R1.869
G3 X33.89 Y77.787 R1.869
G1 X10.929
G3 X10.05 Y77.423 R1.243
G1 X8.937 Y76.31
G3 X8.573 Y75.431 R1.243
G1 Y10.569
G3 X8.937 Y9.69 R1.243
G1 X10.05 Y8.577
G3 X10.929 Y8.213 R1.243
G1 X120.108
G3 X120.427 Y8.532 R0.319
G1 Y77.468
G3 X120.108 Y77.787 R0.319
G1 X33.89
G2 X32.165 Y78.937 R1.869
G3 X30.44 Y80.087 R1.869
G1 X9.976
G3 X9.097 Y79.723 R1.243
G1 X6.637 Y77.263
G3 X6.273 Y76.384 R1.243
G1 Y9.616
G3 X6.637 Y8.737 R1.243
G1 X9.097 Y6.277
G3 X9.976 Y5.913 R1.243
G1 X122.408
G3 X122.727 Y6.232 R0.319
G1 Y79.768
G3 X122.408 Y80.087 R0.319
G1 X30.44
G2 X28.711 Y81.24 R1.873
G3 X26.982 Y82.392 R1.873
G1 X8.507
X3.968 Y77.853
Y8.147
X8.507 Y3.608
X125.032
Y82.392
X26.982
X26.906 Y82.385 Z-0.485
X26.833 Y82.363 Z-0.47
X26.775 Y82.334 Z-0.426
X26.722 Y82.297 Z-0.383
X26.691 Y82.267 Z-0.318
X26.663 Y82.233 Z-0.253
X26.646 Y82.209 Z-0.1
G0 Z5.
X87.522 Y41.643
G1 Z2.4 F380.
X87.518 Y41.672 Z2.25 F1500.
X87.504 Y41.753 Z2.122
X87.476 Y41.875 Z2.034
X87.432 Y42.017 Z2.
X87.367 Y42.179 Z1.994
X87.287 Y42.334 Z1.988
X87.194 Y42.481 Z1.982
X87.087 Y42.618 Z1.976
X86.968 Y42.746 Z1.97
X86.838 Y42.862 Z1.963
X86.698 Y42.965 Z1.957
X86.549 Y43.056 Z1.951
X86.392 Y43.132 Z1.945
X86.23 Y43.194 Z1.939
X86.062 Y43.24 Z1.933
X85.89 Y43.271 Z1.927
X85.717 Y43.286 Z1.921
X85.542 Y43.285 Z1.915
X85.369 Y43.268 Z1.909
X85.198 Y43.235 Z1.903
X85.031 Y43.187 Z1.897
X84.868 Y43.124 Z1.89
X84.713 Y43.046 Z1.884
X84.565 Y42.954 Z1.878
X84.426 Y42.849 Z1.872
X84.297 Y42.732 Z1.866
X84.179 Y42.603 Z1.86
X84.074 Y42.464 Z1.854
X83.982 Y42.316 Z1.848
X83.904 Y42.161 Z1.842
X83.841 Y41.998 Z1.836
X83.792 Y41.831 Z1.83
X83.759 Y41.66 Z1.824
X83.742 Y41.487 Z1.817
X83.741 Y41.312 Z1.811
X83.756 Y41.139 Z1.805
X83.787 Y40.967 Z1.799
X83.833 Y40.799 Z1.793
X83.894 Y40.636 Z1.787
X83.97 Y40.48 Z1.781
X84.061 Y40.331 Z1.775
X84.164 Y40.19 Z1.769
X84.28 Y40.06 Z1.763
X84.407 Y39.941 Z1.757
X84.545 Y39.835 Z1.751
X84.692 Y39.741 Z1.744
X84.846 Y39.661 Z1.738
X85.008 Y39.596 Z1.732
X85.175 Y39.545 Z1.726
X85.345 Y39.51 Z1.72
X85.518 Y39.491 Z1.714
X85.693 Y39.488 Z1.708
X85.866 Y39.501 Z1.702
X86.038 Y39.53 Z1.696
X86.207 Y39.574 Z1.69
X86.37 Y39.633 Z1.684
X86.528 Y39.708 Z1.677
X86.678 Y39.796 Z1.671
X86.819 Y39.898 Z1.665
X86.951 Y40.012 Z1.659
X87.071 Y40.138 Z1.653
X87.18 Y40.274 Z1.647
X87.275 Y40.42 Z1.641
X87.357 Y40.574 Z1.635
X87.424 Y40.735 Z1.629
X87.476 Y40.901 Z1.623
X87.513 Y41.071 Z1.617
X87.534 Y41.244 Z1.611
X87.539 Y41.418 Z1.604
X87.529 Y41.592 Z1.598
X87.502 Y41.764 Z1.592
X87.46 Y41.933 Z1.586
X87.402 Y42.098 Z1.58
X87.329 Y42.256 Z1.574
X87.243 Y42.407 Z1.568
X87.143 Y42.55 Z1.562
X87.03 Y42.682 Z1.556
X86.905 Y42.804 Z1.55
X86.77 Y42.914 Z1.544
X86.626 Y43.011 Z1.538
X86.473 Y43.095 Z1.531
X86.313 Y43.164 Z1.525
X86.147 Y43.218 Z1.519
X85.978 Y43.257 Z1.513
X85.805 Y43.28 Z1.507
X85.631 Y43.287 Z1.501
X85.457 Y43.279 Z1.495
X85.285 Y43.254 Z1.489
X85.115 Y43.214 Z1.483
X84.95 Y43.158 Z1.477
X84.791 Y43.087 Z1.471
X84.639 Y43.002 Z1.465
X84.495 Y42.904 Z1.458
X84.361 Y42.793 Z1.452
X84.238 Y42.67 Z1.446
X84.126 Y42.536 Z1.44
X84.027 Y42.392 Z1.434
X83.942 Y42.241 Z1.428
X83.871 Y42.081 Z1.422
X83.815 Y41.917 Z1.416
X83.774 Y41.747 Z1.41
X83.749 Y41.575 Z1.404
X83.74 Y41.401 Z1.398
X83.746 Y41.227 Z1.391
X83.769 Y41.054 Z1.385
X83.807 Y40.884 Z1.379
X83.861 Y40.719 Z1.373
X83.93 Y40.558 Z1.367
X84.013 Y40.405 Z1.361
X84.11 Y40.261 Z1.355
X84.219 Y40.125 Z1.349
X84.341 Y40. Z1.343
X84.474 Y39.887 Z1.337
X84.616 Y39.787 Z1.331
X84.767 Y39.7 Z1.325
X84.925 Y39.627 Z1.318
X85.089 Y39.569 Z1.312
X85.258 Y39.526 Z1.306
X85.43 Y39.499 Z1.3
X85.604 Y39.488 Z1.294
X85.778 Y39.492 Z1.288
X85.951 Y39.513 Z1.282
X86.121 Y39.55 Z1.276
X86.288 Y39.601 Z1.27
X86.449 Y39.668 Z1.264
X86.603 Y39.75 Z1.258
X86.749 Y39.845 Z1.252
X86.885 Y39.953 Z1.245
X87.011 Y40.073 Z1.239
X87.126 Y40.204 Z1.233
X87.228 Y40.345 Z1.227
X87.317 Y40.495 Z1.221
X87.392 Y40.652 Z1.215
X87.452 Y40.816 Z1.209
X87.496 Y40.984 Z1.203
X87.525 Y41.156 Z1.197
X87.539 Y41.33 Z1.191
X87.536 Y41.504 Z1.185
X87.517 Y41.677 Z1.178
X87.483 Y41.848 Z1.172
X87.433 Y42.015 Z1.166
X87.368 Y42.176 Z1.16
X87.289 Y42.331 Z1.154
X87.195 Y42.478 Z1.148
X87.089 Y42.616 Z1.142
X86.97 Y42.744 Z1.136
X86.84 Y42.86 Z1.13
X86.7 Y42.964 Z1.124
X86.552 Y43.054 Z1.118
X86.395 Y43.131 Z1.112
X86.232 Y43.193 Z1.105
X86.064 Y43.239 Z1.099
X85.893 Y43.27 Z1.093
X85.72 Y43.286 Z1.087
X85.545 Y43.285 Z1.081
X85.372 Y43.268 Z1.075
X85.201 Y43.236 Z1.069
X85.033 Y43.188 Z1.063
X84.871 Y43.125 Z1.057
X84.715 Y43.047 Z1.051
X84.567 Y42.956 Z1.045
X84.428 Y42.851 Z1.039
X84.299 Y42.734 Z1.032
X84.181 Y42.605 Z1.026
X84.076 Y42.467 Z1.02
X83.984 Y42.319 Z1.014
X83.905 Y42.163 Z1.008
X83.841 Y42.001 Z1.002
X83.793 Y41.834 Z0.996
X83.76 Y41.663 Z0.99
X83.742 Y41.489 Z0.984
X83.741 Y41.315 Z0.978
X83.756 Y41.142 Z0.972
X83.786 Y40.97 Z0.966
X83.832 Y40.802 Z0.959
X83.893 Y40.639 Z0.953
X83.969 Y40.482 Z0.947
X84.059 Y40.333 Z0.941
X84.162 Y40.193 Z0.935
X84.278 Y40.062 Z0.929
X84.405 Y39.943 Z0.923
X84.542 Y39.836 Z0.917
X84.689 Y39.742 Z0.911
X84.844 Y39.662 Z0.905
X85.005 Y39.596 Z0.899
X85.172 Y39.546 Z0.892
X85.342 Y39.511 Z0.886
X85.515 Y39.491 Z0.88
X85.69 Y39.488 Z0.874
X85.863 Y39.501 Z0.868
X86.035 Y39.529 Z0.862
X86.204 Y39.573 Z0.856
X86.368 Y39.632 Z0.85
X86.525 Y39.706 Z0.844
X86.675 Y39.795 Z0.838
X86.817 Y39.896 Z0.832
X86.949 Y40.01 Z0.826
X87.069 Y40.136 Z0.819
X87.178 Y40.272 Z0.813
X87.274 Y40.418 Z0.807
X87.355 Y40.571 Z0.801
X87.423 Y40.732 Z0.795
X87.476 Y40.898 Z0.789
X87.513 Y41.068 Z0.783
X87.534 Y41.241 Z0.777
X87.539 Y41.415 Z0.771
X87.529 Y41.589 Z0.765
X87.502 Y41.761 Z0.759
X87.46 Y41.93 Z0.753
X87.403 Y42.095 Z0.746
X87.331 Y42.253 Z0.74
X87.244 Y42.405 Z0.734
X87.144 Y42.547 Z0.728
X87.032 Y42.68 Z0.722
X86.908 Y42.802 Z0.716
X86.773 Y42.913 Z0.71
X86.628 Y43.01 Z0.704
X86.476 Y43.094 Z0.698
X86.316 Y43.163 Z0.692
X86.15 Y43.217 Z0.686
X85.981 Y43.257 Z0.68
X85.808 Y43.28 Z0.673
X85.634 Y43.287 Z0.667
X85.46 Y43.279 Z0.661
X85.287 Y43.254 Z0.655
X85.118 Y43.214 Z0.649
X84.953 Y43.159 Z0.643
X84.793 Y43.089 Z0.637
X84.641 Y43.004 Z0.631
X84.497 Y42.906 Z0.625
X84.363 Y42.795 Z0.619
X84.24 Y42.672 Z0.613
X84.128 Y42.538 Z0.606
X84.029 Y42.395 Z0.6
X83.943 Y42.243 Z0.594
X83.872 Y42.084 Z0.588
X83.816 Y41.919 Z0.582
X83.775 Y41.75 Z0.576
X83.749 Y41.578 Z0.57
X83.74 Y41.404 Z0.564
X83.746 Y41.23 Z0.558
X83.769 Y41.057 Z0.552
X83.807 Y40.887 Z0.546
X83.86 Y40.721 Z0.54
X83.929 Y40.561 Z0.533
X84.012 Y40.408 Z0.527
X84.108 Y40.263 Z0.521
X84.218 Y40.127 Z0.515
X84.339 Y40.002 Z0.509
X84.471 Y39.889 Z0.503
X84.613 Y39.788 Z0.497
X84.764 Y39.701 Z0.491
X84.922 Y39.628 Z0.485
X85.086 Y39.57 Z0.479
X85.255 Y39.527 Z0.473
X85.427 Y39.499 Z0.467
X85.601 Y39.488 Z0.46
X85.775 Y39.492 Z0.454
X85.948 Y39.513 Z0.448
X86.119 Y39.549 Z0.442
X86.285 Y39.6 Z0.436
X86.446 Y39.667 Z0.43
X86.6 Y39.748 Z0.424
X86.746 Y39.843 Z0.418
X86.883 Y39.951 Z0.412
X87.009 Y40.071 Z0.406
X87.124 Y40.202 Z0.4
X87.227 Y40.343 Z0.394
X87.316 Y40.492 Z0.387
X87.391 Y40.65 Z0.381
X87.451 Y40.813 Z0.375
X87.496 Y40.981 Z0.369
X87.525 Y41.153 Z0.363
X87.539 Y41.327 Z0.357
X87.536 Y41.501 Z0.351
X87.518 Y41.674 Z0.345
X87.484 Y41.845 Z0.339
X87.434 Y42.012 Z0.333
X87.369 Y42.174 Z0.327
X87.29 Y42.329 Z0.32
X87.197 Y42.476 Z0.314
X87.091 Y42.614 Z0.308
X86.972 Y42.742 Z0.302
X86.843 Y42.858 Z0.296
X86.703 Y42.962 Z0.29
X86.554 Y43.053 Z0.284
X86.398 Y43.13 Z0.278
X86.235 Y43.192 Z0.272
X86.067 Y43.239 Z0.266
X85.896 Y43.27 Z0.26
X85.722 Y43.286 Z0.254
X85.548 Y43.285 Z0.247
X85.375 Y43.269 Z0.241
X85.204 Y43.237 Z0.235
X85.036 Y43.189 Z0.229
X84.874 Y43.126 Z0.223
X84.718 Y43.049 Z0.217
X84.569 Y42.957 Z0.211
X84.43 Y42.853 Z0.205
X84.301 Y42.736 Z0.199
X84.183 Y42.607 Z0.193
X84.077 Y42.469 Z0.187
X83.985 Y42.321 Z0.181
X83.906 Y42.166 Z0.174
X83.842 Y42.004 Z0.168
X83.793 Y41.837 Z0.162
X83.76 Y41.666 Z0.156
X83.743 Y41.492 Z0.15
X83.741 Y41.318 Z0.144
X83.755 Y41.145 Z0.138
X83.785 Y40.973 Z0.132
X83.831 Y40.805 Z0.126
X83.892 Y40.642 Z0.12
X83.968 Y40.485 Z0.114
X84.057 Y40.335 Z0.108
X84.16 Y40.195 Z0.101
X84.276 Y40.064 Z0.095
X84.403 Y39.945 Z0.089
X84.54 Y39.838 Z0.083
X84.687 Y39.744 Z0.077
X84.841 Y39.663 Z0.071
X85.002 Y39.597 Z0.065
X85.169 Y39.547 Z0.059
X85.34 Y39.511 Z0.053
X85.513 Y39.492 Z0.047
X85.687 Y39.488 Z0.041
X85.861 Y39.5 Z0.034
X86.032 Y39.528 Z0.028
X86.201 Y39.572 Z0.022
X86.365 Y39.631 Z0.016
X86.523 Y39.705 Z0.01
X86.673 Y39.793 Z0.004
X86.815 Y39.894 Z-0.002
X86.947 Y40.008 Z-0.008
X87.067 Y40.134 Z-0.014
X87.176 Y40.27 Z-0.02
X87.272 Y40.415 Z-0.026
X87.354 Y40.569 Z-0.032
X87.422 Y40.729 Z-0.039
X87.475 Y40.895 Z-0.045
X87.512 Y41.065 Z-0.051
X87.534 Y41.238 Z-0.057
X87.539 Y41.412 Z-0.063
X87.529 Y41.586 Z-0.069
X87.503 Y41.759 Z-0.075
X87.461 Y41.928 Z-0.081
X87.404 Y42.092 Z-0.087
X87.332 Y42.251 Z-0.093
X87.246 Y42.402 Z-0.099
X87.146 Y42.545 Z-0.105
X87.034 Y42.678 Z-0.112
X86.91 Y42.8 Z-0.118
X86.775 Y42.911 Z-0.124
X86.631 Y43.008 Z-0.13
X86.478 Y43.092 Z-0.136
X86.318 Y43.162 Z-0.142
X86.153 Y43.217 Z-0.148
X85.983 Y43.256 Z-0.154
X85.811 Y43.28 Z-0.16
X85.637 Y43.287 Z-0.166
X85.463 Y43.279 Z-0.172
X85.29 Y43.255 Z-0.178
X85.121 Y43.215 Z-0.185
X84.955 Y43.16 Z-0.191
X84.796 Y43.09 Z-0.197
X84.644 Y43.005 Z-0.203
X84.5 Y42.907 Z-0.209
X84.365 Y42.797 Z-0.215
X84.241 Y42.674 Z-0.221
X84.13 Y42.54 Z-0.227
X84.03 Y42.397 Z-0.233
X83.945 Y42.246 Z-0.239
X83.873 Y42.087 Z-0.245
X83.816 Y41.922 Z-0.252
X83.775 Y41.753 Z-0.258
X83.749 Y41.581 Z-0.264
X83.74 Y41.407 Z-0.27
X83.746 Y41.233 Z-0.276
X83.768 Y41.06 Z-0.282
X83.806 Y40.89 Z-0.288
X83.859 Y40.724 Z-0.294
X83.927 Y40.564 Z-0.3
X84.01 Y40.41 Z-0.306
X84.106 Y40.265 Z-0.312
X84.216 Y40.129 Z-0.318
X84.337 Y40.004 Z-0.325
X84.469 Y39.891 Z-0.331
X84.611 Y39.79 Z-0.337
X84.762 Y39.702 Z-0.343
X84.92 Y39.629 Z-0.349
X85.084 Y39.571 Z-0.355
X85.252 Y39.527 Z-0.361
X85.424 Y39.5 Z-0.367
X85.598 Y39.488 Z-0.373
X85.772 Y39.492 Z-0.379
X85.945 Y39.512 Z-0.385
X86.116 Y39.548 Z-0.391
X86.282 Y39.599 Z-0.398
X86.443 Y39.666 Z-0.404
X86.598 Y39.747 Z-0.41
X86.744 Y39.841 Z-0.416
X86.881 Y39.949 Z-0.422
X87.007 Y40.069 Z-0.428
X87.122 Y40.199 Z-0.434
X87.225 Y40.34 Z-0.44
X87.314 Y40.49 Z-0.446
X87.389 Y40.647 Z-0.452
X87.45 Y40.81 Z-0.458
X87.495 Y40.979 Z-0.465
X87.525 Y41.15 Z-0.471
X87.539 Y41.324 Z-0.477
X87.536 Y41.498 Z-0.483
X87.518 Y41.671 Z-0.489
X87.484 Y41.842 Z-0.495
X87.435 Y42.009 Z-0.501
X87.37 Y42.171 Z-0.507
X87.291 Y42.326 Z-0.513
X87.199 Y42.474 Z-0.519
X87.092 Y42.612 Z-0.525
X86.974 Y42.74 Z-0.531
X86.845 Y42.856 Z-0.538
X86.705 Y42.96 Z-0.544
X86.557 Y43.051 Z-0.55
X86.4 Y43.128 Z-0.556
X86.238 Y43.191 Z-0.562
X86.07 Y43.238 Z-0.568
X85.899 Y43.27 Z-0.574
X85.725 Y43.285 Z-0.58
X85.551 Z-0.586
X85.378 Y43.269 Z-0.592
X85.206 Y43.237 Z-0.598
X85.039 Y43.19 Z-0.604
X84.876 Y43.127 Z-0.611
X84.72 Y43.05 Z-0.617
X84.572 Y42.959 Z-0.623
X84.432 Y42.854 Z-0.629
X84.303 Y42.738 Z-0.635
X84.185 Y42.61 Z-0.641
X84.079 Y42.471 Z-0.647
X83.986 Y42.324 Z-0.653
X83.908 Y42.168 Z-0.659
X83.843 Y42.006 Z-0.665
X83.794 Y41.839 Z-0.671
X83.761 Y41.668 Z-0.677
X83.743 Y41.495 Z-0.684
X83.741 Y41.321 Z-0.69
X83.755 Y41.147 Z-0.696
X83.785 Y40.976 Z-0.702
X83.83 Y40.808 Z-0.708
X83.891 Y40.644 Z-0.714
X83.966 Y40.487 Z-0.72
X84.056 Y40.338 Z-0.726
X84.159 Y40.197 Z-0.732
X84.274 Y40.067 Z-0.738
X84.401 Y39.947 Z-0.744
X84.538 Y39.84 Z-0.751
X84.684 Y39.745 Z-0.757
X84.838 Y39.665 Z-0.763
X85. Y39.598 Z-0.769
X85.166 Y39.547 Z-0.775
X85.337 Y39.512 Z-0.781
X85.51 Y39.492 Z-0.787
X85.684 Y39.488 Z-0.793
X85.858 Y39.5 Z-0.799
X86.03 Y39.528 Z-0.805
X86.198 Y39.571 Z-0.811
X86.362 Y39.63 Z-0.817
X86.52 Y39.704 Z-0.824
X86.671 Y39.791 Z-0.83
X86.812 Y39.893 Z-0.836
X86.944 Y40.006 Z-0.842
X87.065 Y40.132 Z-0.848
X87.174 Y40.267 Z-0.854
X87.271 Y40.413 Z-0.86
X87.353 Y40.566 Z-0.866
X87.421 Y40.727 Z-0.872
X87.474 Y40.893 Z-0.878
X87.512 Y41.063 Z-0.884
X87.534 Y41.235 Z-0.89
X87.539 Y41.41 Z-0.897
X87.529 Y41.583 Z-0.903
X87.504 Y41.756 Z-0.909
X87.462 Y41.925 Z-0.915
X87.405 Y42.09 Z-0.921
X87.333 Y42.248 Z-0.927
X87.247 Y42.4 Z-0.933
X87.148 Y42.543 Z-0.939
X87.036 Y42.676 Z-0.945
X86.912 Y42.799 Z-0.951
X86.777 Y42.909 Z-0.957
X86.633 Y43.007 Z-0.963
X86.481 Y43.091 Z-0.97
X86.321 Y43.161 Z-0.976
X86.156 Y43.216 Z-0.982
X85.986 Y43.256 Z-0.988
X85.814 Y43.279 Z-0.994
X85.64 Y43.287 Z-1.
X43.308
G3 X43.073 Y43.052 R0.235
G1 Y42.948
G3 X43.308 Y42.713 R0.235
G1 X85.692
G3 X85.927 Y42.948 R0.235
G1 Y43.052
G3 X85.692 Y43.287 R0.235
G1 X85.64
G2 X83.915 Y44.437 R1.869
G3 X82.19 Y45.587 R1.869
G1 X41.092
G3 X40.773 Y45.268 R0.319
G1 Y40.732
G3 X41.092 Y40.413 R0.319
G1 X87.908
G3 X88.227 Y40.732 R0.319
G1 Y45.268
G3 X87.908 Y45.587 R0.319
G1 X82.19
G2 X80.465 Y46.737 R1.869
G3 X78.74 Y47.887 R1.869
G1 X38.792
G3 X38.473 Y47.568 R0.319
G1 Y38.432
G3 X38.792 Y38.113 R0.319
G1 X90.208
G3 X90.527 Y38.432 R0.319
G1 Y47.568
G3 X90.208 Y47.887 R0.319
G1 X78.74
G2 X77.015 Y49.037 R1.869
G3 X75.29 Y50.187 R1.869
G1 X36.492
G3 X36.173 Y49.868 R0.319
G1 Y36.132
G3 X36.492 Y35.813 R0.319
G1 X92.508
G3 X92.827 Y36.132 R0.319
G1 Y49.868
G3 X92.508 Y50.187 R0.319
G1 X75.29
G2 X73.565 Y51.337 R1.869
G3 X71.84 Y52.487 R1.869
G1 X34.192
G3 X33.873 Y52.168 R0.319
G1 Y33.832
G3 X34.192 Y33.513 R0.319
G1 X94.808
G3 X95.127 Y33.832 R0.319
G1 Y52.168
G3 X94.808 Y52.487 R0.319
G1 X71.84
G2 X70.115 Y53.637 R1.869
G3 X68.39 Y54.787 R1.869
G1 X31.892
G3 X31.573 Y54.468 R0.319
G1 Y31.532
G3 X31.892 Y31.213 R0.319
G1 X97.108
G3 X97.427 Y31.532 R0.319
G1 Y54.468
G3 X97.108 Y54.787 R0.319
G1 X68.39
G2 X66.665 Y55.937 R1.869
G3 X64.94 Y57.087 R1.869
G1 X29.592
G3 X29.273 Y56.768 R0.319
G1 Y29.232
G3 X29.592 Y28.913 R0.319
G1 X99.408
G3 X99.727 Y29.232 R0.319
G1 Y56.768
G3 X99.408 Y57.087 R0.319
G1 X64.94
G2 X63.215 Y58.237 R1.869
G3 X61.49 Y59.387 R1.869
G1 X27.292
G3 X26.973 Y59.068 R0.319
G1 Y26.932
G3 X27.292 Y26.613 R0.319
G1 X101.708
G3 X102.027 Y26.932 R0.319
G1 Y59.068
G3 X101.708 Y59.387 R0.319
G1 X61.49
G2 X59.765 Y60.537 R1.869
G3 X58.04 Y61.687 R1.869
G1 X24.992
G3 X24.673 Y61.368 R0.319
G1 Y24.632
G3 X24.992 Y24.313 R0.319
G1 X104.008
G3 X104.327 Y24.632 R0.319
G1 Y61.368
G3 X104.008 Y61.687 R0.319
G1 X58.04
G2 X56.315 Y62.837 R1.869
G3 X54.59 Y63.987 R1.869
G1 X22.692
G3 X22.373 Y63.668 R0.319
G1 Y22.332
G3 X22.692 Y22.013 R0.319
G1 X106.308
G3 X106.627 Y22.332 R0.319
G1 Y63.668
G3 X106.308 Y63.987 R0.319
G1 X54.59
G2 X52.865 Y65.137 R1.869
G3 X51.14 Y66.287 R1.869
G1 X20.392
G3 X20.073 Y65.968 R0.319
G1 Y20.032
G3 X20.392 Y19.713 R0.319
G1 X108.608
G3 X108.927 Y20.032 R0.319
G1 Y65.968
G3 X108.608 Y66.287 R0.319
G1 X51.14
G2 X49.415 Y67.437 R1.869
G3 X47.69 Y68.587 R1.869
G1 X18.092
G3 X17.773 Y68.268 R0.319
G1 Y17.732
G3 X18.092 Y17.413 R0.319
G1 X110.908
G3 X111.227 Y17.732 R0.319
G1 Y68.268
G3 X110.908 Y68.587 R0.319
G1 X47.69
G2 X45.965 Y69.737 R1.869
G3 X44.24 Y70.887 R1.869
G1 X15.792
G3 X15.473 Y70.568 R0.319
G1 Y15.432
G3 X15.792 Y15.113 R0.319
G1 X113.208
G3 X113.527 Y15.432 R0.319
G1 Y70.568
G3 X113.208 Y70.887 R0.319
G1 X44.24
G2 X42.515 Y72.037 R1.869
G3 X40.79 Y73.187 R1.869
G1 X13.492
G3 X13.173 Y72.868 R0.319
G1 Y13.132
G3 X13.492 Y12.813 R0.319
G1 X115.508
G3 X115.827 Y13.132 R0.319
G1 Y72.868
G3 X115.508 Y73.187 R0.319
G1 X40.79
G2 X39.065 Y74.337 R1.869
G3 X37.34 Y75.487 R1.869
G1 X11.818
G3 X10.873 Y74.542 R0.946
G1 Y11.458
G3 X11.818 Y10.513 R0.946
G1 X117.808
G3 X118.127 Y10.832 R0.319
G1 Y75.168
G3 X117.808 Y75.487 R0.319
G1 X37.34
G2 X35.615 Y76.637 R1.869
G3 X33.89 Y77.787 R1.869
G1 X10.929
G3 X10.05 Y77.423 R1.243
G1 X8.937 Y76.31
G3 X8.573 Y75.431 R1.243
G1 Y10.569
G3 X8.937 Y9.69 R1.243
G1 X10.05 Y8.577
G3 X10.929 Y8.213 R1.243
G1 X120.108
G3 X120.427 Y8.532 R0.319
G1 Y77.468
G3 X120.108 Y77.787 R0.319
G1 X33.89
G2 X32.165 Y78.937 R1.869
G3 X30.44 Y80.087 R1.869
G1 X9.976
G3 X9.097 Y79.723 R1.243
G1 X6.637 Y77.263
G3 X6.273 Y76.384 R1.243
G1 Y9.616
G3 X6.637 Y8.737 R1.243
G1 X9.097 Y6.277
G3 X9.976 Y5.913 R1.243
G1 X122.408
G3 X122.727 Y6.232 R0.319
G1 Y79.768
G3 X122.408 Y80.087 R0.319
G1 X30.44
G2 X28.711 Y81.24 R1.873
G3 X26.982 Y82.392 R1.873
G1 X8.507
X3.968 Y77.853
Y8.147
X8.507 Y3.608
X125.032
Y82.392
X26.982
X26.906 Y82.385 Z-0.985
X26.833 Y82.363 Z-0.97
X26.775 Y82.334 Z-0.926
X26.722 Y82.297 Z-0.883
X26.691 Y82.267 Z-0.818
X26.663 Y82.233 Z-0.753
X26.646 Y82.209 Z-0.6
G0 Z5.
X87.522 Y41.643
G1 Z1.9 F380.
X87.518 Y41.672 Z1.75 F1500.
X87.504 Y41.753 Z1.622
X87.476 Y41.875 Z1.534
X87.432 Y42.017 Z1.5
X87.367 Y42.179 Z1.494
X87.287 Y42.334 Z1.488
X87.194 Y42.481 Z1.482
X87.087 Y42.618 Z1.476
X86.968 Y42.746 Z1.47
X86.838 Y42.862 Z1.463
X86.698 Y42.965 Z1.457
X86.549 Y43.056 Z1.451
X86.392 Y43.132 Z1.445
X86.23 Y43.194 Z1.439
X86.062 Y43.24 Z1.433
X85.89 Y43.271 Z1.427
X85.717 Y43.286 Z1.421
X85.542 Y43.285 Z1.415
X85.369 Y43.268 Z1.409
X85.198 Y43.235 Z1.403
X85.031 Y43.187 Z1.397
X84.868 Y43.124 Z1.39
X84.713 Y43.046 Z1.384
X84.565 Y42.954 Z1.378
X84.426 Y42.849 Z1.372
X84.297 Y42.732 Z1.366
X84.179 Y42.603 Z1.36
X84.074 Y42.464 Z1.354
X83.982 Y42.316 Z1.348
X83.904 Y42.161 Z1.342
X83.841 Y41.998 Z1.336
X83.792 Y41.831 Z1.33
X83.759 Y41.66 Z1.324
X83.742 Y41.487 Z1.317
X83.741 Y41.312 Z1.311
X83.756 Y41.139 Z1.305
X83.787 Y40.967 Z1.299
X83.833 Y40.799 Z1.293
X83.894 Y40.636 Z1.287
X83.97 Y40.48 Z1.281
X84.061 Y40.331 Z1.275
X84.164 Y40.19 Z1.269
X84.28 Y40.06 Z1.263
X84.407 Y39.941 Z1.257
X84.545 Y39.835 Z1.251
X84.692 Y39.741 Z1.244
X84.846 Y39.661 Z1.238
X85.008 Y39.596 Z1.232
X85.175 Y39.545 Z1.226
X85.345 Y39.51 Z1.22
X85.518 Y39.491 Z1.214
X85.693 Y39.488 Z1.208
X85.866 Y39.501 Z1.202
X86.038 Y39.53 Z1.196
X86.207 Y39.574 Z1.19
X86.37 Y39.633 Z1.184
X86.528 Y39.708 Z1.177
X86.678 Y39.796 Z1.171
X86.819 Y39.898 Z1.165
X86.951 Y40.012 Z1.159
X87.071 Y40.138 Z1.153
X87.18 Y40.274 Z1.147
X87.275 Y40.42 Z1.141
X87.357 Y40.574 Z1.135
X87.424 Y40.735 Z1.129
X87.476 Y40.901 Z1.123
X87.513 Y41.071 Z1.117
X87.534 Y41.244 Z1.111
X87.539 Y41.418 Z1.104
X87.529 Y41.592 Z1.098
X87.502 Y41.764 Z1.092
X87.46 Y41.933 Z1.086
X87.402 Y42.098 Z1.08
X87.329 Y42.256 Z1.074
X87.243 Y42.407 Z1.068
X87.143 Y42.55 Z1.062
X87.03 Y42.682 Z1.056
X86.905 Y42.804 Z1.05
X86.77 Y42.914 Z1.044
X86.626 Y43.011 Z1.038
X86.473 Y43.095 Z1.031
X86.313 Y43.164 Z1.025
X86.147 Y43.218 Z1.019
X85.978 Y43.257 Z1.013
X85.805 Y43.28 Z1.007
X85.631 Y43.287 Z1.001
X85.457 Y43.279 Z0.995
X85.285 Y43.254 Z0.989
X85.115 Y43.214 Z0.983
X84.95 Y43.158 Z0.977
X84.791 Y43.087 Z0.971
X84.639 Y43.002 Z0.965
X84.495 Y42.904 Z0.958
X84.361 Y42.793 Z0.952
X84.238 Y42.67 Z0.946
X84.126 Y42.536 Z0.94
X84.027 Y42.392 Z0.934
X83.942 Y42.241 Z0.928
X83.871 Y42.081 Z0.922
X83.815 Y41.917 Z0.916
X83.774 Y41.747 Z0.91
X83.749 Y41.575 Z0.904
X83.74 Y41.401 Z0.898
X83.746 Y41.227 Z0.891
X83.769 Y41.054 Z0.885
X83.807 Y40.884 Z0.879
X83.861 Y40.719 Z0.873
X83.93 Y40.558 Z0.867
X84.013 Y40.405 Z0.861
X84.11 Y40.261 Z0.855
X84.219 Y40.125 Z0.849
X84.341 Y40. Z0.843
X84.474 Y39.887 Z0.837
X84.616 Y39.787 Z0.831
X84.767 Y39.7 Z0.825
X84.925 Y39.627 Z0.818
X85.089 Y39.569 Z0.812
X85.258 Y39.526 Z0.806
X85.43 Y39.499 Z0.8
X85.604 Y39.488 Z0.794
X85.778 Y39.492 Z0.788
X85.951 Y39.513 Z0.782
X86.121 Y39.55 Z0.776
X86.288 Y39.601 Z0.77
X86.449 Y39.668 Z0.764
X86.603 Y39.75 Z0.758
X86.749 Y39.845 Z0.752
X86.885 Y39.953 Z0.745
X87.011 Y40.073 Z0.739
X87.126 Y40.204 Z0.733
X87.228 Y40.345 Z0.727
X87.317 Y40.495 Z0.721
X87.392 Y40.652 Z0.715
X87.452 Y40.816 Z0.709
X87.496 Y40.984 Z0.703
X87.525 Y41.156 Z0.697
X87.539 Y41.33 Z0.691
X87.536 Y41.504 Z0.685
X87.517 Y41.677 Z0.678
X87.483 Y41.848 Z0.672
X87.433 Y42.015 Z0.666
X87.368 Y42.176 Z0.66
X87.289 Y42.331 Z0.654
X87.195 Y42.478 Z0.648
X87.089 Y42.616 Z0.642
X86.97 Y42.744 Z0.636
X86.84 Y42.86 Z0.63
X86.7 Y42.964 Z0.624
X86.552 Y43.054 Z0.618
X86.395 Y43.131 Z0.612
X86.232 Y43.193 Z0.605
X86.064 Y43.239 Z0.599
X85.893 Y43.27 Z0.593
X85.72 Y43.286 Z0.587
X85.545 Y43.285 Z0.581
X85.372 Y43.268 Z0.575
X85.201 Y43.236 Z0.569
X85.033 Y43.188 Z0.563
X84.871 Y43.125 Z0.557
X84.715 Y43.047 Z0.551
X84.567 Y42.956 Z0.545
X84.428 Y42.851 Z0.539
X84.299 Y42.734 Z0.532
X84.181 Y42.605 Z0.526
X84.076 Y42.467 Z0.52
X83.984 Y42.319 Z0.514
X83.905 Y42.163 Z0.508
X83.841 Y42.001 Z0.502
X83.793 Y41.834 Z0.496
X83.76 Y41.663 Z0.49
X83.742 Y41.489 Z0.484
X83.741 Y41.315 Z0.478
X83.756 Y41.142 Z0.472
X83.786 Y40.97 Z0.466
X83.832 Y40.802 Z0.459
X83.893 Y40.639 Z0.453
X83.969 Y40.482 Z0.447
X84.059 Y40.333 Z0.441
X84.162 Y40.193 Z0.435
X84.278 Y40.062 Z0.429
X84.405 Y39.943 Z0.423
X84.542 Y39.836 Z0.417
X84.689 Y39.742 Z0.411
X84.844 Y39.662 Z0.405
X85.005 Y39.596 Z0.399
X85.172 Y39.546 Z0.392
X85.342 Y39.511 Z0.386
X85.515 Y39.491 Z0.38
X85.69 Y39.488 Z0.374
X85.863 Y39.501 Z0.368
X86.035 Y39.529 Z0.362
X86.204 Y39.573 Z0.356
X86.368 Y39.632 Z0.35
X86.525 Y39.706 Z0.344
X86.675 Y39.795 Z0.338
X86.817 Y39.896 Z0.332
X86.949 Y40.01 Z0.326
X87.069 Y40.136 Z0.319
X87.178 Y40.272 Z0.313
X87.274 Y40.418 Z0.307
X87.355 Y40.571 Z0.301
X87.423 Y40.732 Z0.295
X87.476 Y40.898 Z0.289
X87.513 Y41.068 Z0.283
X87.534 Y41.241 Z0.277
X87.539 Y41.415 Z0.271
X87.529 Y41.589 Z0.265
X87.502 Y41.761 Z0.259
X87.46 Y41.93 Z0.253
X87.403 Y42.095 Z0.246
X87.331 Y42.253 Z0.24
X87.244 Y42.405 Z0.234
X87.144 Y42.547 Z0.228
X87.032 Y42.68 Z0.222
X86.908 Y42.802 Z0.216
X86.773 Y42.913 Z0.21
X86.628 Y43.01 Z0.204
X86.476 Y43.094 Z0.198
X86.316 Y43.163 Z0.192
X86.15 Y43.217 Z0.186
X85.981 Y43.257 Z0.18
X85.808 Y43.28 Z0.173
X85.634 Y43.287 Z0.167
X85.46 Y43.279 Z0.161
X85.287 Y43.254 Z0.155
X85.118 Y43.214 Z0.149
X84.953 Y43.159 Z0.143
X84.793 Y43.089 Z0.137
X84.641 Y43.004 Z0.131
X84.497 Y42.906 Z0.125
X84.363 Y42.795 Z0.119
X84.24 Y42.672 Z0.113
X84.128 Y42.538 Z0.106
X84.029 Y42.395 Z0.1
X83.943 Y42.243 Z0.094
X83.872 Y42.084 Z0.088
X83.816 Y41.919 Z0.082
X83.775 Y41.75 Z0.076
X83.749 Y41.578 Z0.07
X83.74 Y41.404 Z0.064
X83.746 Y41.23 Z0.058
X83.769 Y41.057 Z0.052
X83.807 Y40.887 Z0.046
X83.86 Y40.721 Z0.04
X83.929 Y40.561 Z0.033
X84.012 Y40.408 Z0.027
X84.108 Y40.263 Z0.021
X84.218 Y40.127 Z0.015
X84.339 Y40.002 Z0.009
X84.471 Y39.889 Z0.003
X84.613 Y39.788 Z-0.003
X84.764 Y39.701 Z-0.009
X84.922 Y39.628 Z-0.015
X85.086 Y39.57 Z-0.021
X85.255 Y39.527 Z-0.027
X85.427 Y39.499 Z-0.033
X85.601 Y39.488 Z-0.04
X85.775 Y39.492 Z-0.046
X85.948 Y39.513 Z-0.052
X86.119 Y39.549 Z-0.058
X86.285 Y39.6 Z-0.064
X86.446 Y39.667 Z-0.07
X86.6 Y39.748 Z-0.076
X86.746 Y39.843 Z-0.082
X86.883 Y39.951 Z-0.088
X87.009 Y40.071 Z-0.094
X87.124 Y40.202 Z-0.1
X87.227 Y40.343 Z-0.106
X87.316 Y40.492 Z-0.113
X87.391 Y40.65 Z-0.119
X87.451 Y40.813 Z-0.125
X87.496 Y40.981 Z-0.131
X87.525 Y41.153 Z-0.137
X87.539 Y41.327 Z-0.143
X87.536 Y41.501 Z-0.149
X87.518 Y41.674 Z-0.155
X87.484 Y41.845 Z-0.161
X87.434 Y42.012 Z-0.167
X87.369 Y42.174 Z-0.173
X87.29 Y42.329 Z-0.18
X87.197 Y42.476 Z-0.186
X87.091 Y42.614 Z-0.192
X86.972 Y42.742 Z-0.198
X86.843 Y42.858 Z-0.204
X86.703 Y42.962 Z-0.21
X86.554 Y43.053 Z-0.216
X86.398 Y43.13 Z-0.222
X86.235 Y43.192 Z-0.228
X86.067 Y43.239 Z-0.234
X85.896 Y43.27 Z-0.24
X85.722 Y43.286 Z-0.246
X85.548 Y43.285 Z-0.253
X85.375 Y43.269 Z-0.259
X85.204 Y43.237 Z-0.265
X85.036 Y43.189 Z-0.271
X84.874 Y43.126 Z-0.277
X84.718 Y43.049 Z-0.283
X84.569 Y42.957 Z-0.289
X84.43 Y42.853 Z-0.295
X84.301 Y42.736 Z-0.301
X84.183 Y42.607 Z-0.307
X84.077 Y42.469 Z-0.313
X83.985 Y42.321 Z-0.319
X83.906 Y42.166 Z-0.326
X83.842 Y42.004 Z-0.332
X83.793 Y41.837 Z-0.338
X83.76 Y41.666 Z-0.344
X83.743 Y41.492 Z-0.35
X83.741 Y41.318 Z-0.356
X83.755 Y41.145 Z-0.362
X83.785 Y40.973 Z-0.368
X83.831 Y40.805 Z-0.374
X83.892 Y40.642 Z-0.38
X83.968 Y40.485 Z-0.386
X84.057 Y40.335 Z-0.392
X84.16 Y40.195 Z-0.399
X84.276 Y40.064 Z-0.405
X84.403 Y39.945 Z-0.411
X84.54 Y39.838 Z-0.417
X84.687 Y39.744 Z-0.423
X84.841 Y39.663 Z-0.429
X85.002 Y39.597 Z-0.435
X85.169 Y39.547 Z-0.441
X85.34 Y39.511 Z-0.447
X85.513 Y39.492 Z-0.453
X85.687 Y39.488 Z-0.459
X85.861 Y39.5 Z-0.466
X86.032 Y39.528 Z-0.472
X86.201 Y39.572 Z-0.478
X86.365 Y39.631 Z-0.484
X86.523 Y39.705 Z-0.49
X86.673 Y39.793 Z-0.496
X86.815 Y39.894 Z-0.502
X86.947 Y40.008 Z-0.508
X87.067 Y40.134 Z-0.514
X87.176 Y40.27 Z-0.52
X87.272 Y40.415 Z-0.526
X87.354 Y40.569 Z-0.532
X87.422 Y40.729 Z-0.539
X87.475 Y40.895 Z-0.545
X87.512 Y41.065 Z-0.551
X87.534 Y41.238 Z-0.557
X87.539 Y41.412 Z-0.563
X87.529 Y41.586 Z-0.569
X87.503 Y41.759 Z-0.575
X87.461 Y41.928 Z-0.581
X87.404 Y42.092 Z-0.587
X87.332 Y42.251 Z-0.593
X87.246 Y42.402 Z-0.599
X87.146 Y42.545 Z-0.605
X87.034 Y42.678 Z-0.612
X86.91 Y42.8 Z-0.618
X86.775 Y42.911 Z-0.624
X86.631 Y43.008 Z-0.63
X86.478 Y43.092 Z-0.636
X86.318 Y43.162 Z-0.642
X86.153 Y43.217 Z-0.648
X85.983 Y43.256 Z-0.654
X85.811 Y43.28 Z-0.66
X85.637 Y43.287 Z-0.666
X85.463 Y43.279 Z-0.672
X85.29 Y43.255 Z-0.678
X85.121 Y43.215 Z-0.685
X84.955 Y43.16 Z-0.691
X84.796 Y43.09 Z-0.697
X84.644 Y43.005 Z-0.703
X84.5 Y42.907 Z-0.709
X84.365 Y42.797 Z-0.715
X84.241 Y42.674 Z-0.721
X84.13 Y42.54 Z-0.727
X84.03 Y42.397 Z-0.733
X83.945 Y42.246 Z-0.739
X83.873 Y42.087 Z-0.745
X83.816 Y41.922 Z-0.752
X83.775 Y41.753 Z-0.758
X83.749 Y41.581 Z-0.764
X83.74 Y41.407 Z-0.77
X83.746 Y41.233 Z-0.776
X83.768 Y41.06 Z-0.782
X83.806 Y40.89 Z-0.788
X83.859 Y40.724 Z-0.794
X83.927 Y40.564 Z-0.8
X84.01 Y40.41 Z-0.806
X84.106 Y40.265 Z-0.812
X84.216 Y40.129 Z-0.818
X84.337 Y40.004 Z-0.825
X84.469 Y39.891 Z-0.831
X84.611 Y39.79 Z-0.837
X84.762 Y39.702 Z-0.843
X84.92 Y39.629 Z-0.849
X85.084 Y39.571 Z-0.855
X85.252 Y39.527 Z-0.861
X85.424 Y39.5 Z-0.867
X85.598 Y39.488 Z-0.873
X85.772 Y39.492 Z-0.879
X85.945 Y39.512 Z-0.885
X86.116 Y39.548 Z-0.891
X86.282 Y39.599 Z-0.898
X86.443 Y39.666 Z-0.904
X86.598 Y39.747 Z-0.91
X86.744 Y39.841 Z-0.916
X86.881 Y39.949 Z-0.922
X87.007 Y40.069 Z-0.928
X87.122 Y40.199 Z-0.934
X87.225 Y40.34 Z-0.94
X87.314 Y40.49 Z-0.946
X87.389 Y40.647 Z-0.952
X87.45 Y40.81 Z-0.958
X87.495 Y40.979 Z-0.965
X87.525 Y41.15 Z-0.971
X87.539 Y41.324 Z-0.977
X87.536 Y41.498 Z-0.983
X87.518 Y41.671 Z-0.989
X87.484 Y41.842 Z-0.995
X87.435 Y42.009 Z-1.001
X87.37 Y42.171 Z-1.007
X87.291 Y42.326 Z-1.013
X87.199 Y42.474 Z-1.019
X87.092 Y42.612 Z-1.025
X86.974 Y42.74 Z-1.031
X86.845 Y42.856 Z-1.038
X86.705 Y42.96 Z-1.044
X86.557 Y43.051 Z-1.05
X86.4 Y43.128 Z-1.056
X86.238 Y43.191 Z-1.062
X86.07 Y43.238 Z-1.068
X85.899 Y43.27 Z-1.074
X85.725 Y43.285 Z-1.08
X85.551 Z-1.086
X85.378 Y43.269 Z-1.092
X85.206 Y43.237 Z-1.098
X85.039 Y43.19 Z-1.104
X84.876 Y43.127 Z-1.111
X84.72 Y43.05 Z-1.117
X84.572 Y42.959 Z-1.123
X84.432 Y42.854 Z-1.129
X84.303 Y42.738 Z-1.135
X84.185 Y42.61 Z-1.141
X84.079 Y42.471 Z-1.147
X83.986 Y42.324 Z-1.153
X83.908 Y42.168 Z-1.159
X83.843 Y42.006 Z-1.165
X83.794 Y41.839 Z-1.171
X83.761 Y41.668 Z-1.177
X83.743 Y41.495 Z-1.184
X83.741 Y41.321 Z-1.19
X83.755 Y41.147 Z-1.196
X83.785 Y40.976 Z-1.202
X83.83 Y40.808 Z-1.208
X83.891 Y40.644 Z-1.214
X83.966 Y40.487 Z-1.22
X84.056 Y40.338 Z-1.226
X84.159 Y40.197 Z-1.232
X84.274 Y40.067 Z-1.238
X84.401 Y39.947 Z-1.244
X84.538 Y39.84 Z-1.251
X84.684 Y39.745 Z-1.257
X84.838 Y39.665 Z-1.263
X85. Y39.598 Z-1.269
X85.166 Y39.547 Z-1.275
X85.337 Y39.512 Z-1.281
X85.51 Y39.492 Z-1.287
X85.684 Y39.488 Z-1.293
X85.858 Y39.5 Z-1.299
X86.03 Y39.528 Z-1.305
X86.198 Y39.571 Z-1.311
X86.362 Y39.63 Z-1.317
X86.52 Y39.704 Z-1.324
X86.671 Y39.791 Z-1.33
X86.812 Y39.893 Z-1.336
X86.944 Y40.006 Z-1.342
X87.065 Y40.132 Z-1.348
X87.174 Y40.267 Z-1.354
X87.271 Y40.413 Z-1.36
X87.353 Y40.566 Z-1.366
X87.421 Y40.727 Z-1.372
X87.474 Y40.893 Z-1.378
X87.512 Y41.063 Z-1.384
X87.534 Y41.235 Z-1.39
X87.539 Y41.41 Z-1.397
X87.529 Y41.583 Z-1.403
X87.504 Y41.756 Z-1.409
X87.462 Y41.925 Z-1.415
X87.405 Y42.09 Z-1.421
X87.333 Y42.248 Z-1.427
X87.247 Y42.4 Z-1.433
X87.148 Y42.543 Z-1.439
X87.036 Y42.676 Z-1.445
X86.912 Y42.799 Z-1.451
X86.777 Y42.909 Z-1.457
X86.633 Y43.007 Z-1.463
X86.481 Y43.091 Z-1.47
X86.321 Y43.161 Z-1.476
X86.156 Y43.216 Z-1.482
X85.986 Y43.256 Z-1.488
X85.814 Y43.279 Z-1.494
X85.64 Y43.287 Z-1.5
X43.308
G3 X43.073 Y43.052 R0.235
G1 Y42.948
G3 X43.308 Y42.713 R0.235
G1 X85.692
G3 X85.927 Y42.948 R0.235
G1 Y43.052
G3 X85.692 Y43.287 R0.235
G1 X85.64
G2 X83.915 Y44.437 R1.869
G3 X82.19 Y45.587 R1.869
G1 X41.092
G3 X40.773 Y45.268 R0.319
G1 Y40.732
G3 X41.092 Y40.413 R0.319
G1 X87.908
G3 X88.227 Y40.732 R0.319
G1 Y45.268
G3 X87.908 Y45.587 R0.319
G1 X82.19
G2 X80.465 Y46.737 R1.869
G3 X78.74 Y47.887 R1.869
G1 X38.792
G3 X38.473 Y47.568 R0.319
G1 Y38.432
G3 X38.792 Y38.113 R0.319
G1 X90.208
G3 X90.527 Y38.432 R0.319
G1 Y47.568
G3 X90.208 Y47.887 R0.319
G1 X78.74
G2 X77.015 Y49.037 R1.869
G3 X75.29 Y50.187 R1.869
G1 X36.492
G3 X36.173 Y49.868 R0.319
G1 Y36.132
G3 X36.492 Y35.813 R0.319
G1 X92.508
G3 X92.827 Y36.132 R0.319
G1 Y49.868
G3 X92.508 Y50.187 R0.319
G1 X75.29
G2 X73.565 Y51.337 R1.869
G3 X71.84 Y52.487 R1.869
G1 X34.192
G3 X33.873 Y52.168 R0.319
G1 Y33.832
G3 X34.192 Y33.513 R0.319
G1 X94.808
G3 X95.127 Y33.832 R0.319
G1 Y52.168
G3 X94.808 Y52.487 R0.319
G1 X71.84
G2 X70.115 Y53.637 R1.869
G3 X68.39 Y54.787 R1.869
G1 X31.892
G3 X31.573 Y54.468 R0.319
G1 Y31.532
G3 X31.892 Y31.213 R0.319
G1 X97.108
G3 X97.427 Y31.532 R0.319
G1 Y54.468
G3 X97.108 Y54.787 R0.319
G1 X68.39
G2 X66.665 Y55.937 R1.869
G3 X64.94 Y57.087 R1.869
G1 X29.592
G3 X29.273 Y56.768 R0.319
G1 Y29.232
G3 X29.592 Y28.913 R0.319
G1 X99.408
G3 X99.727 Y29.232 R0.319
G1 Y56.768
G3 X99.408 Y57.087 R0.319
G1 X64.94
G2 X63.215 Y58.237 R1.869
G3 X61.49 Y59.387 R1.869
G1 X27.292
G3 X26.973 Y59.068 R0.319
G1 Y26.932
G3 X27.292 Y26.613 R0.319
G1 X101.708
G3 X102.027 Y26.932 R0.319
G1 Y59.068
G3 X101.708 Y59.387 R0.319
G1 X61.49
G2 X59.765 Y60.537 R1.869
G3 X58.04 Y61.687 R1.869
G1 X24.992
G3 X24.673 Y61.368 R0.319
G1 Y24.632
G3 X24.992 Y24.313 R0.319
G1 X104.008
G3 X104.327 Y24.632 R0.319
G1 Y61.368
G3 X104.008 Y61.687 R0.319
G1 X58.04
G2 X56.315 Y62.837 R1.869
G3 X54.59 Y63.987 R1.869
G1 X22.692
G3 X22.373 Y63.668 R0.319
G1 Y22.332
G3 X22.692 Y22.013 R0.319
G1 X106.308
G3 X106.627 Y22.332 R0.319
G1 Y63.668
G3 X106.308 Y63.987 R0.319
G1 X54.59
G2 X52.865 Y65.137 R1.869
G3 X51.14 Y66.287 R1.869
G1 X20.392
G3 X20.073 Y65.968 R0.319
G1 Y20.032
G3 X20.392 Y19.713 R0.319
G1 X108.608
G3 X108.927 Y20.032 R0.319
G1 Y65.968
G3 X108.608 Y66.287 R0.319
G1 X51.14
G2 X49.415 Y67.437 R1.869
G3 X47.69 Y68.587 R1.869
G1 X18.092
G3 X17.773 Y68.268 R0.319
G1 Y17.732
G3 X18.092 Y17.413 R0.319
G1 X110.908
G3 X111.227 Y17.732 R0.319
G1 Y68.268
G3 X110.908 Y68.587 R0.319
G1 X47.69
G2 X45.965 Y69.737 R1.869
G3 X44.24 Y70.887 R1.869
G1 X15.792
G3 X15.473 Y70.568 R0.319
G1 Y15.432
G3 X15.792 Y15.113 R0.319
G1 X113.208
G3 X113.527 Y15.432 R0.319
G1 Y70.568
G3 X113.208 Y70.887 R0.319
G1 X44.24
G2 X42.515 Y72.037 R1.869
G3 X40.79 Y73.187 R1.869
G1 X13.492
G3 X13.173 Y72.868 R0.319
G1 Y13.132
G3 X13.492 Y12.813 R0.319
G1 X115.508
G3 X115.827 Y13.132 R0.319
G1 Y72.868
G3 X115.508 Y73.187 R0.319
G1 X40.79
G2 X39.065 Y74.337 R1.869
G3 X37.34 Y75.487 R1.869
G1 X11.818
G3 X10.873 Y74.542 R0.946
G1 Y11.458
G3 X11.818 Y10.513 R0.946
G1 X117.808
G3 X118.127 Y10.832 R0.319
G1 Y75.168
G3 X117.808 Y75.487 R0.319
G1 X37.34
G2 X35.615 Y76.637 R1.869
G3 X33.89 Y77.787 R1.869
G1 X10.929
G3 X10.05 Y77.423 R1.243
G1 X8.937 Y76.31
G3 X8.573 Y75.431 R1.243
G1 Y10.569
G3 X8.937 Y9.69 R1.243
G1 X10.05 Y8.577
G3 X10.929 Y8.213 R1.243
G1 X120.108
G3 X120.427 Y8.532 R0.319
G1 Y77.468
G3 X120.108 Y77.787 R0.319
G1 X33.89
G2 X32.165 Y78.937 R1.869
G3 X30.44 Y80.087 R1.869
G1 X9.976
G3 X9.097 Y79.723 R1.243
G1 X6.637 Y77.263
G3 X6.273 Y76.384 R1.243
G1 Y9.616
G3 X6.637 Y8.737 R1.243
G1 X9.097 Y6.277
G3 X9.976 Y5.913 R1.243
G1 X122.408
G3 X122.727 Y6.232 R0.319
G1 Y79.768
G3 X122.408 Y80.087 R0.319
G1 X30.44
G2 X28.711 Y81.24 R1.873
G3 X26.982 Y82.392 R1.873
G1 X8.507
X3.968 Y77.853
Y8.147
X8.507 Y3.608
X125.032
Y82.392
X26.982
X26.906 Y82.385 Z-1.485
X26.833 Y82.363 Z-1.47
X26.775 Y82.334 Z-1.426
X26.722 Y82.297 Z-1.383
X26.691 Y82.267 Z-1.318
X26.663 Y82.233 Z-1.253
X26.646 Y82.209 Z-1.1
G0 Z5.
X87.522 Y41.643
G1 Z1.4 F380.
X87.518 Y41.672 Z1.25 F1500.
X87.504 Y41.753 Z1.122
X87.476 Y41.875 Z1.034
X87.432 Y42.017 Z1.
X87.367 Y42.179 Z0.994
X87.287 Y42.334 Z0.988
X87.194 Y42.481 Z0.982
X87.087 Y42.618 Z0.976
X86.968 Y42.746 Z0.97
X86.838 Y42.862 Z0.963
X86.698 Y42.965 Z0.957
X86.549 Y43.056 Z0.951
X86.392 Y43.132 Z0.945
X86.23 Y43.194 Z0.939
X86.062 Y43.24 Z0.933
X85.89 Y43.271 Z0.927
X85.717 Y43.286 Z0.921
X85.542 Y43.285 Z0.915
X85.369 Y43.268 Z0.909
X85.198 Y43.235 Z0.903
X85.031 Y43.187 Z0.897
X84.868 Y43.124 Z0.89
X84.713 Y43.046 Z0.884
X84.565 Y42.954 Z0.878
X84.426 Y42.849 Z0.872
X84.297 Y42.732 Z0.866
X84.179 Y42.603 Z0.86
X84.074 Y42.464 Z0.854
X83.982 Y42.316 Z0.848
X83.904 Y42.161 Z0.842
X83.841 Y41.998 Z0.836
X83.792 Y41.831 Z0.83
X83.759 Y41.66 Z0.824
X83.742 Y41.487 Z0.817
X83.741 Y41.312 Z0.811
X83.756 Y41.139 Z0.805
X83.787 Y40.967 Z0.799
X83.833 Y40.799 Z0.793
X83.894 Y40.636 Z0.787
X83.97 Y40.48 Z0.781
X84.061 Y40.331 Z0.775
X84.164 Y40.19 Z0.769
X84.28 Y40.06 Z0.763
X84.407 Y39.941 Z0.757
X84.545 Y39.835 Z0.751
X84.692 Y39.741 Z0.744
X84.846 Y39.661 Z0.738
X85.008 Y39.596 Z0.732
X85.175 Y39.545 Z0.726
X85.345 Y39.51 Z0.72
X85.518 Y39.491 Z0.714
X85.693 Y39.488 Z0.708
X85.866 Y39.501 Z0.702
X86.038 Y39.53 Z0.696
X86.207 Y39.574 Z0.69
X86.37 Y39.633 Z0.684
X86.528 Y39.708 Z0.677
X86.678 Y39.796 Z0.671
X86.819 Y39.898 Z0.665
X86.951 Y40.012 Z0.659
X87.071 Y40.138 Z0.653
X87.18 Y40.274 Z0.647
X87.275 Y40.42 Z0.641
X87.357 Y40.574 Z0.635
X87.424 Y40.735 Z0.629
X87.476 Y40.901 Z0.623
X87.513 Y41.071 Z0.617
X87.534 Y41.244 Z0.611
X87.539 Y41.418 Z0.604
X87.529 Y41.592 Z0.598
X87.502 Y41.764 Z0.592
X87.46 Y41.933 Z0.586
X87.402 Y42.098 Z0.58
X87.329 Y42.256 Z0.574
X87.243 Y42.407 Z0.568
X87.143 Y42.55 Z0.562
X87.03 Y42.682 Z0.556
X86.905 Y42.804 Z0.55
X86.77 Y42.914 Z0.544
X86.626 Y43.011 Z0.538
X86.473 Y43.095 Z0.531
X86.313 Y43.164 Z0.525
X86.147 Y43.218 Z0.519
X85.978 Y43.257 Z0.513
X85.805 Y43.28 Z0.507
X85.631 Y43.287 Z0.501
X85.457 Y43.279 Z0.495
X85.285 Y43.254 Z0.489
X85.115 Y43.214 Z0.483
X84.95 Y43.158 Z0.477
X84.791 Y43.087 Z0.471
X84.639 Y43.002 Z0.465
X84.495 Y42.904 Z0.458
X84.361 Y42.793 Z0.452
X84.238 Y42.67 Z0.446
X84.126 Y42.536 Z0.44
X84.027 Y42.392 Z0.434
X83.942 Y42.241 Z0.428
X83.871 Y42.081 Z0.422
X83.815 Y41.917 Z0.416
X83.774 Y41.747 Z0.41
X83.749 Y41.575 Z0.404
X83.74 Y41.401 Z0.398
X83.746 Y41.227 Z0.391
X83.769 Y41.054 Z0.385
X83.807 Y40.884 Z0.379
X83.861 Y40.719 Z0.373
X83.93 Y40.558 Z0.367
X84.013 Y40.405 Z0.361
X84.11 Y40.261 Z0.355
X84.219 Y40.125 Z0.349
X84.341 Y40. Z0.343
X84.474 Y39.887 Z0.337
X84.616 Y39.787 Z0.331
X84.767 Y39.7 Z0.325
X84.925 Y39.627 Z0.318
X85.089 Y39.569 Z0.312
X85.258 Y39.526 Z0.306
X85.43 Y39.499 Z0.3
X85.604 Y39.488 Z0.294
X85.778 Y39.492 Z0.288
X85.951 Y39.513 Z0.282
X86.121 Y39.55 Z0.276
X86.288 Y39.601 Z0.27
X86.449 Y39.668 Z0.264
X86.603 Y39.75 Z0.258
X86.749 Y39.845 Z0.252
X86.885 Y39.953 Z0.245
X87.011 Y40.073 Z0.239
X87.126 Y40.204 Z0.233
X87.228 Y40.345 Z0.227
X87.317 Y40.495 Z0.221
X87.392 Y40.652 Z0.215
X87.452 Y40.816 Z0.209
X87.496 Y40.984 Z0.203
X87.525 Y41.156 Z0.197
X87.539 Y41.33 Z0.191
X87.536 Y41.504 Z0.185
X87.517 Y41.677 Z0.178
X87.483 Y41.848 Z0.172
X87.433 Y42.015 Z0.166
X87.368 Y42.176 Z0.16
X87.289 Y42.331 Z0.154
X87.195 Y42.478 Z0.148
X87.089 Y42.616 Z0.142
X86.97 Y42.744 Z0.136
X86.84 Y42.86 Z0.13
X86.7 Y42.964 Z0.124
X86.552 Y43.054 Z0.118
X86.395 Y43.131 Z0.112
X86.232 Y43.193 Z0.105
X86.064 Y43.239 Z0.099
X85.893 Y43.27 Z0.093
X85.72 Y43.286 Z0.087
X85.545 Y43.285 Z0.081
X85.372 Y43.268 Z0.075
X85.201 Y43.236 Z0.069
X85.033 Y43.188 Z0.063
X84.871 Y43.125 Z0.057
X84.715 Y43.047 Z0.051
X84.567 Y42.956 Z0.045
X84.428 Y42.851 Z0.039
X84.299 Y42.734 Z0.032
X84.181 Y42.605 Z0.026
X84.076 Y42.467 Z0.02
X83.984 Y42.319 Z0.014
X83.905 Y42.163 Z0.008
X83.841 Y42.001 Z0.002
X83.793 Y41.834 Z-0.004
X83.76 Y41.663 Z-0.01
X83.742 Y41.489 Z-0.016
X83.741 Y41.315 Z-0.022
X83.756 Y41.142 Z-0.028
X83.786 Y40.97 Z-0.034
X83.832 Y40.802 Z-0.041
X83.893 Y40.639 Z-0.047
X83.969 Y40.482 Z-0.053
X84.059 Y40.333 Z-0.059
X84.162 Y40.193 Z-0.065
X84.278 Y40.062 Z-0.071
X84.405 Y39.943 Z-0.077
X84.542 Y39.836 Z-0.083
X84.689 Y39.742 Z-0.089
X84.844 Y39.662 Z-0.095
X85.005 Y39.596 Z-0.101
X85.172 Y39.546 Z-0.108
X85.342 Y39.511 Z-0.114
X85.515 Y39.491 Z-0.12
X85.69 Y39.488 Z-0.126
X85.863 Y39.501 Z-0.132
X86.035 Y39.529 Z-0.138
X86.204 Y39.573 Z-0.144
X86.368 Y39.632 Z-0.15
X86.525 Y39.706 Z-0.156
X86.675 Y39.795 Z-0.162
X86.817 Y39.896 Z-0.168
X86.949 Y40.01 Z-0.174
X87.069 Y40.136 Z-0.181
X87.178 Y40.272 Z-0.187
X87.274 Y40.418 Z-0.193
X87.355 Y40.571 Z-0.199
X87.423 Y40.732 Z-0.205
X87.476 Y40.898 Z-0.211
X87.513 Y41.068 Z-0.217
X87.534 Y41.241 Z-0.223
X87.539 Y41.415 Z-0.229
X87.529 Y41.589 Z-0.235
X87.502 Y41.761 Z-0.241
X87.46 Y41.93 Z-0.247
X87.403 Y42.095 Z-0.254
X87.331 Y42.253 Z-0.26
X87.244 Y42.405 Z-0.266
X87.144 Y42.547 Z-0.272
X87.032 Y42.68 Z-0.278
X86.908 Y42.802 Z-0.284
X86.773 Y42.913 Z-0.29
X86.628 Y43.01 Z-0.296
X86.476 Y43.094 Z-0.302
X86.316 Y43.163 Z-0.308
X86.15 Y43.217 Z-0.314
X85.981 Y43.257 Z-0.32
X85.808 Y43.28 Z-0.327
X85.634 Y43.287 Z-0.333
X85.46 Y43.279 Z-0.339
X85.287 Y43.254 Z-0.345
X85.118 Y43.214 Z-0.351
X84.953 Y43.159 Z-0.357
X84.793 Y43.089 Z-0.363
X84.641 Y43.004 Z-0.369
X84.497 Y42.906 Z-0.375
X84.363 Y42.795 Z-0.381
X84.24 Y42.672 Z-0.387
X84.128 Y42.538 Z-0.394
X84.029 Y42.395 Z-0.4
X83.943 Y42.243 Z-0.406
X83.872 Y42.084 Z-0.412
X83.816 Y41.919 Z-0.418
X83.775 Y41.75 Z-0.424
X83.749 Y41.578 Z-0.43
X83.74 Y41.404 Z-0.436
X83.746 Y41.23 Z-0.442
X83.769 Y41.057 Z-0.448
X83.807 Y40.887 Z-0.454
X83.86 Y40.721 Z-0.46
X83.929 Y40.561 Z-0.467
X84.012 Y40.408 Z-0.473
X84.108 Y40.263 Z-0.479
X84.218 Y40.127 Z-0.485
X84.339 Y40.002 Z-0.491
X84.471 Y39.889 Z-0.497
X84.613 Y39.788 Z-0.503
X84.764 Y39.701 Z-0.509
X84.922 Y39.628 Z-0.515
X85.086 Y39.57 Z-0.521
X85.255 Y39.527 Z-0.527
X85.427 Y39.499 Z-0.533
X85.601 Y39.488 Z-0.54
X85.775 Y39.492 Z-0.546
X85.948 Y39.513 Z-0.552
X86.119 Y39.549 Z-0.558
X86.285 Y39.6 Z-0.564
X86.446 Y39.667 Z-0.57
X86.6 Y39.748 Z-0.576
X86.746 Y39.843 Z-0.582
X86.883 Y39.951 Z-0.588
X87.009 Y40.071 Z-0.594
X87.124 Y40.202 Z-0.6
X87.227 Y40.343 Z-0.606
X87.316 Y40.492 Z-0.613
X87.391 Y40.65 Z-0.619
X87.451 Y40.813 Z-0.625
X87.496 Y40.981 Z-0.631
X87.525 Y41.153 Z-0.637
X87.539 Y41.327 Z-0.643
X87.536 Y41.501 Z-0.649
X87.518 Y41.674 Z-0.655
X87.484 Y41.845 Z-0.661
X87.434 Y42.012 Z-0.667
X87.369 Y42.174 Z-0.673
X87.29 Y42.329 Z-0.68
X87.197 Y42.476 Z-0.686
X87.091 Y42.614 Z-0.692
X86.972 Y42.742 Z-0.698
X86.843 Y42.858 Z-0.704
X86.703 Y42.962 Z-0.71
X86.554 Y43.053 Z-0.716
X86.398 Y43.13 Z-0.722
X86.235 Y43.192 Z-0.728
X86.067 Y43.239 Z-0.734
X85.896 Y43.27 Z-0.74
X85.722 Y43.286 Z-0.746
X85.548 Y43.285 Z-0.753
X85.375 Y43.269 Z-0.759
X85.204 Y43.237 Z-0.765
X85.036 Y43.189 Z-0.771
X84.874 Y43.126 Z-0.777
X84.718 Y43.049 Z-0.783
X84.569 Y42.957 Z-0.789
X84.43 Y42.853 Z-0.795
X84.301 Y42.736 Z-0.801
X84.183 Y42.607 Z-0.807
X84.077 Y42.469 Z-0.813
X83.985 Y42.321 Z-0.819
X83.906 Y42.166 Z-0.826
X83.842 Y42.004 Z-0.832
X83.793 Y41.837 Z-0.838
X83.76 Y41.666 Z-0.844
X83.743 Y41.492 Z-0.85
X83.741 Y41.318 Z-0.856
X83.755 Y41.145 Z-0.862
X83.785 Y40.973 Z-0.868
X83.831 Y40.805 Z-0.874
X83.892 Y40.642 Z-0.88
X83.968 Y40.485 Z-0.886
X84.057 Y40.335 Z-0.892
X84.16 Y40.195 Z-0.899
X84.276 Y40.064 Z-0.905
X84.403 Y39.945 Z-0.911
X84.54 Y39.838 Z-0.917
X84.687 Y39.744 Z-0.923
X84.841 Y39.663 Z-0.929
X85.002 Y39.597 Z-0.935
X85.169 Y39.547 Z-0.941
X85.34 Y39.511 Z-0.947
X85.513 Y39.492 Z-0.953
X85.687 Y39.488 Z-0.959
X85.861 Y39.5 Z-0.966
X86.032 Y39.528 Z-0.972
X86.201 Y39.572 Z-0.978
X86.365 Y39.631 Z-0.984
X86.523 Y39.705 Z-0.99
X86.673 Y39.793 Z-0.996
X86.815 Y39.894 Z-1.002
X86.947 Y40.008 Z-1.008
X87.067 Y40.134 Z-1.014
X87.176 Y40.27 Z-1.02
X87.272 Y40.415 Z-1.026
X87.354 Y40.569 Z-1.032
X87.422 Y40.729 Z-1.039
X87.475 Y40.895 Z-1.045
X87.512 Y41.065 Z-1.051
X87.534 Y41.238 Z-1.057
X87.539 Y41.412 Z-1.063
X87.529 Y41.586 Z-1.069
X87.503 Y41.759 Z-1.075
X87.461 Y41.928 Z-1.081
X87.404 Y42.092 Z-1.087
X87.332 Y42.251 Z-1.093
X87.246 Y42.402 Z-1.099
X87.146 Y42.545 Z-1.105
X87.034 Y42.678 Z-1.112
X86.91 Y42.8 Z-1.118
X86.775 Y42.911 Z-1.124
X86.631 Y43.008 Z-1.13
X86.478 Y43.092 Z-1.136
X86.318 Y43.162 Z-1.142
X86.153 Y43.217 Z-1.148
X85.983 Y43.256 Z-1.154
X85.811 Y43.28 Z-1.16
X85.637 Y43.287 Z-1.166
X85.463 Y43.279 Z-1.172
X85.29 Y43.255 Z-1.178
X85.121 Y43.215 Z-1.185
X84.955 Y43.16 Z-1.191
X84.796 Y43.09 Z-1.197
X84.644 Y43.005 Z-1.203
X84.5 Y42.907 Z-1.209
X84.365 Y42.797 Z-1.215
X84.241 Y42.674 Z-1.221
X84.13 Y42.54 Z-1.227
X84.03 Y42.397 Z-1.233
X83.945 Y42.246 Z-1.239
X83.873 Y42.087 Z-1.245
X83.816 Y41.922 Z-1.252
X83.775 Y41.753 Z-1.258
X83.749 Y41.581 Z-1.264
X83.74 Y41.407 Z-1.27
X83.746 Y41.233 Z-1.276
X83.768 Y41.06 Z-1.282
X83.806 Y40.89 Z-1.288
X83.859 Y40.724 Z-1.294
X83.927 Y40.564 Z-1.3
X84.01 Y40.41 Z-1.306
X84.106 Y40.265 Z-1.312
X84.216 Y40.129 Z-1.318
X84.337 Y40.004 Z-1.325
X84.469 Y39.891 Z-1.331
X84.611 Y39.79 Z-1.337
X84.762 Y39.702 Z-1.343
X84.92 Y39.629 Z-1.349
X85.084 Y39.571 Z-1.355
X85.252 Y39.527 Z-1.361
X85.424 Y39.5 Z-1.367
X85.598 Y39.488 Z-1.373
X85.772 Y39.492 Z-1.379
X85.945 Y39.512 Z-1.385
X86.116 Y39.548 Z-1.391
X86.282 Y39.599 Z-1.398
X86.443 Y39.666 Z-1.404
X86.598 Y39.747 Z-1.41
X86.744 Y39.841 Z-1.416
X86.881 Y39.949 Z-1.422
X87.007 Y40.069 Z-1.428
X87.122 Y40.199 Z-1.434
X87.225 Y40.34 Z-1.44
X87.314 Y40.49 Z-1.446
X87.389 Y40.647 Z-1.452
X87.45 Y40.81 Z-1.458
X87.495 Y40.979 Z-1.465
X87.525 Y41.15 Z-1.471
X87.539 Y41.324 Z-1.477
X87.536 Y41.498 Z-1.483
X87.518 Y41.671 Z-1.489
X87.484 Y41.842 Z-1.495
X87.435 Y42.009 Z-1.501
X87.37 Y42.171 Z-1.507
X87.291 Y42.326 Z-1.513
X87.199 Y42.474 Z-1.519
X87.092 Y42.612 Z-1.525
X86.974 Y42.74 Z-1.531
X86.845 Y42.856 Z-1.538
X86.705 Y42.96 Z-1.544
X86.557 Y43.051 Z-1.55
X86.4 Y43.128 Z-1.556
X86.238 Y43.191 Z-1.562
X86.07 Y43.238 Z-1.568
X85.899 Y43.27 Z-1.574
X85.725 Y43.285 Z-1.58
X85.551 Z-1.586
X85.378 Y43.269 Z-1.592
X85.206 Y43.237 Z-1.598
X85.039 Y43.19 Z-1.604
X84.876 Y43.127 Z-1.611
X84.72 Y43.05 Z-1.617
X84.572 Y42.959 Z-1.623
X84.432 Y42.854 Z-1.629
X84.303 Y42.738 Z-1.635
X84.185 Y42.61 Z-1.641
X84.079 Y42.471 Z-1.647
X83.986 Y42.324 Z-1.653
X83.908 Y42.168 Z-1.659
X83.843 Y42.006 Z-1.665
X83.794 Y41.839 Z-1.671
X83.761 Y41.668 Z-1.677
X83.743 Y41.495 Z-1.684
X83.741 Y41.321 Z-1.69
X83.755 Y41.147 Z-1.696
X83.785 Y40.976 Z-1.702
X83.83 Y40.808 Z-1.708
X83.891 Y40.644 Z-1.714
X83.966 Y40.487 Z-1.72
X84.056 Y40.338 Z-1.726
X84.159 Y40.197 Z-1.732
X84.274 Y40.067 Z-1.738
X84.401 Y39.947 Z-1.744
X84.538 Y39.84 Z-1.751
X84.684 Y39.745 Z-1.757
X84.838 Y39.665 Z-1.763
X85. Y39.598 Z-1.769
X85.166 Y39.547 Z-1.775
X85.337 Y39.512 Z-1.781
X85.51 Y39.492 Z-1.787
X85.684 Y39.488 Z-1.793
X85.858 Y39.5 Z-1.799
X86.03 Y39.528 Z-1.805
X86.198 Y39.571 Z-1.811
X86.362 Y39.63 Z-1.817
X86.52 Y39.704 Z-1.824
X86.671 Y39.791 Z-1.83
X86.812 Y39.893 Z-1.836
X86.944 Y40.006 Z-1.842
X87.065 Y40.132 Z-1.848
X87.174 Y40.267 Z-1.854
X87.271 Y40.413 Z-1.86
X87.353 Y40.566 Z-1.866
X87.421 Y40.727 Z-1.872
X87.474 Y40.893 Z-1.878
X87.512 Y41.063 Z-1.884
X87.534 Y41.235 Z-1.89
X87.539 Y41.41 Z-1.897
X87.529 Y41.583 Z-1.903
X87.504 Y41.756 Z-1.909
X87.462 Y41.925 Z-1.915
X87.405 Y42.09 Z-1.921
X87.333 Y42.248 Z-1.927
X87.247 Y42.4 Z-1.933
X87.148 Y42.543 Z-1.939
X87.036 Y42.676 Z-1.945
X86.912 Y42.799 Z-1.951
X86.777 Y42.909 Z-1.957
X86.633 Y43.007 Z-1.963
X86.481 Y43.091 Z-1.97
X86.321 Y43.161 Z-1.976
X86.156 Y43.216 Z-1.982
X85.986 Y43.256 Z-1.988
X85.814 Y43.279 Z-1.994
X85.64 Y43.287 Z-2.
X43.308
G3 X43.073 Y43.052 R0.235
G1 Y42.948
G3 X43.308 Y42.713 R0.235
G1 X85.692
G3 X85.927 Y42.948 R0.235
G1 Y43.052
G3 X85.692 Y43.287 R0.235
G1 X85.64
G2 X83.915 Y44.437 R1.869
G3 X82.19 Y45.587 R1.869
G1 X41.092
G3 X40.773 Y45.268 R0.319
G1 Y40.732
G3 X41.092 Y40.413 R0.319
G1 X87.908
G3 X88.227 Y40.732 R0.319
G1 Y45.268
G3 X87.908 Y45.587 R0.319
G1 X82.19
G2 X80.465 Y46.737 R1.869
G3 X78.74 Y47.887 R1.869
G1 X38.792
G3 X38.473 Y47.568 R0.319
G1 Y38.432
G3 X38.792 Y38.113 R0.319
G1 X90.208
G3 X90.527 Y38.432 R0.319
G1 Y47.568
G3 X90.208 Y47.887 R0.319
G1 X78.74
G2 X77.015 Y49.037 R1.869
G3 X75.29 Y50.187 R1.869
G1 X36.492
G3 X36.173 Y49.868 R0.319
G1 Y36.132
G3 X36.492 Y35.813 R0.319
G1 X92.508
G3 X92.827 Y36.132 R0.319
G1 Y49.868
G3 X92.508 Y50.187 R0.319
G1 X75.29
G2 X73.565 Y51.337 R1.869
G3 X71.84 Y52.487 R1.869
G1 X34.192
G3 X33.873 Y52.168 R0.319
G1 Y33.832
G3 X34.192 Y33.513 R0.319
G1 X94.808
G3 X95.127 Y33.832 R0.319
G1 Y52.168
G3 X94.808 Y52.487 R0.319
G1 X71.84
G2 X70.115 Y53.637 R1.869
G3 X68.39 Y54.787 R1.869
G1 X31.892
G3 X31.573 Y54.468 R0.319
G1 Y31.532
G3 X31.892 Y31.213 R0.319
G1 X97.108
G3 X97.427 Y31.532 R0.319
G1 Y54.468
G3 X97.108 Y54.787 R0.319
G1 X68.39
G2 X66.665 Y55.937 R1.869
G3 X64.94 Y57.087 R1.869
G1 X29.592
G3 X29.273 Y56.768 R0.319
G1 Y29.232
G3 X29.592 Y28.913 R0.319
G1 X99.408
G3 X99.727 Y29.232 R0.319
G1 Y56.768
G3 X99.408 Y57.087 R0.319
G1 X64.94
G2 X63.215 Y58.237 R1.869
G3 X61.49 Y59.387 R1.869
G1 X27.292
G3 X26.973 Y59.068 R0.319
G1 Y26.932
G3 X27.292 Y26.613 R0.319
G1 X101.708
G3 X102.027 Y26.932 R0.319
G1 Y59.068
G3 X101.708 Y59.387 R0.319
G1 X61.49
G2 X59.765 Y60.537 R1.869
G3 X58.04 Y61.687 R1.869
G1 X24.992
G3 X24.673 Y61.368 R0.319
G1 Y24.632
G3 X24.992 Y24.313 R0.319
G1 X104.008
G3 X104.327 Y24.632 R0.319
G1 Y61.368
G3 X104.008 Y61.687 R0.319
G1 X58.04
G2 X56.315 Y62.837 R1.869
G3 X54.59 Y63.987 R1.869
G1 X22.692
G3 X22.373 Y63.668 R0.319
G1 Y22.332
G3 X22.692 Y22.013 R0.319
G1 X106.308
G3 X106.627 Y22.332 R0.319
G1 Y63.668
G3 X106.308 Y63.987 R0.319
G1 X54.59
G2 X52.865 Y65.137 R1.869
G3 X51.14 Y66.287 R1.869
G1 X20.392
G3 X20.073 Y65.968 R0.319
G1 Y20.032
G3 X20.392 Y19.713 R0.319
G1 X108.608
G3 X108.927 Y20.032 R0.319
G1 Y65.968
G3 X108.608 Y66.287 R0.319
G1 X51.14
G2 X49.415 Y67.437 R1.869
G3 X47.69 Y68.587 R1.869
G1 X18.092
G3 X17.773 Y68.268 R0.319
G1 Y17.732
G3 X18.092 Y17.413 R0.319
G1 X110.908
G3 X111.227 Y17.732 R0.319
G1 Y68.268
G3 X110.908 Y68.587 R0.319
G1 X47.69
G2 X45.965 Y69.737 R1.869
G3 X44.24 Y70.887 R1.869
G1 X15.792
G3 X15.473 Y70.568 R0.319
G1 Y15.432
G3 X15.792 Y15.113 R0.319
G1 X113.208
G3 X113.527 Y15.432 R0.319
G1 Y70.568
G3 X113.208 Y70.887 R0.319
G1 X44.24
G2 X42.515 Y72.037 R1.869
G3 X40.79 Y73.187 R1.869
G1 X13.492
G3 X13.173 Y72.868 R0.319
G1 Y13.132
G3 X13.492 Y12.813 R0.319
G1 X115.508
G3 X115.827 Y13.132 R0.319
G1 Y72.868
G3 X115.508 Y73.187 R0.319
G1 X40.79
G2 X39.065 Y74.337 R1.869
G3 X37.34 Y75.487 R1.869
G1 X11.818
G3 X10.873 Y74.542 R0.946
G1 Y11.458
G3 X11.818 Y10.513 R0.946
G1 X117.808
G3 X118.127 Y10.832 R0.319
G1 Y75.168
G3 X117.808 Y75.487 R0.319
G1 X37.34
G2 X35.615 Y76.637 R1.869
G3 X33.89 Y77.787 R1.869
G1 X10.929
G3 X10.05 Y77.423 R1.243
G1 X8.937 Y76.31
G3 X8.573 Y75.431 R1.243
G1 Y10.569
G3 X8.937 Y9.69 R1.243
G1 X10.05 Y8.577
G3 X10.929 Y8.213 R1.243
G1 X120.108
G3 X120.427 Y8.532 R0.319
G1 Y77.468
G3 X120.108 Y77.787 R0.319
G1 X33.89
G2 X32.165 Y78.937 R1.869
G3 X30.44 Y80.087 R1.869
G1 X9.976
G3 X9.097 Y79.723 R1.243
G1 X6.637 Y77.263
G3 X6.273 Y76.384 R1.243
G1 Y9.616
G3 X6.637 Y8.737 R1.243
G1 X9.097 Y6.277
G3 X9.976 Y5.913 R1.243
G1 X122.408
G3 X122.727 Y6.232 R0.319
G1 Y79.768
G3 X122.408 Y80.087 R0.319
G1 X30.44
G2 X28.711 Y81.24 R1.873
G3 X26.982 Y82.392 R1.873
G1 X8.507
X3.968 Y77.853
Y8.147
X8.507 Y3.608
X125.032
Y82.392
X26.982
X26.906 Y82.385 Z-1.985
X26.833 Y82.363 Z-1.97
X26.775 Y82.334 Z-1.926
X26.722 Y82.297 Z-1.883
X26.691 Y82.267 Z-1.818
X26.663 Y82.233 Z-1.753
X26.646 Y82.209 Z-1.6
G0 Z5.
X87.522 Y41.643
G1 Z0.9 F380.
X87.518 Y41.672 Z0.75 F1500.
X87.504 Y41.753 Z0.622
X87.476 Y41.875 Z0.534
X87.432 Y42.017 Z0.5
X87.367 Y42.179 Z0.494
X87.287 Y42.334 Z0.488
X87.194 Y42.481 Z0.482
X87.087 Y42.618 Z0.476
X86.968 Y42.746 Z0.47
X86.838 Y42.862 Z0.463
X86.698 Y42.965 Z0.457
X86.549 Y43.056 Z0.451
X86.392 Y43.132 Z0.445
X86.23 Y43.194 Z0.439
X86.062 Y43.24 Z0.433
X85.89 Y43.271 Z0.427
X85.717 Y43.286 Z0.421
X85.542 Y43.285 Z0.415
X85.369 Y43.268 Z0.409
X85.198 Y43.235 Z0.403
X85.031 Y43.187 Z0.397
X84.868 Y43.124 Z0.39
X84.713 Y43.046 Z0.384
X84.565 Y42.954 Z0.378
X84.426 Y42.849 Z0.372
X84.297 Y42.732 Z0.366
X84.179 Y42.603 Z0.36
X84.074 Y42.464 Z0.354
X83.982 Y42.316 Z0.348
X83.904 Y42.161 Z0.342
X83.841 Y41.998 Z0.336
X83.792 Y41.831 Z0.33
X83.759 Y41.66 Z0.324
X83.742 Y41.487 Z0.317
X83.741 Y41.312 Z0.311
X83.756 Y41.139 Z0.305
X83.787 Y40.967 Z0.299
X83.833 Y40.799 Z0.293
X83.894 Y40.636 Z0.287
X83.97 Y40.48 Z0.281
X84.061 Y40.331 Z0.275
X84.164 Y40.19 Z0.269
X84.28 Y40.06 Z0.263
X84.407 Y39.941 Z0.257
X84.545 Y39.835 Z0.251
X84.692 Y39.741 Z0.244
X84.846 Y39.661 Z0.238
X85.008 Y39.596 Z0.232
X85.175 Y39.545 Z0.226
X85.345 Y39.51 Z0.22
X85.518 Y39.491 Z0.214
X85.693 Y39.488 Z0.208
X85.866 Y39.501 Z0.202
X86.038 Y39.53 Z0.196
X86.207 Y39.574 Z0.19
X86.37 Y39.633 Z0.184
X86.528 Y39.708 Z0.177
X86.678 Y39.796 Z0.171
X86.819 Y39.898 Z0.165
X86.951 Y40.012 Z0.159
X87.071 Y40.138 Z0.153
X87.18 Y40.274 Z0.147
X87.275 Y40.42 Z0.141
X87.357 Y40.574 Z0.135
X87.424 Y40.735 Z0.129
X87.476 Y40.901 Z0.123
X87.513 Y41.071 Z0.117
X87.534 Y41.244 Z0.111
X87.539 Y41.418 Z0.104
X87.529 Y41.592 Z0.098
X87.502 Y41.764 Z0.092
X87.46 Y41.933 Z0.086
X87.402 Y42.098 Z0.08
X87.329 Y42.256 Z0.074
X87.243 Y42.407 Z0.068
X87.143 Y42.55 Z0.062
X87.03 Y42.682 Z0.056
X86.905 Y42.804 Z0.05
X86.77 Y42.914 Z0.044
X86.626 Y43.011 Z0.038
X86.473 Y43.095 Z0.031
X86.313 Y43.164 Z0.025
X86.147 Y43.218 Z0.019
X85.978 Y43.257 Z0.013
X85.805 Y43.28 Z0.007
X85.631 Y43.287 Z0.001
X85.457 Y43.279 Z-0.005
X85.285 Y43.254 Z-0.011
X85.115 Y43.214 Z-0.017
X84.95 Y43.158 Z-0.023
X84.791 Y43.087 Z-0.029
X84.639 Y43.002 Z-0.035
X84.495 Y42.904 Z-0.042
X84.361 Y42.793 Z-0.048
X84.238 Y42.67 Z-0.054
X84.126 Y42.536 Z-0.06
X84.027 Y42.392 Z-0.066
X83.942 Y42.241 Z-0.072
X83.871 Y42.081 Z-0.078
X83.815 Y41.917 Z-0.084
X83.774 Y41.747 Z-0.09
X83.749 Y41.575 Z-0.096
X83.74 Y41.401 Z-0.102
X83.746 Y41.227 Z-0.109
X83.769 Y41.054 Z-0.115
X83.807 Y40.884 Z-0.121
X83.861 Y40.719 Z-0.127
X83.93 Y40.558 Z-0.133
X84.013 Y40.405 Z-0.139
X84.11 Y40.261 Z-0.145
X84.219 Y40.125 Z-0.151
X84.341 Y40. Z-0.157
X84.474 Y39.887 Z-0.163
X84.616 Y39.787 Z-0.169
X84.767 Y39.7 Z-0.175
X84.925 Y39.627 Z-0.182
X85.089 Y39.569 Z-0.188
X85.258 Y39.526 Z-0.194
X85.43 Y39.499 Z-0.2
X85.604 Y39.488 Z-0.206
X85.778 Y39.492 Z-0.212
X85.951 Y39.513 Z-0.218
X86.121 Y39.55 Z-0.224
X86.288 Y39.601 Z-0.23
X86.449 Y39.668 Z-0.236
X86.603 Y39.75 Z-0.242
X86.749 Y39.845 Z-0.248
X86.885 Y39.953 Z-0.255
X87.011 Y40.073 Z-0.261
X87.126 Y40.204 Z-0.267
X87.228 Y40.345 Z-0.273
X87.317 Y40.495 Z-0.279
X87.392 Y40.652 Z-0.285
X87.452 Y40.816 Z-0.291
X87.496 Y40.984 Z-0.297
X87.525 Y41.156 Z-0.303
X87.539 Y41.33 Z-0.309
X87.536 Y41.504 Z-0.315
X87.517 Y41.677 Z-0.322
X87.483 Y41.848 Z-0.328
X87.433 Y42.015 Z-0.334
X87.368 Y42.176 Z-0.34
X87.289 Y42.331 Z-0.346
X87.195 Y42.478 Z-0.352
X87.089 Y42.616 Z-0.358
X86.97 Y42.744 Z-0.364
X86.84 Y42.86 Z-0.37
X86.7 Y42.964 Z-0.376
X86.552 Y43.054 Z-0.382
X86.395 Y43.131 Z-0.388
X86.232 Y43.193 Z-0.395
X86.064 Y43.239 Z-0.401
X85.893 Y43.27 Z-0.407
X85.72 Y43.286 Z-0.413
X85.545 Y43.285 Z-0.419
X85.372 Y43.268 Z-0.425
X85.201 Y43.236 Z-0.431
X85.033 Y43.188 Z-0.437
X84.871 Y43.125 Z-0.443
X84.715 Y43.047 Z-0.449
X84.567 Y42.956 Z-0.455
X84.428 Y42.851 Z-0.461
X84.299 Y42.734 Z-0.468
X84.181 Y42.605 Z-0.474
X84.076 Y42.467 Z-0.48
X83.984 Y42.319 Z-0.486
X83.905 Y42.163 Z-0.492
X83.841 Y42.001 Z-0.498
X83.793 Y41.834 Z-0.504
X83.76 Y41.663 Z-0.51
X83.742 Y41.489 Z-0.516
X83.741 Y41.315 Z-0.522
X83.756 Y41.142 Z-0.528
X83.786 Y40.97 Z-0.534
X83.832 Y40.802 Z-0.541
X83.893 Y40.639 Z-0.547
X83.969 Y40.482 Z-0.553
X84.059 Y40.333 Z-0.559
X84.162 Y40.193 Z-0.565
X84.278 Y40.062 Z-0.571
X84.405 Y39.943 Z-0.577
X84.542 Y39.836 Z-0.583
X84.689 Y39.742 Z-0.589
X84.844 Y39.662 Z-0.595
X85.005 Y39.596 Z-0.601
X85.172 Y39.546 Z-0.608
X85.342 Y39.511 Z-0.614
X85.515 Y39.491 Z-0.62
X85.69 Y39.488 Z-0.626
X85.863 Y39.501 Z-0.632
X86.035 Y39.529 Z-0.638
X86.204 Y39.573 Z-0.644
X86.368 Y39.632 Z-0.65
X86.525 Y39.706 Z-0.656
X86.675 Y39.795 Z-0.662
X86.817 Y39.896 Z-0.668
X86.949 Y40.01 Z-0.674
X87.069 Y40.136 Z-0.681
X87.178 Y40.272 Z-0.687
X87.274 Y40.418 Z-0.693
X87.355 Y40.571 Z-0.699
X87.423 Y40.732 Z-0.705
X87.476 Y40.898 Z-0.711
X87.513 Y41.068 Z-0.717
X87.534 Y41.241 Z-0.723
X87.539 Y41.415 Z-0.729
X87.529 Y41.589 Z-0.735
X87.502 Y41.761 Z-0.741
X87.46 Y41.93 Z-0.747
X87.403 Y42.095 Z-0.754
X87.331 Y42.253 Z-0.76
X87.244 Y42.405 Z-0.766
X87.144 Y42.547 Z-0.772
X87.032 Y42.68 Z-0.778
X86.908 Y42.802 Z-0.784
X86.773 Y42.913 Z-0.79
X86.628 Y43.01 Z-0.796
X86.476 Y43.094 Z-0.802
X86.316 Y43.163 Z-0.808
X86.15 Y43.217 Z-0.814
X85.981 Y43.257 Z-0.82
X85.808 Y43.28 Z-0.827
X85.634 Y43.287 Z-0.833
X85.46 Y43.279 Z-0.839
X85.287 Y43.254 Z-0.845
X85.118 Y43.214 Z-0.851
X84.953 Y43.159 Z-0.857
X84.793 Y43.089 Z-0.863
X84.641 Y43.004 Z-0.869
X84.497 Y42.906 Z-0.875
X84.363 Y42.795 Z-0.881
X84.24 Y42.672 Z-0.887
X84.128 Y42.538 Z-0.894
X84.029 Y42.395 Z-0.9
X83.943 Y42.243 Z-0.906
X83.872 Y42.084 Z-0.912
X83.816 Y41.919 Z-0.918
X83.775 Y41.75 Z-0.924
X83.749 Y41.578 Z-0.93
X83.74 Y41.404 Z-0.936
X83.746 Y41.23 Z-0.942
X83.769 Y41.057 Z-0.948
X83.807 Y40.887 Z-0.954
X83.86 Y40.721 Z-0.96
X83.929 Y40.561 Z-0.967
X84.012 Y40.408 Z-0.973
X84.108 Y40.263 Z-0.979
X84.218 Y40.127 Z-0.985
X84.339 Y40.002 Z-0.991
X84.471 Y39.889 Z-0.997
X84.613 Y39.788 Z-1.003
X84.764 Y39.701 Z-1.009
X84.922 Y39.628 Z-1.015
X85.086 Y39.57 Z-1.021
X85.255 Y39.527 Z-1.027
X85.427 Y39.499 Z-1.033
X85.601 Y39.488 Z-1.04
X85.775 Y39.492 Z-1.046
X85.948 Y39.513 Z-1.052
X86.119 Y39.549 Z-1.058
X86.285 Y39.6 Z-1.064
X86.446 Y39.667 Z-1.07
X86.6 Y39.748 Z-1.076
X86.746 Y39.843 Z-1.082
X86.883 Y39.951 Z-1.088
X87.009 Y40.071 Z-1.094
X87.124 Y40.202 Z-1.1
X87.227 Y40.343 Z-1.106
X87.316 Y40.492 Z-1.113
X87.391 Y40.65 Z-1.119
X87.451 Y40.813 Z-1.125
X87.496 Y40.981 Z-1.131
X87.525 Y41.153 Z-1.137
X87.539 Y41.327 Z-1.143
X87.536 Y41.501 Z-1.149
X87.518 Y41.674 Z-1.155
X87.484 Y41.845 Z-1.161
X87.434 Y42.012 Z-1.167
X87.369 Y42.174 Z-1.173
X87.29 Y42.329 Z-1.18
X87.197 Y42.476 Z-1.186
X87.091 Y42.614 Z-1.192
X86.972 Y42.742 Z-1.198
X86.843 Y42.858 Z-1.204
X86.703 Y42.962 Z-1.21
X86.554 Y43.053 Z-1.216
X86.398 Y43.13 Z-1.222
X86.235 Y43.192 Z-1.228
X86.067 Y43.239 Z-1.234
X85.896 Y43.27 Z-1.24
X85.722 Y43.286 Z-1.246
X85.548 Y43.285 Z-1.253
X85.375 Y43.269 Z-1.259
X85.204 Y43.237 Z-1.265
X85.036 Y43.189 Z-1.271
X84.874 Y43.126 Z-1.277
X84.718 Y43.049 Z-1.283
X84.569 Y42.957 Z-1.289
X84.43 Y42.853 Z-1.295
X84.301 Y42.736 Z-1.301
X84.183 Y42.607 Z-1.307
X84.077 Y42.469 Z-1.313
X83.985 Y42.321 Z-1.319
X83.906 Y42.166 Z-1.326
X83.842 Y42.004 Z-1.332
X83.793 Y41.837 Z-1.338
X83.76 Y41.666 Z-1.344
X83.743 Y41.492 Z-1.35
X83.741 Y41.318 Z-1.356
X83.755 Y41.145 Z-1.362
X83.785 Y40.973 Z-1.368
X83.831 Y40.805 Z-1.374
X83.892 Y40.642 Z-1.38
X83.968 Y40.485 Z-1.386
X84.057 Y40.335 Z-1.392
X84.16 Y40.195 Z-1.399
X84.276 Y40.064 Z-1.405
X84.403 Y39.945 Z-1.411
X84.54 Y39.838 Z-1.417
X84.687 Y39.744 Z-1.423
X84.841 Y39.663 Z-1.429
X85.002 Y39.597 Z-1.435
X85.169 Y39.547 Z-1.441
X85.34 Y39.511 Z-1.447
X85.513 Y39.492 Z-1.453
X85.687 Y39.488 Z-1.459
X85.861 Y39.5 Z-1.466
X86.032 Y39.528 Z-1.472
X86.201 Y39.572 Z-1.478
X86.365 Y39.631 Z-1.484
X86.523 Y39.705 Z-1.49
X86.673 Y39.793 Z-1.496
X86.815 Y39.894 Z-1.502
X86.947 Y40.008 Z-1.508
X87.067 Y40.134 Z-1.514
X87.176 Y40.27 Z-1.52
X87.272 Y40.415 Z-1.526
X87.354 Y40.569 Z-1.532
X87.422 Y40.729 Z-1.539
X87.475 Y40.895 Z-1.545
X87.512 Y41.065 Z-1.551
X87.534 Y41.238 Z-1.557
X87.539 Y41.412 Z-1.563
X87.529 Y41.586 Z-1.569
X87.503 Y41.759 Z-1.575
X87.461 Y41.928 Z-1.581
X87.404 Y42.092 Z-1.587
X87.332 Y42.251 Z-1.593
X87.246 Y42.402 Z-1.599
X87.146 Y42.545 Z-1.605
X87.034 Y42.678 Z-1.612
X86.91 Y42.8 Z-1.618
X86.775 Y42.911 Z-1.624
X86.631 Y43.008 Z-1.63
X86.478 Y43.092 Z-1.636
X86.318 Y43.162 Z-1.642
X86.153 Y43.217 Z-1.648
X85.983 Y43.256 Z-1.654
X85.811 Y43.28 Z-1.66
X85.637 Y43.287 Z-1.666
X85.463 Y43.279 Z-1.672
X85.29 Y43.255 Z-1.678
X85.121 Y43.215 Z-1.685
X84.955 Y43.16 Z-1.691
X84.796 Y43.09 Z-1.697
X84.644 Y43.005 Z-1.703
X84.5 Y42.907 Z-1.709
X84.365 Y42.797 Z-1.715
X84.241 Y42.674 Z-1.721
X84.13 Y42.54 Z-1.727
X84.03 Y42.397 Z-1.733
X83.945 Y42.246 Z-1.739
X83.873 Y42.087 Z-1.745
X83.816 Y41.922 Z-1.752
X83.775 Y41.753 Z-1.758
X83.749 Y41.581 Z-1.764
X83.74 Y41.407 Z-1.77
X83.746 Y41.233 Z-1.776
X83.768 Y41.06 Z-1.782
X83.806 Y40.89 Z-1.788
X83.859 Y40.724 Z-1.794
X83.927 Y40.564 Z-1.8
X84.01 Y40.41 Z-1.806
X84.106 Y40.265 Z-1.812
X84.216 Y40.129 Z-1.818
X84.337 Y40.004 Z-1.825
X84.469 Y39.891 Z-1.831
X84.611 Y39.79 Z-1.837
X84.762 Y39.702 Z-1.843
X84.92 Y39.629 Z-1.849
X85.084 Y39.571 Z-1.855
X85.252 Y39.527 Z-1.861
X85.424 Y39.5 Z-1.867
X85.598 Y39.488 Z-1.873
X85.772 Y39.492 Z-1.879
X85.945 Y39.512 Z-1.885
X86.116 Y39.548 Z-1.891
X86.282 Y39.599 Z-1.898
X86.443 Y39.666 Z-1.904
X86.598 Y39.747 Z-1.91
X86.744 Y39.841 Z-1.916
X86.881 Y39.949 Z-1.922
X87.007 Y40.069 Z-1.928
X87.122 Y40.199 Z-1.934
X87.225 Y40.34 Z-1.94
X87.314 Y40.49 Z-1.946
X87.389 Y40.647 Z-1.952
X87.45 Y40.81 Z-1.958
X87.495 Y40.979 Z-1.965
X87.525 Y41.15 Z-1.971
X87.539 Y41.324 Z-1.977
X87.536 Y41.498 Z-1.983
X87.518 Y41.671 Z-1.989
X87.484 Y41.842 Z-1.995
X87.435 Y42.009 Z-2.001
X87.37 Y42.171 Z-2.007
X87.291 Y42.326 Z-2.013
X87.199 Y42.474 Z-2.019
X87.092 Y42.612 Z-2.025
X86.974 Y42.74 Z-2.031
X86.845 Y42.856 Z-2.038
X86.705 Y42.96 Z-2.044
X86.557 Y43.051 Z-2.05
X86.4 Y43.128 Z-2.056
X86.238 Y43.191 Z-2.062
X86.07 Y43.238 Z-2.068
X85.899 Y43.27 Z-2.074
X85.725 Y43.285 Z-2.08
X85.551 Z-2.086
X85.378 Y43.269 Z-2.092
X85.206 Y43.237 Z-2.098
X85.039 Y43.19 Z-2.104
X84.876 Y43.127 Z-2.111
X84.72 Y43.05 Z-2.117
X84.572 Y42.959 Z-2.123
X84.432 Y42.854 Z-2.129
X84.303 Y42.738 Z-2.135
X84.185 Y42.61 Z-2.141
X84.079 Y42.471 Z-2.147
X83.986 Y42.324 Z-2.153
X83.908 Y42.168 Z-2.159
X83.843 Y42.006 Z-2.165
X83.794 Y41.839 Z-2.171
X83.761 Y41.668 Z-2.177
X83.743 Y41.495 Z-2.184
X83.741 Y41.321 Z-2.19
X83.755 Y41.147 Z-2.196
X83.785 Y40.976 Z-2.202
X83.83 Y40.808 Z-2.208
X83.891 Y40.644 Z-2.214
X83.966 Y40.487 Z-2.22
X84.056 Y40.338 Z-2.226
X84.159 Y40.197 Z-2.232
X84.274 Y40.067 Z-2.238
X84.401 Y39.947 Z-2.244
X84.538 Y39.84 Z-2.251
X84.684 Y39.745 Z-2.257
X84.838 Y39.665 Z-2.263
X85. Y39.598 Z-2.269
X85.166 Y39.547 Z-2.275
X85.337 Y39.512 Z-2.281
X85.51 Y39.492 Z-2.287
X85.684 Y39.488 Z-2.293
X85.858 Y39.5 Z-2.299
X86.03 Y39.528 Z-2.305
X86.198 Y39.571 Z-2.311
X86.362 Y39.63 Z-2.317
X86.52 Y39.704 Z-2.324
X86.671 Y39.791 Z-2.33
X86.812 Y39.893 Z-2.336
X86.944 Y40.006 Z-2.342
X87.065 Y40.132 Z-2.348
X87.174 Y40.267 Z-2.354
X87.271 Y40.413 Z-2.36
X87.353 Y40.566 Z-2.366
X87.421 Y40.727 Z-2.372
X87.474 Y40.893 Z-2.378
X87.512 Y41.063 Z-2.384
X87.534 Y41.235 Z-2.39
X87.539 Y41.41 Z-2.397
X87.529 Y41.583 Z-2.403
X87.504 Y41.756 Z-2.409
X87.462 Y41.925 Z-2.415
X87.405 Y42.09 Z-2.421
X87.333 Y42.248 Z-2.427
X87.247 Y42.4 Z-2.433
X87.148 Y42.543 Z-2.439
X87.036 Y42.676 Z-2.445
X86.912 Y42.799 Z-2.451
X86.777 Y42.909 Z-2.457
X86.633 Y43.007 Z-2.463
X86.481 Y43.091 Z-2.47
X86.321 Y43.161 Z-2.476
X86.156 Y43.216 Z-2.482
X85.986 Y43.256 Z-2.488
X85.814 Y43.279 Z-2.494
X85.64 Y43.287 Z-2.5
X43.308
G3 X43.073 Y43.052 R0.235
G1 Y42.948
G3 X43.308 Y42.713 R0.235
G1 X85.692
G3 X85.927 Y42.948 R0.235
G1 Y43.052
G3 X85.692 Y43.287 R0.235
G1 X85.64
G2 X83.915 Y44.437 R1.869
G3 X82.19 Y45.587 R1.869
G1 X41.092
G3 X40.773 Y45.268 R0.319
G1 Y40.732
G3 X41.092 Y40.413 R0.319
G1 X87.908
G3 X88.227 Y40.732 R0.319
G1 Y45.268
G3 X87.908 Y45.587 R0.319
G1 X82.19
G2 X80.465 Y46.737 R1.869
G3 X78.74 Y47.887 R1.869
G1 X38.792
G3 X38.473 Y47.568 R0.319
G1 Y38.432
G3 X38.792 Y38.113 R0.319
G1 X90.208
G3 X90.527 Y38.432 R0.319
G1 Y47.568
G3 X90.208 Y47.887 R0.319
G1 X78.74
G2 X77.015 Y49.037 R1.869
G3 X75.29 Y50.187 R1.869
G1 X36.492
G3 X36.173 Y49.868 R0.319
G1 Y36.132
G3 X36.492 Y35.813 R0.319
G1 X92.508
G3 X92.827 Y36.132 R0.319
G1 Y49.868
G3 X92.508 Y50.187 R0.319
G1 X75.29
G2 X73.565 Y51.337 R1.869
G3 X71.84 Y52.487 R1.869
G1 X34.192
G3 X33.873 Y52.168 R0.319
G1 Y33.832
G3 X34.192 Y33.513 R0.319
G1 X94.808
G3 X95.127 Y33.832 R0.319
G1 Y52.168
G3 X94.808 Y52.487 R0.319
G1 X71.84
G2 X70.115 Y53.637 R1.869
G3 X68.39 Y54.787 R1.869
G1 X31.892
G3 X31.573 Y54.468 R0.319
G1 Y31.532
G3 X31.892 Y31.213 R0.319
G1 X97.108
G3 X97.427 Y31.532 R0.319
G1 Y54.468
G3 X97.108 Y54.787 R0.319
G1 X68.39
G2 X66.665 Y55.937 R1.869
G3 X64.94 Y57.087 R1.869
G1 X29.592
G3 X29.273 Y56.768 R0.319
G1 Y29.232
G3 X29.592 Y28.913 R0.319
G1 X99.408
G3 X99.727 Y29.232 R0.319
G1 Y56.768
G3 X99.408 Y57.087 R0.319
G1 X64.94
G2 X63.215 Y58.237 R1.869
G3 X61.49 Y59.387 R1.869
G1 X27.292
G3 X26.973 Y59.068 R0.319
G1 Y26.932
G3 X27.292 Y26.613 R0.319
G1 X101.708
G3 X102.027 Y26.932 R0.319
G1 Y59.068
G3 X101.708 Y59.387 R0.319
G1 X61.49
G2 X59.765 Y60.537 R1.869
G3 X58.04 Y61.687 R1.869
G1 X24.992
G3 X24.673 Y61.368 R0.319
G1 Y24.632
G3 X24.992 Y24.313 R0.319
G1 X104.008
G3 X104.327 Y24.632 R0.319
G1 Y61.368
G3 X104.008 Y61.687 R0.319
G1 X58.04
G2 X56.315 Y62.837 R1.869
G3 X54.59 Y63.987 R1.869
G1 X22.692
G3 X22.373 Y63.668 R0.319
G1 Y22.332
G3 X22.692 Y22.013 R0.319
G1 X106.308
G3 X106.627 Y22.332 R0.319
G1 Y63.668
G3 X106.308 Y63.987 R0.319
G1 X54.59
G2 X52.865 Y65.137 R1.869
G3 X51.14 Y66.287 R1.869
G1 X20.392
G3 X20.073 Y65.968 R0.319
G1 Y20.032
G3 X20.392 Y19.713 R0.319
G1 X108.608
G3 X108.927 Y20.032 R0.319
G1 Y65.968
G3 X108.608 Y66.287 R0.319
G1 X51.14
G2 X49.415 Y67.437 R1.869
G3 X47.69 Y68.587 R1.869
G1 X18.092
G3 X17.773 Y68.268 R0.319
G1 Y17.732
G3 X18.092 Y17.413 R0.319
G1 X110.908
G3 X111.227 Y17.732 R0.319
G1 Y68.268
G3 X110.908 Y68.587 R0.319
G1 X47.69
G2 X45.965 Y69.737 R1.869
G3 X44.24 Y70.887 R1.869
G1 X15.792
G3 X15.473 Y70.568 R0.319
G1 Y15.432
G3 X15.792 Y15.113 R0.319
G1 X113.208
G3 X113.527 Y15.432 R0.319
G1 Y70.568
G3 X113.208 Y70.887 R0.319
G1 X44.24
G2 X42.515 Y72.037 R1.869
G3 X40.79 Y73.187 R1.869
G1 X13.492
G3 X13.173 Y72.868 R0.319
G1 Y13.132
G3 X13.492 Y12.813 R0.319
G1 X115.508
G3 X115.827 Y13.132 R0.319
G1 Y72.868
G3 X115.508 Y73.187 R0.319
G1 X40.79
G2 X39.065 Y74.337 R1.869
G3 X37.34 Y75.487 R1.869
G1 X11.818
G3 X10.873 Y74.542 R0.946
G1 Y11.458
G3 X11.818 Y10.513 R0.946
G1 X117.808
G3 X118.127 Y10.832 R0.319
G1 Y75.168
G3 X117.808 Y75.487 R0.319
G1 X37.34
G2 X35.615 Y76.637 R1.869
G3 X33.89 Y77.787 R1.869
G1 X10.929
G3 X10.05 Y77.423 R1.243
G1 X8.937 Y76.31
G3 X8.573 Y75.431 R1.243
G1 Y10.569
G3 X8.937 Y9.69 R1.243
G1 X10.05 Y8.577
G3 X10.929 Y8.213 R1.243
G1 X120.108
G3 X120.427 Y8.532 R0.319
G1 Y77.468
G3 X120.108 Y77.787 R0.319
G1 X33.89
G2 X32.165 Y78.937 R1.869
G3 X30.44 Y80.087 R1.869
G1 X9.976
G3 X9.097 Y79.723 R1.243
G1 X6.637 Y77.263
G3 X6.273 Y76.384 R1.243
G1 Y9.616
G3 X6.637 Y8.737 R1.243
G1 X9.097 Y6.277
G3 X9.976 Y5.913 R1.243
G1 X122.408
G3 X122.727 Y6.232 R0.319
G1 Y79.768
G3 X122.408 Y80.087 R0.319
G1 X30.44
G2 X28.711 Y81.24 R1.873
G3 X26.982 Y82.392 R1.873
G1 X8.507
X3.968 Y77.853
Y8.147
X8.507 Y3.608
X125.032
Y82.392
X26.982
X26.906 Y82.385 Z-2.485
X26.833 Y82.363 Z-2.47
X26.775 Y82.334 Z-2.426
X26.722 Y82.297 Z-2.383
X26.691 Y82.267 Z-2.318
X26.663 Y82.233 Z-2.253
X26.646 Y82.209 Z-2.1
G0 Z5.
X87.522 Y41.643
G1 Z0.4 F380.
X87.518 Y41.672 Z0.25 F1500.
X87.504 Y41.753 Z0.122
X87.476 Y41.875 Z0.034
X87.432 Y42.017 Z0.
X87.367 Y42.179 Z-0.006
X87.287 Y42.334 Z-0.012
X87.194 Y42.481 Z-0.018
X87.087 Y42.618 Z-0.024
X86.968 Y42.746 Z-0.03
X86.838 Y42.862 Z-0.037
X86.698 Y42.965 Z-0.043
X86.549 Y43.056 Z-0.049
X86.392 Y43.132 Z-0.055
X86.23 Y43.194 Z-0.061
X86.062 Y43.24 Z-0.067
X85.89 Y43.271 Z-0.073
X85.717 Y43.286 Z-0.079
X85.542 Y43.285 Z-0.085
X85.369 Y43.268 Z-0.091
X85.198 Y43.235 Z-0.097
X85.031 Y43.187 Z-0.103
X84.868 Y43.124 Z-0.11
X84.713 Y43.046 Z-0.116
X84.565 Y42.954 Z-0.122
X84.426 Y42.849 Z-0.128
X84.297 Y42.732 Z-0.134
X84.179 Y42.603 Z-0.14
X84.074 Y42.464 Z-0.146
X83.982 Y42.316 Z-0.152
X83.904 Y42.161 Z-0.158
X83.841 Y41.998 Z-0.164
X83.792 Y41.831 Z-0.17
X83.759 Y41.66 Z-0.176
X83.742 Y41.487 Z-0.183
X83.741 Y41.312 Z-0.189
X83.756 Y41.139 Z-0.195
X83.787 Y40.967 Z-0.201
X83.833 Y40.799 Z-0.207
X83.894 Y40.636 Z-0.213
X83.97 Y40.48 Z-0.219
X84.061 Y40.331 Z-0.225
X84.164 Y40.19 Z-0.231
X84.28 Y40.06 Z-0.237
X84.407 Y39.941 Z-0.243
X84.545 Y39.835 Z-0.249
X84.692 Y39.741 Z-0.256
X84.846 Y39.661 Z-0.262
X85.008 Y39.596 Z-0.268
X85.175 Y39.545 Z-0.274
X85.345 Y39.51 Z-0.28
X85.518 Y39.491 Z-0.286
X85.693 Y39.488 Z-0.292
X85.866 Y39.501 Z-0.298
X86.038 Y39.53 Z-0.304
X86.207 Y39.574 Z-0.31
X86.37 Y39.633 Z-0.316
X86.528 Y39.708 Z-0.323
X86.678 Y39.796 Z-0.329
X86.819 Y39.898 Z-0.335
X86.951 Y40.012 Z-0.341
X87.071 Y40.138 Z-0.347
X87.18 Y40.274 Z-0.353
X87.275 Y40.42 Z-0.359
X87.357 Y40.574 Z-0.365
X87.424 Y40.735 Z-0.371
X87.476 Y40.901 Z-0.377
X87.513 Y41.071 Z-0.383
X87.534 Y41.244 Z-0.389
X87.539 Y41.418 Z-0.396
X87.529 Y41.592 Z-0.402
X87.502 Y41.764 Z-0.408
X87.46 Y41.933 Z-0.414
X87.402 Y42.098 Z-0.42
X87.329 Y42.256 Z-0.426
X87.243 Y42.407 Z-0.432
X87.143 Y42.55 Z-0.438
X87.03 Y42.682 Z-0.444
X86.905 Y42.804 Z-0.45
X86.77 Y42.914 Z-0.456
X86.626 Y43.011 Z-0.462
X86.473 Y43.095 Z-0.469
X86.313 Y43.164 Z-0.475
X86.147 Y43.218 Z-0.481
X85.978 Y43.257 Z-0.487
X85.805 Y43.28 Z-0.493
X85.631 Y43.287 Z-0.499
X85.457 Y43.279 Z-0.505
X85.285 Y43.254 Z-0.511
X85.115 Y43.214 Z-0.517
X84.95 Y43.158 Z-0.523
X84.791 Y43.087 Z-0.529
X84.639 Y43.002 Z-0.535
X84.495 Y42.904 Z-0.542
X84.361 Y42.793 Z-0.548
X84.238 Y42.67 Z-0.554
X84.126 Y42.536 Z-0.56
X84.027 Y42.392 Z-0.566
X83.942 Y42.241 Z-0.572
X83.871 Y42.081 Z-0.578
X83.815 Y41.917 Z-0.584
X83.774 Y41.747 Z-0.59
X83.749 Y41.575 Z-0.596
X83.74 Y41.401 Z-0.602
X83.746 Y41.227 Z-0.609
X83.769 Y41.054 Z-0.615
X83.807 Y40.884 Z-0.621
X83.861 Y40.719 Z-0.627
X83.93 Y40.558 Z-0.633
X84.013 Y40.405 Z-0.639
X84.11 Y40.261 Z-0.645
X84.219 Y40.125 Z-0.651
X84.341 Y40. Z-0.657
X84.474 Y39.887 Z-0.663
X84.616 Y39.787 Z-0.669
X84.767 Y39.7 Z-0.675
X84.925 Y39.627 Z-0.682
X85.089 Y39.569 Z-0.688
X85.258 Y39.526 Z-0.694
X85.43 Y39.499 Z-0.7
X85.604 Y39.488 Z-0.706
X85.778 Y39.492 Z-0.712
X85.951 Y39.513 Z-0.718
X86.121 Y39.55 Z-0.724
X86.288 Y39.601 Z-0.73
X86.449 Y39.668 Z-0.736
X86.603 Y39.75 Z-0.742
X86.749 Y39.845 Z-0.748
X86.885 Y39.953 Z-0.755
X87.011 Y40.073 Z-0.761
X87.126 Y40.204 Z-0.767
X87.228 Y40.345 Z-0.773
X87.317 Y40.495 Z-0.779
X87.392 Y40.652 Z-0.785
X87.452 Y40.816 Z-0.791
X87.496 Y40.984 Z-0.797
X87.525 Y41.156 Z-0.803
X87.539 Y41.33 Z-0.809
X87.536 Y41.504 Z-0.815
X87.517 Y41.677 Z-0.822
X87.483 Y41.848 Z-0.828
X87.433 Y42.015 Z-0.834
X87.368 Y42.176 Z-0.84
X87.289 Y42.331 Z-0.846
X87.195 Y42.478 Z-0.852
X87.089 Y42.616 Z-0.858
X86.97 Y42.744 Z-0.864
X86.84 Y42.86 Z-0.87
X86.7 Y42.964 Z-0.876
X86.552 Y43.054 Z-0.882
X86.395 Y43.131 Z-0.888
X86.232 Y43.193 Z-0.895
X86.064 Y43.239 Z-0.901
X85.893 Y43.27 Z-0.907
X85.72 Y43.286 Z-0.913
X85.545 Y43.285 Z-0.919
X85.372 Y43.268 Z-0.925
X85.201 Y43.236 Z-0.931
X85.033 Y43.188 Z-0.937
X84.871 Y43.125 Z-0.943
X84.715 Y43.047 Z-0.949
X84.567 Y42.956 Z-0.955
X84.428 Y42.851 Z-0.961
X84.299 Y42.734 Z-0.968
X84.181 Y42.605 Z-0.974
X84.076 Y42.467 Z-0.98
X83.984 Y42.319 Z-0.986
X83.905 Y42.163 Z-0.992
X83.841 Y42.001 Z-0.998
X83.793 Y41.834 Z-1.004
X83.76 Y41.663 Z-1.01
X83.742 Y41.489 Z-1.016
X83.741 Y41.315 Z-1.022
X83.756 Y41.142 Z-1.028
X83.786 Y40.97 Z-1.034
X83.832 Y40.802 Z-1.041
X83.893 Y40.639 Z-1.047
X83.969 Y40.482 Z-1.053
X84.059 Y40.333 Z-1.059
X84.162 Y40.193 Z-1.065
X84.278 Y40.062 Z-1.071
X84.405 Y39.943 Z-1.077
X84.542 Y39.836 Z-1.083
X84.689 Y39.742 Z-1.089
X84.844 Y39.662 Z-1.095
X85.005 Y39.596 Z-1.101
X85.172 Y39.546 Z-1.108
X85.342 Y39.511 Z-1.114
X85.515 Y39.491 Z-1.12
X85.69 Y39.488 Z-1.126
X85.863 Y39.501 Z-1.132
X86.035 Y39.529 Z-1.138
X86.204 Y39.573 Z-1.144
X86.368 Y39.632 Z-1.15
X86.525 Y39.706 Z-1.156
X86.675 Y39.795 Z-1.162
X86.817 Y39.896 Z-1.168
X86.949 Y40.01 Z-1.174
X87.069 Y40.136 Z-1.181
X87.178 Y40.272 Z-1.187
X87.274 Y40.418 Z-1.193
X87.355 Y40.571 Z-1.199
X87.423 Y40.732 Z-1.205
X87.476 Y40.898 Z-1.211
X87.513 Y41.068 Z-1.217
X87.534 Y41.241 Z-1.223
X87.539 Y41.415 Z-1.229
X87.529 Y41.589 Z-1.235
X87.502 Y41.761 Z-1.241
X87.46 Y41.93 Z-1.247
X87.403 Y42.095 Z-1.254
X87.331 Y42.253 Z-1.26
X87.244 Y42.405 Z-1.266
X87.144 Y42.547 Z-1.272
X87.032 Y42.68 Z-1.278
X86.908 Y42.802 Z-1.284
X86.773 Y42.913 Z-1.29
X86.628 Y43.01 Z-1.296
X86.476 Y43.094 Z-1.302
X86.316 Y43.163 Z-1.308
X86.15 Y43.217 Z-1.314
X85.981 Y43.257 Z-1.32
X85.808 Y43.28 Z-1.327
X85.634 Y43.287 Z-1.333
X85.46 Y43.279 Z-1.339
X85.287 Y43.254 Z-1.345
X85.118 Y43.214 Z-1.351
X84.953 Y43.159 Z-1.357
X84.793 Y43.089 Z-1.363
X84.641 Y43.004 Z-1.369
X84.497 Y42.906 Z-1.375
X84.363 Y42.795 Z-1.381
X84.24 Y42.672 Z-1.387
X84.128 Y42.538 Z-1.394
X84.029 Y42.395 Z-1.4
X83.943 Y42.243 Z-1.406
X83.872 Y42.084 Z-1.412
X83.816 Y41.919 Z-1.418
X83.775 Y41.75 Z-1.424
X83.749 Y41.578 Z-1.43
X83.74 Y41.404 Z-1.436
X83.746 Y41.23 Z-1.442
X83.769 Y41.057 Z-1.448
X83.807 Y40.887 Z-1.454
X83.86 Y40.721 Z-1.46
X83.929 Y40.561 Z-1.467
X84.012 Y40.408 Z-1.473
X84.108 Y40.263 Z-1.479
X84.218 Y40.127 Z-1.485
X84.339 Y40.002 Z-1.491
X84.471 Y39.889 Z-1.497
X84.613 Y39.788 Z-1.503
X84.764 Y39.701 Z-1.509
X84.922 Y39.628 Z-1.515
X85.086 Y39.57 Z-1.521
X85.255 Y39.527 Z-1.527
X85.427 Y39.499 Z-1.533
X85.601 Y39.488 Z-1.54
X85.775 Y39.492 Z-1.546
X85.948 Y39.513 Z-1.552
X86.119 Y39.549 Z-1.558
X86.285 Y39.6 Z-1.564
X86.446 Y39.667 Z-1.57
X86.6 Y39.748 Z-1.576
X86.746 Y39.843 Z-1.582
X86.883 Y39.951 Z-1.588
X87.009 Y40.071 Z-1.594
X87.124 Y40.202 Z-1.6
X87.227 Y40.343 Z-1.606
X87.316 Y40.492 Z-1.613
X87.391 Y40.65 Z-1.619
X87.451 Y40.813 Z-1.625
X87.496 Y40.981 Z-1.631
X87.525 Y41.153 Z-1.637
X87.539 Y41.327 Z-1.643
X87.536 Y41.501 Z-1.649
X87.518 Y41.674 Z-1.655
X87.484 Y41.845 Z-1.661
X87.434 Y42.012 Z-1.667
X87.369 Y42.174 Z-1.673
X87.29 Y42.329 Z-1.68
X87.197 Y42.476 Z-1.686
X87.091 Y42.614 Z-1.692
X86.972 Y42.742 Z-1.698
X86.843 Y42.858 Z-1.704
X86.703 Y42.962 Z-1.71
X86.554 Y43.053 Z-1.716
X86.398 Y43.13 Z-1.722
X86.235 Y43.192 Z-1.728
X86.067 Y43.239 Z-1.734
X85.896 Y43.27 Z-1.74
X85.722 Y43.286 Z-1.746
X85.548 Y43.285 Z-1.753
X85.375 Y43.269 Z-1.759
X85.204 Y43.237 Z-1.765
X85.036 Y43.189 Z-1.771
X84.874 Y43.126 Z-1.777
X84.718 Y43.049 Z-1.783
X84.569 Y42.957 Z-1.789
X84.43 Y42.853 Z-1.795
X84.301 Y42.736 Z-1.801
X84.183 Y42.607 Z-1.807
X84.077 Y42.469 Z-1.813
X83.985 Y42.321 Z-1.819
X83.906 Y42.166 Z-1.826
X83.842 Y42.004 Z-1.832
X83.793 Y41.837 Z-1.838
X83.76 Y41.666 Z-1.844
X83.743 Y41.492 Z-1.85
X83.741 Y41.318 Z-1.856
X83.755 Y41.145 Z-1.862
