(NMJPLATE0PT0PT3_TOP_STEP1_4MM_SIDE1)
(T8  D=4. CR=0. - ZMIN=-16. - FLAT END MILL)
G0 G90 G94 G17
G21
G53 G0 Z0.

(FACE2)
M5
T8
M3 S16000
G55
M8
G0 X155. Y0.775
Z15.
Z5.
G1 Z-0.1 F380.
X154.992 Z-0.178 F1500.
X154.97 Z-0.253
X154.933 Z-0.322
X154.883 Z-0.383
X154.822 Z-0.433
X154.753 Z-0.47
X154.678 Z-0.492
X154.6 Z-0.5
X154.41
X-2.01
G2 X-3.384 Y2.149 R1.374
X-2.01 Y3.522 R1.374
G1 X154.41
G3 X155.784 Y4.896 R1.374
X154.41 Y6.269 R1.374
G1 X-2.01
G2 X-3.384 Y7.643 R1.374
X-2.01 Y9.017 R1.374
G1 X154.41
G3 X155.784 Y10.39 R1.374
X154.41 Y11.764 R1.374
G1 X-2.01
G2 X-3.384 Y13.137 R1.374
X-2.01 Y14.511 R1.374
G1 X154.41
G3 X155.784 Y15.884 R1.374
X154.41 Y17.258 R1.374
G1 X-2.01
G2 X-3.384 Y18.632 R1.374
X-2.01 Y20.005 R1.374
G1 X154.41
G3 X155.784 Y21.379 R1.374
X154.41 Y22.752 R1.374
G1 X-2.01
G2 X-3.384 Y24.126 R1.374
X-2.01 Y25.499 R1.374
G1 X154.41
G3 X155.784 Y26.873 R1.374
X154.41 Y28.246 R1.374
G1 X-2.01
G2 X-3.384 Y29.62 R1.374
X-2.01 Y30.994 R1.374
G1 X154.41
G3 X155.784 Y32.367 R1.374
X154.41 Y33.741 R1.374
G1 X-2.01
G2 X-3.384 Y35.114 R1.374
X-2.01 Y36.488 R1.374
G1 X154.41
G3 X155.784 Y37.861 R1.374
X154.41 Y39.235 R1.374
G1 X-2.01
G2 X-3.384 Y40.609 R1.374
X-2.01 Y41.982 R1.374
G1 X154.41
G3 X155.784 Y43.356 R1.374
X154.41 Y44.729 R1.374
G1 X-2.01
G2 X-3.384 Y46.103 R1.374
X-2.01 Y47.476 R1.374
G1 X154.41
G3 X155.784 Y48.85 R1.374
X154.41 Y50.224 R1.374
G1 X-2.01
G2 X-3.384 Y51.597 R1.374
X-2.01 Y52.971 R1.374
G1 X154.41
G3 X155.784 Y54.344 R1.374
X154.41 Y55.718 R1.374
G1 X-2.01
G2 X-3.384 Y57.091 R1.374
X-2.01 Y58.465 R1.374
G1 X154.41
G3 X155.784 Y59.839 R1.374
X154.41 Y61.212 R1.374
G1 X-2.01
G2 X-3.384 Y62.586 R1.374
X-2.01 Y63.959 R1.374
G1 X154.41
G3 X155.784 Y65.333 R1.374
X154.41 Y66.706 R1.374
G1 X-2.01
G2 X-3.384 Y68.08 R1.374
X-2.01 Y69.454 R1.374
G1 X154.41
G3 X155.784 Y70.827 R1.374
X154.41 Y72.201 R1.374
G1 X-2.01
G2 X-3.384 Y73.574 R1.374
X-2.01 Y74.948 R1.374
G1 X154.41
G3 X155.784 Y76.321 R1.374
X154.41 Y77.695 R1.374
G1 X-2.01
G2 X-3.384 Y79.068 R1.374
X-2.01 Y80.442 R1.374
G1 X154.41
G3 X155.784 Y81.816 R1.374
X154.41 Y83.189 R1.374
G1 X-2.01
G2 X-3.384 Y84.563 R1.374
X-2.01 Y85.936 R1.374
G1 X154.41
G3 X155.784 Y87.31 R1.374
X154.41 Y88.683 R1.374
G1 X-2.01
G2 X-3.384 Y90.057 R1.374
X-2.01 Y91.431 R1.374
G1 X154.41
G3 X155.784 Y92.804 R1.374
X154.41 Y94.178 R1.374
G1 X-2.01
G2 X-3.384 Y95.551 R1.374
X-2.01 Y96.925 R1.374
G1 X154.41
G3 X155.784 Y98.298 R1.374
X154.41 Y99.672 R1.374
G1 X-2.01
X-2.088 Z-0.492
X-2.163 Z-0.47
X-2.232 Z-0.433
X-2.293 Z-0.383
X-2.343 Z-0.322
X-2.38 Z-0.253
X-2.402 Z-0.178
X-2.41 Z-0.1
G0 Z5.
X-2.6 Y0.775
G1 Z-0.6 F380.
X-2.592 Z-0.678 F1500.
X-2.57 Z-0.753
X-2.533 Z-0.822
X-2.483 Z-0.883
X-2.422 Z-0.933
X-2.353 Z-0.97
X-2.278 Z-0.992
X-2.2 Z-1.
X-2.01
X154.41
G3 X155.784 Y2.149 R1.374
X154.41 Y3.522 R1.374
G1 X-2.01
G2 X-3.384 Y4.896 R1.374
X-2.01 Y6.269 R1.374
G1 X154.41
G3 X155.784 Y7.643 R1.374
X154.41 Y9.017 R1.374
G1 X-2.01
G2 X-3.384 Y10.39 R1.374
X-2.01 Y11.764 R1.374
G1 X154.41
G3 X155.784 Y13.137 R1.374
X154.41 Y14.511 R1.374
G1 X-2.01
G2 X-3.384 Y15.884 R1.374
X-2.01 Y17.258 R1.374
G1 X154.41
G3 X155.784 Y18.632 R1.374
X154.41 Y20.005 R1.374
G1 X-2.01
G2 X-3.384 Y21.379 R1.374
X-2.01 Y22.752 R1.374
G1 X154.41
G3 X155.784 Y24.126 R1.374
X154.41 Y25.499 R1.374
G1 X-2.01
G2 X-3.384 Y26.873 R1.374
X-2.01 Y28.246 R1.374
G1 X154.41
G3 X155.784 Y29.62 R1.374
X154.41 Y30.994 R1.374
G1 X-2.01
G2 X-3.384 Y32.367 R1.374
X-2.01 Y33.741 R1.374
G1 X154.41
G3 X155.784 Y35.114 R1.374
X154.41 Y36.488 R1.374
G1 X-2.01
G2 X-3.384 Y37.861 R1.374
X-2.01 Y39.235 R1.374
G1 X154.41
G3 X155.784 Y40.609 R1.374
X154.41 Y41.982 R1.374
G1 X-2.01
G2 X-3.384 Y43.356 R1.374
X-2.01 Y44.729 R1.374
G1 X154.41
G3 X155.784 Y46.103 R1.374
X154.41 Y47.476 R1.374
G1 X-2.01
G2 X-3.384 Y48.85 R1.374
X-2.01 Y50.224 R1.374
G1 X154.41
G3 X155.784 Y51.597 R1.374
X154.41 Y52.971 R1.374
G1 X-2.01
G2 X-3.384 Y54.344 R1.374
X-2.01 Y55.718 R1.374
G1 X154.41
G3 X155.784 Y57.091 R1.374
X154.41 Y58.465 R1.374
G1 X-2.01
G2 X-3.384 Y59.839 R1.374
X-2.01 Y61.212 R1.374
G1 X154.41
G3 X155.784 Y62.586 R1.374
X154.41 Y63.959 R1.374
G1 X-2.01
G2 X-3.384 Y65.333 R1.374
X-2.01 Y66.706 R1.374
G1 X154.41
G3 X155.784 Y68.08 R1.374
X154.41 Y69.454 R1.374
G1 X-2.01
G2 X-3.384 Y70.827 R1.374
X-2.01 Y72.201 R1.374
G1 X154.41
G3 X155.784 Y73.574 R1.374
X154.41 Y74.948 R1.374
G1 X-2.01
G2 X-3.384 Y76.321 R1.374
X-2.01 Y77.695 R1.374
G1 X154.41
G3 X155.784 Y79.068 R1.374
X154.41 Y80.442 R1.374
G1 X-2.01
G2 X-3.384 Y81.816 R1.374
X-2.01 Y83.189 R1.374
G1 X154.41
G3 X155.784 Y84.563 R1.374
X154.41 Y85.936 R1.374
G1 X-2.01
G2 X-3.384 Y87.31 R1.374
X-2.01 Y88.683 R1.374
G1 X154.41
G3 X155.784 Y90.057 R1.374
X154.41 Y91.431 R1.374
G1 X-2.01
G2 X-3.384 Y92.804 R1.374
X-2.01 Y94.178 R1.374
G1 X154.41
G3 X155.784 Y95.551 R1.374
X154.41 Y96.925 R1.374
G1 X-2.01
G2 X-3.384 Y98.298 R1.374
X-2.01 Y99.672 R1.374
G1 X154.41
X154.488 Z-0.992
X154.563 Z-0.97
X154.632 Z-0.933
X154.693 Z-0.883
X154.743 Z-0.822
X154.78 Z-0.753
X154.802 Z-0.678
X154.81 Z-0.6
G0 Z5.
X155. Y0.775
G1 Z-1.1 F380.
X154.992 Z-1.178 F1500.
X154.97 Z-1.253
X154.933 Z-1.322
X154.883 Z-1.383
X154.822 Z-1.433
X154.753 Z-1.47
X154.678 Z-1.492
X154.6 Z-1.5
X154.41
X-2.01
G2 X-3.384 Y2.149 R1.374
X-2.01 Y3.522 R1.374
G1 X154.41
G3 X155.784 Y4.896 R1.374
X154.41 Y6.269 R1.374
G1 X-2.01
G2 X-3.384 Y7.643 R1.374
X-2.01 Y9.017 R1.374
G1 X154.41
G3 X155.784 Y10.39 R1.374
X154.41 Y11.764 R1.374
G1 X-2.01
G2 X-3.384 Y13.137 R1.374
X-2.01 Y14.511 R1.374
G1 X154.41
G3 X155.784 Y15.884 R1.374
X154.41 Y17.258 R1.374
G1 X-2.01
G2 X-3.384 Y18.632 R1.374
X-2.01 Y20.005 R1.374
G1 X154.41
G3 X155.784 Y21.379 R1.374
X154.41 Y22.752 R1.374
G1 X-2.01
G2 X-3.384 Y24.126 R1.374
X-2.01 Y25.499 R1.374
G1 X154.41
G3 X155.784 Y26.873 R1.374
X154.41 Y28.246 R1.374
G1 X-2.01
G2 X-3.384 Y29.62 R1.374
X-2.01 Y30.994 R1.374
G1 X154.41
G3 X155.784 Y32.367 R1.374
X154.41 Y33.741 R1.374
G1 X-2.01
G2 X-3.384 Y35.114 R1.374
X-2.01 Y36.488 R1.374
G1 X154.41
G3 X155.784 Y37.861 R1.374
X154.41 Y39.235 R1.374
G1 X-2.01
G2 X-3.384 Y40.609 R1.374
X-2.01 Y41.982 R1.374
G1 X154.41
G3 X155.784 Y43.356 R1.374
X154.41 Y44.729 R1.374
G1 X-2.01
G2 X-3.384 Y46.103 R1.374
X-2.01 Y47.476 R1.374
G1 X154.41
G3 X155.784 Y48.85 R1.374
X154.41 Y50.224 R1.374
G1 X-2.01
G2 X-3.384 Y51.597 R1.374
X-2.01 Y52.971 R1.374
G1 X154.41
G3 X155.784 Y54.344 R1.374
X154.41 Y55.718 R1.374
G1 X-2.01
G2 X-3.384 Y57.091 R1.374
X-2.01 Y58.465 R1.374
G1 X154.41
G3 X155.784 Y59.839 R1.374
X154.41 Y61.212 R1.374
G1 X-2.01
G2 X-3.384 Y62.586 R1.374
X-2.01 Y63.959 R1.374
G1 X154.41
G3 X155.784 Y65.333 R1.374
X154.41 Y66.706 R1.374
G1 X-2.01
G2 X-3.384 Y68.08 R1.374
X-2.01 Y69.454 R1.374
G1 X154.41
G3 X155.784 Y70.827 R1.374
X154.41 Y72.201 R1.374
G1 X-2.01
G2 X-3.384 Y73.574 R1.374
X-2.01 Y74.948 R1.374
G1 X154.41
G3 X155.784 Y76.321 R1.374
X154.41 Y77.695 R1.374
G1 X-2.01
G2 X-3.384 Y79.068 R1.374
X-2.01 Y80.442 R1.374
G1 X154.41
G3 X155.784 Y81.816 R1.374
X154.41 Y83.189 R1.374
G1 X-2.01
G2 X-3.384 Y84.563 R1.374
X-2.01 Y85.936 R1.374
G1 X154.41
G3 X155.784 Y87.31 R1.374
X154.41 Y88.683 R1.374
G1 X-2.01
G2 X-3.384 Y90.057 R1.374
X-2.01 Y91.431 R1.374
G1 X154.41
G3 X155.784 Y92.804 R1.374
X154.41 Y94.178 R1.374
G1 X-2.01
G2 X-3.384 Y95.551 R1.374
X-2.01 Y96.925 R1.374
G1 X154.41
G3 X155.784 Y98.298 R1.374
X154.41 Y99.672 R1.374
G1 X-2.01
X-2.088 Z-1.492
X-2.163 Z-1.47
X-2.232 Z-1.433
X-2.293 Z-1.383
X-2.343 Z-1.322
X-2.38 Z-1.253
X-2.402 Z-1.178
X-2.41 Z-1.1
G0 Z5.
X-2.6 Y0.775
G1 Z-1.6 F380.
X-2.592 Z-1.678 F1500.
X-2.57 Z-1.753
X-2.533 Z-1.822
X-2.483 Z-1.883
X-2.422 Z-1.933
X-2.353 Z-1.97
X-2.278 Z-1.992
X-2.2 Z-2.
X-2.01
X154.41
G3 X155.784 Y2.149 R1.374
X154.41 Y3.522 R1.374
G1 X-2.01
G2 X-3.384 Y4.896 R1.374
X-2.01 Y6.269 R1.374
G1 X154.41
G3 X155.784 Y7.643 R1.374
X154.41 Y9.017 R1.374
G1 X-2.01
G2 X-3.384 Y10.39 R1.374
X-2.01 Y11.764 R1.374
G1 X154.41
G3 X155.784 Y13.137 R1.374
X154.41 Y14.511 R1.374
G1 X-2.01
G2 X-3.384 Y15.884 R1.374
X-2.01 Y17.258 R1.374
G1 X154.41
G3 X155.784 Y18.632 R1.374
X154.41 Y20.005 R1.374
G1 X-2.01
G2 X-3.384 Y21.379 R1.374
X-2.01 Y22.752 R1.374
G1 X154.41
G3 X155.784 Y24.126 R1.374
X154.41 Y25.499 R1.374
G1 X-2.01
G2 X-3.384 Y26.873 R1.374
X-2.01 Y28.246 R1.374
G1 X154.41
G3 X155.784 Y29.62 R1.374
X154.41 Y30.994 R1.374
G1 X-2.01
G2 X-3.384 Y32.367 R1.374
X-2.01 Y33.741 R1.374
G1 X154.41
G3 X155.784 Y35.114 R1.374
X154.41 Y36.488 R1.374
G1 X-2.01
G2 X-3.384 Y37.861 R1.374
X-2.01 Y39.235 R1.374
G1 X154.41
G3 X155.784 Y40.609 R1.374
X154.41 Y41.982 R1.374
G1 X-2.01
G2 X-3.384 Y43.356 R1.374
X-2.01 Y44.729 R1.374
G1 X154.41
G3 X155.784 Y46.103 R1.374
X154.41 Y47.476 R1.374
G1 X-2.01
G2 X-3.384 Y48.85 R1.374
X-2.01 Y50.224 R1.374
G1 X154.41
G3 X155.784 Y51.597 R1.374
X154.41 Y52.971 R1.374
G1 X-2.01
G2 X-3.384 Y54.344 R1.374
X-2.01 Y55.718 R1.374
G1 X154.41
G3 X155.784 Y57.091 R1.374
X154.41 Y58.465 R1.374
G1 X-2.01
G2 X-3.384 Y59.839 R1.374
X-2.01 Y61.212 R1.374
G1 X154.41
G3 X155.784 Y62.586 R1.374
X154.41 Y63.959 R1.374
G1 X-2.01
G2 X-3.384 Y65.333 R1.374
X-2.01 Y66.706 R1.374
G1 X154.41
G3 X155.784 Y68.08 R1.374
X154.41 Y69.454 R1.374
G1 X-2.01
G2 X-3.384 Y70.827 R1.374
X-2.01 Y72.201 R1.374
G1 X154.41
G3 X155.784 Y73.574 R1.374
X154.41 Y74.948 R1.374
G1 X-2.01
G2 X-3.384 Y76.321 R1.374
X-2.01 Y77.695 R1.374
G1 X154.41
G3 X155.784 Y79.068 R1.374
X154.41 Y80.442 R1.374
G1 X-2.01
G2 X-3.384 Y81.816 R1.374
X-2.01 Y83.189 R1.374
G1 X154.41
G3 X155.784 Y84.563 R1.374
X154.41 Y85.936 R1.374
G1 X-2.01
G2 X-3.384 Y87.31 R1.374
X-2.01 Y88.683 R1.374
G1 X154.41
G3 X155.784 Y90.057 R1.374
X154.41 Y91.431 R1.374
G1 X-2.01
G2 X-3.384 Y92.804 R1.374
X-2.01 Y94.178 R1.374
G1 X154.41
G3 X155.784 Y95.551 R1.374
X154.41 Y96.925 R1.374
G1 X-2.01
G2 X-3.384 Y98.298 R1.374
X-2.01 Y99.672 R1.374
G1 X154.41
X154.488 Z-1.992
X154.563 Z-1.97
X154.632 Z-1.933
X154.693 Z-1.883
X154.743 Z-1.822
X154.78 Z-1.753
X154.802 Z-1.678
X154.81 Z-1.6
G0 Z5.
X155. Y0.775
G1 Z-2.1 F380.
X154.992 Z-2.178 F1500.
X154.97 Z-2.253
X154.933 Z-2.322
X154.883 Z-2.383
X154.822 Z-2.433
X154.753 Z-2.47
X154.678 Z-2.492
X154.6 Z-2.5
X154.41
X-2.01
G2 X-3.384 Y2.149 R1.374
X-2.01 Y3.522 R1.374
G1 X154.41
G3 X155.784 Y4.896 R1.374
X154.41 Y6.269 R1.374
G1 X-2.01
G2 X-3.384 Y7.643 R1.374
X-2.01 Y9.017 R1.374
G1 X154.41
G3 X155.784 Y10.39 R1.374
X154.41 Y11.764 R1.374
G1 X-2.01
G2 X-3.384 Y13.137 R1.374
X-2.01 Y14.511 R1.374
G1 X154.41
G3 X155.784 Y15.884 R1.374
X154.41 Y17.258 R1.374
G1 X-2.01
G2 X-3.384 Y18.632 R1.374
X-2.01 Y20.005 R1.374
G1 X154.41
G3 X155.784 Y21.379 R1.374
X154.41 Y22.752 R1.374
G1 X-2.01
G2 X-3.384 Y24.126 R1.374
X-2.01 Y25.499 R1.374
G1 X154.41
G3 X155.784 Y26.873 R1.374
X154.41 Y28.246 R1.374
G1 X-2.01
G2 X-3.384 Y29.62 R1.374
X-2.01 Y30.994 R1.374
G1 X154.41
G3 X155.784 Y32.367 R1.374
X154.41 Y33.741 R1.374
G1 X-2.01
G2 X-3.384 Y35.114 R1.374
X-2.01 Y36.488 R1.374
G1 X154.41
G3 X155.784 Y37.861 R1.374
X154.41 Y39.235 R1.374
G1 X-2.01
G2 X-3.384 Y40.609 R1.374
X-2.01 Y41.982 R1.374
G1 X154.41
G3 X155.784 Y43.356 R1.374
X154.41 Y44.729 R1.374
G1 X-2.01
G2 X-3.384 Y46.103 R1.374
X-2.01 Y47.476 R1.374
G1 X154.41
G3 X155.784 Y48.85 R1.374
X154.41 Y50.224 R1.374
G1 X-2.01
G2 X-3.384 Y51.597 R1.374
X-2.01 Y52.971 R1.374
G1 X154.41
G3 X155.784 Y54.344 R1.374
X154.41 Y55.718 R1.374
G1 X-2.01
G2 X-3.384 Y57.091 R1.374
X-2.01 Y58.465 R1.374
G1 X154.41
G3 X155.784 Y59.839 R1.374
X154.41 Y61.212 R1.374
G1 X-2.01
G2 X-3.384 Y62.586 R1.374
X-2.01 Y63.959 R1.374
G1 X154.41
G3 X155.784 Y65.333 R1.374
X154.41 Y66.706 R1.374
G1 X-2.01
G2 X-3.384 Y68.08 R1.374
X-2.01 Y69.454 R1.374
G1 X154.41
G3 X155.784 Y70.827 R1.374
X154.41 Y72.201 R1.374
G1 X-2.01
G2 X-3.384 Y73.574 R1.374
X-2.01 Y74.948 R1.374
G1 X154.41
G3 X155.784 Y76.321 R1.374
X154.41 Y77.695 R1.374
G1 X-2.01
G2 X-3.384 Y79.068 R1.374
X-2.01 Y80.442 R1.374
G1 X154.41
G3 X155.784 Y81.816 R1.374
X154.41 Y83.189 R1.374
G1 X-2.01
G2 X-3.384 Y84.563 R1.374
X-2.01 Y85.936 R1.374
G1 X154.41
G3 X155.784 Y87.31 R1.374
X154.41 Y88.683 R1.374
G1 X-2.01
G2 X-3.384 Y90.057 R1.374
X-2.01 Y91.431 R1.374
G1 X154.41
G3 X155.784 Y92.804 R1.374
X154.41 Y94.178 R1.374
G1 X-2.01
G2 X-3.384 Y95.551 R1.374
X-2.01 Y96.925 R1.374
G1 X154.41
G3 X155.784 Y98.298 R1.374
X154.41 Y99.672 R1.374
G1 X-2.01
X-2.088 Z-2.492
X-2.163 Z-2.47
X-2.232 Z-2.433
X-2.293 Z-2.383
X-2.343 Z-2.322
X-2.38 Z-2.253
X-2.402 Z-2.178
X-2.41 Z-2.1
G0 Z15.

(POCKET2)
G55
G0 X17.096 Y7.162
Z15.
Z-0.992
G1 Z-1.567 F380.
X17.093 Y7.143 Z-1.688 F1500.
X17.089 Y7.089 Z-1.797
X17.085 Y7.004 Z-1.885
X17.09 Y6.897 Z-1.944
X17.105 Y6.777 Z-1.967
X17.137 Y6.638 Z-1.972
X17.185 Y6.503 Z-1.977
X17.247 Y6.374 Z-1.982
X17.323 Y6.252 Z-1.987
X17.412 Y6.14 Z-1.992
X17.513 Y6.038 Z-1.997
X17.625 Y5.948 Z-2.002
X17.745 Y5.871 Z-2.007
X17.874 Y5.808 Z-2.012
X18.009 Y5.759 Z-2.017
X18.148 Y5.726 Z-2.022
X18.29 Y5.708 Z-2.027
X18.433 Y5.706 Z-2.032
X18.576 Y5.719 Z-2.037
X18.716 Y5.749 Z-2.042
X18.853 Y5.793 Z-2.047
X18.983 Y5.853 Z-2.052
X19.106 Y5.926 Z-2.057
X19.22 Y6.013 Z-2.062
X19.324 Y6.112 Z-2.067
X19.416 Y6.221 Z-2.072
X19.496 Y6.341 Z-2.077
X19.562 Y6.468 Z-2.082
X19.613 Y6.601 Z-2.087
X19.65 Y6.74 Z-2.092
X19.671 Y6.882 Z-2.097
X19.676 Y7.025 Z-2.102
X19.665 Y7.168 Z-2.107
X19.639 Y7.309 Z-2.112
X19.597 Y7.446 Z-2.117
X19.54 Y7.577 Z-2.122
X19.47 Y7.702 Z-2.127
X19.385 Y7.818 Z-2.132
X19.289 Y7.924 Z-2.137
X19.181 Y8.018 Z-2.142
X19.064 Y8.101 Z-2.147
X18.938 Y8.169 Z-2.152
X18.805 Y8.224 Z-2.157
X18.668 Y8.263 Z-2.162
X18.526 Y8.287 Z-2.167
X18.383 Y8.295 Z-2.172
X18.24 Y8.288 Z-2.177
X18.099 Y8.264 Z-2.182
X17.961 Y8.225 Z-2.187
X17.828 Y8.171 Z-2.192
X17.702 Y8.103 Z-2.197
X17.584 Y8.022 Z-2.202
X17.476 Y7.927 Z-2.207
X17.38 Y7.822 Z-2.212
X17.295 Y7.706 Z-2.217
X17.224 Y7.582 Z-2.222
X17.166 Y7.45 Z-2.227
X17.124 Y7.314 Z-2.232
X17.097 Y7.173 Z-2.237
X17.086 Y7.03 Z-2.242
X17.09 Y6.887 Z-2.247
X17.111 Y6.745 Z-2.252
X17.147 Y6.606 Z-2.257
X17.198 Y6.472 Z-2.262
X17.263 Y6.345 Z-2.267
X17.343 Y6.225 Z-2.272
X17.434 Y6.115 Z-2.277
X17.538 Y6.016 Z-2.282
X17.652 Y5.929 Z-2.287
X17.774 Y5.855 Z-2.292
X17.905 Y5.795 Z-2.297
X18.041 Y5.75 Z-2.302
X18.181 Y5.72 Z-2.307
X18.323 Y5.706 Z-2.312
X18.467 Y5.707 Z-2.317
X18.609 Y5.725 Z-2.322
X18.748 Y5.758 Z-2.327
X18.883 Y5.806 Z-2.332
X19.012 Y5.869 Z-2.337
X19.133 Y5.945 Z-2.342
X19.245 Y6.035 Z-2.347
X19.346 Y6.136 Z-2.352
X19.436 Y6.248 Z-2.357
X19.512 Y6.369 Z-2.362
X19.575 Y6.498 Z-2.367
X19.623 Y6.633 Z-2.372
X19.656 Y6.773 Z-2.377
X19.673 Y6.915 Z-2.382
X19.675 Y7.058 Z-2.387
X19.661 Y7.201 Z-2.392
X19.631 Y7.341 Z-2.397
X19.585 Y7.477 Z-2.402
X19.525 Y7.607 Z-2.407
X19.451 Y7.73 Z-2.412
X19.364 Y7.843 Z-2.417
X19.265 Y7.947 Z-2.422
X19.155 Y8.039 Z-2.427
X19.035 Y8.118 Z-2.432
X18.908 Y8.183 Z-2.437
X18.774 Y8.234 Z-2.442
X18.635 Y8.27 Z-2.447
X18.493 Y8.29 Z-2.452
X18.35 Y8.295 Z-2.457
X18.207 Y8.284 Z-2.462
X18.067 Y8.257 Z-2.467
X17.93 Y8.214 Z-2.472
X17.798 Y8.157 Z-2.477
X17.674 Y8.086 Z-2.482
X17.559 Y8.001 Z-2.487
X17.453 Y7.904 Z-2.492
X17.359 Y7.796 Z-2.497
X17.277 Y7.678 Z-2.502
X17.209 Y7.552 Z-2.507
X17.155 Y7.419 Z-2.512
X17.116 Y7.281 Z-2.517
X17.093 Y7.14 Z-2.522
X17.085 Y6.997 Z-2.527
X17.094 Y6.854 Z-2.532
X17.118 Y6.712 Z-2.537
X17.157 Y6.575 Z-2.542
X17.212 Y6.442 Z-2.547
X17.28 Y6.316 Z-2.552
X17.363 Y6.199 Z-2.557
X17.457 Y6.091 Z-2.562
X17.563 Y5.995 Z-2.567
X17.679 Y5.911 Z-2.572
X17.804 Y5.84 Z-2.577
X17.936 Y5.783 Z-2.582
X18.073 Y5.742 Z-2.587
X18.213 Y5.715 Z-2.592
X18.356 Y5.705 Z-2.597
X18.5 Y5.71 Z-2.602
X18.641 Y5.731 Z-2.607
X18.78 Y5.767 Z-2.612
X18.914 Y5.819 Z-2.617
X19.041 Y5.885 Z-2.622
X19.16 Y5.965 Z-2.627
X19.269 Y6.057 Z-2.632
X19.368 Y6.161 Z-2.638
X19.455 Y6.275 Z-2.643
X19.528 Y6.398 Z-2.648
X19.588 Y6.529 Z-2.653
X19.632 Y6.665 Z-2.658
X19.662 Y6.805 Z-2.663
X19.675 Y6.948 Z-2.668
X19.673 Y7.091 Z-2.673
X19.655 Y7.233 Z-2.678
X19.621 Y7.373 Z-2.683
X19.573 Y7.507 Z-2.688
X19.509 Y7.636 Z-2.693
X19.432 Y7.757 Z-2.698
X19.342 Y7.868 Z-2.703
X19.24 Y7.969 Z-2.708
X19.128 Y8.058 Z-2.713
X19.007 Y8.134 Z-2.718
X18.878 Y8.196 Z-2.723
X18.742 Y8.244 Z-2.728
X18.603 Y8.276 Z-2.733
X18.46 Y8.293 Z-2.738
X18.317 Y8.294 Z-2.743
X18.175 Y8.279 Z-2.748
X18.035 Y8.248 Z-2.753
X17.899 Y8.202 Z-2.758
X17.769 Y8.142 Z-2.763
X17.647 Y8.067 Z-2.768
X17.533 Y7.979 Z-2.773
X17.43 Y7.88 Z-2.778
X17.339 Y7.769 Z-2.783
X17.26 Y7.65 Z-2.788
X17.195 Y7.522 Z-2.793
X17.145 Y7.388 Z-2.798
X17.11 Y7.249 Z-2.803
X17.09 Y7.107 Z-2.808
X17.086 Y6.964 Z-2.813
X17.098 Y6.821 Z-2.818
X17.126 Y6.68 Z-2.823
X17.168 Y6.544 Z-2.828
X17.226 Y6.412 Z-2.833
X17.298 Y6.288 Z-2.838
X17.383 Y6.173 Z-2.843
X17.481 Y6.068 Z-2.848
X17.589 Y5.974 Z-2.853
X17.707 Y5.893 Z-2.858
X17.834 Y5.826 Z-2.863
X17.967 Y5.772 Z-2.868
X18.105 Y5.734 Z-2.873
X18.246 Y5.711 Z-2.878
X18.39 Y5.705 Z-2.883
X18.533 Y5.713 Z-2.888
X18.674 Y5.738 Z-2.893
X18.811 Y5.778 Z-2.898
X18.944 Y5.833 Z-2.903
X19.069 Y5.902 Z-2.908
X19.186 Y5.985 Z-2.913
X19.293 Y6.08 Z-2.918
X19.389 Y6.187 Z-2.923
X19.473 Y6.303 Z-2.928
X19.543 Y6.428 Z-2.933
X19.599 Y6.56 Z-2.938
X19.64 Y6.697 Z-2.943
X19.666 Y6.838 Z-2.948
X19.676 Y6.981 Z-2.953
X19.67 Y7.124 Z-2.958
X19.649 Y7.266 Z-2.963
X19.612 Y7.404 Z-2.968
X19.559 Y7.538 Z-2.973
X19.493 Y7.665 Z-2.978
X19.412 Y7.783 Z-2.983
X19.32 Y7.892 Z-2.988
X19.215 Y7.991 Z-2.993
X19.101 Y8.077 Z-2.998
X18.977 Y8.15 Z-3.003
X18.847 Y8.209 Z-3.008
X18.767 Y8.244
X18.69 Y8.285
X18.531 Y8.381
X18.474 Y8.418
X18.42 Y8.459
X18.352 Y8.513
X18.273 Y8.585
X12.857 Y13.999
X12.812 Y14.047
X12.77 Y14.098
X12.665 Y14.235
X12.618 Y14.302
X12.577 Y14.373
X12.504 Y14.509
X12.466 Y14.588
X12.436 Y14.669
X12.376 Y14.851
X12.352 Y14.939
X12.336 Y15.028
X12.312 Y15.199
X12.306 Y15.266
X12.303 Y15.333
Y86.267
X12.306 Y86.334
X12.312 Y86.401
X12.336 Y86.572
X12.352 Y86.661
X12.376 Y86.749
X12.436 Y86.931
X12.466 Y87.012
X12.504 Y87.091
X12.577 Y87.227
X12.618 Y87.298
X12.665 Y87.365
X12.771 Y87.502
X12.812 Y87.553
X12.857 Y87.601
X18.273 Y93.015
X18.327 Y93.065
X18.384 Y93.111
X18.519 Y93.211
X18.585 Y93.256
X18.656 Y93.296
X18.793 Y93.368
X18.872 Y93.404
X18.954 Y93.434
X19.138 Y93.491
X19.226 Y93.514
X19.317 Y93.529
X19.488 Y93.55
X19.608 Y93.557
X137.121
X137.188 Y93.555
X137.255 Y93.548
X137.443 Y93.523
X137.509 Y93.512
X137.574 Y93.496
X138.201 Y93.324
X138.279 Y93.299
X138.355 Y93.268
X138.481 Y93.21
X138.542 Y93.18
X138.6 Y93.145
X138.726 Y93.065
X138.785 Y93.024
X138.84 Y92.98
X138.966 Y92.872
X139.023 Y92.818
X139.415 Y92.423
X139.462 Y92.372
X139.506 Y92.318
X139.6 Y92.192
X139.637 Y92.139
X139.671 Y92.083
X139.742 Y91.957
X139.781 Y91.878
X139.814 Y91.796
X139.885 Y91.591
X139.909 Y91.513
X140.05 Y90.966
X140.068 Y90.883
X140.079 Y90.799
X140.094 Y90.611
X140.098 Y90.528
X140.096 Y11.009
X140.094 Y10.938
X140.086 Y10.868
X140.06 Y10.68
X140.048 Y10.617
X140.033 Y10.555
X139.86 Y9.928
X139.834 Y9.847
X139.801 Y9.768
X139.742 Y9.643
X139.711 Y9.583
X139.676 Y9.525
X139.594 Y9.399
X139.553 Y9.34
X139.507 Y9.284
X139.398 Y9.159
X139.349 Y9.108
X138.954 Y8.717
X138.9 Y8.667
X138.843 Y8.622
X138.717 Y8.53
X138.663 Y8.493
X138.606 Y8.459
X138.481 Y8.39
X138.415 Y8.357
X138.347 Y8.329
X138.204 Y8.276
X138.107 Y8.246
X137.497 Y8.088
X137.41 Y8.07
X137.321 Y8.059
X137.133 Y8.045
X137.059 Y8.042
X19.545 Y8.047
X19.458 Y8.051
X19.371 Y8.062
X19.216 Y8.089
X19.13 Y8.109
X19.046 Y8.135
X18.862 Y8.203
X18.847 Y8.209
G3 X18.608 Y8.132 R0.2
G1 X17.433 Y6.342
G3 X17.458 Y6.09 R0.2
G1 X17.844 Y5.704
X136.94 Y5.708
X138.214 Y5.851
X139.382 Y6.261
X140.394 Y6.898
X141.238 Y7.743
X141.878 Y8.757
X142.014 Y9.133
X142.288 Y9.916
X142.436 Y11.253
X142.431 Y90.409
X142.288 Y91.683
X141.888 Y92.826
X141.238 Y93.857
X140.394 Y94.702
X139.382 Y95.339
X138.216 Y95.748
X136.878 Y95.896
X19.608
X17.844
X9.964 Y88.016
Y13.584
X10.151 Y13.398
X17.458 Y6.09
X17.492 Y6.065
X17.532 Y6.051
X17.574 Y6.05
X17.615 Y6.061
X17.651 Y6.083
X18.114 Y6.482
X18.139 Y6.499
X18.167 Y6.51
X19.443 Y6.884
X19.613 Y6.873
X19.631 Y6.877
X19.645 Y6.889
X19.651 Y6.906
X19.654 Y7.048 Z-3.013
X19.641 Y7.19 Z-3.018
X19.612 Y7.329 Z-3.023
X19.568 Y7.464 Z-3.028
X19.509 Y7.594 Z-3.033
X19.436 Y7.716 Z-3.038
X19.349 Y7.829 Z-3.043
X19.251 Y7.932 Z-3.048
X19.142 Y8.023 Z-3.053
X19.023 Y8.101 Z-3.058
X18.897 Y8.166 Z-3.063
X18.764 Y8.216 Z-3.068
X18.626 Y8.251 Z-3.073
X18.485 Y8.271 Z-3.078
X18.343 Y8.274 Z-3.083
X18.201 Y8.262 Z-3.088
X18.061 Y8.234 Z-3.092
X17.926 Y8.19 Z-3.097
X17.796 Y8.132 Z-3.102
X17.674 Y8.06 Z-3.107
X17.56 Y7.974 Z-3.112
X17.457 Y7.876 Z-3.117
X17.365 Y7.768 Z-3.122
X17.286 Y7.649 Z-3.127
X17.221 Y7.523 Z-3.132
X17.17 Y7.39 Z-3.137
X17.134 Y7.253 Z-3.142
X17.114 Y7.112 Z-3.147
X17.11 Y6.97 Z-3.152
X17.121 Y6.828 Z-3.157
X17.149 Y6.688 Z-3.162
X17.191 Y6.553 Z-3.167
X17.249 Y6.423 Z-3.172
X17.321 Y6.3 Z-3.177
X17.406 Y6.186 Z-3.182
X17.503 Y6.082 Z-3.187
X17.611 Y5.99 Z-3.192
X17.729 Y5.91 Z-3.197
X17.855 Y5.844 Z-3.202
X17.988 Y5.792 Z-3.207
X18.125 Y5.756 Z-3.212
X18.266 Y5.735 Z-3.217
X18.408 Y5.73 Z-3.222
X18.55 Y5.741 Z-3.227
X18.69 Y5.768 Z-3.232
X18.825 Y5.81 Z-3.237
X18.956 Y5.867 Z-3.242
X19.079 Y5.938 Z-3.247
X19.193 Y6.022 Z-3.252
X19.298 Y6.119 Z-3.256
X19.391 Y6.227 Z-3.261
X19.471 Y6.344 Z-3.266
X19.538 Y6.47 Z-3.271
X19.59 Y6.602 Z-3.276
X19.627 Y6.739 Z-3.281
X19.648 Y6.88 Z-3.286
X19.654 Y7.022 Z-3.291
X19.644 Y7.164 Z-3.296
X19.618 Y7.304 Z-3.301
X19.577 Y7.44 Z-3.306
X19.521 Y7.57 Z-3.311
X19.45 Y7.694 Z-3.316
X19.366 Y7.809 Z-3.321
X19.27 Y7.914 Z-3.326
X19.163 Y8.007 Z-3.331
X19.046 Y8.088 Z-3.336
X18.92 Y8.155 Z-3.341
X18.788 Y8.208 Z-3.346
X18.651 Y8.246 Z-3.351
X18.511 Y8.268 Z-3.356
X18.369 Y8.275 Z-3.361
X18.227 Y8.265 Z-3.366
X18.087 Y8.24 Z-3.371
X17.951 Y8.2 Z-3.376
X17.82 Y8.144 Z-3.381
X17.696 Y8.074 Z-3.386
X17.58 Y7.991 Z-3.391
X17.475 Y7.895 Z-3.396
X17.381 Y7.788 Z-3.401
X17.3 Y7.672 Z-3.406
X17.232 Y7.547 Z-3.411
X17.178 Y7.415 Z-3.416
X17.14 Y7.278 Z-3.42
X17.117 Y7.138 Z-3.425
X17.109 Y6.996 Z-3.43
X17.118 Y6.854 Z-3.435
X17.142 Y6.714 Z-3.44
X17.182 Y6.577 Z-3.445
X17.237 Y6.446 Z-3.45
X17.307 Y6.322 Z-3.455
X17.389 Y6.206 Z-3.46
X17.484 Y6.1 Z-3.465
X17.591 Y6.006 Z-3.47
X17.707 Y5.924 Z-3.475
X17.831 Y5.855 Z-3.48
X17.963 Y5.801 Z-3.485
X18.1 Y5.761 Z-3.49
X18.24 Y5.738 Z-3.495
X18.382 Y5.73 Z-3.5
X136.94 Y5.733
X138.215 Y5.877
X139.356 Y6.275
X140.376 Y6.916
X141.22 Y7.76
X141.862 Y8.779
X141.871 Y8.8
X142.262 Y9.917
X142.343 Y10.65
X142.41 Y11.253
X142.406 Y90.409
X142.262 Y91.682
X141.871 Y92.801
X141.818 Y92.892
X141.22 Y93.84
X140.376 Y94.684
X139.36 Y95.323
X139.339 Y95.331
X138.217 Y95.723
X136.878 Y95.87
X17.855
X9.99 Y88.005
Y13.595
X10.151 Y13.434
X17.855 Y5.73
X18.382
G3 X18.578 Y5.891 R0.2
G1 X18.984 Y7.957
G3 X18.861 Y8.181 R0.2
G1 X18.752 Y8.232
X18.602 Y8.315
X18.538 Y8.353
X18.477 Y8.396
X18.376 Y8.472
X18.323 Y8.515
X18.273 Y8.562
X12.834 Y13.999
X12.754 Y14.09
X12.672 Y14.194
X12.627 Y14.256
X12.588 Y14.321
X12.504 Y14.469
X12.466 Y14.543
X12.435 Y14.619
X12.381 Y14.768
X12.357 Y14.845
X12.339 Y14.923
X12.308 Y15.085
X12.295 Y15.176
X12.291 Y15.268
X12.285 Y17.712
X12.286 Y86.267
X12.288 Y86.332
X12.295 Y86.396
X12.317 Y86.571
X12.332 Y86.653
X12.352 Y86.733
X12.398 Y86.882
X12.424 Y86.958
X12.457 Y87.031
X12.53 Y87.18
X12.573 Y87.258
X12.622 Y87.333
X12.736 Y87.487
X12.783 Y87.546
X12.834 Y87.601
X18.273 Y93.038
X18.334 Y93.094
X18.399 Y93.145
X18.551 Y93.253
X18.625 Y93.301
X18.702 Y93.342
X18.853 Y93.414
X18.927 Y93.445
X19.004 Y93.471
X19.154 Y93.515
X19.235 Y93.534
X19.317 Y93.547
X19.493 Y93.568
X19.608 Y93.574
X137.121
X137.188 Y93.572
X137.254 Y93.565
X137.442 Y93.54
X137.507 Y93.529
X137.572 Y93.514
X138.199 Y93.343
X138.277 Y93.318
X138.353 Y93.287
X138.478 Y93.23
X138.55 Y93.194
X138.619 Y93.151
X138.807 Y93.025
X138.885 Y92.968
X138.957 Y92.903
X139.434 Y92.427
X139.498 Y92.357
X139.554 Y92.282
X139.682 Y92.094
X139.725 Y92.026
X139.762 Y91.955
X139.82 Y91.83
X139.853 Y91.751
X139.879 Y91.67
X140.051 Y91.043
X140.066 Y90.981
X140.077 Y90.919
X140.103 Y90.731
X140.111 Y90.661
X140.113 Y90.591
Y11.009
X140.111 Y10.939
X140.103 Y10.869
X140.077 Y10.681
X140.066 Y10.619
X140.051 Y10.557
X139.879 Y9.93
X139.853 Y9.849
X139.82 Y9.77
X139.762 Y9.645
X139.725 Y9.574
X139.683 Y9.506
X139.554 Y9.318
X139.498 Y9.243
X139.434 Y9.173
X138.957 Y8.697
X138.885 Y8.632
X138.807 Y8.575
X138.619 Y8.449
X138.54 Y8.401
X138.456 Y8.36
X138.284 Y8.287
X138.217 Y8.26
X138.147 Y8.239
X137.566 Y8.085
X137.442 Y8.06
X137.254 Y8.035
X137.188 Y8.028
X137.121 Y8.026
X19.545 Y8.029
X19.459 Y8.033
X19.374 Y8.044
X19.211 Y8.073
X19.131 Y8.09
X19.054 Y8.113
X18.903 Y8.165
X18.861 Y8.181
X18.843 Y8.185
X18.824 Y8.181
X18.809 Y8.17
X18.693 Y8.057
X18.677 Y8.047
X18.658 Y8.043
X17.791 Y8.042
X17.735 Y8.074
X17.618 Y7.994 Z-3.505
X17.512 Y7.901 Z-3.51
X17.416 Y7.797 Z-3.515
X17.333 Y7.683 Z-3.52
X17.264 Y7.56 Z-3.525
X17.208 Y7.431 Z-3.53
X17.168 Y7.295 Z-3.535
X17.143 Y7.156 Z-3.539
X17.134 Y7.015 Z-3.544
X17.141 Y6.874 Z-3.549
X17.164 Y6.735 Z-3.554
X17.202 Y6.599 Z-3.559
X17.256 Y6.469 Z-3.564
X17.324 Y6.345 Z-3.569
X17.405 Y6.23 Z-3.574
X17.499 Y6.124 Z-3.579
X17.604 Y6.03 Z-3.584
X17.719 Y5.948 Z-3.589
X17.843 Y5.88 Z-3.594
X17.973 Y5.826 Z-3.599
X18.109 Y5.787 Z-3.604
X18.248 Y5.764 Z-3.609
X18.389 Y5.757 Z-3.613
X18.53 Y5.766 Z-3.618
X18.669 Y5.79 Z-3.623
X18.804 Y5.83 Z-3.628
X18.934 Y5.885 Z-3.633
X19.057 Y5.954 Z-3.638
X19.172 Y6.037 Z-3.643
X19.276 Y6.132 Z-3.648
X19.369 Y6.238 Z-3.653
X19.449 Y6.354 Z-3.658
X19.516 Y6.479 Z-3.663
X19.568 Y6.61 Z-3.668
X19.605 Y6.746 Z-3.673
X19.627 Y6.886 Z-3.678
X19.633 Y7.027 Z-3.682
X19.622 Y7.167 Z-3.687
X19.596 Y7.306 Z-3.692
X19.555 Y7.441 Z-3.697
X19.498 Y7.57 Z-3.702
X19.427 Y7.693 Z-3.707
X19.343 Y7.806 Z-3.712
X19.247 Y7.909 Z-3.717
X19.14 Y8.001 Z-3.722
X19.023 Y8.08 Z-3.727
X18.897 Y8.145 Z-3.732
X18.766 Y8.196 Z-3.737
X18.629 Y8.231 Z-3.742
X18.489 Y8.251 Z-3.747
X18.348 Y8.255 Z-3.752
X18.208 Y8.243 Z-3.756
X18.069 Y8.215 Z-3.761
X17.935 Y8.172 Z-3.766
X17.806 Y8.114 Z-3.771
X17.685 Y8.042 Z-3.776
X17.572 Y7.957 Z-3.781
X17.47 Y7.859 Z-3.786
X17.38 Y7.751 Z-3.791
X17.302 Y7.633 Z-3.796
X17.239 Y7.507 Z-3.801
X17.19 Y7.374 Z-3.806
X17.156 Y7.237 Z-3.811
X17.137 Y7.097 Z-3.816
X17.135 Y6.956 Z-3.821
X17.149 Y6.816 Z-3.826
X17.178 Y6.678 Z-3.83
X17.223 Y6.544 Z-3.835
X17.282 Y6.416 Z-3.84
X17.356 Y6.295 Z-3.845
X17.443 Y6.184 Z-3.85
X17.542 Y6.083 Z-3.855
X17.651 Y5.994 Z-3.86
X17.77 Y5.918 Z-3.865
X17.897 Y5.856 Z-3.87
X18.03 Y5.808 Z-3.875
X18.167 Y5.776 Z-3.88
X18.307 Y5.759 Z-3.885
X18.448 Z-3.89
X18.589 Y5.774 Z-3.895
X18.726 Y5.805 Z-3.899
X18.86 Y5.851 Z-3.904
X18.987 Y5.912 Z-3.909
X19.107 Y5.987 Z-3.914
X19.217 Y6.075 Z-3.919
X19.317 Y6.175 Z-3.924
X19.404 Y6.286 Z-3.929
X19.479 Y6.406 Z-3.934
X19.54 Y6.533 Z-3.939
X19.586 Y6.667 Z-3.944
X19.616 Y6.804 Z-3.949
X19.631 Y6.945 Z-3.954
X19.63 Y7.086 Z-3.959
X19.613 Y7.226 Z-3.964
X19.581 Y7.363 Z-3.969
X19.533 Y7.496 Z-3.973
X19.47 Y7.623 Z-3.978
X19.394 Y7.741 Z-3.983
X19.304 Y7.851 Z-3.988
X19.203 Y7.949 Z-3.993
X19.092 Y8.036 Z-3.998
X18.971 Y8.109 Z-4.003
X18.843 Y8.168 Z-4.008
X18.776 Y8.198
X18.711 Y8.232
X18.548 Y8.326
X18.49 Y8.362
X18.434 Y8.402
X18.367 Y8.454
X18.273 Y8.537
X12.809 Y13.999
X12.736 Y14.081
X12.679 Y14.153
X12.637 Y14.209
X12.599 Y14.267
X12.503 Y14.429
X12.461 Y14.508
X12.426 Y14.591
X12.366 Y14.752
X12.34 Y14.834
X12.32 Y14.918
X12.289 Y15.088
X12.276 Y15.179
X12.272 Y15.27
Y86.33
X12.276 Y86.421
X12.289 Y86.512
X12.32 Y86.682
X12.34 Y86.766
X12.366 Y86.848
X12.426 Y87.009
X12.461 Y87.092
X12.503 Y87.171
X12.599 Y87.333
X12.637 Y87.391
X12.679 Y87.447
X12.736 Y87.519
X12.809 Y87.601
X18.273 Y93.063
X18.331 Y93.116
X18.393 Y93.165
X18.515 Y93.253
X18.584 Y93.299
X18.657 Y93.339
X18.82 Y93.42
X18.9 Y93.456
X18.984 Y93.485
X19.147 Y93.532
X19.232 Y93.553
X19.319 Y93.567
X19.498 Y93.586
X19.608 Y93.592
X137.121
X137.188 Y93.59
X137.254 Y93.583
X137.442 Y93.558
X137.506 Y93.547
X137.569 Y93.532
X138.197 Y93.364
X138.275 Y93.339
X138.351 Y93.308
X138.476 Y93.251
X138.545 Y93.217
X138.61 Y93.178
X138.798 Y93.054
X138.869 Y93.004
X138.935 Y92.947
X139.123 Y92.771
X139.147 Y92.747
X139.406 Y92.487
X139.482 Y92.402
X139.581 Y92.276
X139.621 Y92.222
X139.658 Y92.165
X139.769 Y91.977
X139.81 Y91.9
X139.844 Y91.82
X139.897 Y91.681
X139.928 Y91.582
X140.072 Y91.032
X140.095 Y90.919
X140.122 Y90.731
X140.129 Y90.661
X140.131 Y90.591
Y11.009
X140.129 Y10.939
X140.122 Y10.869
X140.095 Y10.681
X140.071 Y10.562
X139.907 Y9.951
X139.882 Y9.873
X139.851 Y9.797
X139.787 Y9.655
X139.751 Y9.584
X139.709 Y9.516
X139.584 Y9.328
X139.534 Y9.259
X139.478 Y9.194
X139.3 Y9.006
X139.279 Y8.984
X139.018 Y8.726
X138.926 Y8.644
X138.8 Y8.547
X138.747 Y8.509
X138.691 Y8.474
X138.503 Y8.364
X138.437 Y8.328
X138.367 Y8.298
X138.277 Y8.262
X138.165 Y8.225
X137.565 Y8.067
X137.442 Y8.042
X137.254 Y8.017
X137.188 Y8.01
X137.121 Y8.008
X19.545 Y8.011
X19.461 Y8.014
X19.377 Y8.025
X19.205 Y8.054
X19.121 Y8.072
X19.038 Y8.098
X18.875 Y8.156
X18.843 Y8.168
G3 X18.603 Y8.093 R0.2
G1 X17.468 Y6.381
G3 X17.494 Y6.129 R0.2
G1 X17.866 Y5.757
X136.94 Y5.76
X138.215 Y5.904
X139.332 Y6.295
X139.424 Y6.349
X140.357 Y6.935
X141.203 Y7.782
X141.847 Y8.813
X142.233 Y9.917
X142.383 Y11.253
X142.379 Y90.408
X142.234 Y91.682
X141.847 Y92.787
X141.203 Y93.818
X140.357 Y94.665
X139.351 Y95.297
X139.328 Y95.307
X138.216 Y95.696
X136.878 Y95.843
X19.608
X17.866
X10.017 Y87.994
Y13.606
X10.151 Y13.472
X17.494 Y6.129
X17.528 Y6.106
X17.568 Y6.098
X17.608 Y6.105
X17.938 Y6.233
X17.97 Y6.241
X18.004 Y6.237
X18.035 Y6.224
X18.06 Y6.201
X18.077 Y6.172
X18.198 Y5.856
X18.219 Y5.822
X18.251 Y5.798
X18.29 Y5.787
X18.429 Y5.784 Z-4.013
X18.569 Y5.797 Z-4.018
X18.705 Y5.826 Z-4.023
X18.838 Y5.87 Z-4.028
X18.965 Y5.929 Z-4.032
X19.084 Y6.002 Z-4.037
X19.194 Y6.088 Z-4.042
X19.294 Y6.186 Z-4.047
X19.382 Y6.295 Z-4.052
X19.457 Y6.413 Z-4.057
X19.518 Y6.539 Z-4.062
X19.564 Y6.671 Z-4.067
X19.595 Y6.807 Z-4.071
X19.61 Y6.946 Z-4.076
X19.609 Y7.086 Z-4.081
X19.593 Y7.225 Z-4.086
X19.561 Y7.361 Z-4.091
X19.513 Y7.492 Z-4.096
X19.451 Y7.617 Z-4.101
X19.375 Y7.735 Z-4.106
X19.286 Y7.843 Z-4.111
X19.186 Y7.94 Z-4.115
X19.075 Y8.025 Z-4.12
X18.955 Y8.097 Z-4.125
X18.827 Y8.154 Z-4.13
X18.694 Y8.197 Z-4.135
X18.557 Y8.225 Z-4.14
X18.418 Y8.236 Z-4.145
X18.278 Y8.232 Z-4.15
X18.14 Y8.212 Z-4.155
X18.005 Y8.176 Z-4.159
X17.874 Y8.126 Z-4.164
X17.751 Y8.06 Z-4.169
X17.635 Y7.981 Z-4.174
X17.53 Y7.89 Z-4.179
X17.435 Y7.787 Z-4.184
X17.353 Y7.673 Z-4.189
X17.284 Y7.552 Z-4.194
X17.23 Y7.423 Z-4.198
X17.191 Y7.289 Z-4.203
X17.167 Y7.151 Z-4.208
X17.158 Y7.012 Z-4.213
X17.166 Y6.872 Z-4.218
X17.19 Y6.734 Z-4.223
X17.229 Y6.6 Z-4.228
X17.283 Y6.471 Z-4.233
X17.352 Y6.349 Z-4.238
X17.434 Y6.236 Z-4.242
X17.528 Y6.133 Z-4.247
X17.633 Y6.041 Z-4.252
X17.748 Y5.962 Z-4.257
X17.872 Y5.896 Z-4.262
X18.002 Y5.845 Z-4.267
X18.137 Y5.809 Z-4.272
X18.275 Y5.788 Z-4.277
X18.415 Y5.784 Z-4.282
X18.554 Y5.795 Z-4.286
X18.692 Y5.822 Z-4.291
X18.825 Y5.865 Z-4.296
X18.952 Y5.922 Z-4.301
X19.072 Y5.994 Z-4.306
X19.183 Y6.079 Z-4.311
X19.284 Y6.176 Z-4.316
X19.373 Y6.283 Z-4.321
X19.45 Y6.401 Z-4.325
X19.512 Y6.526 Z-4.33
X19.56 Y6.657 Z-4.335
X19.592 Y6.793 Z-4.34
X19.609 Y6.932 Z-4.345
X19.61 Y7.072 Z-4.35
X19.595 Y7.211 Z-4.355
X19.565 Y7.347 Z-4.36
X19.519 Y7.479 Z-4.365
X19.458 Y7.605 Z-4.369
X19.383 Y7.723 Z-4.374
X19.296 Y7.832 Z-4.379
X19.196 Y7.93 Z-4.384
X19.086 Y8.017 Z-4.389
X18.967 Y8.09 Z-4.394
X18.841 Y8.149 Z-4.399
X18.708 Y8.194 Z-4.404
X18.571 Y8.223 Z-4.409
X18.432 Y8.236 Z-4.413
X18.292 Y8.233 Z-4.418
X18.154 Y8.215 Z-4.423
X18.018 Y8.181 Z-4.428
X17.887 Y8.131 Z-4.433
X17.763 Y8.068 Z-4.438
X17.647 Y7.99 Z-4.443
X17.54 Y7.9 Z-4.448
X17.445 Y7.798 Z-4.452
X17.361 Y7.685 Z-4.457
X17.291 Y7.565 Z-4.462
X17.235 Y7.436 Z-4.467
X17.194 Y7.303 Z-4.472
X17.168 Y7.165 Z-4.477
X17.159 Y7.026 Z-4.482
X17.165 Y6.886 Z-4.487
X17.187 Y6.748 Z-4.492
X17.224 Y6.614 Z-4.496
X17.277 Y6.484 Z-4.501
X17.344 Y6.361 Z-4.506
X17.425 Y6.247 Z-4.511
X17.518 Y6.143 Z-4.516
X17.877 Y5.784
X136.939 Y5.787
X138.214 Y5.932
X138.918 Y6.178
X139.319 Y6.318
X140.354 Y6.97
X141.192 Y7.813
X141.819 Y8.814
X142.205 Y9.918
X142.357 Y11.254
X142.352 Y90.408
X142.206 Y91.682
X141.819 Y92.786
X141.192 Y93.787
X140.354 Y94.63
X139.319 Y95.282
X138.216 Y95.668
X136.878 Y95.817
X17.877
X10.044 Y87.983
Y13.617
X10.151 Y13.51
X17.518 Y6.143
G3 X17.801 R0.2
X17.826 Y6.175 R0.2
G1 X18.928 Y7.856
G3 X18.871 Y8.133 R0.2
X18.833 Y8.152 R0.2
G1 X18.751 Y8.188
X18.672 Y8.231
X18.497 Y8.337
X18.416 Y8.392
X18.341 Y8.454
X18.186 Y8.596
X18.153 Y8.627
X12.785 Y14.
X12.718 Y14.074
X12.685 Y14.114
X12.646 Y14.165
X12.61 Y14.218
X12.503 Y14.391
X12.455 Y14.476
X12.416 Y14.565
X12.351 Y14.738
X12.322 Y14.825
X12.302 Y14.914
X12.27 Y15.092
X12.258 Y15.181
X12.254 Y15.27
Y86.33
X12.258 Y86.419
X12.27 Y86.508
X12.302 Y86.686
X12.322 Y86.775
X12.351 Y86.862
X12.416 Y87.035
X12.455 Y87.124
X12.503 Y87.209
X12.61 Y87.382
X12.674 Y87.473
X12.748 Y87.556
X13.78 Y88.599
X13.784 Y88.604
X18.274 Y93.087
X18.342 Y93.149
X18.415 Y93.204
X18.567 Y93.309
X18.647 Y93.358
X18.731 Y93.4
X18.906 Y93.477
X18.993 Y93.51
X19.082 Y93.535
X19.257 Y93.575
X19.35 Y93.592
X19.445 Y93.6
X19.696 Y93.61
X19.733
X137.121
X137.188 Y93.607
X137.254 Y93.601
X137.442 Y93.575
X137.56 Y93.552
X138.125 Y93.406
X138.234 Y93.371
X138.381 Y93.315
X138.46 Y93.28
X138.536 Y93.239
X138.715 Y93.132
X138.802 Y93.073
X138.921 Y92.983
X138.975 Y92.94
X139.026 Y92.892
X139.421 Y92.498
X139.465 Y92.451
X139.506 Y92.402
X139.597 Y92.285
X139.658 Y92.196
X139.766 Y92.021
X139.807 Y91.947
X139.842 Y91.869
X139.904 Y91.714
X139.944 Y91.594
X140.09 Y91.031
X140.113 Y90.919
X140.139 Y90.731
X140.147 Y90.661
X140.149 Y90.591
Y11.009
X140.147 Y10.939
X140.139 Y10.869
X140.113 Y10.681
X140.09 Y10.57
X139.944 Y10.006
X139.904 Y9.886
X139.842 Y9.731
X139.803 Y9.645
X139.756 Y9.564
X139.606 Y9.33
X139.554 Y9.256
X139.495 Y9.187
X139.332 Y9.011
X139.304 Y8.982
X139.023 Y8.705
X138.974 Y8.659
X138.921 Y8.617
X138.802 Y8.527
X138.715 Y8.468
X138.536 Y8.361
X138.46 Y8.32
X138.381 Y8.285
X138.234 Y8.229
X138.125 Y8.194
X137.56 Y8.048
X137.442 Y8.025
X137.254 Y7.999
X137.188 Y7.993
X137.121 Y7.99
X19.545 Y7.992
X19.462 Y7.996
X19.38 Y8.006
X19.201 Y8.036
X19.111 Y8.055
X19.023 Y8.083
X18.848 Y8.147
X18.833 Y8.152
X18.804 Y8.158
X18.775 Y8.152
X18.75 Y8.137
X18.57 Y7.971
X18.541 Y7.954
X18.508 Y7.951
X18.476 Y7.962
X18.451 Y7.985
X18.317 Y8.176
X18.297 Y8.196
X18.271 Y8.208
X18.243 Y8.21
X18.106 Y8.185 Z-4.521
X17.974 Y8.145 Z-4.526
X17.847 Y8.09 Z-4.531
X17.727 Y8.021 Z-4.535
X17.616 Y7.938 Z-4.54
X17.515 Y7.844 Z-4.545
X17.425 Y7.738 Z-4.55
X17.348 Y7.623 Z-4.555
X17.285 Y7.499 Z-4.56
X17.237 Y7.37 Z-4.564
X17.204 Y7.235 Z-4.569
X17.186 Y7.098 Z-4.574
X17.185 Y6.959 Z-4.579
X17.199 Y6.822 Z-4.584
X17.229 Y6.686 Z-4.589
X17.274 Y6.556 Z-4.593
X17.334 Y6.431 Z-4.598
X17.408 Y6.314 Z-4.603
X17.495 Y6.206 Z-4.608
X17.594 Y6.109 Z-4.613
X17.703 Y6.024 Z-4.618
X17.821 Y5.952 Z-4.622
X17.947 Y5.894 Z-4.627
X18.078 Y5.85 Z-4.632
X18.214 Y5.823 Z-4.637
X18.352 Y5.811 Z-4.642
X18.49 Y5.815 Z-4.647
X18.627 Y5.834 Z-4.651
X18.761 Y5.87 Z-4.656
X18.89 Y5.92 Z-4.661
X19.012 Y5.985 Z-4.666
X19.127 Y6.064 Z-4.671
X19.231 Y6.155 Z-4.676
X19.324 Y6.257 Z-4.68
X19.405 Y6.37 Z-4.685
X19.472 Y6.491 Z-4.69
X19.525 Y6.619 Z-4.695
X19.563 Y6.752 Z-4.7
X19.585 Y6.889 Z-4.705
X19.591 Y7.027 Z-4.71
X19.582 Y7.165 Z-4.714
X19.557 Y7.301 Z-4.719
X19.516 Y7.434 Z-4.724
X19.46 Y7.561 Z-4.729
X19.39 Y7.68 Z-4.734
X19.307 Y7.791 Z-4.739
X19.212 Y7.891 Z-4.743
X19.106 Y7.98 Z-4.748
X18.99 Y8.056 Z-4.753
X18.867 Y8.119 Z-4.758
X18.737 Y8.166 Z-4.763
X18.602 Y8.199 Z-4.768
X18.465 Y8.216 Z-4.772
X18.326 Y8.217 Z-4.777
X18.188 Y8.202 Z-4.782
X18.053 Y8.171 Z-4.787
X17.923 Y8.125 Z-4.792
X17.798 Y8.064 Z-4.797
X17.682 Y7.99 Z-4.801
X17.574 Y7.902 Z-4.806
X17.478 Y7.803 Z-4.811
X17.393 Y7.693 Z-4.816
X17.322 Y7.575 Z-4.821
X17.264 Y7.449 Z-4.826
X17.222 Y7.317 Z-4.83
X17.195 Y7.181 Z-4.835
X17.184 Y7.043 Z-4.84
X17.188 Y6.905 Z-4.845
X17.209 Y6.768 Z-4.85
X17.245 Y6.634 Z-4.855
X17.296 Y6.505 Z-4.86
X17.362 Y6.384 Z-4.864
X17.441 Y6.27 Z-4.869
X17.533 Y6.166 Z-4.874
X17.636 Y6.074 Z-4.879
X17.748 Y5.994 Z-4.884
X17.87 Y5.927 Z-4.889
X17.998 Y5.875 Z-4.893
X18.132 Y5.838 Z-4.898
X18.268 Y5.816 Z-4.903
X18.407 Y5.81 Z-4.908
X18.545 Y5.82 Z-4.913
X18.681 Y5.846 Z-4.918
X18.813 Y5.888 Z-4.922
X18.939 Y5.944 Z-4.927
X19.059 Y6.015 Z-4.932
X19.169 Y6.098 Z-4.937
X19.269 Y6.194 Z-4.942
X19.357 Y6.301 Z-4.947
X19.433 Y6.417 Z-4.951
X19.494 Y6.541 Z-4.956
X19.541 Y6.671 Z-4.961
X19.573 Y6.806 Z-4.966
X19.589 Y6.943 Z-4.971
Y7.082 Z-4.976
X19.574 Y7.219 Z-4.98
X19.542 Y7.354 Z-4.985
X19.496 Y7.485 Z-4.99
X19.434 Y7.609 Z-4.995
X19.359 Y7.725 Z-5.
X19.271 Y7.832 Z-5.005
X19.171 Y7.928 Z-5.009
X19.061 Y8.012 Z-5.014
X18.942 Y8.083 Z-5.019
X18.816 Y8.139 Z-5.024
X18.741 Y8.172
X18.669 Y8.21
X18.545 Y8.282
X18.479 Y8.324
X18.416 Y8.371
X18.286 Y8.477
X18.21 Y8.546
X12.752 Y14.011
X12.693 Y14.074
X12.641 Y14.142
X12.555 Y14.265
X12.507 Y14.339
X12.466 Y14.418
X12.381 Y14.602
X12.344 Y14.693
X12.316 Y14.787
X12.271 Y14.971
X12.255 Y15.048
X12.246 Y15.126
X12.235 Y15.251
X12.232 Y15.333
X12.235 Y86.33
X12.239 Y86.417
X12.251 Y86.505
X12.284 Y86.69
X12.305 Y86.784
X12.335 Y86.875
X12.406 Y87.059
X12.44 Y87.137
X12.481 Y87.212
X12.554 Y87.335
X12.62 Y87.431
X12.676 Y87.504
X12.717 Y87.553
X12.761 Y87.6
X18.21 Y93.055
X18.286 Y93.123
X18.416 Y93.229
X18.479 Y93.276
X18.545 Y93.318
X18.669 Y93.39
X18.744 Y93.43
X18.823 Y93.463
X19.009 Y93.533
X19.102 Y93.562
X19.197 Y93.582
X19.384 Y93.613
X19.464 Y93.623
X19.545 Y93.626
X137.121 Y93.627
X137.188 Y93.625
X137.254 Y93.618
X137.442 Y93.593
X137.551 Y93.572
X137.928 Y93.479
X137.96 Y93.47
X138.211 Y93.399
X138.293 Y93.371
X138.373 Y93.337
X138.552 Y93.25
X138.623 Y93.212
X138.69 Y93.168
X138.906 Y93.017
X138.974 Y92.965
X139.037 Y92.907
X139.436 Y92.509
X139.493 Y92.448
X139.544 Y92.382
X139.695 Y92.17
X139.757 Y92.073
X139.816 Y91.967
X139.846 Y91.907
X139.873 Y91.844
X139.927 Y91.704
X139.961 Y91.603
X140.079 Y91.164
X140.095 Y91.094
X140.143 Y90.843
X140.156 Y90.762
X140.161 Y90.679
X140.168 Y90.428
Y90.403
X140.167 Y11.009
X140.164 Y10.939
X140.157 Y10.869
X140.13 Y10.681
X140.109 Y10.574
X139.981 Y10.073
X139.968 Y10.025
X139.929 Y9.9
X139.907 Y9.837
X139.881 Y9.775
X139.821 Y9.645
X139.787 Y9.578
X139.748 Y9.514
X139.609 Y9.302
X139.562 Y9.237
X139.509 Y9.175
X139.363 Y9.016
X139.329 Y8.981
X139.033 Y8.689
X138.972 Y8.634
X138.906 Y8.583
X138.69 Y8.432
X138.623 Y8.388
X138.552 Y8.35
X138.373 Y8.263
X138.29 Y8.227
X138.203 Y8.199
X137.701 Y8.061
X137.62 Y8.042
X137.369 Y7.995
X137.279 Y7.982
X137.188 Y7.977
X135.934 Y7.972
X19.545 Y7.974
X19.464 Y7.977
X19.384 Y7.987
X19.197 Y8.018
X19.102 Y8.038
X19.009 Y8.067
X18.823 Y8.137
X18.816 Y8.139
G3 X18.577 Y8.062 R0.2
G1 X17.504 Y6.42
G3 X17.53 Y6.169 R0.2
G1 X17.889 Y5.81
X136.939 Y5.813
X138.214 Y5.96
X138.966 Y6.223
X139.32 Y6.347
X140.321 Y6.975
X141.166 Y7.82
X141.79 Y8.815
X142.178 Y9.918
X142.33 Y11.254
X142.326 Y90.408
X142.178 Y91.681
X141.79 Y92.785
X141.162 Y93.785
X140.315 Y94.628
X139.32 Y95.253
X138.215 Y95.64
X136.877 Y95.79
X17.889
X10.07 Y87.972
Y13.628
X10.151 Y13.547
X17.53 Y6.169
X17.569 Y6.139
X17.616 Y6.122
X17.666 Y6.118
X17.715 Y6.128
X17.759 Y6.152
X18.348 Y6.583
X18.386 Y6.605
X18.429 Y6.616
X18.473
X18.515 Y6.606
X19.194 Y6.345
X19.242 Y6.334
X19.292 Y6.337
X19.339 Y6.354
X19.379 Y6.382
X19.41 Y6.421
X19.471 Y6.543 Z-5.029
X19.519 Y6.67 Z-5.034
X19.551 Y6.803 Z-5.038
X19.568 Y6.938 Z-5.043
X19.57 Y7.074 Z-5.048
X19.555 Y7.21 Z-5.053
X19.525 Y7.342 Z-5.057
X19.48 Y7.471 Z-5.062
X19.421 Y7.594 Z-5.067
X19.348 Y7.709 Z-5.072
X19.262 Y7.814 Z-5.076
X19.165 Y7.91 Z-5.081
X19.057 Y7.993 Z-5.086
X18.94 Y8.063 Z-5.091
X18.816 Y8.12 Z-5.095
X18.687 Y8.162 Z-5.1
X18.553 Y8.189 Z-5.105
X18.417 Y8.2 Z-5.11
X18.281 Y8.195 Z-5.114
X18.146 Y8.175 Z-5.119
X18.015 Y8.14 Z-5.124
X17.888 Y8.089 Z-5.129
X17.768 Y8.025 Z-5.133
X17.657 Y7.947 Z-5.138
X17.555 Y7.857 Z-5.143
X17.464 Y7.755 Z-5.148
X17.385 Y7.644 Z-5.153
X17.32 Y7.525 Z-5.157
X17.268 Y7.398 Z-5.162
X17.232 Y7.267 Z-5.167
X17.211 Y7.132 Z-5.172
X17.205 Y6.996 Z-5.176
X17.216 Y6.861 Z-5.181
X17.242 Y6.727 Z-5.186
X17.283 Y6.597 Z-5.191
X17.338 Y6.472 Z-5.195
X17.408 Y6.355 Z-5.2
X17.49 Y6.247 Z-5.205
X17.585 Y6.149 Z-5.21
X17.69 Y6.062 Z-5.214
X17.805 Y5.988 Z-5.219
X17.927 Y5.928 Z-5.224
X18.055 Y5.882 Z-5.229
X18.188 Y5.852 Z-5.233
X18.323 Y5.836 Z-5.238
X18.459 Y5.837 Z-5.243
X18.595 Y5.853 Z-5.248
X18.727 Y5.884 Z-5.252
X18.855 Y5.931 Z-5.257
X18.977 Y5.992 Z-5.262
X19.091 Y6.066 Z-5.267
X19.196 Y6.153 Z-5.272
X19.29 Y6.252 Z-5.276
X19.372 Y6.361 Z-5.281
X19.441 Y6.478 Z-5.286
X19.496 Y6.603 Z-5.291
X19.536 Y6.733 Z-5.295
X19.561 Y6.867 Z-5.3
X19.571 Y7.003 Z-5.305
X19.565 Y7.139 Z-5.31
X19.543 Y7.273 Z-5.314
X19.506 Y7.404 Z-5.319
X19.454 Y7.53 Z-5.324
X19.388 Y7.65 Z-5.329
X19.309 Y7.76 Z-5.333
X19.217 Y7.861 Z-5.338
X19.114 Y7.951 Z-5.343
X19.002 Y8.028 Z-5.348
X18.882 Y8.092 Z-5.352
X18.755 Y8.142 Z-5.357
X18.623 Y8.177 Z-5.362
X18.489 Y8.196 Z-5.367
X18.352 Y8.2 Z-5.371
X18.217 Y8.188 Z-5.376
X18.083 Y8.16 Z-5.381
X17.954 Y8.118 Z-5.386
X17.83 Y8.06 Z-5.391
X17.714 Y7.989 Z-5.395
X17.607 Y7.905 Z-5.4
X17.51 Y7.81 Z-5.405
X17.425 Y7.703 Z-5.41
X17.352 Y7.588 Z-5.414
X17.293 Y7.465 Z-5.419
X17.249 Y7.336 Z-5.424
X17.22 Y7.203 Z-5.429
X17.206 Y7.068 Z-5.433
X17.208 Y6.931 Z-5.438
X17.226 Y6.796 Z-5.443
X17.259 Y6.664 Z-5.448
X17.307 Y6.537 Z-5.452
X17.37 Y6.416 Z-5.457
X17.446 Y6.303 Z-5.462
X17.534 Y6.199 Z-5.467
X17.634 Y6.106 Z-5.471
X17.744 Y6.026 Z-5.476
X17.862 Y5.958 Z-5.481
X17.987 Y5.905 Z-5.486
X18.118 Y5.866 Z-5.49
X18.252 Y5.842 Z-5.495
X18.388 Y5.835 Z-5.5
X136.938 Y5.838
X138.213 Y5.985
X139.318 Y6.374
X140.32 Y7.007
X141.128 Y7.816
X141.496 Y8.397
X141.763 Y8.817
X142.156 Y9.93
X142.175 Y10.067
X142.305 Y11.252
X142.301 Y90.409
X142.161 Y91.656
X141.763 Y92.783
X141.128 Y93.784
X140.32 Y94.592
X139.318 Y95.226
X138.214 Y95.614
X136.877 Y95.765
X17.898
X10.095 Y87.962
Y13.638
X10.151 Y13.582
X17.898 Y5.835
X18.388
G3 X18.585 Y5.998 R0.2
G1 X18.941 Y7.897
G3 X18.815 Y8.121 R0.2
G1 X18.74 Y8.152
X18.668 Y8.19
X18.542 Y8.263
X18.438 Y8.332
X18.354 Y8.396
X18.302 Y8.439
X18.252 Y8.485
X12.752 Y13.984
X12.698 Y14.043
X12.649 Y14.105
X12.547 Y14.246
X12.495 Y14.326
X12.451 Y14.41
X12.363 Y14.598
X12.326 Y14.691
X12.297 Y14.787
X12.252 Y14.975
X12.234 Y15.072
X12.226 Y15.17
X12.216 Y15.421
Y15.458
X12.218 Y86.33
X12.222 Y86.415
X12.233 Y86.499
X12.265 Y86.687
X12.287 Y86.783
X12.317 Y86.876
X12.389 Y87.064
X12.424 Y87.144
X12.466 Y87.22
X12.541 Y87.346
X12.61 Y87.447
X12.671 Y87.525
X12.752 Y87.616
X18.252 Y93.115
X18.316 Y93.173
X18.384 Y93.226
X18.531 Y93.329
X18.612 Y93.38
X18.698 Y93.424
X18.886 Y93.508
X18.98 Y93.544
X19.076 Y93.571
X19.264 Y93.613
X19.357 Y93.629
X19.452 Y93.636
X19.703 Y93.644
X19.733
X137.121
X137.188 Y93.641
X137.254 Y93.635
X137.442 Y93.609
X137.51 Y93.598
X137.635 Y93.573
X137.7 Y93.557
X138.202 Y93.419
X138.282 Y93.393
X138.36 Y93.361
X138.517 Y93.287
X138.59 Y93.25
X138.659 Y93.206
X138.906 Y93.037
X138.979 Y92.982
X139.046 Y92.921
X139.451 Y92.518
X139.511 Y92.452
X139.565 Y92.381
X139.734 Y92.139
X139.777 Y92.072
X139.815 Y92.001
X139.892 Y91.839
X139.928 Y91.757
X139.955 Y91.673
X140.094 Y91.171
X140.113 Y91.09
X140.161 Y90.839
X140.172 Y90.759
X140.178 Y90.679
X140.184 Y90.428
Y90.403
X140.183 Y11.009
X140.181 Y10.939
X140.173 Y10.869
X140.147 Y10.681
X140.127 Y10.581
X140.034 Y10.205
X140.025 Y10.169
X139.953 Y9.918
X139.926 Y9.838
X139.893 Y9.761
X139.815 Y9.599
X139.777 Y9.528
X139.734 Y9.461
X139.565 Y9.219
X139.511 Y9.148
X139.451 Y9.082
X139.046 Y8.679
X138.979 Y8.618
X138.906 Y8.563
X138.66 Y8.394
X138.59 Y8.35
X138.517 Y8.313
X138.36 Y8.239
X138.282 Y8.207
X138.202 Y8.181
X137.7 Y8.043
X137.616 Y8.024
X137.365 Y7.978
X137.277 Y7.965
X137.188 Y7.961
X135.934 Y7.956
X19.545 Y7.957
X19.467 Y7.96
X19.39 Y7.97
X19.202 Y7.999
X19.106 Y8.019
X19.012 Y8.048
X18.824 Y8.117
X18.815 Y8.121
X18.799 Y8.102
X18.791 Y8.108
X18.661 Y8.147 Z-5.505
X18.528 Y8.171 Z-5.509
X18.392 Y8.18 Z-5.514
X18.256 Y8.172 Z-5.519
X18.123 Y8.149 Z-5.524
X17.992 Y8.11 Z-5.528
X17.868 Y8.056 Z-5.533
X17.75 Y7.987 Z-5.538
X17.641 Y7.906 Z-5.543
X17.543 Y7.812 Z-5.547
X17.456 Y7.708 Z-5.552
X17.382 Y7.594 Z-5.557
X17.322 Y7.472 Z-5.562
X17.276 Y7.344 Z-5.566
X17.246 Y7.212 Z-5.571
X17.232 Y7.076 Z-5.576
X17.233 Y6.941 Z-5.581
X17.251 Y6.806 Z-5.585
X17.284 Y6.674 Z-5.59
X17.332 Y6.547 Z-5.595
X17.394 Y6.426 Z-5.6
X17.471 Y6.314 Z-5.604
X17.56 Y6.211 Z-5.609
X17.66 Y6.12 Z-5.614
X17.771 Y6.041 Z-5.619
X17.89 Y5.975 Z-5.623
X18.015 Y5.924 Z-5.628
X18.146 Y5.887 Z-5.633
X18.281 Y5.867 Z-5.638
X18.417 Y5.862 Z-5.642
X18.552 Y5.873 Z-5.647
X18.685 Y5.9 Z-5.652
X18.814 Y5.942 Z-5.657
X18.938 Y5.999 Z-5.661
X19.053 Y6.071 Z-5.666
X19.16 Y6.155 Z-5.671
X19.256 Y6.251 Z-5.676
X19.34 Y6.358 Z-5.68
X19.411 Y6.473 Z-5.685
X19.468 Y6.597 Z-5.69
X19.51 Y6.726 Z-5.695
X19.537 Y6.859 Z-5.699
X19.548 Y6.995 Z-5.704
X19.543 Y7.13 Z-5.709
X19.523 Y7.265 Z-5.714
X19.486 Y7.396 Z-5.718
X19.435 Y7.521 Z-5.723
X19.369 Y7.64 Z-5.728
X19.29 Y7.751 Z-5.733
X19.198 Y7.851 Z-5.737
X19.095 Y7.94 Z-5.742
X18.983 Y8.016 Z-5.747
X18.862 Y8.079 Z-5.752
X18.735 Y8.127 Z-5.756
X18.603 Y8.16 Z-5.761
X18.469 Y8.177 Z-5.766
X18.333 Y8.178 Z-5.771
X18.198 Y8.164 Z-5.775
X18.065 Y8.133 Z-5.78
X17.937 Y8.088 Z-5.785
X17.815 Y8.028 Z-5.79
X17.702 Y7.954 Z-5.794
X17.597 Y7.867 Z-5.799
X17.504 Y7.768 Z-5.804
X17.422 Y7.659 Z-5.809
X17.354 Y7.542 Z-5.813
X17.3 Y7.417 Z-5.818
X17.261 Y7.287 Z-5.823
X17.238 Y7.153 Z-5.828
X17.23 Y7.017 Z-5.832
X17.239 Y6.882 Z-5.837
X17.263 Y6.748 Z-5.842
X17.303 Y6.618 Z-5.847
X17.357 Y6.493 Z-5.851
X17.426 Y6.376 Z-5.856
X17.508 Y6.268 Z-5.861
X17.602 Y6.17 Z-5.866
X17.707 Y6.084 Z-5.87
X17.822 Y6.01 Z-5.875
X17.944 Y5.951 Z-5.88
X18.072 Y5.906 Z-5.885
X18.205 Y5.877 Z-5.889
X18.34 Y5.863 Z-5.894
X18.476 Y5.865 Z-5.899
X18.61 Y5.883 Z-5.904
X18.742 Y5.917 Z-5.908
X18.869 Y5.965 Z-5.913
X18.989 Y6.029 Z-5.918
X19.101 Y6.106 Z-5.923
X19.203 Y6.195 Z-5.927
X19.294 Y6.296 Z-5.932
X19.373 Y6.407 Z-5.937
X19.438 Y6.526 Z-5.942
X19.488 Y6.653 Z-5.946
X19.524 Y6.784 Z-5.951
X19.544 Y6.918 Z-5.956
X19.548 Y7.054 Z-5.961
X19.536 Y7.189 Z-5.965
X19.509 Y7.322 Z-5.97
X19.466 Y7.451 Z-5.975
X19.408 Y7.574 Z-5.98
X19.336 Y7.69 Z-5.984
X19.251 Y7.796 Z-5.989
X19.155 Y7.891 Z-5.994
X19.047 Y7.975 Z-5.999
X18.931 Y8.045 Z-6.003
X18.808 Y8.102 Z-6.008
X18.74 Y8.131
X18.675 Y8.164
X18.55 Y8.236
X18.489 Y8.273
X18.431 Y8.315
X18.319 Y8.401
X18.224 Y8.485
X12.752 Y13.956
X12.677 Y14.041
X12.593 Y14.146
X12.551 Y14.203
X12.513 Y14.262
X12.439 Y14.387
X12.399 Y14.464
X12.365 Y14.543
X12.294 Y14.731
X12.264 Y14.825
X12.244 Y14.92
X12.213 Y15.108
X12.203 Y15.189
X12.2 Y15.27
Y86.33
X12.203 Y86.411
X12.213 Y86.492
X12.244 Y86.68
X12.264 Y86.775
X12.294 Y86.869
X12.365 Y87.057
X12.399 Y87.136
X12.439 Y87.213
X12.513 Y87.338
X12.551 Y87.397
X12.593 Y87.454
X12.677 Y87.559
X12.752 Y87.644
X18.224 Y93.115
X18.319 Y93.199
X18.431 Y93.285
X18.489 Y93.327
X18.55 Y93.364
X18.675 Y93.436
X18.752 Y93.475
X18.832 Y93.507
X19.02 Y93.575
X19.113 Y93.603
X19.209 Y93.622
X19.397 Y93.65
X19.471 Y93.658
X19.545 Y93.661
X137.121 Y93.662
X137.188 Y93.659
X137.254 Y93.653
X137.442 Y93.628
X137.505 Y93.617
X137.631 Y93.592
X137.698 Y93.576
X138.2 Y93.439
X138.277 Y93.415
X138.352 Y93.384
X138.498 Y93.318
X138.571 Y93.281
X138.641 Y93.238
X138.908 Y93.058
X138.982 Y93.003
X139.05 Y92.942
X139.423 Y92.576
X139.467 Y92.53
X139.508 Y92.481
X139.612 Y92.35
X139.663 Y92.278
X139.778 Y92.102
X139.814 Y92.043
X139.846 Y91.981
X139.916 Y91.831
X139.949 Y91.752
X139.976 Y91.671
X140.114 Y91.169
X140.133 Y91.087
X140.179 Y90.836
X140.191 Y90.758
X140.196 Y90.679
X140.202 Y90.428
Y90.403
X140.201 Y11.009
X140.199 Y10.939
X140.191 Y10.869
X140.165 Y10.681
X140.155 Y10.624
X140.13 Y10.499
X140.114 Y10.431
X139.976 Y9.929
X139.949 Y9.848
X139.916 Y9.769
X139.846 Y9.619
X139.809 Y9.548
X139.767 Y9.481
X139.587 Y9.218
X139.533 Y9.145
X139.473 Y9.079
X139.106 Y8.707
X139.057 Y8.661
X139.005 Y8.618
X138.871 Y8.515
X138.804 Y8.467
X138.626 Y8.352
X138.563 Y8.315
X138.498 Y8.282
X138.352 Y8.216
X138.277 Y8.185
X138.2 Y8.161
X137.698 Y8.024
X137.614 Y8.005
X137.363 Y7.959
X137.276 Y7.947
X137.188 Y7.943
X135.934 Y7.938
X19.545 Y7.939
X19.471 Y7.942
X19.397 Y7.95
X19.209 Y7.978
X19.113 Y7.997
X19.02 Y8.025
X18.832 Y8.093
X18.808 Y8.102
G3 X18.568 Y8.025 R0.2
G1 X17.538 Y6.459
G3 X17.563 Y6.208 R0.2
G1 X17.909 Y5.862
X136.94 Y5.865
X138.191 Y6.006
X139.299 Y6.393
X140.291 Y7.017
X141.132 Y7.864
X141.747 Y8.841
X142.133 Y9.946
X142.135 Y9.959
X142.278 Y11.252
X142.274 Y90.409
X142.134 Y91.651
X141.749 Y92.751
X141.734 Y92.778
X141.132 Y93.736
X140.294 Y94.58
X140.283 Y94.588
X139.313 Y95.198
X139.105 Y95.274
X138.21 Y95.588
X137.821 Y95.636
X136.879 Y95.738
X17.909
X10.122 Y87.951
Y13.649
X10.151 Y13.62
X17.563 Y6.208
X17.582 Y6.197
X17.603
X17.621 Y6.208
X17.631 Y6.226
Y6.248
X17.586 Y6.397
X17.479 Y6.489
X17.458 Y6.499
X17.436 Y6.495
X17.419 Y6.481
X17.412 Y6.459
X17.418 Y6.438
X17.494 Y6.327 Z-6.013
X17.583 Y6.225 Z-6.017
X17.683 Y6.136 Z-6.022
X17.794 Y6.058 Z-6.027
X17.912 Y5.994 Z-6.032
X18.037 Y5.945 Z-6.036
X18.167 Y5.911 Z-6.041
X18.301 Y5.892 Z-6.046
X18.435 Y5.889 Z-6.05
X18.569 Y5.902 Z-6.055
X18.701 Y5.931 Z-6.06
X18.828 Y5.976 Z-6.064
X18.949 Y6.035 Z-6.069
X19.062 Y6.108 Z-6.074
X19.166 Y6.194 Z-6.079
X19.258 Y6.291 Z-6.083
X19.339 Y6.399 Z-6.088
X19.406 Y6.516 Z-6.093
X19.459 Y6.639 Z-6.097
X19.497 Y6.768 Z-6.102
X19.52 Y6.901 Z-6.107
X19.526 Y7.036 Z-6.111
X19.517 Y7.17 Z-6.116
X19.492 Y7.302 Z-6.121
X19.451 Y7.431 Z-6.126
X19.396 Y7.553 Z-6.13
X19.326 Y7.668 Z-6.135
X19.243 Y7.774 Z-6.14
X19.148 Y7.87 Z-6.144
X19.043 Y7.954 Z-6.149
X18.928 Y8.024 Z-6.154
X18.806 Y8.081 Z-6.159
X18.678 Y8.123 Z-6.163
X18.546 Y8.149 Z-6.168
X18.412 Y8.16 Z-6.173
X18.278 Y8.154 Z-6.177
X18.145 Y8.133 Z-6.182
X18.015 Y8.096 Z-6.187
X17.891 Y8.044 Z-6.191
X17.774 Y7.977 Z-6.196
X17.665 Y7.898 Z-6.201
X17.567 Y7.806 Z-6.206
X17.48 Y7.703 Z-6.21
X17.406 Y7.59 Z-6.215
X17.346 Y7.47 Z-6.22
X17.301 Y7.343 Z-6.224
X17.271 Y7.212 Z-6.229
X17.256 Y7.078 Z-6.234
X17.258 Y6.943 Z-6.238
X17.276 Y6.81 Z-6.243
X17.309 Y6.68 Z-6.248
X17.357 Y6.554 Z-6.253
X17.42 Y6.435 Z-6.257
X17.496 Y6.324 Z-6.262
X17.586 Y6.223 Z-6.267
X17.686 Y6.134 Z-6.271
X17.796 Y6.056 Z-6.276
X17.915 Y5.993 Z-6.281
X18.04 Y5.944 Z-6.286
X18.171 Y5.91 Z-6.29
X18.304 Y5.892 Z-6.295
X18.439 Y5.889 Z-6.3
X18.572 Y5.903 Z-6.304
X18.704 Y5.932 Z-6.309
X18.831 Y5.977 Z-6.314
X18.952 Y6.036 Z-6.318
X19.065 Y6.11 Z-6.323
X19.168 Y6.196 Z-6.328
X19.261 Y6.294 Z-6.333
X19.341 Y6.402 Z-6.337
X19.408 Y6.518 Z-6.342
X19.46 Y6.642 Z-6.347
X19.498 Y6.772 Z-6.351
X19.52 Y6.904 Z-6.356
X19.526 Y7.039 Z-6.361
X19.517 Y7.173 Z-6.365
X19.491 Y7.305 Z-6.37
X19.45 Y7.434 Z-6.375
X19.394 Y7.556 Z-6.38
X19.324 Y7.671 Z-6.384
X19.241 Y7.777 Z-6.389
X19.146 Y7.872 Z-6.394
X19.04 Y7.956 Z-6.398
X18.926 Y8.026 Z-6.403
X18.803 Y8.082 Z-6.408
X18.675 Y8.124 Z-6.413
X18.543 Y8.149 Z-6.417
X18.409 Y8.16 Z-6.422
X18.274 Y8.154 Z-6.427
X18.142 Y8.132 Z-6.431
X18.012 Y8.095 Z-6.436
X17.888 Y8.042 Z-6.441
X17.771 Y7.976 Z-6.445
X17.663 Y7.896 Z-6.45
X17.565 Y7.803 Z-6.455
X17.478 Y7.7 Z-6.46
X17.405 Y7.588 Z-6.464
X17.345 Y7.467 Z-6.469
X17.3 Y7.34 Z-6.474
X17.27 Y7.209 Z-6.478
X17.256 Y7.075 Z-6.483
X17.258 Y6.94 Z-6.488
X17.276 Y6.807 Z-6.492
X17.31 Y6.677 Z-6.497
X17.358 Y6.551 Z-6.502
X17.422 Y6.432 Z-6.507
X17.498 Y6.322 Z-6.511
X17.588 Y6.221 Z-6.516
X17.92 Y5.888
X136.94 Y5.891
X138.185 Y6.032
X139.28 Y6.415
X139.307 Y6.43
X140.282 Y7.045
X141.09 Y7.853
X141.723 Y8.854
X142.107 Y9.951
X142.109 Y9.965
X142.252 Y11.252
X142.248 Y90.409
X142.111 Y91.625
X141.955 Y92.082
X141.728 Y92.731
X141.604 Y92.935
X141.091 Y93.746
X140.282 Y94.555
X139.286 Y95.183
X138.188 Y95.567
X138.175 Y95.569
X137.447 Y95.649
X136.878 Y95.712
X17.92
X10.148 Y87.94
Y13.66
X17.588 Y6.221
G3 X17.871 R0.2
X17.896 Y6.252 R0.2
G1 X18.903 Y7.784
G3 X18.846 Y8.061 R0.2
X18.808 Y8.08 R0.2
G1 X18.744 Y8.107
X18.683 Y8.139
X18.557 Y8.209
X18.489 Y8.251
X18.424 Y8.298
X18.285 Y8.407
X18.197 Y8.485
X12.752 Y13.93
X12.682 Y14.008
X12.575 Y14.14
X12.528 Y14.203
X12.486 Y14.269
X12.414 Y14.395
X12.374 Y14.471
X12.341 Y14.551
X12.272 Y14.739
X12.243 Y14.832
X12.223 Y14.928
X12.194 Y15.116
X12.185 Y15.193
X12.182 Y15.27
Y86.33
X12.185 Y86.407
X12.194 Y86.484
X12.223 Y86.672
X12.243 Y86.768
X12.272 Y86.861
X12.341 Y87.049
X12.374 Y87.129
X12.414 Y87.206
X12.486 Y87.331
X12.528 Y87.397
X12.575 Y87.46
X12.682 Y87.592
X12.752 Y87.67
X18.235 Y93.149
X18.302 Y93.21
X18.373 Y93.264
X18.537 Y93.377
X18.622 Y93.43
X18.713 Y93.475
X18.901 Y93.555
X18.995 Y93.589
X19.091 Y93.614
X19.279 Y93.654
X19.374 Y93.669
X19.47 Y93.674
X19.972 Y93.68
X19.984
X137.121 Y93.679
X137.188 Y93.677
X137.254 Y93.671
X137.442 Y93.645
X137.541 Y93.627
X137.917 Y93.538
X137.972 Y93.523
X138.268 Y93.435
X138.352 Y93.405
X138.434 Y93.368
X138.569 Y93.3
X138.625 Y93.269
X138.678 Y93.236
X138.92 Y93.072
X139.017 Y92.997
X139.098 Y92.926
X139.154 Y92.873
X139.493 Y92.526
X139.554 Y92.457
X139.608 Y92.384
X139.799 Y92.099
X139.841 Y92.031
X139.877 Y91.959
X139.94 Y91.822
X139.971 Y91.746
X139.996 Y91.668
X140.132 Y91.167
X140.151 Y91.086
X140.197 Y90.835
X140.208 Y90.757
X140.213 Y90.679
X140.22 Y90.428
Y90.403
X140.219 Y11.009
X140.216 Y10.927
X140.21 Y10.865
X140.197 Y10.765
X140.151 Y10.514
X140.132 Y10.433
X139.996 Y9.932
X139.971 Y9.854
X139.94 Y9.778
X139.877 Y9.641
X139.841 Y9.569
X139.799 Y9.501
X139.608 Y9.216
X139.554 Y9.143
X139.493 Y9.074
X139.154 Y8.727
X139.098 Y8.674
X139.017 Y8.603
X138.965 Y8.561
X138.91 Y8.522
X138.624 Y8.332
X138.553 Y8.29
X138.479 Y8.253
X138.344 Y8.193
X138.272 Y8.164
X138.197 Y8.141
X137.695 Y8.005
X137.614 Y7.987
X137.363 Y7.941
X137.276 Y7.929
X137.188 Y7.925
X135.934 Y7.92
X19.545 Y7.921
X19.475 Y7.923
X19.405 Y7.931
X19.217 Y7.957
X19.121 Y7.976
X19.027 Y8.003
X18.839 Y8.069
X18.808 Y8.08
G3 X18.632 Y8.002 R0.137
X18.703 Y7.828 R0.137
G1 X19.022 Y7.684
X19.046 Y7.676
X19.07 Y7.672
X19.073
X19.229 Y7.674
X19.247 Y7.68
X19.259 Y7.694
X19.262 Y7.713
X19.255 Y7.73
X19.165 Y7.827 Z-6.521
X19.065 Y7.913 Z-6.525
X18.955 Y7.987 Z-6.53
X18.837 Y8.047 Z-6.534
X18.713 Y8.092 Z-6.539
X18.585 Y8.123 Z-6.544
X18.453 Y8.138 Z-6.548
X18.321 Y8.137 Z-6.553
X18.19 Y8.121 Z-6.558
X18.062 Y8.09 Z-6.562
X17.938 Y8.043 Z-6.567
X17.821 Y7.982 Z-6.571
X17.712 Y7.907 Z-6.576
X17.612 Y7.82 Z-6.581
X17.524 Y7.722 Z-6.585
X17.447 Y7.614 Z-6.59
X17.384 Y7.498 Z-6.595
X17.336 Y7.375 Z-6.599
X17.302 Y7.247 Z-6.604
X17.283 Y7.117 Z-6.608
X17.281 Y6.984 Z-6.613
X17.294 Y6.853 Z-6.618
X17.322 Y6.724 Z-6.622
X17.366 Y6.599 Z-6.627
X17.424 Y6.48 Z-6.631
X17.495 Y6.369 Z-6.636
X17.58 Y6.268 Z-6.641
X17.676 Y6.177 Z-6.645
X17.782 Y6.098 Z-6.65
X17.896 Y6.032 Z-6.655
X18.018 Y5.98 Z-6.659
X18.145 Y5.943 Z-6.664
X18.275 Y5.921 Z-6.668
X18.407 Y5.915 Z-6.673
X18.539 Y5.925 Z-6.678
X18.669 Y5.95 Z-6.682
X18.794 Y5.99 Z-6.687
X18.915 Y6.045 Z-6.691
X19.027 Y6.114 Z-6.696
X19.131 Y6.196 Z-6.701
X19.225 Y6.289 Z-6.705
X19.306 Y6.393 Z-6.71
X19.375 Y6.506 Z-6.715
X19.43 Y6.627 Z-6.719
X19.47 Y6.752 Z-6.724
X19.495 Y6.882 Z-6.728
X19.505 Y7.014 Z-6.733
X19.498 Y7.146 Z-6.738
X19.476 Y7.276 Z-6.742
X19.439 Y7.403 Z-6.747
X19.387 Y7.525 Z-6.752
X19.321 Y7.639 Z-6.756
X19.242 Y7.745 Z-6.761
X19.151 Y7.841 Z-6.765
X19.049 Y7.925 Z-6.77
X18.938 Y7.997 Z-6.775
X18.819 Y8.055 Z-6.779
X18.694 Y8.098 Z-6.784
X18.565 Y8.126 Z-6.788
X18.434 Y8.139 Z-6.793
X18.302 Y8.136 Z-6.798
X18.171 Y8.117 Z-6.802
X18.043 Y8.084 Z-6.807
X17.92 Y8.035 Z-6.812
X17.804 Y7.972 Z-6.816
X17.696 Y7.895 Z-6.821
X17.598 Y7.806 Z-6.825
X17.511 Y7.707 Z-6.83
X17.437 Y7.598 Z-6.835
X17.376 Y7.48 Z-6.839
X17.33 Y7.356 Z-6.844
X17.298 Y7.228 Z-6.849
X17.282 Y7.097 Z-6.853
Y6.965 Z-6.858
X17.297 Y6.833 Z-6.862
X17.328 Y6.705 Z-6.867
X17.373 Y6.581 Z-6.872
X17.433 Y6.463 Z-6.876
X17.507 Y6.354 Z-6.881
X17.593 Y6.253 Z-6.885
X17.691 Y6.164 Z-6.89
X17.798 Y6.087 Z-6.895
X17.914 Y6.023 Z-6.899
X18.036 Y5.973 Z-6.904
X18.164 Y5.939 Z-6.909
X18.295 Y5.919 Z-6.913
X18.427 Y5.915 Z-6.918
X18.558 Y5.927 Z-6.922
X18.688 Y5.955 Z-6.927
X18.813 Y5.997 Z-6.932
X18.932 Y6.055 Z-6.936
X19.043 Y6.126 Z-6.941
X19.146 Y6.209 Z-6.945
X19.238 Y6.304 Z-6.95
X19.317 Y6.41 Z-6.955
X19.384 Y6.524 Z-6.959
X19.437 Y6.645 Z-6.964
X19.475 Y6.771 Z-6.969
X19.498 Y6.902 Z-6.973
X19.505 Y7.034 Z-6.978
X19.496 Y7.166 Z-6.982
X19.472 Y7.296 Z-6.987
X19.432 Y7.422 Z-6.992
X19.378 Y7.542 Z-6.996
X19.31 Y7.656 Z-7.001
X19.229 Y7.76 Z-7.006
X19.136 Y7.854 Z-7.01
X19.033 Y7.937 Z-7.015
X18.921 Y8.006 Z-7.019
X18.801 Y8.062 Z-7.024
X18.69 Y8.114
X18.564 Y8.182
X18.503 Y8.219
X18.445 Y8.259
X18.331 Y8.344
X18.275 Y8.389
X18.223 Y8.438
X12.752 Y13.904
X12.687 Y13.976
X12.558 Y14.133
X12.505 Y14.203
X12.459 Y14.277
X12.388 Y14.402
X12.349 Y14.479
X12.317 Y14.558
X12.25 Y14.746
X12.221 Y14.84
X12.202 Y14.935
X12.174 Y15.123
X12.166 Y15.197
X12.163 Y15.27
Y86.33
X12.166 Y86.403
X12.174 Y86.477
X12.202 Y86.665
X12.221 Y86.761
X12.25 Y86.854
X12.317 Y87.042
X12.349 Y87.122
X12.388 Y87.198
X12.459 Y87.323
X12.505 Y87.397
X12.558 Y87.467
X12.687 Y87.624
X12.752 Y87.696
X18.223 Y93.162
X18.275 Y93.211
X18.331 Y93.256
X18.445 Y93.341
X18.503 Y93.381
X18.564 Y93.418
X18.69 Y93.486
X18.767 Y93.524
X18.846 Y93.555
X19.035 Y93.619
X19.128 Y93.646
X19.224 Y93.663
X19.412 Y93.688
X19.478 Y93.695
X19.545 Y93.697
X137.121
X137.188 Y93.695
X137.254 Y93.688
X137.442 Y93.663
X137.537 Y93.646
X137.914 Y93.558
X137.973 Y93.542
X138.277 Y93.45
X138.371 Y93.417
X138.46 Y93.375
X138.619 Y93.29
X138.72 Y93.229
X138.974 Y93.053
X139.044 Y92.999
X139.109 Y92.94
X139.471 Y92.579
X139.53 Y92.515
X139.583 Y92.445
X139.759 Y92.194
X139.818 Y92.1
X139.906 Y91.939
X139.946 Y91.858
X139.978 Y91.773
X140.037 Y91.594
X140.056 Y91.53
X140.153 Y91.154
X140.168 Y91.086
X140.215 Y90.835
X140.226 Y90.757
X140.231 Y90.679
X140.238 Y90.428
Y90.403
X140.237 Y11.009
X140.233 Y10.927
X140.228 Y10.865
X140.215 Y10.765
X140.169 Y10.514
X140.151 Y10.436
X140.016 Y9.935
X139.989 Y9.85
X139.955 Y9.768
X139.879 Y9.608
X139.844 Y9.541
X139.805 Y9.476
X139.624 Y9.208
X139.554 Y9.115
X139.492 Y9.043
X139.434 Y8.981
X139.104 Y8.656
X139.037 Y8.596
X138.965 Y8.542
X138.659 Y8.333
X138.588 Y8.289
X138.513 Y8.251
X138.354 Y8.178
X138.275 Y8.146
X138.194 Y8.12
X137.692 Y7.987
X137.614 Y7.969
X137.363 Y7.924
X137.276 Y7.912
X137.188 Y7.907
X135.934 Y7.902
X19.545 Y7.903
X19.478 Y7.905
X19.412 Y7.912
X19.224 Y7.937
X19.128 Y7.954
X19.035 Y7.981
X18.846 Y8.045
X18.801 Y8.062
G3 X18.561 Y7.987 R0.2
G1 X17.574 Y6.499
G3 X17.599 Y6.247 R0.2
G1 X17.931 Y5.915
X135.929 Y5.918
X136.94
X138.161 Y6.056
X138.381 Y6.128
X139.257 Y6.435
X140.271 Y7.071
X141.065 Y7.865
X141.702 Y8.876
X142.084 Y9.978
X142.225 Y11.252
X142.221 Y90.409
X142.084 Y91.622
X141.702 Y92.724
X141.065 Y93.735
X140.271 Y94.529
X139.257 Y95.165
X138.183 Y95.541
X138.17 Y95.543
X136.878 Y95.685
X17.931
X10.175 Y87.929
Y13.671
X17.599 Y6.247
X17.634 Y6.26
X17.641 Y6.244
X17.74 Y6.159 Z-7.029
X17.85 Y6.087 Z-7.033
X17.967 Y6.029 Z-7.038
X18.09 Y5.985 Z-7.042
X18.218 Y5.956 Z-7.047
X18.348 Y5.943 Z-7.051
X18.479 Y5.945 Z-7.056
X18.609 Y5.963 Z-7.061
X18.736 Y5.996 Z-7.065
X18.858 Y6.045 Z-7.07
X18.973 Y6.107 Z-7.074
X19.079 Y6.183 Z-7.079
X19.176 Y6.271 Z-7.083
X19.262 Y6.37 Z-7.088
X19.335 Y6.479 Z-7.093
X19.395 Y6.596 Z-7.097
X19.44 Y6.719 Z-7.102
X19.47 Y6.846 Z-7.106
X19.484 Y6.976 Z-7.111
X19.483 Y7.107 Z-7.116
X19.467 Y7.237 Z-7.12
X19.434 Y7.364 Z-7.125
X19.387 Y7.486 Z-7.129
X19.326 Y7.602 Z-7.134
X19.251 Y7.709 Z-7.138
X19.164 Y7.807 Z-7.143
X19.066 Y7.894 Z-7.148
X18.958 Y7.968 Z-7.152
X18.841 Y8.029 Z-7.157
X18.719 Y8.075 Z-7.161
X18.592 Y8.106 Z-7.166
X18.462 Y8.122 Z-7.17
X18.331 Z-7.175
X18.201 Y8.107 Z-7.18
X18.074 Y8.076 Z-7.184
X17.951 Y8.03 Z-7.189
X17.835 Y7.97 Z-7.193
X17.726 Y7.896 Z-7.198
X17.628 Y7.81 Z-7.202
X17.54 Y7.712 Z-7.207
X17.465 Y7.605 Z-7.212
X17.403 Y7.49 Z-7.216
X17.356 Y7.368 Z-7.221
X17.323 Y7.241 Z-7.225
X17.306 Y7.111 Z-7.23
X17.304 Y6.98 Z-7.235
X17.319 Y6.85 Z-7.239
X17.348 Y6.722 Z-7.244
X17.393 Y6.599 Z-7.248
X17.452 Y6.482 Z-7.253
X17.525 Y6.373 Z-7.257
X17.61 Y6.274 Z-7.262
X17.707 Y6.185 Z-7.267
X17.813 Y6.109 Z-7.271
X17.928 Y6.046 Z-7.276
X18.05 Y5.997 Z-7.28
X18.176 Y5.964 Z-7.285
X18.306 Y5.945 Z-7.289
X18.437 Y5.942 Z-7.294
X18.567 Y5.955 Z-7.299
X18.695 Y5.984 Z-7.303
X18.819 Y6.027 Z-7.308
X18.936 Y6.085 Z-7.312
X19.046 Y6.157 Z-7.317
X19.146 Y6.241 Z-7.321
X19.235 Y6.337 Z-7.326
X19.313 Y6.443 Z-7.331
X19.377 Y6.557 Z-7.335
X19.427 Y6.678 Z-7.34
X19.462 Y6.804 Z-7.344
X19.481 Y6.934 Z-7.349
X19.485 Y7.065 Z-7.354
X19.474 Y7.195 Z-7.358
X19.447 Y7.323 Z-7.363
X19.404 Y7.447 Z-7.367
X19.347 Y7.565 Z-7.372
X19.277 Y7.676 Z-7.376
X19.193 Y7.777 Z-7.381
X19.098 Y7.867 Z-7.386
X18.994 Y7.945 Z-7.39
X18.88 Y8.01 Z-7.395
X18.759 Y8.062 Z-7.399
X18.633 Y8.098 Z-7.404
X18.504 Y8.119 Z-7.408
X18.373 Y8.124 Z-7.413
X18.243 Y8.114 Z-7.418
X18.114 Y8.088 Z-7.422
X17.99 Y8.047 Z-7.427
X17.871 Y7.991 Z-7.431
X17.761 Y7.921 Z-7.436
X17.659 Y7.839 Z-7.44
X17.567 Y7.745 Z-7.445
X17.488 Y7.641 Z-7.45
X17.422 Y7.528 Z-7.454
X17.37 Y7.408 Z-7.459
X17.332 Y7.282 Z-7.463
X17.31 Y7.153 Z-7.468
X17.303 Y7.022 Z-7.473
X17.312 Y6.892 Z-7.477
X17.337 Y6.763 Z-7.482
X17.377 Y6.638 Z-7.486
X17.432 Y6.519 Z-7.491
X17.5 Y6.408 Z-7.495
X17.581 Y6.305 Z-7.5
X17.675 Y6.213 Z-7.505
X17.778 Y6.132 Z-7.509
X17.89 Y6.065 Z-7.514
X18.01 Y6.012 Z-7.518
X18.135 Y5.973 Z-7.523
X18.264 Y5.949 Z-7.527
X18.395 Y5.942 Z-7.532
X136.94 Y5.945
X138.154 Y6.081
X139.261 Y6.465
X139.274 Y6.472
X140.257 Y7.094
X141.05 Y7.887
X141.113 Y7.982
X141.674 Y8.875
X142.057 Y9.978
X142.198 Y11.252
X142.194 Y90.409
X142.058 Y91.621
X141.68 Y92.709
X141.573 Y92.886
X141.06 Y93.702
X140.257 Y94.506
X139.264 Y95.134
X138.155 Y95.518
X136.878 Y95.658
X19.608
X17.943
X10.205 Y87.921
Y13.679
X17.942 Y5.942
X18.395
G3 X18.591 Y6.102 R0.2
G1 X18.936 Y7.815
G3 X18.815 Y8.04 R0.2
G1 X18.728 Y8.076
X18.648 Y8.112
X18.572 Y8.156
X18.446 Y8.235
X18.381 Y8.28
X18.32 Y8.33
X18.194 Y8.441
X18.146 Y8.485
X12.752 Y13.88
X12.716 Y13.918
X12.608 Y14.038
X12.559 Y14.096
X12.515 Y14.158
X12.433 Y14.284
X12.387 Y14.36
X12.349 Y14.44
X12.269 Y14.628
X12.235 Y14.721
X12.21 Y14.817
X12.171 Y15.005
X12.156 Y15.1
X12.15 Y15.196
X12.144 Y15.697
Y15.709
X12.145 Y86.33
X12.148 Y86.4
X12.155 Y86.47
X12.182 Y86.658
X12.2 Y86.753
X12.228 Y86.847
X12.293 Y87.035
X12.325 Y87.114
X12.363 Y87.191
X12.432 Y87.316
X12.471 Y87.38
X12.514 Y87.441
X12.608 Y87.563
X12.65 Y87.613
X12.694 Y87.661
X18.21 Y93.175
X18.263 Y93.225
X18.319 Y93.27
X18.445 Y93.364
X18.522 Y93.415
X18.602 Y93.46
X18.79 Y93.552
X18.883 Y93.592
X18.98 Y93.622
X19.168 Y93.671
X19.26 Y93.691
X19.354 Y93.701
X19.543 Y93.714
X19.608 Y93.716
X137.121 Y93.715
X137.188 Y93.713
X137.254 Y93.706
X137.442 Y93.681
X137.534 Y93.664
X137.91 Y93.578
X137.956 Y93.566
X138.207 Y93.496
X138.286 Y93.47
X138.363 Y93.437
X138.545 Y93.352
X138.611 Y93.317
X138.674 Y93.279
X138.929 Y93.108
X138.999 Y93.057
X139.064 Y93.005
X139.145 Y92.933
X139.464 Y92.615
X139.511 Y92.564
X139.555 Y92.511
X139.652 Y92.382
X139.697 Y92.318
X139.858 Y92.067
X139.897 Y92.001
X139.931 Y91.931
X139.985 Y91.809
X140.013 Y91.737
X140.036 Y91.662
X140.169 Y91.161
X140.186 Y91.086
X140.233 Y90.835
X140.244 Y90.757
X140.249 Y90.679
X140.255 Y90.428
X140.256 Y90.403
X140.254 Y11.009
X140.251 Y10.927
X140.246 Y10.865
X140.233 Y10.765
X140.186 Y10.514
X140.169 Y10.439
X140.036 Y9.938
X140.007 Y9.847
X139.97 Y9.759
X139.881 Y9.575
X139.848 Y9.513
X139.811 Y9.453
X139.64 Y9.2
X139.584 Y9.124
X139.531 Y9.06
X139.464 Y8.985
X139.145 Y8.667
X139.092 Y8.618
X139.036 Y8.573
X138.906 Y8.477
X138.845 Y8.435
X138.594 Y8.275
X138.525 Y8.235
X138.453 Y8.201
X138.332 Y8.149
X138.262 Y8.122
X138.191 Y8.1
X137.689 Y7.968
X137.614 Y7.951
X137.363 Y7.906
X137.276 Y7.894
X137.188 Y7.89
X135.934 Y7.884
X19.482 Y7.889
X19.387 Y7.893
X19.294 Y7.907
X19.105 Y7.943
X19.009 Y7.966
X18.916 Y7.999
X18.815 Y8.04
X18.776 Y8.049
X18.735 Y8.043
X18.699 Y8.025
X18.671 Y7.995
X18.655 Y7.957
X18.652 Y7.917
X18.664 Y7.878
X18.89 Y7.421
X19.253 Y7.076
X19.287 Y7.054
X19.328 Y7.044
X19.369 Y7.049
X19.406 Y7.068
X19.434 Y7.099
X19.45 Y7.137
X19.452 Y7.179
X19.427 Y7.306 Z-7.537
X19.387 Y7.429 Z-7.541
X19.332 Y7.547 Z-7.546
X19.263 Y7.657 Z-7.55
X19.182 Y7.758 Z-7.555
X19.089 Y7.848 Z-7.559
X18.985 Y7.927 Z-7.564
X18.873 Y7.992 Z-7.568
X18.753 Y8.043 Z-7.573
X18.629 Y8.079 Z-7.577
X18.501 Y8.1 Z-7.582
X18.371 Y8.105 Z-7.586
X18.242 Y8.095 Z-7.591
X18.114 Y8.068 Z-7.596
X17.991 Y8.027 Z-7.6
X17.874 Y7.971 Z-7.605
X17.765 Y7.901 Z-7.609
X17.665 Y7.818 Z-7.614
X17.576 Y7.724 Z-7.618
X17.498 Y7.62 Z-7.623
X17.434 Y7.507 Z-7.627
X17.385 Y7.387 Z-7.632
X17.35 Y7.262 Z-7.636
X17.33 Y7.134 Z-7.641
X17.327 Y7.004 Z-7.645
X17.339 Y6.875 Z-7.65
X17.366 Y6.748 Z-7.654
X17.409 Y6.625 Z-7.659
X17.466 Y6.509 Z-7.664
X17.537 Y6.4 Z-7.668
X17.621 Y6.301 Z-7.673
X17.716 Y6.213 Z-7.677
X17.821 Y6.137 Z-7.682
X17.935 Y6.074 Z-7.686
X18.056 Y6.025 Z-7.691
X18.181 Y5.992 Z-7.695
X18.309 Y5.974 Z-7.7
X18.439 Y5.971 Z-7.704
X18.568 Y5.985 Z-7.709
X18.695 Y6.014 Z-7.713
X18.817 Y6.058 Z-7.718
X18.933 Y6.116 Z-7.723
X19.041 Y6.189 Z-7.727
X19.139 Y6.273 Z-7.732
X19.226 Y6.37 Z-7.736
X19.301 Y6.476 Z-7.741
X19.363 Y6.59 Z-7.745
X19.41 Y6.711 Z-7.75
X19.442 Y6.836 Z-7.754
X19.459 Y6.965 Z-7.759
X19.46 Y7.095 Z-7.763
X19.445 Y7.224 Z-7.768
X19.415 Y7.35 Z-7.772
X19.369 Y7.472 Z-7.777
X19.309 Y7.587 Z-7.781
X19.236 Y7.694 Z-7.786
X19.15 Y7.791 Z-7.791
X19.053 Y7.878 Z-7.795
X18.946 Y7.951 Z-7.8
X18.831 Y8.012 Z-7.804
X18.71 Y8.058 Z-7.809
X18.584 Y8.089 Z-7.813
X18.455 Y8.104 Z-7.818
X18.325 Y8.103 Z-7.822
X18.196 Y8.087 Z-7.827
X18.07 Y8.055 Z-7.831
X17.949 Y8.009 Z-7.836
X17.835 Y7.948 Z-7.84
X17.729 Y7.873 Z-7.845
X17.632 Y7.786 Z-7.85
X17.547 Y7.688 Z-7.854
X17.474 Y7.581 Z-7.859
X17.415 Y7.465 Z-7.863
X17.371 Y7.343 Z-7.868
X17.341 Y7.217 Z-7.872
X17.327 Y7.088 Z-7.877
X17.329 Y6.958 Z-7.881
X17.347 Y6.829 Z-7.886
X17.38 Y6.704 Z-7.89
X17.428 Y6.583 Z-7.895
X17.49 Y6.469 Z-7.899
X17.566 Y6.364 Z-7.904
X17.654 Y6.268 Z-7.908
X17.752 Y6.184 Z-7.913
X17.861 Y6.113 Z-7.918
X17.977 Y6.055 Z-7.922
X18.099 Y6.012 Z-7.927
X18.226 Y5.984 Z-7.931
X18.355 Y5.971 Z-7.936
X18.485 Y5.974 Z-7.94
X18.613 Y5.993 Z-7.945
X18.739 Y6.028 Z-7.949
X18.859 Y6.077 Z-7.954
X18.972 Y6.14 Z-7.958
X19.077 Y6.217 Z-7.963
X19.171 Y6.306 Z-7.967
X19.254 Y6.406 Z-7.972
X19.324 Y6.515 Z-7.976
X19.381 Y6.632 Z-7.981
X19.423 Y6.755 Z-7.986
X19.45 Y6.882 Z-7.99
X19.461 Y7.011 Z-7.995
X19.456 Y7.141 Z-7.999
X19.436 Y7.269 Z-8.004
X19.4 Y7.394 Z-8.008
X19.35 Y7.513 Z-8.013
X19.285 Y7.626 Z-8.017
X19.207 Y7.73 Z-8.022
X19.117 Y7.823 Z-8.026
X19.016 Y7.905 Z-8.031
X18.906 Y7.974 Z-8.035
X18.789 Y8.03 Z-8.04
X18.735 Y8.051
X18.645 Y8.093
X18.559 Y8.143
X18.395 Y8.25
X18.315 Y8.308
X18.24 Y8.375
X17.625 Y8.981
X17.62 Y8.986
X12.752 Y13.854
X12.718 Y13.891
X12.587 Y14.035
X12.534 Y14.099
X12.487 Y14.166
X12.406 Y14.291
X12.362 Y14.367
X12.324 Y14.447
X12.246 Y14.635
X12.212 Y14.728
X12.188 Y14.824
X12.151 Y15.012
X12.136 Y15.109
X12.132 Y15.207
X12.127 Y24.231
Y86.33
X12.129 Y86.396
X12.136 Y86.462
X12.161 Y86.65
X12.179 Y86.746
X12.205 Y86.839
X12.269 Y87.027
X12.3 Y87.107
X12.338 Y87.183
X12.406 Y87.309
X12.446 Y87.376
X12.491 Y87.44
X12.595 Y87.575
X12.636 Y87.626
X12.681 Y87.673
X18.197 Y93.188
X18.251 Y93.238
X18.308 Y93.284
X18.446 Y93.387
X18.525 Y93.44
X18.609 Y93.485
X18.798 Y93.576
X18.891 Y93.615
X18.987 Y93.645
X19.175 Y93.692
X19.238 Y93.706
X19.302 Y93.715
X19.365 Y93.723
X19.482 Y93.73
X137.121 Y93.733
X137.188 Y93.73
X137.254 Y93.724
X137.442 Y93.699
X137.53 Y93.683
X137.906 Y93.598
X137.955 Y93.585
X138.206 Y93.515
X138.273 Y93.494
X138.337 Y93.468
X138.473 Y93.409
X138.547 Y93.373
X138.618 Y93.331
X138.926 Y93.131
X138.982 Y93.092
X139.035 Y93.05
X139.178 Y92.926
X139.239 Y92.869
X139.496 Y92.607
X139.553 Y92.544
X139.604 Y92.476
X139.808 Y92.181
X139.865 Y92.09
X139.94 Y91.952
X139.989 Y91.848
X140.017 Y91.779
X140.038 Y91.72
X140.056 Y91.659
X140.188 Y91.158
X140.204 Y91.086
X140.25 Y90.835
X140.262 Y90.757
X140.267 Y90.679
X140.273 Y90.428
Y90.403
X140.272 Y11.009
X140.269 Y10.927
X140.264 Y10.865
X140.25 Y10.765
X140.204 Y10.514
X140.188 Y10.442
X140.056 Y9.941
X140.032 Y9.862
X140.002 Y9.785
X139.94 Y9.648
X139.905 Y9.577
X139.864 Y9.51
X139.663 Y9.202
X139.613 Y9.133
X139.569 Y9.077
X139.488 Y8.985
X139.145 Y8.643
X139.078 Y8.582
X139.006 Y8.528
X138.708 Y8.323
X138.61 Y8.264
X138.474 Y8.191
X138.37 Y8.144
X138.302 Y8.117
X138.188 Y8.08
X137.686 Y7.95
X137.614 Y7.934
X137.363 Y7.888
X137.276 Y7.876
X137.188 Y7.872
X135.934 Y7.867
X19.482 Y7.87
X19.391 Y7.874
X19.301 Y7.887
X19.113 Y7.921
X19.017 Y7.944
X18.924 Y7.976
X18.789 Y8.03
G3 X18.549 Y7.955 R0.2
G1 X17.607 Y6.542
G3 X17.632 Y6.29 R0.2
G1 X17.951 Y5.97
X136.94 Y5.971
X138.153 Y6.108
X139.26 Y6.494
X140.208 Y7.09
X141.048 Y7.928
X141.643 Y8.876
X142.031 Y9.98
X142.172 Y11.252
X142.168 Y90.409
X142.031 Y91.619
X141.643 Y92.724
X141.047 Y93.672
X140.208 Y94.51
X139.26 Y95.106
X138.154 Y95.492
X136.878 Y95.632
X17.951 Y95.63
X10.228 Y87.906
Y13.694
X16.278 Y7.644
X17.632 Y6.29
X17.668 Y6.264
X17.711 Y6.251
X17.755 Y6.253
X17.797 Y6.269
X17.831 Y6.297
X17.854 Y6.336
X17.863 Y6.379
X17.889 Y6.981
X17.763 Y7.56
X17.746 Y7.602
X17.717 Y7.636
X17.677 Y7.658
X17.633 Y7.666
X17.588 Y7.659
X17.548 Y7.637
X17.518 Y7.604
X17.455 Y7.491 Z-8.044
X17.407 Y7.372 Z-8.049
X17.373 Y7.248 Z-8.053
X17.356 Y7.12 Z-8.058
X17.354 Y6.992 Z-8.062
X17.367 Y6.864 Z-8.067
X17.397 Y6.738 Z-8.071
X17.441 Y6.618 Z-8.076
X17.501 Y6.504 Z-8.08
X17.573 Y6.397 Z-8.085
X17.658 Y6.301 Z-8.089
X17.755 Y6.216 Z-8.094
X17.861 Y6.143 Z-8.098
X17.975 Y6.084 Z-8.103
X18.096 Y6.039 Z-8.107
X18.221 Y6.01 Z-8.112
X18.349 Y5.996 Z-8.116
X18.478 Y5.998 Z-8.121
X18.605 Y6.016 Z-8.125
X18.729 Y6.049 Z-8.13
X18.849 Y6.097 Z-8.134
X18.961 Y6.16 Z-8.139
X19.065 Y6.236 Z-8.143
X19.159 Y6.324 Z-8.148
X19.241 Y6.423 Z-8.152
X19.31 Y6.531 Z-8.157
X19.366 Y6.647 Z-8.161
X19.407 Y6.769 Z-8.166
X19.432 Y6.895 Z-8.17
X19.442 Y7.024 Z-8.175
X19.436 Y7.152 Z-8.179
X19.415 Y7.279 Z-8.184
X19.377 Y7.402 Z-8.188
X19.326 Y7.52 Z-8.193
X19.259 Y7.63 Z-8.197
X19.18 Y7.732 Z-8.202
X19.089 Y7.823 Z-8.206
X18.988 Y7.902 Z-8.211
X18.878 Y7.968 Z-8.215
X18.76 Y8.02 Z-8.22
X18.637 Y8.057 Z-8.224
X18.51 Y8.079 Z-8.229
X18.381 Y8.085 Z-8.233
X18.253 Y8.075 Z-8.238
X18.127 Y8.049 Z-8.242
X18.005 Y8.008 Z-8.247
X17.889 Y7.953 Z-8.251
X17.781 Y7.883 Z-8.256
X17.682 Y7.801 Z-8.26
X17.594 Y7.707 Z-8.265
X17.518 Y7.604 Z-8.269
X17.455 Y7.491 Z-8.274
X17.407 Y7.372 Z-8.278
X17.373 Y7.248 Z-8.283
X17.356 Y7.12 Z-8.287
X17.354 Y6.992 Z-8.292
X17.367 Y6.864 Z-8.296
X17.397 Y6.738 Z-8.301
X17.441 Y6.618 Z-8.305
X17.501 Y6.503 Z-8.31
X17.573 Y6.397 Z-8.314
X17.658 Y6.301 Z-8.319
X17.755 Y6.216 Z-8.323
X17.861 Y6.143 Z-8.328
X17.975 Y6.084 Z-8.332
X18.096 Y6.039 Z-8.337
X18.221 Y6.01 Z-8.341
X18.349 Y5.996 Z-8.346
X18.478 Y5.998 Z-8.35
X18.605 Y6.016 Z-8.355
X18.729 Y6.049 Z-8.359
X18.849 Y6.097 Z-8.364
X18.961 Y6.16 Z-8.368
X19.065 Y6.236 Z-8.373
X19.159 Y6.324 Z-8.377
X19.241 Y6.423 Z-8.382
X19.31 Y6.531 Z-8.386
X19.366 Y6.647 Z-8.391
X19.407 Y6.769 Z-8.395
X19.432 Y6.895 Z-8.4
X19.442 Y7.024 Z-8.404
X19.436 Y7.152 Z-8.409
X19.415 Y7.279 Z-8.413
X19.377 Y7.402 Z-8.418
X19.325 Y7.52 Z-8.422
X19.259 Y7.63 Z-8.427
X19.18 Y7.732 Z-8.431
X19.089 Y7.823 Z-8.436
X18.988 Y7.902 Z-8.44
X18.878 Y7.968 Z-8.445
X18.76 Y8.02 Z-8.449
X18.637 Y8.057 Z-8.454
X18.51 Y8.079 Z-8.458
X18.381 Y8.085 Z-8.463
X18.253 Y8.075 Z-8.467
X18.127 Y8.049 Z-8.472
X18.005 Y8.008 Z-8.476
X17.889 Y7.953 Z-8.481
X17.781 Y7.883 Z-8.485
X17.682 Y7.801 Z-8.49
X17.593 Y7.707 Z-8.494
X17.518 Y7.603 Z-8.499
X17.455 Y7.491 Z-8.503
X17.407 Y7.372 Z-8.508
X17.373 Y7.248 Z-8.512
X17.356 Y7.12 Z-8.517
X17.354 Y6.992 Z-8.521
X17.367 Y6.864 Z-8.526
X17.397 Y6.738 Z-8.53
X17.441 Y6.618 Z-8.535
X17.501 Y6.503 Z-8.539
X17.573 Y6.397 Z-8.544
X17.658 Y6.301 Z-8.548
X17.965 Y5.995
X136.94 Y5.998
X138.153 Y6.135
X139.23 Y6.51
X140.192 Y7.112
X140.743 Y7.655
X141.025 Y7.942
X141.629 Y8.906
X142.004 Y9.979
X142.145 Y11.252
X142.141 Y90.409
X142.005 Y91.62
X141.629 Y92.694
X141.026 Y93.656
X140.209 Y94.478
X139.23 Y95.09
X138.154 Y95.465
X136.878 Y95.605
X17.965
X10.255 Y87.895
Y13.705
X16.284 Y7.675
X17.658 Y6.301
G3 X17.941 R0.2
X17.967 Y6.332 R0.2
G1 X18.879 Y7.713
G3 X18.823 Y7.991 R0.2
X18.785 Y8.01 R0.2
G1 X18.743 Y8.027
X18.65 Y8.068
X18.563 Y8.119
X18.393 Y8.228
X18.31 Y8.288
X18.234 Y8.356
X17.6 Y8.982
X17.595 Y8.986
X12.752 Y13.829
X12.734 Y13.848
X12.613 Y13.975
X12.557 Y14.039
X12.507 Y14.108
X12.394 Y14.276
X12.342 Y14.363
X12.3 Y14.455
X12.223 Y14.643
X12.19 Y14.736
X12.167 Y14.832
X12.131 Y15.02
X12.118 Y15.113
X12.113 Y15.208
Y86.392
X12.118 Y86.487
X12.131 Y86.58
X12.167 Y86.768
X12.19 Y86.864
X12.223 Y86.957
X12.3 Y87.145
X12.343 Y87.237
X12.395 Y87.324
X12.507 Y87.492
X12.565 Y87.571
X12.631 Y87.643
X18.184 Y93.201
X18.238 Y93.251
X18.296 Y93.297
X18.447 Y93.409
X18.529 Y93.465
X18.617 Y93.511
X18.805 Y93.6
X18.898 Y93.638
X18.994 Y93.667
X19.183 Y93.713
X19.246 Y93.726
X19.309 Y93.735
X19.372 Y93.742
X19.482 Y93.748
X137.121 Y93.75
X137.188 Y93.748
X137.254 Y93.741
X137.442 Y93.716
X137.526 Y93.701
X137.903 Y93.618
X137.955 Y93.605
X138.206 Y93.535
X138.275 Y93.513
X138.343 Y93.485
X138.494 Y93.418
X138.57 Y93.381
X138.642 Y93.337
X138.992 Y93.104
X139.065 Y93.051
X139.133 Y92.992
X139.412 Y92.723
X139.458 Y92.675
X139.545 Y92.579
X139.593 Y92.523
X139.636 Y92.463
X139.87 Y92.115
X139.912 Y92.045
X139.949 Y91.973
X140.019 Y91.82
X140.048 Y91.749
X140.071 Y91.677
X140.142 Y91.426
X140.152 Y91.384
X140.212 Y91.134
X140.222 Y91.086
X140.268 Y90.835
X140.279 Y90.757
X140.284 Y90.679
X140.291 Y90.428
Y90.403
X140.29 Y11.009
X140.287 Y10.927
X140.281 Y10.865
X140.268 Y10.765
X140.222 Y10.514
X140.212 Y10.466
X140.152 Y10.216
X140.142 Y10.174
X140.071 Y9.923
X140.048 Y9.851
X140.019 Y9.78
X139.949 Y9.628
X139.912 Y9.555
X139.87 Y9.485
X139.636 Y9.137
X139.581 Y9.062
X139.519 Y8.993
X139.198 Y8.666
X139.132 Y8.604
X139.059 Y8.548
X138.739 Y8.323
X138.646 Y8.265
X138.494 Y8.182
X138.438 Y8.153
X138.379 Y8.128
X138.304 Y8.098
X138.206 Y8.065
X137.955 Y7.995
X137.899 Y7.981
X137.46 Y7.886
X137.391 Y7.873
X137.321 Y7.866
X137.133 Y7.852
X137.059 Y7.849
X19.482 Y7.852
X19.395 Y7.856
X19.308 Y7.867
X19.12 Y7.9
X19.024 Y7.922
X18.931 Y7.953
X18.785 Y8.01
G3 X18.597 Y7.927 R0.146
X18.592 Y7.835 R0.146
G1 X18.774 Y7.192
X19.049 Y6.589
G3 X19.242 Y6.517 R0.146
X19.311 Y6.584 R0.146
G1 X19.361 Y6.701 Z-8.552
X19.396 Y6.823 Z-8.557
X19.416 Y6.949 Z-8.561
X19.42 Y7.077 Z-8.566
X19.408 Y7.204 Z-8.57
X19.38 Y7.328 Z-8.575
X19.336 Y7.448 Z-8.579
X19.279 Y7.562 Z-8.584
X19.207 Y7.668 Z-8.588
X19.123 Y7.763 Z-8.593
X19.028 Y7.848 Z-8.597
X18.922 Y7.92 Z-8.601
X18.809 Y7.979 Z-8.606
X18.689 Y8.022 Z-8.61
X18.565 Y8.051 Z-8.615
X18.438 Y8.064 Z-8.619
X18.311 Y8.061 Z-8.624
X18.185 Y8.042 Z-8.628
X18.062 Y8.007 Z-8.633
X17.944 Y7.958 Z-8.637
X17.834 Y7.894 Z-8.642
X17.732 Y7.817 Z-8.646
X17.641 Y7.728 Z-8.65
X17.561 Y7.628 Z-8.655
X17.495 Y7.519 Z-8.659
X17.443 Y7.403 Z-8.664
X17.405 Y7.281 Z-8.668
X17.383 Y7.156 Z-8.673
X17.377 Y7.028 Z-8.677
X17.387 Y6.901 Z-8.682
X17.413 Y6.776 Z-8.686
X17.454 Y6.655 Z-8.691
X17.509 Y6.541 Z-8.695
X17.579 Y6.434 Z-8.7
X17.661 Y6.336 Z-8.704
X17.755 Y6.25 Z-8.708
X17.859 Y6.176 Z-8.713
X17.971 Y6.115 Z-8.717
X18.09 Y6.069 Z-8.722
X18.214 Y6.038 Z-8.726
X18.34 Y6.023 Z-8.731
X18.468 Y6.024 Z-8.735
X18.594 Y6.04 Z-8.74
X18.717 Y6.072 Z-8.744
X18.836 Y6.12 Z-8.749
X18.948 Y6.181 Z-8.753
X19.051 Y6.256 Z-8.757
X19.144 Y6.344 Z-8.762
X19.225 Y6.442 Z-8.766
X19.293 Y6.55 Z-8.771
X19.348 Y6.665 Z-8.775
X19.387 Y6.786 Z-8.78
X19.412 Y6.911 Z-8.784
X19.42 Y7.039 Z-8.789
X19.413 Y7.166 Z-8.793
X19.39 Y7.291 Z-8.798
X19.351 Y7.413 Z-8.802
X19.298 Y7.529 Z-8.806
X19.23 Y7.637 Z-8.811
X19.15 Y7.736 Z-8.815
X19.057 Y7.824 Z-8.82
X18.955 Y7.9 Z-8.824
X18.844 Y7.962 Z-8.829
X18.726 Y8.011 Z-8.833
X18.603 Y8.044 Z-8.838
X18.476 Y8.062 Z-8.842
X18.349 Y8.063 Z-8.847
X18.222 Y8.049 Z-8.851
X18.098 Y8.019 Z-8.855
X17.979 Y7.974 Z-8.86
X17.866 Y7.915 Z-8.864
X17.762 Y7.842 Z-8.869
X17.667 Y7.756 Z-8.873
X17.584 Y7.659 Z-8.878
X17.514 Y7.553 Z-8.882
X17.457 Y7.439 Z-8.887
X17.415 Y7.318 Z-8.891
X17.388 Y7.194 Z-8.896
X17.377 Y7.067 Z-8.9
X17.382 Y6.939 Z-8.904
X17.403 Y6.813 Z-8.909
X17.44 Y6.691 Z-8.913
X17.491 Y6.574 Z-8.918
X17.556 Y6.465 Z-8.922
X17.635 Y6.365 Z-8.927
X17.725 Y6.275 Z-8.931
X17.826 Y6.197 Z-8.936
X17.936 Y6.132 Z-8.94
X18.053 Y6.082 Z-8.945
X18.176 Y6.046 Z-8.949
X18.302 Y6.026 Z-8.954
X18.429 Y6.022 Z-8.958
X18.556 Y6.034 Z-8.962
X18.681 Y6.061 Z-8.967
X18.801 Y6.104 Z-8.971
X18.915 Y6.161 Z-8.976
X19.021 Y6.233 Z-8.98
X19.117 Y6.316 Z-8.985
X19.202 Y6.411 Z-8.989
X19.274 Y6.516 Z-8.994
X19.333 Y6.63 Z-8.998
X19.377 Y6.749 Z-9.003
X19.406 Y6.873 Z-9.007
X19.419 Y7. Z-9.011
X19.417 Y7.128 Z-9.016
X19.398 Y7.254 Z-9.02
X19.364 Y7.377 Z-9.025
X19.315 Y7.495 Z-9.029
X19.252 Y7.605 Z-9.034
X19.175 Y7.707 Z-9.038
X19.086 Y7.799 Z-9.043
X18.987 Y7.878 Z-9.047
X18.878 Y7.945 Z-9.052
X18.762 Y7.998 Z-9.056
X18.75 Y8.002
X18.656 Y8.044
X18.567 Y8.095
X18.391 Y8.207
X18.306 Y8.268
X18.227 Y8.338
X17.575 Y8.982
X17.57 Y8.986
X12.752 Y13.804
X12.736 Y13.821
X12.596 Y13.967
X12.538 Y14.034
X12.485 Y14.106
X12.37 Y14.28
X12.318 Y14.368
X12.275 Y14.462
X12.2 Y14.65
X12.168 Y14.743
X12.146 Y14.839
X12.111 Y15.027
X12.099 Y15.117
X12.095 Y15.208
Y86.392
X12.099 Y86.483
X12.111 Y86.573
X12.146 Y86.761
X12.168 Y86.857
X12.2 Y86.95
X12.275 Y87.138
X12.318 Y87.232
X12.37 Y87.32
X12.485 Y87.494
X12.545 Y87.575
X12.612 Y87.649
X18.172 Y93.214
X18.226 Y93.265
X18.284 Y93.311
X18.447 Y93.432
X18.533 Y93.489
X18.624 Y93.537
X18.812 Y93.624
X18.905 Y93.661
X19.002 Y93.689
X19.19 Y93.733
X19.253 Y93.746
X19.317 Y93.755
X19.379 Y93.761
X19.482 Y93.766
X137.121 Y93.768
X137.188 Y93.766
X137.254 Y93.759
X137.442 Y93.734
X137.523 Y93.72
X137.899 Y93.638
X137.966 Y93.621
X138.258 Y93.536
X138.335 Y93.51
X138.41 Y93.478
X138.535 Y93.418
X138.601 Y93.383
X138.665 Y93.343
X139.049 Y93.082
X139.124 Y93.026
X139.193 Y92.964
X139.491 Y92.667
X139.548 Y92.605
X139.6 Y92.539
X139.755 Y92.321
X139.786 Y92.275
X139.918 Y92.066
X139.957 Y91.999
X139.991 Y91.929
X140.045 Y91.804
X140.07 Y91.741
X140.091 Y91.676
X140.161 Y91.425
X140.173 Y91.379
X140.231 Y91.128
X140.239 Y91.086
X140.286 Y90.835
X140.297 Y90.757
X140.302 Y90.679
X140.309 Y90.428
Y90.403
X140.308 Y11.009
X140.304 Y10.927
X140.299 Y10.865
X140.286 Y10.765
X140.239 Y10.514
X140.231 Y10.472
X140.173 Y10.221
X140.157 Y10.162
X140.071 Y9.87
X140.044 Y9.79
X140.01 Y9.712
X139.948 Y9.587
X139.917 Y9.528
X139.882 Y9.472
X139.659 Y9.138
X139.611 Y9.072
X139.558 Y9.01
X139.363 Y8.802
X139.328 Y8.766
X139.182 Y8.626
X139.118 Y8.569
X139.049 Y8.518
X138.665 Y8.257
X138.592 Y8.212
X138.515 Y8.173
X138.348 Y8.098
X138.278 Y8.069
X138.205 Y8.046
X137.954 Y7.976
X137.896 Y7.962
X137.457 Y7.867
X137.389 Y7.855
X137.321 Y7.848
X137.133 Y7.834
X137.059 Y7.831
X19.482 Y7.834
X19.399 Y7.837
X19.316 Y7.848
X19.128 Y7.879
X19.032 Y7.9
X18.938 Y7.931
X18.762 Y7.998
G3 X18.524 Y7.92 R0.2
G1 X17.644 Y6.578
G3 X17.67 Y6.327 R0.2
G1 X17.976 Y6.021
X136.939 Y6.025
X138.158 Y6.163
X139.235 Y6.541
X140.183 Y7.136
X140.25 Y7.2
X141.007 Y7.963
X141.383 Y8.561
X141.596 Y8.9
X141.975 Y9.976
X142.119 Y11.253
X142.114 Y90.408
X141.976 Y91.623
X141.596 Y92.7
X141.007 Y93.637
X140.194 Y94.456
X140.186 Y94.462
X139.235 Y95.059
X138.159 Y95.437
X136.878 Y95.579
X17.976
X10.281 Y87.884
Y13.716
X17.67 Y6.327
X17.717 Y6.287 Z-9.046
X17.769 Y6.254 Z-9.036
X17.82 Y6.232 Z-9.008
X17.874 Y6.218 Z-8.98
X17.918 Y6.211 Z-8.935
X17.962 Y6.21 Z-8.891
X18.019 Y6.215 Z-8.78
X18.038 Y6.219 Z-8.656
G0 Z5.
X28.331 Y95.552
G1 Z-8.123 F380.
X28.323 Z-8.201 F1500.
X28.301 Z-8.276
X28.264 Z-8.345
X28.214 Z-8.405
X28.154 Z-8.455
X28.084 Z-8.492
X28.009 Z-8.515
X27.932 Z-8.523
X17.987 Z-8.534
X10.308 Y87.873 Z-8.547
Y13.727 Z-8.635
X17.987 Y6.048 Z-8.648
X136.94 Y6.051 Z-8.789
X138.144 Y6.187 Z-8.79
X139.201 Y6.555 Z-8.791
X140.165 Y7.157 Z-8.793
X140.249 Y7.237
X140.987 Y7.981 Z-8.794
X141.583 Y8.935 Z-8.795
X141.951 Y9.985 Z-8.797
X142.092 Y11.253 Z-8.798
X142.088 Y90.409 Z-8.892
X141.951 Y91.614 Z-8.893
X141.583 Y92.665 Z-8.895
X140.987 Y93.619 Z-8.896
X140.181 Y94.431 Z-8.897
X140.162 Y94.445
X139.201 Y95.045 Z-8.899
X138.146 Y95.413 Z-8.9
X136.878 Y95.552 Z-8.902
X17.987 Z-9.042
X10.308 Y87.873 Z-9.055
Y13.727 Z-9.143
X17.987 Y6.048 Z-9.156
X136.94 Y6.051 Z-9.297
X138.144 Y6.187 Z-9.298
X139.201 Y6.555 Z-9.299
X140.165 Y7.157 Z-9.301
X140.249 Y7.237
X140.987 Y7.981 Z-9.302
X141.583 Y8.935 Z-9.303
X141.951 Y9.985 Z-9.305
X142.092 Y11.253 Z-9.306
X142.088 Y90.409 Z-9.4
X141.951 Y91.614 Z-9.401
X141.583 Y92.665 Z-9.403
X140.987 Y93.619 Z-9.404
X140.181 Y94.431 Z-9.405
X140.162 Y94.445
X139.201 Y95.045 Z-9.407
X138.146 Y95.413 Z-9.408
X136.878 Y95.552 Z-9.41
X17.987 Z-9.55
X10.308 Y87.873 Z-9.563
Y87.22 Z-9.564
Y13.727
X17.987 Y6.048
X136.94 Y6.051
X138.144 Y6.187
X139.201 Y6.555
X140.165 Y7.157
X140.249 Y7.237
X140.987 Y7.981
X141.359 Y8.576
X141.583 Y8.935
X141.951 Y9.985
X142.092 Y11.253
X142.088 Y90.409
X141.951 Y91.614
X141.583 Y92.665
X140.987 Y93.619
X140.181 Y94.431
X140.162 Y94.445
X139.201 Y95.045
X138.146 Y95.413
X136.878 Y95.552
X17.987
X10.308 Y87.873
Y87.22
G3 X10.501 Y87.02 R0.2
G1 X12.041 Y86.963
X12.09 Y86.967
X12.137 Y86.983
X12.178 Y87.01
X12.211 Y87.047
X12.235 Y87.09
X12.251 Y87.131
X12.286 Y87.21
X12.328 Y87.287
X12.404 Y87.412
X12.443 Y87.473
X12.487 Y87.53
X12.578 Y87.64
X12.642 Y87.711
X18.16 Y93.228
X18.242 Y93.301
X18.356 Y93.392
X18.414 Y93.435
X18.476 Y93.474
X18.601 Y93.548
X18.678 Y93.588
X18.758 Y93.622
X18.946 Y93.692
X19.039 Y93.721
X19.135 Y93.742
X19.323 Y93.772
X19.402 Y93.781
X19.482 Y93.785
X137.121 Y93.786
X137.188 Y93.784
X137.254 Y93.777
X137.442 Y93.752
X137.519 Y93.738
X137.896 Y93.658
X137.966 Y93.64
X138.262 Y93.554
X138.343 Y93.526
X138.421 Y93.492
X138.557 Y93.426
X138.619 Y93.393
X138.678 Y93.356
X139.05 Y93.105
X139.125 Y93.049
X139.195 Y92.986
X139.51 Y92.672
X139.575 Y92.602
X139.632 Y92.526
X139.888 Y92.151
X139.924 Y92.095
X139.956 Y92.036
X140.024 Y91.899
X140.06 Y91.818
X140.089 Y91.734
X140.177 Y91.438
X140.197 Y91.355
X140.3 Y90.854
X140.314 Y90.767
X140.32 Y90.679
X140.326 Y90.428
X140.327 Y90.403
X140.325 Y11.009
X140.322 Y10.927
X140.317 Y10.865
X140.3 Y10.746
X140.197 Y10.245
X140.177 Y10.162
X140.089 Y9.866
X140.06 Y9.782
X140.024 Y9.701
X139.956 Y9.564
X139.924 Y9.505
X139.888 Y9.449
X139.632 Y9.074
X139.575 Y8.998
X139.511 Y8.928
X139.195 Y8.614
X139.122 Y8.548
X139.042 Y8.49
X138.625 Y8.214
X138.548 Y8.168
X138.466 Y8.128
X138.33 Y8.07
X138.268 Y8.046
X138.204 Y8.026
X137.953 Y7.956
X137.884 Y7.94
X137.382 Y7.839
X137.286 Y7.824
X137.188 Y7.819
X135.934 Y7.813
X19.482 Y7.815
X19.402 Y7.819
X19.323 Y7.828
X19.135 Y7.858
X19.039 Y7.879
X18.946 Y7.908
X18.758 Y7.978
X18.678 Y8.012
X18.601 Y8.052
X18.476 Y8.126
X18.414 Y8.165
X18.356 Y8.208
X18.242 Y8.299
X18.16 Y8.372
X12.752 Y13.779
X12.737 Y13.794
X12.579 Y13.959
X12.53 Y14.015
X12.484 Y14.074
X12.401 Y14.192
X12.353 Y14.266
X12.312 Y14.344
X12.224 Y14.532
X12.186 Y14.625
X12.157 Y14.721
X12.112 Y14.909
X12.098 Y14.972
X12.089 Y15.035
X12.082 Y15.098
X12.076 Y15.208
Y86.392
X12.08 Y86.479
X12.092 Y86.566
X12.125 Y86.754
X12.146 Y86.849
X12.177 Y86.943
X12.235 Y87.09
X12.24 Y87.125
X12.229 Y87.158
X12.206 Y87.184
X12.173 Y87.197
X12.138 Y87.194
X12.108 Y87.176
X12.088 Y87.147
X12.017 Y86.967
X12.012 Y86.939
X11.855 Y73.033
X11.924 Y72.807
X11.941 Y72.779
X11.968 Y72.763
X12. Y72.76
X12.03 Y72.772
X12.051 Y72.797
X12.058 Y72.828
Y86.392 Z-10.038
X12.062 Y86.476 Z-10.041
X12.072 Y86.558 Z-10.044
X12.104 Y86.746 Z-10.05
X12.125 Y86.842 Z-10.054
X12.155 Y86.935 Z-10.057
X12.226 Y87.123 Z-10.064
X12.261 Y87.203 Z-10.067
X12.302 Y87.279 Z-10.07
X12.329 Y87.326 Z-10.072
X12.376 Y87.405
X12.418 Y87.469
X12.464 Y87.529
X12.565 Y87.652
X12.63 Y87.723
X18.147 Y93.24
X18.23 Y93.315
X18.357 Y93.415
X18.418 Y93.461
X18.483 Y93.501
X18.608 Y93.573
X18.685 Y93.613
X18.765 Y93.646
X18.953 Y93.714
X19.047 Y93.743
X19.142 Y93.762
X19.331 Y93.791
X19.406 Y93.8
X19.482 Y93.803
X137.121 Y93.804
X137.188 Y93.801
X137.254 Y93.795
X137.442 Y93.77
X137.515 Y93.757
X137.892 Y93.678
X137.966 Y93.659
X138.266 Y93.571
X138.351 Y93.543
X138.432 Y93.507
X138.579 Y93.433
X138.637 Y93.402
X138.691 Y93.368
X139.051 Y93.126
X139.113 Y93.081
X139.172 Y93.03
X139.334 Y92.88
X139.379 Y92.836
X139.55 Y92.656
X139.607 Y92.591
X139.658 Y92.521
X139.933 Y92.108
X139.977 Y92.035
X140.015 Y91.959
X140.081 Y91.811
X140.108 Y91.743
X140.13 Y91.674
X140.2 Y91.424
X140.217 Y91.352
X140.318 Y90.851
X140.332 Y90.766
X140.338 Y90.679
X140.344 Y90.428
Y90.403
X140.343 Y11.009
X140.34 Y10.927
X140.335 Y10.865
X140.318 Y10.749
X140.217 Y10.248
X140.196 Y10.162
X140.107 Y9.862
X140.077 Y9.774
X140.039 Y9.69
X139.963 Y9.542
X139.9 Y9.436
X139.653 Y9.072
X139.6 Y9.001
X139.541 Y8.934
X139.262 Y8.649
X139.199 Y8.59
X139.131 Y8.536
X138.914 Y8.381
X138.871 Y8.351
X138.625 Y8.193
X138.555 Y8.152
X138.481 Y8.116
X138.334 Y8.052
X138.269 Y8.027
X138.204 Y8.007
X137.953 Y7.937
X137.881 Y7.92
X137.379 Y7.82
X137.284 Y7.806
X137.188 Y7.801
X135.934 Y7.796
X19.482 Y7.797
X19.406 Y7.8
X19.331 Y7.809
X19.142 Y7.838
X19.047 Y7.857
X18.953 Y7.886
X18.765 Y7.954
X18.685 Y7.987
X18.608 Y8.027
X18.483 Y8.099
X18.418 Y8.139
X18.357 Y8.185
X18.23 Y8.285
X18.147 Y8.36
X12.752 Y13.754
X12.738 Y13.768
X12.562 Y13.952
X12.51 Y14.01
X12.463 Y14.072
X12.376 Y14.196
X12.328 Y14.271
X12.287 Y14.351
X12.2 Y14.539
X12.163 Y14.632
X12.135 Y14.728
X12.091 Y14.916
X12.078 Y14.979
X12.07 Y15.043
X12.063 Y15.105
X12.058 Y15.208
Y86.392
X12.062 Y86.476
X12.072 Y86.558
X12.104 Y86.746
X12.125 Y86.842
X12.155 Y86.935
X12.226 Y87.123
X12.261 Y87.203
X12.302 Y87.279
X12.329 Y87.326
G3 X12.348 Y87.491 R0.2
X12.235 Y87.613 R0.2
G1 X10.845 Y88.197
X10.799 Y88.21
X10.752 Y88.212
X10.706 Y88.203
X10.663 Y88.183
X10.626 Y88.154
X10.335 Y87.862
Y13.738
X17.998 Y6.075
X136.939 Y6.078
X138.151 Y6.216
X139.213 Y6.589
X140.145 Y7.175
X140.251 Y7.276
X140.956 Y7.981
X141.548 Y8.924
X141.921 Y9.981
X142.065 Y11.254
X142.061 Y90.408
X141.921 Y91.618
X141.548 Y92.676
X140.966 Y93.604
X140.739 Y93.836
X140.159 Y94.416
X139.213 Y95.011
X138.152 Y95.383
X136.878 Y95.525
X17.998
X10.626 Y88.154
X10.586 Y88.107 Z-10.062
X10.553 Y88.054 Z-10.052
X10.531 Y88.003 Z-10.024
X10.517 Y87.949 Z-9.996
X10.51 Y87.906 Z-9.951
X10.509 Y87.861 Z-9.907
X10.514 Y87.805 Z-9.796
X10.518 Y87.786 Z-9.672
G0 Z5.
X10.361 Y35.743
G1 Z-9.139 F380.
Y35.736 Z-9.217 F1500.
Y35.713 Z-9.292
Y35.676 Z-9.361
Y35.626 Z-9.421
Y35.566 Z-9.471
Y35.497 Z-9.508
Y35.422 Z-9.531
Y35.344 Z-9.539
Y13.749 Z-9.564
X18.009 Y6.101 Z-9.577
X136.938 Y6.104 Z-9.718
X138.151 Y6.244 Z-9.719
X139.186 Y6.606 Z-9.721
X140.134 Y7.2 Z-9.722
X140.938 Y8.003 Z-9.723
X141.531 Y8.948 Z-9.725
X141.894 Y9.983 Z-9.726
X141.991 Y10.808 Z-9.727
X142.039 Y11.251
X142.035 Y90.409 Z-9.821
X141.901 Y91.592 Z-9.823
X141.897 Y91.609
X141.531 Y92.652 Z-9.824
X140.938 Y93.597 Z-9.825
X140.134 Y94.4 Z-9.827
X139.186 Y94.994 Z-9.828
X138.152 Y95.355 Z-9.829
X136.877 Y95.499 Z-9.831
X18.009 Z-9.972
X10.361 Y87.851 Z-9.984
Y13.749 Z-10.072
X18.009 Y6.101 Z-10.085
X136.938 Y6.104 Z-10.226
X138.151 Y6.244 Z-10.227
X139.186 Y6.606 Z-10.229
X140.134 Y7.2 Z-10.23
X140.938 Y8.003 Z-10.231
X141.531 Y8.948 Z-10.233
X141.894 Y9.983 Z-10.234
X141.991 Y10.808 Z-10.235
X142.039 Y11.251
X142.035 Y90.409 Z-10.329
X141.901 Y91.592 Z-10.331
X141.897 Y91.609
X141.531 Y92.652 Z-10.332
X140.938 Y93.597 Z-10.333
X140.134 Y94.4 Z-10.335
X139.186 Y94.994 Z-10.336
X138.152 Y95.355 Z-10.337
X136.877 Y95.499 Z-10.339
X18.009 Z-10.48
X10.361 Y87.851 Z-10.492
Y13.903 Z-10.58
Y13.749
X18.009 Y6.101
X136.938 Y6.104
X138.151 Y6.244
X139.186 Y6.606
X140.134 Y7.2
X140.938 Y8.003
X141.531 Y8.948
X141.894 Y9.983
X141.991 Y10.808
X142.039 Y11.251
X142.035 Y90.409
X141.901 Y91.592
X141.897 Y91.609
X141.531 Y92.652
X140.938 Y93.597
X140.134 Y94.4
X139.186 Y94.994
X138.152 Y95.355
X136.877 Y95.499
X18.009
X10.361 Y87.851
Y13.903
G3 X10.561 Y13.703 R0.2
X10.631 Y13.716 R0.2
G1 X12.074 Y14.256
G3 X12.189 Y14.366 R0.2
X12.186 Y14.525 R0.2
G1 X12.177 Y14.546
X12.14 Y14.639
X12.113 Y14.736
X12.071 Y14.924
X12.059 Y14.986
X12.05 Y15.05
X12.044 Y15.113
X12.04 Y15.208
Y86.392
X12.043 Y86.472
X12.053 Y86.551
X12.083 Y86.739
X12.103 Y86.835
X12.132 Y86.928
X12.202 Y87.116
X12.236 Y87.196
X12.276 Y87.272
X12.349 Y87.397
X12.392 Y87.465
X12.44 Y87.529
X12.552 Y87.664
X12.617 Y87.736
X18.135 Y93.253
X18.219 Y93.328
X18.357 Y93.439
X18.422 Y93.486
X18.49 Y93.528
X18.616 Y93.599
X18.693 Y93.638
X18.772 Y93.67
X18.961 Y93.736
X19.054 Y93.764
X19.15 Y93.783
X19.338 Y93.81
X19.41 Y93.818
X19.482 Y93.821
X137.121
X137.188 Y93.819
X137.254 Y93.812
X137.442 Y93.787
X137.512 Y93.775
X137.888 Y93.698
X137.966 Y93.678
X138.27 Y93.589
X138.358 Y93.559
X138.443 Y93.521
X138.602 Y93.44
X138.659 Y93.408
X138.715 Y93.373
X139.118 Y93.096
X139.189 Y93.043
X139.255 Y92.983
X139.494 Y92.746
X139.541 Y92.697
X139.584 Y92.645
X139.683 Y92.516
X139.726 Y92.456
X139.95 Y92.114
X139.992 Y92.045
X140.027 Y91.974
X140.099 Y91.814
X140.127 Y91.745
X140.149 Y91.674
X140.219 Y91.423
X140.237 Y91.35
X140.337 Y90.848
X140.35 Y90.764
X140.355 Y90.679
X140.362 Y90.428
Y90.403
X140.361 Y11.009
X140.358 Y10.927
X140.352 Y10.865
X140.337 Y10.752
X140.237 Y10.25
X140.215 Y10.161
X140.125 Y9.858
X140.093 Y9.767
X140.053 Y9.679
X139.969 Y9.52
X139.912 Y9.423
X139.674 Y9.07
X139.627 Y9.006
X139.575 Y8.946
X139.395 Y8.753
X139.335 Y8.694
X139.166 Y8.542
X139.107 Y8.493
X139.045 Y8.448
X138.646 Y8.185
X138.573 Y8.141
X138.496 Y8.104
X138.337 Y8.034
X138.271 Y8.008
X138.203 Y7.987
X137.952 Y7.918
X137.878 Y7.9
X137.376 Y7.802
X137.283 Y7.788
X137.188 Y7.783
X135.934 Y7.778
X19.482 Y7.779
X19.41 Y7.782
X19.338 Y7.79
X19.15 Y7.817
X19.054 Y7.836
X18.961 Y7.864
X18.772 Y7.93
X18.693 Y7.962
X18.616 Y8.001
X18.49 Y8.072
X18.422 Y8.114
X18.357 Y8.161
X18.219 Y8.272
X18.135 Y8.347
X12.752 Y13.729
X12.739 Y13.742
X12.544 Y13.945
X12.49 Y14.005
X12.441 Y14.069
X12.351 Y14.2
X12.303 Y14.277
X12.261 Y14.358
X12.186 Y14.525
G3 X11.922 Y14.626 R0.2
X11.804 Y14.431 R0.2
G1 X11.86 Y13.513
X11.868 Y13.469
X11.885 Y13.427
X11.911 Y13.391
G3 X16.701 Y9.006 R34.74
X22.857 Y6.94 R10.203
G1 X22.903 Y6.946
X22.948 Y6.962
X23.769 Y7.383
G3 X23.855 Y7.652 R0.2
X23.677 Y7.761 R0.2
G1 X19.482 Z-10.726
X19.414 Y7.763 Z-10.729
X19.345 Y7.77 Z-10.731
X19.157 Y7.796 Z-10.738
X19.061 Y7.814 Z-10.741
X18.968 Y7.842 Z-10.745
X18.78 Y7.907 Z-10.752
X18.69 Y7.943 Z-10.755
X18.603 Y7.987 Z-10.758
X18.44 Y8.082 Z-10.765
X18.369 Y8.127 Z-10.768
X18.302 Y8.179 Z-10.771
X18.189 Y8.273 Z-10.776
X18.122 Y8.334 Z-10.779
X12.752 Y13.704 Z-11.044
X12.74 Y13.716 Z-11.045
X12.526 Y13.937 Z-11.056
X12.47 Y14. Z-11.059
X12.42 Y14.067 Z-11.062
X12.326 Y14.204 Z-11.067
X12.278 Y14.283 Z-11.071
X12.236 Y14.366 Z-11.074
X12.153 Y14.554 Z-11.081
X12.118 Y14.646 Z-11.085
X12.092 Y14.741 Z-11.088
Y14.743
X12.05 Y14.931
X12.034 Y15.031
X12.027 Y15.132
X12.02 Y15.696
Y15.709
X12.022 Y86.392
X12.025 Y86.468
X12.033 Y86.543
X12.062 Y86.731
X12.081 Y86.827
X12.11 Y86.92
X12.178 Y87.108
X12.216 Y87.198
X12.262 Y87.284
X12.36 Y87.446
X12.406 Y87.516
X12.458 Y87.582
X12.553 Y87.693
X12.604 Y87.749
X18.16 Y93.301
X18.211 Y93.348
X18.265 Y93.392
X18.378 Y93.477
X18.437 Y93.518
X18.498 Y93.555
X18.623 Y93.624
X18.7 Y93.662
X18.78 Y93.693
X18.968 Y93.758
X19.061 Y93.786
X19.157 Y93.804
X19.345 Y93.83
X19.414 Y93.837
X19.482 Y93.839
X137.121
X137.188 Y93.837
X137.254 Y93.83
X137.442 Y93.805
X137.508 Y93.794
X137.885 Y93.718
X137.967 Y93.697
X138.274 Y93.607
X138.366 Y93.576
X138.454 Y93.535
X138.624 Y93.447
X138.727 Y93.385
X139.12 Y93.117
X139.192 Y93.064
X139.258 Y93.004
X139.51 Y92.756
X139.567 Y92.696
X139.618 Y92.63
X139.75 Y92.448
X139.776 Y92.411
X139.964 Y92.126
X140.004 Y92.059
X140.039 Y91.989
X140.117 Y91.818
X140.146 Y91.746
X140.169 Y91.673
X140.239 Y91.422
X140.257 Y91.347
X140.355 Y90.846
X140.367 Y90.763
X140.373 Y90.679
X140.38 Y90.428
Y90.403
X140.379 Y11.009
X140.375 Y10.927
X140.37 Y10.865
X140.355 Y10.754
X140.257 Y10.253
X140.234 Y10.161
X140.143 Y9.854
X140.109 Y9.759
X140.067 Y9.668
X139.976 Y9.497
X139.923 Y9.409
X139.694 Y9.068
X139.643 Y8.999
X139.588 Y8.93
X139.51 Y8.844
X139.258 Y8.596
X139.189 Y8.534
X139.114 Y8.479
X138.665 Y8.177
X138.59 Y8.131
X138.511 Y8.092
X138.341 Y8.017
X138.272 Y7.99
X138.202 Y7.967
X137.951 Y7.898
X137.876 Y7.881
X137.374 Y7.784
X137.282 Y7.77
X137.188 Y7.766
X135.934 Y7.76
X19.482 Y7.761
X19.414 Y7.763
X19.345 Y7.77
X19.157 Y7.796
X19.061 Y7.814
X18.968 Y7.842
X18.78 Y7.907
X18.69 Y7.943
X18.603 Y7.987
X18.44 Y8.082
X18.369 Y8.127
X18.302 Y8.179
X18.189 Y8.273
X18.122 Y8.334
X12.752 Y13.704
X12.74 Y13.716
X12.526 Y13.937
X12.47 Y14.
X12.42 Y14.067
X12.326 Y14.204
X12.278 Y14.283
X12.236 Y14.366
X12.153 Y14.554
X12.118 Y14.646
X12.092 Y14.741
G3 X11.854 Y14.893 R0.2
X11.819 Y14.882 R0.2
G1 X10.514 Y14.333
X10.474 Y14.31
X10.439 Y14.278
X10.413 Y14.239
X10.397 Y14.195
X10.392 Y14.148
Y13.756
X18.019 Y6.129
X136.938 Y6.131
X138.151 Y6.272
X139.171 Y6.629
X140.133 Y7.233
X140.903 Y8.003
X141.509 Y8.963
X141.871 Y9.997
X141.882 Y10.072
X142.012 Y11.252
X142.008 Y90.409
X141.875 Y91.587
X141.87 Y91.604
X141.509 Y92.637
X140.903 Y93.597
X140.133 Y94.367
X139.171 Y94.971
X138.152 Y95.328
X136.877 Y95.472
X18.019 Y95.471
X11.45 Y88.903
X10.392 Y87.844
Y14.148
X10.4 Y14.11
X10.422 Y14.078
X10.455 Y14.057
X10.494 Y14.051
X10.532 Y14.06
X10.563 Y14.084
X10.583 Y14.118
X10.679 Y14.411
X10.683 Y14.442
X10.666 Y17.432
X10.662 Y17.458
X10.577 Y17.709
X10.56 Y17.738
X10.533 Y17.758
X10.501 Y17.766
X10.468 Y17.76
X10.44 Y17.742
X10.421 Y17.715
X10.414 Y17.682
Y13.771 Z-11.225
X17.934 Y6.25 Z-11.596
X18.031 Y6.154
X136.947 Y6.158
X138.121 Y6.29
X138.138 Y6.295
X139.163 Y6.654
X139.19 Y6.668
X140.11 Y7.246
X140.894 Y8.03
X141.475 Y8.956
X141.508 Y9.039
X141.849 Y10.014
X141.986 Y11.252
X141.985 Y90.383
X141.85 Y91.582
X141.845 Y91.599
X141.486 Y92.624
X141.471 Y92.651
X140.901 Y93.558
X140.864 Y93.6
X140.11 Y94.354
X139.183 Y94.936
X139.074 Y94.977
X138.137 Y95.305
X138.061 Y95.316
X136.878 Y95.446
X18.031
X10.414 Y87.829
Y17.714
Y13.771
X17.934 Y6.25
G3 X18.217 R0.2
X18.257 Y6.308 R0.2
G1 X18.867 Y7.628
G3 X18.872 Y7.784 R0.2
X18.762 Y7.896 R0.2
G1 X18.661 Y7.938
X18.576 Y7.978
X18.495 Y8.026
X18.35 Y8.121
X18.276 Y8.175
X18.206 Y8.235
X17.961 Y8.471
X17.946 Y8.485
X12.752 Y13.679
X12.741 Y13.691
X12.508 Y13.931
X12.451 Y13.996
X12.399 Y14.065
X12.302 Y14.208
X12.253 Y14.288
X12.212 Y14.373
X12.13 Y14.561
X12.096 Y14.654
X12.07 Y14.75
X12.031 Y14.938
X12.015 Y15.04
X12.009 Y15.143
X12.003 Y17.712
X12.004 Y86.392
X12.007 Y86.464
X12.014 Y86.536
X12.042 Y86.724
X12.06 Y86.82
X12.088 Y86.913
X12.155 Y87.101
X12.192 Y87.192
X12.238 Y87.279
X12.336 Y87.444
X12.384 Y87.517
X12.438 Y87.586
X12.541 Y87.706
X12.592 Y87.761
X18.151 Y93.316
X18.203 Y93.365
X18.258 Y93.409
X18.38 Y93.501
X18.441 Y93.543
X18.505 Y93.581
X18.63 Y93.649
X18.707 Y93.686
X18.787 Y93.717
X18.975 Y93.78
X19.069 Y93.806
X19.164 Y93.824
X19.353 Y93.848
X19.417 Y93.855
X19.482 Y93.857
X137.121 Y93.856
X137.188 Y93.854
X137.254 Y93.848
X137.442 Y93.822
X137.506 Y93.812
X137.882 Y93.736
X137.965 Y93.716
X138.277 Y93.625
X138.373 Y93.592
X138.465 Y93.549
X138.646 Y93.453
X138.739 Y93.397
X139.123 Y93.138
X139.182 Y93.094
X139.238 Y93.046
X139.361 Y92.933
X139.414 Y92.881
X139.584 Y92.699
X139.637 Y92.638
X139.685 Y92.572
X139.972 Y92.144
X140.014 Y92.075
X140.051 Y92.003
X140.134 Y91.821
X140.164 Y91.747
X140.189 Y91.671
X140.258 Y91.421
X140.275 Y91.345
X140.373 Y90.844
X140.385 Y90.762
X140.391 Y90.679
X140.397 Y90.428
Y90.403
X140.396 Y11.009
X140.393 Y10.927
X140.387 Y10.865
X140.373 Y10.757
X140.275 Y10.255
X140.253 Y10.162
X140.161 Y9.85
X140.126 Y9.752
X140.081 Y9.657
X139.982 Y9.475
X139.931 Y9.392
X139.683 Y9.025
X139.633 Y8.957
X139.577 Y8.893
X139.346 Y8.651
X139.272 Y8.582
X139.211 Y8.53
X139.118 Y8.459
X138.674 Y8.162
X138.602 Y8.118
X138.525 Y8.08
X138.344 Y7.999
X138.273 Y7.971
X138.2 Y7.948
X137.949 Y7.879
X137.874 Y7.862
X137.372 Y7.766
X137.281 Y7.753
X137.188 Y7.748
X135.934 Y7.743
X19.419 Y7.747
X19.323 Y7.752
X19.227 Y7.766
X19.039 Y7.803
X18.943 Y7.827
X18.849 Y7.86
X18.762 Y7.896
X18.725 Y7.904
X18.689 Y7.896
X18.658 Y7.875
X18.637 Y7.844
X18.63 Y7.807
X18.638 Y7.77
X18.659 Y7.739
X18.691 Y7.719
X18.905 Y7.635
X18.939 Y7.629
X32.777 Y7.485
X32.803 Y7.489
X33.049 Y7.568
X33.077 Y7.584
X33.097 Y7.611
X33.105 Y7.642
X33.1 Y7.675
X33.083 Y7.703
X33.055 Y7.722
X33.023 Y7.728
X19.419 Y7.729 Z-12.071
X19.326 Y7.733 Z-12.074
X19.234 Y7.746 Z-12.078
X19.046 Y7.781 Z-12.084
X18.95 Y7.804 Z-12.088
X18.857 Y7.837 Z-12.091
X18.669 Y7.913 Z-12.098
X18.593 Y7.947 Z-12.101
X18.521 Y7.987 Z-12.104
X18.499 Y8.001
X18.348 Y8.099
X18.271 Y8.155
X18.199 Y8.217
X17.935 Y8.471
X17.921 Y8.485
X12.752 Y13.654
X12.741 Y13.665
X12.49 Y13.924
X12.43 Y13.991
X12.377 Y14.063
X12.277 Y14.212
X12.228 Y14.294
X12.186 Y14.381
X12.107 Y14.569
X12.073 Y14.662
X12.048 Y14.758
X12.01 Y14.946
X11.995 Y15.044
X11.99 Y15.144
X11.985 Y21.724
Y86.392
X11.988 Y86.461
X11.995 Y86.529
X12.021 Y86.717
X12.039 Y86.812
X12.066 Y86.906
X12.131 Y87.094
X12.167 Y87.185
X12.213 Y87.273
X12.311 Y87.441
X12.361 Y87.518
X12.417 Y87.59
X12.529 Y87.719
X12.579 Y87.774
X18.141 Y93.333
X18.194 Y93.382
X18.251 Y93.427
X18.383 Y93.526
X18.46 Y93.578
X18.543 Y93.623
X18.731 Y93.715
X18.824 Y93.754
X18.92 Y93.784
X19.109 Y93.832
X19.187 Y93.849
X19.266 Y93.86
X19.392 Y93.871
X19.482 Y93.875
X137.121
X137.188 Y93.872
X137.254 Y93.866
X137.442 Y93.84
X137.505 Y93.83
X137.881 Y93.755
X137.962 Y93.735
X138.276 Y93.645
X138.359 Y93.618
X138.438 Y93.583
X138.564 Y93.522
X138.623 Y93.49
X138.681 Y93.454
X139.129 Y93.155
X139.195 Y93.106
X139.257 Y93.053
X139.453 Y92.869
X139.533 Y92.785
X139.656 Y92.64
X139.725 Y92.547
X139.991 Y92.146
X140.032 Y92.08
X140.067 Y92.01
X140.153 Y91.822
X140.184 Y91.746
X140.209 Y91.668
X140.277 Y91.417
X140.295 Y91.344
X140.391 Y90.842
X140.403 Y90.761
X140.409 Y90.679
X140.415 Y90.428
Y90.403
X140.414 Y11.009
X140.411 Y10.927
X140.406 Y10.865
X140.391 Y10.758
X140.295 Y10.257
X140.272 Y10.164
X140.18 Y9.851
X140.152 Y9.767
X140.115 Y9.685
X140.053 Y9.56
X140.023 Y9.504
X139.989 Y9.451
X139.696 Y9.013
X139.649 Y8.949
X139.598 Y8.888
X139.428 Y8.706
X139.365 Y8.644
X139.243 Y8.534
X139.187 Y8.487
X139.129 Y8.445
X138.681 Y8.146
X138.609 Y8.102
X138.534 Y8.064
X138.345 Y7.98
X138.272 Y7.951
X138.196 Y7.927
X137.945 Y7.86
X137.873 Y7.843
X137.371 Y7.748
X137.28 Y7.735
X137.188 Y7.73
X135.934 Y7.725
X19.419 Y7.729
X19.326 Y7.733
X19.234 Y7.746
X19.046 Y7.781
X18.95 Y7.804
X18.857 Y7.837
X18.669 Y7.913
X18.593 Y7.947
X18.521 Y7.987
G3 X18.246 Y7.921 R0.2
X18.232 Y7.892 R0.2
G1 X17.733 Y6.663
X17.72 Y6.618
X17.719 Y6.571
X17.728 Y6.525
X17.748 Y6.483
X17.777 Y6.446
X18.041 Y6.182
X136.917
X138.115 Y6.317
X138.133 Y6.322
X139.154 Y6.679
X139.181 Y6.695
X140.083 Y7.261
X140.119 Y7.293
X140.871 Y8.046
X141.465 Y8.999
X141.825 Y10.04
X141.959 Y11.252
X141.956 Y90.395
X141.825 Y91.559
X141.465 Y92.601
X140.877 Y93.546
X140.845 Y93.58
X140.093 Y94.332
X139.16 Y94.919
X138.121 Y95.282
X136.878 Y95.419
X18.041 Y95.418
X10.444 Y87.821
Y13.779
X17.777 Y6.446
X17.824 Y6.406 Z-12.094
X17.876 Y6.374 Z-12.084
X17.927 Y6.351 Z-12.056
X17.981 Y6.337 Z-12.028
X18.025 Y6.33 Z-11.983
X18.069 Y6.329 Z-11.939
X18.126 Y6.334 Z-11.828
X18.145 Y6.338 Z-11.704
G0 Z5.
X28.535 Y95.392
G1 Z-11.171 F380.
X28.528 Z-11.249 F1500.
X28.505 Z-11.324
X28.468 Z-11.393
X28.418 Z-11.453
X28.358 Z-11.503
X28.289 Z-11.54
X28.214 Z-11.563
X28.136 Z-11.571
X18.053 Z-11.583
X10.468 Y87.807 Z-11.595
Y13.793 Z-11.683
X10.653 Y13.608
X18.053 Y6.208 Z-11.696
X136.94 Y6.211 Z-11.837
X138.094 Y6.341 Z-11.838
X138.614 Y6.518 Z-11.839
X139.133 Y6.7 Z-11.84
X140.077 Y7.289 Z-11.841
X140.851 Y8.063 Z-11.842
X141.437 Y9. Z-11.844
X141.798 Y10.04 Z-11.845
X141.932 Y11.252 Z-11.846
X141.928 Y90.409 Z-11.94
X141.799 Y91.559 Z-11.942
X141.437 Y92.6 Z-11.943
X140.856 Y93.53 Z-11.944
X140.833 Y93.555
X140.089 Y94.299 Z-11.945
X139.909 Y94.417 Z-11.946
