(NMJPLATE0PT0PT3_TOP_STEP3_132IN_SIDE1)
(T4  D=0.787 CR=0. - ZMIN=-18.5 - FLAT END MILL)
G0 G90 G94 G17
G21
G53 G0 Z0.

(POCKET12)
M5
T4
M3 S12000
G55
G0 X86.363 Y60.777
Z15.
Z-15.924
G1 Z-16.841 F15.
S20000
X86.353 Y60.775 Z-16.88 F178.
X86.326 Y60.77 Z-16.909
X86.289 Y60.76 Z-16.92
X86.22 Y60.728 Z-16.922
X86.158 Y60.682 Z-16.925
X86.108 Y60.626 Z-16.927
X86.069 Y60.56 Z-16.93
X86.045 Y60.487 Z-16.932
X86.036 Y60.411 Z-16.935
X86.043 Y60.335 Z-16.937
X86.065 Y60.262 Z-16.94
X86.101 Y60.195 Z-16.942
X86.15 Y60.137 Z-16.945
X86.21 Y60.09 Z-16.947
X86.279 Y60.056 Z-16.95
X86.353 Y60.036 Z-16.952
X86.429 Y60.032 Z-16.955
X86.504 Y60.044 Z-16.957
X86.576 Y60.071 Z-16.96
X86.64 Y60.111 Z-16.962
X86.696 Y60.164 Z-16.965
X86.739 Y60.227 Z-16.967
X86.768 Y60.297 Z-16.97
X86.783 Y60.372 Z-16.972
X86.782 Y60.449 Z-16.975
X86.765 Y60.523 Z-16.977
X86.734 Y60.593 Z-16.979
X86.689 Y60.655 Z-16.982
X86.633 Y60.706 Z-16.984
X86.567 Y60.745 Z-16.987
X86.495 Y60.77 Z-16.989
X86.419 Y60.78 Z-16.992
X86.343 Y60.774 Z-16.994
X86.27 Y60.753 Z-16.997
X86.202 Y60.717 Z-16.999
X86.144 Y60.668 Z-17.002
X86.096 Y60.609 Z-17.004
X86.061 Y60.541 Z-17.007
X86.041 Y60.467 Z-17.009
X86.036 Y60.391 Z-17.012
X86.047 Y60.315 Z-17.014
X86.073 Y60.243 Z-17.017
X86.113 Y60.178 Z-17.019
X86.166 Y60.123 Z-17.022
X86.228 Y60.079 Z-17.024
X86.298 Y60.049 Z-17.027
X86.373 Y60.034 Z-17.029
X86.449 Z-17.032
X86.524 Y60.05 Z-17.034
X86.594 Y60.08 Z-17.037
X86.656 Y60.124 Z-17.039
X86.708 Y60.18 Z-17.041
X86.748 Y60.245 Z-17.044
X86.774 Y60.317 Z-17.046
X86.784 Y60.393 Z-17.049
X86.779 Y60.469 Z-17.051
X86.758 Y60.543 Z-17.054
X86.723 Y60.61 Z-17.056
X86.675 Y60.67 Z-17.059
X86.616 Y60.718 Z-17.061
X86.548 Y60.753 Z-17.064
X86.475 Y60.774 Z-17.066
X86.399 Y60.78 Z-17.069
X86.323 Y60.77 Z-17.071
X86.251 Y60.744 Z-17.074
X86.186 Y60.705 Z-17.076
S12000
G3 X86.147 Y60.435 R0.193
X86.417 Y60.396 R0.193
X86.456 Y60.666 R0.193
X86.186 Y60.705 R0.193
G2 X85.894 Y60.647 R0.345
G3 X85.665 Y60.51 R0.188
X85.66 Y60.464 R0.188
G1 Y60.354
X85.865 Y60.037
X86.206 Y59.883
X86.571 Y59.935
X86.864 Y60.188
X86.971 Y60.55
X86.864 Y60.914
X86.847 Y60.931
X86.572 Y61.164
X86.198 Y61.215
X85.862 Y61.06
X85.66 Y60.747
Y60.464
X85.664 Y60.446
X85.676 Y60.432
X85.693 Y60.424
X85.773 Y60.409
X85.79 Y60.401
X85.802 Y60.386
S20000
X85.841 Y60.322 Z-17.079
X85.893 Y60.267 Z-17.081
X85.954 Y60.224 Z-17.084
X86.023 Y60.193 Z-17.087
X86.096 Y60.177 Z-17.089
X86.171 Y60.176 Z-17.092
X86.245 Y60.19 Z-17.095
X86.314 Y60.218 Z-17.097
X86.377 Y60.26 Z-17.1
X86.43 Y60.313 Z-17.102
X86.471 Y60.376 Z-17.105
X86.499 Y60.446 Z-17.108
X86.512 Y60.52 Z-17.11
X86.51 Y60.595 Z-17.113
X86.494 Y60.668 Z-17.116
X86.463 Y60.737 Z-17.118
X86.419 Y60.797 Z-17.121
X86.363 Y60.848 Z-17.123
X86.299 Y60.887 Z-17.126
X86.228 Y60.912 Z-17.129
X86.154 Y60.923 Z-17.131
X86.079 Y60.918 Z-17.134
X86.006 Y60.898 Z-17.137
X85.939 Y60.865 Z-17.139
X85.88 Y60.818 Z-17.142
X85.831 Y60.761 Z-17.145
X85.795 Y60.695 Z-17.147
X85.773 Y60.624 Z-17.15
X85.765 Y60.549 Z-17.152
G3 X86.091 Y60.223 R0.326
X86.416 Y60.549 R0.326
S12000
X86.301 Y60.665 R0.116
X86.185 Y60.549 R0.116
X86.301 Y60.433 R0.116
X86.416 Y60.549 R0.116
G2 X86.509 Y60.839 R0.502
G3 X86.466 Y61.088 R0.178
X86.388 Y61.119 R0.178
G1 X86.227 Y61.142
X86.201 Y61.137
X85.925 Y61.011
X85.844 Y60.896
X85.736 Y60.725
Y60.377
X85.845 Y60.202
X85.913 Y60.1
X85.924 Y60.09
X86.201 Y59.963
X86.227 Y59.958
X86.528 Y60.001
X86.576 Y60.031
X86.789 Y60.215
X86.891 Y60.55
X86.787 Y60.886
X86.558 Y61.084
X86.528 Y61.099
X86.388 Y61.119
X86.351 Y61.117
X86.318 Y61.102
X86.292 Y61.076
X85.889 Y60.483
X85.874 Y60.452
X85.872 Y60.417
X85.881 Y60.384
S20000
X85.921 Y60.32 Z-17.155
X85.972 Y60.265 Z-17.158
X86.033 Y60.221 Z-17.16
X86.102 Y60.191 Z-17.163
X86.175 Y60.175 Z-17.166
X86.25 Y60.173 Z-17.168
X86.324 Y60.187 Z-17.171
X86.394 Y60.216 Z-17.173
X86.456 Y60.257 Z-17.176
X86.509 Y60.311 Z-17.179
X86.55 Y60.373 Z-17.181
X86.578 Y60.443 Z-17.184
X86.591 Y60.517 Z-17.187
X86.589 Y60.592 Z-17.189
X86.573 Y60.665 Z-17.192
X86.542 Y60.734 Z-17.194
X86.498 Y60.795 Z-17.197
X86.442 Y60.846 Z-17.2
X86.378 Y60.884 Z-17.202
X86.307 Y60.909 Z-17.205
X86.233 Y60.92 Z-17.208
X86.158 Y60.915 Z-17.21
X86.085 Y60.896 Z-17.213
X86.018 Y60.862 Z-17.215
X85.959 Y60.816 Z-17.218
X85.91 Y60.758 Z-17.221
X85.874 Y60.692 Z-17.223
X85.852 Y60.621 Z-17.226
X85.844 Y60.546 Z-17.229
G3 X86.093 Y60.297 R0.249
X86.341 Y60.546 R0.249
S12000
X86.302 Y60.585 R0.039
X86.263 Y60.546 R0.039
X86.302 Y60.507 R0.039
X86.341 Y60.546 R0.039
G2 X86.462 Y60.785 R0.297
G3 X86.492 Y60.986 R0.144
X86.394 Y61.043 R0.144
G1 X86.255 Y61.061
X86.175 Y61.045
X85.982 Y60.954
X85.923 Y60.882
X85.814 Y60.712
Y60.388
X85.845 Y60.339
X85.929 Y60.209
X85.992 Y60.139
X86.195 Y60.05
X86.276 Y60.038
X86.479 Y60.067
X86.57 Y60.122
X86.713 Y60.246
X86.771 Y60.409
X86.812 Y60.546
X86.729 Y60.822
X86.716 Y60.851
X86.547 Y60.995
X86.483 Y61.032
X86.394 Y61.043
X86.374 Y61.041
X86.359 Y61.029
X86.35 Y61.011
X86.352 Y60.991
X86.415 Y60.808
X86.504 Y60.528
X86.582 Y60.353
X86.596 Y60.336
X86.617 Y60.329
X86.638 Y60.335
X86.653 Y60.351
S20000
X86.681 Y60.42 Z-17.231
X86.694 Y60.494 Z-17.234
X86.692 Y60.569 Z-17.236
X86.675 Y60.643 Z-17.239
X86.644 Y60.711 Z-17.242
X86.6 Y60.772 Z-17.244
X86.544 Y60.823 Z-17.247
X86.48 Y60.861 Z-17.25
X86.409 Y60.886 Z-17.252
X86.335 Y60.896 Z-17.255
X86.26 Y60.892 Z-17.258
X86.187 Y60.872 Z-17.26
X86.12 Y60.838 Z-17.263
X86.061 Y60.792 Z-17.265
X86.013 Y60.735 Z-17.268
X85.977 Y60.669 Z-17.271
X85.954 Y60.597 Z-17.273
X85.947 Y60.522 Z-17.276
X85.954 Y60.448 Z-17.279
X85.977 Y60.376 Z-17.281
X86.013 Y60.31 Z-17.284
X86.062 Y60.253 Z-17.286
X86.121 Y60.207 Z-17.289
X86.188 Y60.173 Z-17.292
X86.261 Y60.154 Z-17.294
X86.336 Y60.149 Z-17.297
X86.41 Y60.16 Z-17.3
X86.481 Y60.185 Z-17.302
X86.545 Y60.224 Z-17.305
G3 X86.597 Y60.586 R0.259
X86.234 Y60.638 R0.259
S12000
X86.212 Y60.482 R0.112
X86.368 Y60.46 R0.112
X86.39 Y60.616 R0.112
X86.234 Y60.638 R0.112
G1 X86.191 Y60.612
X86.143 Y60.595
X86.093 Y60.588
X86.042 Y60.591
X85.997
X85.956 Y60.575
X85.921 Y60.546
X85.899 Y60.507
X85.891 Y60.463
Y60.405
X85.958 Y60.302
X86.046 Y60.197
X86.172 Y60.139
X86.306 Y60.116
X86.426 Y60.133
X86.567 Y60.216
X86.644 Y60.283
X86.733 Y60.549
X86.645 Y60.813
X86.55 Y60.896
X86.427 Y60.967
X86.308 Y60.984
X86.149 Y60.954
X86.049 Y60.905
X85.942 Y60.774
X85.892 Y60.696
X85.891 Y60.463
X85.897 Y60.444
X85.911 Y60.431
X85.93 Y60.426
X85.948 Y60.433
X86.039 Y60.493
X86.049 Y60.506
X86.053 Y60.522
X86.06 Y60.634
X86.055 Y60.656
X86.039 Y60.671
X86.017 Y60.675
X85.996 Y60.666
X85.983 Y60.648
S20000
X85.97 Y60.576 Z-17.307
X85.972 Y60.504 Z-17.31
X85.991 Y60.433 Z-17.312
X86.024 Y60.369 Z-17.315
X86.07 Y60.313 Z-17.318
X86.128 Y60.268 Z-17.32
X86.193 Y60.238 Z-17.323
X86.264 Y60.222 Z-17.325
X86.337 Z-17.328
X86.407 Y60.237 Z-17.33
X86.473 Y60.268 Z-17.333
X86.531 Y60.312 Z-17.335
X86.577 Y60.368 Z-17.338
X86.611 Y60.433 Z-17.34
X86.629 Y60.503 Z-17.343
X86.632 Y60.575 Z-17.345
X86.619 Y60.647 Z-17.348
X86.59 Y60.713 Z-17.351
X86.548 Y60.773 Z-17.353
X86.494 Y60.821 Z-17.356
X86.431 Y60.857 Z-17.358
X86.361 Y60.878 Z-17.361
X86.289 Y60.883 Z-17.363
X86.217 Y60.872 Z-17.366
X86.149 Y60.846 Z-17.368
X86.089 Y60.806 Z-17.371
X86.038 Y60.754 Z-17.373
X86. Y60.692 Z-17.376
X85.977 Y60.624 Z-17.378
X85.969 Y60.551 Z-17.381
S12000
Y60.425
X85.981 Y60.403
X86.047 Y60.324
X86.114 Y60.245
X86.149 Y60.23
X86.357 Y60.195
X86.369 Y60.197
X86.57 Y60.317
X86.652 Y60.551
X86.573 Y60.779
X86.546 Y60.802
X86.371 Y60.903
X86.358 Y60.905
X86.124 Y60.863
X86.119 Y60.861
X85.969 Y60.677
Y60.551
X85.977 Y60.528
X85.997 Y60.514
X86.021
X86.245 Y60.591
X86.462 Y60.667
X86.479 Y60.678
X86.488 Y60.696
X86.487 Y60.716
X86.477 Y60.733
S20000
X86.427 Y60.77 Z-17.383
X86.369 Y60.794 Z-17.385
X86.308 Y60.803 Z-17.388
X86.246 Y60.797 Z-17.39
X86.187 Y60.776 Z-17.392
X86.136 Y60.742 Z-17.394
X86.094 Y60.695 Z-17.396
X86.065 Y60.641 Z-17.398
X86.05 Y60.58 Z-17.401
Y60.518 Z-17.403
X86.065 Y60.458 Z-17.405
X86.095 Y60.403 Z-17.407
X86.137 Y60.357 Z-17.409
X86.189 Y60.323 Z-17.411
X86.247 Y60.302 Z-17.414
X86.309 Y60.296 Z-17.416
X86.371 Y60.306 Z-17.418
X86.428 Y60.33 Z-17.42
X86.478 Y60.368 Z-17.422
X86.517 Y60.416 Z-17.425
X86.543 Y60.472 Z-17.427
X86.554 Y60.533 Z-17.429
X86.551 Y60.596 Z-17.431
X86.532 Y60.655 Z-17.433
X86.5 Y60.708 Z-17.435
X86.455 Y60.751 Z-17.438
X86.401 Y60.783 Z-17.44
X86.342 Y60.8 Z-17.442
X86.28 Y60.802 Z-17.444
X86.219 Y60.789 Z-17.446
X86.163 Y60.762 Z-17.448
X86.115 Y60.722 Z-17.451
X86.079 Y60.671 Z-17.453
X86.056 Y60.614 Z-17.455
X86.048 Y60.552 Z-17.457
S12000
X86.047 Y60.453
X86.167 Y60.313
X86.349 Y60.282
X86.508 Y60.375
X86.571 Y60.55
X86.509 Y60.722
X86.343 Y60.819
X86.165 Y60.787
X86.049 Y60.649
X86.048 Y60.552
X86.052 Y60.536
X86.064 Y60.525
X86.081 Y60.521
X86.096 Y60.527
X86.212 Y60.608
X86.298 Y60.705
X86.306 Y60.722
X86.302 Y60.74
X86.289 Y60.753
X86.271 Y60.756
S20000
X86.216 Y60.739 Z-17.459
X86.167 Y60.709 Z-17.461
X86.129 Y60.667 Z-17.463
X86.104 Y60.615 Z-17.465
X86.094 Y60.559 Z-17.467
X86.099 Y60.502 Z-17.469
X86.12 Y60.449 Z-17.471
X86.154 Y60.403 Z-17.473
X86.2 Y60.368 Z-17.475
X86.253 Y60.348 Z-17.477
X86.31 Y60.342 Z-17.479
X86.367 Y60.353 Z-17.481
X86.418 Y60.378 Z-17.483
X86.46 Y60.417 Z-17.485
X86.491 Y60.465 Z-17.487
X86.507 Y60.52 Z-17.489
Y60.577 Z-17.491
X86.492 Y60.632 Z-17.493
X86.462 Y60.681 Z-17.495
X86.42 Y60.72 Z-17.497
X86.369 Y60.746 Z-17.499
X86.313 Y60.757 Z-17.501
X86.256 Y60.753 Z-17.503
X86.202 Y60.733 Z-17.505
X86.156 Y60.699 Z-17.507
X86.121 Y60.654 Z-17.509
X86.1 Y60.601 Z-17.511
X86.093 Y60.544 Z-17.513
X86.103 Y60.487 Z-17.515
X86.128 Y60.436 Z-17.517
X86.165 Y60.393 Z-17.519
X86.213 Y60.362 Z-17.521
X86.268 Y60.345 Z-17.523
X86.325 Y60.344 Z-17.525
X86.381 Y60.358 Z-17.527
X86.43 Y60.387 Z-17.529
X86.47 Y60.428 Z-17.531
X86.496 Y60.479 Z-17.533
S12000
X86.522 Y60.55
X86.47 Y60.693
X86.339 Y60.769
X86.189 Y60.743
X86.093 Y60.629
Y60.472
X86.192 Y60.357
X86.339 Y60.331
X86.47 Y60.407
X86.496 Y60.479
X86.498 Y60.497
X86.49 Y60.513
X86.474 Y60.523
X86.317 Y60.571
X86.215 Y60.701
X86.201 Y60.712
X86.183 Y60.713
X86.166 Y60.706
S20000
X86.129 Y60.664 Z-17.535
X86.105 Y60.613 Z-17.537
X86.096 Y60.558 Z-17.539
X86.101 Y60.503 Z-17.541
X86.122 Y60.451 Z-17.543
X86.155 Y60.406 Z-17.545
X86.199 Y60.372 Z-17.547
X86.251 Y60.352 Z-17.549
X86.307 Y60.345 Z-17.551
X86.362 Y60.355 Z-17.553
X86.412 Y60.378 Z-17.555
X86.455 Y60.414 Z-17.557
X86.486 Y60.461 Z-17.559
X86.503 Y60.514 Z-17.561
X86.505 Y60.57 Z-17.563
X86.493 Y60.624 Z-17.565
X86.466 Y60.673 Z-17.567
X86.427 Y60.713 Z-17.569
X86.379 Y60.741 Z-17.571
X86.325 Y60.755 Z-17.572
X86.269 Y60.754 Z-17.574
X86.216 Y60.737 Z-17.576
X86.168 Y60.708 Z-17.578
X86.131 Y60.666 Z-17.58
X86.106 Y60.616 Z-17.582
X86.096 Y60.561 Z-17.584
X86.101 Y60.506 Z-17.586
X86.12 Y60.454 Z-17.588
X86.153 Y60.408 Z-17.59
X86.197 Y60.374 Z-17.592
X86.248 Y60.352 Z-17.594
X86.303 Y60.345 Z-17.596
X86.359 Y60.354 Z-17.598
X86.41 Y60.376 Z-17.6
X86.452 Y60.412 Z-17.602
X86.484 Y60.458 Z-17.604
X86.502 Y60.511 Z-17.606
X86.506 Y60.566 Z-17.608
X86.494 Y60.621 Z-17.61
S12000
X86.468 Y60.691
X86.338 Y60.766
X86.191 Y60.74
X86.186 Y60.735
X86.096 Y60.628
X86.095 Y60.473
X86.189 Y60.361
X86.342 Y60.336
X86.468 Y60.409
X86.52 Y60.55
X86.494 Y60.621
X86.485 Y60.632
X86.472 Y60.636
X86.373 Y60.64
X86.346 Y60.733
X86.339 Y60.745
X86.327 Y60.751
S20000
X86.271 Y60.75 Z-17.612
X86.218 Y60.734 Z-17.614
X86.17 Y60.705 Z-17.615
X86.133 Y60.663 Z-17.617
X86.109 Y60.613 Z-17.619
X86.099 Y60.558 Z-17.621
X86.105 Y60.502 Z-17.623
X86.125 Y60.45 Z-17.625
X86.159 Y60.406 Z-17.627
X86.203 Y60.373 Z-17.629
X86.256 Y60.353 Z-17.631
X86.311 Y60.348 Z-17.633
X86.366 Y60.358 Z-17.635
X86.416 Y60.383 Z-17.637
X86.457 Y60.42 Z-17.639
X86.487 Y60.468 Z-17.641
X86.502 Y60.521 Z-17.643
Y60.577 Z-17.645
X86.487 Y60.631 Z-17.647
X86.458 Y60.678 Z-17.649
X86.417 Y60.716 Z-17.651
X86.367 Y60.742 Z-17.653
X86.313 Y60.752 Z-17.655
X86.257 Y60.748 Z-17.656
X86.205 Y60.728 Z-17.658
X86.16 Y60.695 Z-17.66
X86.126 Y60.651 Z-17.662
X86.105 Y60.599 Z-17.664
X86.099 Y60.544 Z-17.666
X86.108 Y60.489 Z-17.668
X86.132 Y60.438 Z-17.67
X86.169 Y60.397 Z-17.672
X86.216 Y60.366 Z-17.674
X86.269 Y60.35 Z-17.676
X86.325 Y60.349 Z-17.678
X86.379 Y60.363 Z-17.68
X86.427 Y60.391 Z-17.682
X86.466 Y60.431 Z-17.684
X86.492 Y60.481 Z-17.686
S12000
X86.517 Y60.55
X86.466 Y60.689
X86.338 Y60.764
X86.196 Y60.739
X86.099 Y60.626
X86.098 Y60.473
X86.191 Y60.362
X86.338 Y60.337
X86.466 Y60.411
X86.492 Y60.481
X86.491 Y60.499
X86.477 Y60.511
X86.459 Y60.51
X86.368 Y60.463
X86.296 Y60.391
X86.289 Y60.374
X86.297 Y60.357
X86.315 Y60.351
S20000
X86.369 Y60.362 Z-17.688
X86.419 Y60.388 Z-17.69
X86.459 Y60.427 Z-17.692
X86.487 Y60.475 Z-17.694
X86.5 Y60.529 Z-17.696
X86.499 Y60.585 Z-17.698
X86.481 Y60.638 Z-17.699
X86.45 Y60.684 Z-17.701
X86.407 Y60.72 Z-17.703
X86.356 Y60.742 Z-17.705
X86.301 Y60.75 Z-17.707
X86.246 Y60.742 Z-17.709
X86.195 Y60.719 Z-17.711
X86.152 Y60.683 Z-17.713
X86.122 Y60.636 Z-17.715
X86.105 Y60.583 Z-17.717
X86.103 Y60.527 Z-17.719
X86.117 Y60.473 Z-17.721
X86.146 Y60.425 Z-17.723
X86.186 Y60.387 Z-17.725
X86.236 Y60.361 Z-17.727
X86.291 Y60.351 Z-17.729
X86.346 Y60.355 Z-17.731
X86.398 Y60.375 Z-17.733
X86.443 Y60.409 Z-17.735
X86.477 Y60.453 Z-17.737
X86.496 Y60.505 Z-17.739
X86.501 Y60.561 Z-17.741
X86.49 Y60.616 Z-17.742
X86.465 Y60.665 Z-17.744
X86.427 Y60.706 Z-17.746
X86.379 Y60.734 Z-17.748
X86.325 Y60.748 Z-17.75
X86.269 Y60.747 Z-17.752
X86.216 Y60.73 Z-17.754
X86.169 Y60.699 Z-17.756
X86.133 Y60.657 Z-17.758
X86.11 Y60.606 Z-17.76
X86.102 Y60.551 Z-17.762
S12000
Y60.473
X86.193 Y60.364
X86.337 Y60.339
X86.464 Y60.412
X86.514 Y60.55
X86.464 Y60.688
X86.337 Y60.761
X86.197 Y60.736
X86.102 Y60.627
Y60.551
X86.106 Y60.535
X86.118 Y60.523
X86.134 Y60.519
X86.288 Y60.513
X86.384 Y60.4
X86.403 Y60.389
X86.425 Y60.392
S20000
X86.462 Y60.414 Z-17.764
X86.512 Y60.55 Z-17.769
X86.462 Y60.686 Z-17.774
X86.337 Y60.758 Z-17.779
X86.197 Y60.734 Z-17.784
X86.106 Y60.627 Z-17.789
X86.105 Y60.473 Z-17.794
X86.194 Y60.367 Z-17.799
X86.337 Y60.342 Z-17.804
X86.462 Y60.414 Z-17.809
X86.512 Y60.55 Z-17.814
X86.462 Y60.686 Z-17.819
X86.337 Y60.758 Z-17.824
X86.197 Y60.734 Z-17.829
X86.106 Y60.627 Z-17.834
X86.105 Y60.504 Z-17.838
S12000
Y60.473
X86.194 Y60.367
X86.337 Y60.342
X86.462 Y60.414
X86.512 Y60.55
X86.462 Y60.686
X86.337 Y60.758
X86.197 Y60.734
X86.106 Y60.627
X86.105 Y60.504
X86.112 Y60.485
X86.13 Y60.476
X86.149 Y60.481
X86.155 Y60.485
X86.397 Y60.656
X86.41 Y60.671
X86.414 Y60.69
X86.408 Y60.709
X86.394 Y60.723
S20000
X86.336 Y60.756 Z-17.841
X86.198 Y60.731 Z-17.845
X86.106 Y60.624 Z-17.85
X86.104 Y60.563 Z-17.853
X86.106 Y60.476 Z-17.856
X86.195 Y60.369 Z-17.86
X86.336 Y60.344 Z-17.865
X86.46 Y60.416 Z-17.87
X86.509 Y60.55 Z-17.875
X86.46 Y60.684 Z-17.88
X86.336 Y60.756 Z-17.885
X86.198 Y60.731 Z-17.89
X86.106 Y60.624 Z-17.895
X86.104 Y60.563 Z-17.897
X86.106 Y60.476 Z-17.9
X86.195 Y60.369 Z-17.905
X86.336 Y60.344 Z-17.91
X86.439 Y60.404 Z-17.914
S12000
X86.46 Y60.416
X86.509 Y60.55
X86.46 Y60.684
X86.336 Y60.756
X86.198 Y60.731
X86.106 Y60.624
X86.104 Y60.563
X86.106 Y60.476
X86.195 Y60.369
X86.336 Y60.344
X86.439 Y60.404
X86.45 Y60.417
X86.447 Y60.434
X86.431 Y60.451
X86.356 Y60.446
X86.336 Y60.437
X86.324 Y60.417
Y60.394
X86.338 Y60.376
X86.359 Y60.368
X86.381 Y60.373
S20000
X86.458 Y60.417 Z-17.917
X86.506 Y60.55 Z-17.922
X86.459 Y60.681 Z-17.927
X86.442 Y60.692 Z-17.928
X86.336 Y60.753 Z-17.932
X86.199 Y60.729 Z-17.937
X86.107 Y60.621 Z-17.942
X86.11 Y60.475 Z-17.947
X86.197 Y60.371 Z-17.952
X86.336 Y60.347 Z-17.957
X86.458 Y60.417 Z-17.962
X86.506 Y60.55 Z-17.967
X86.459 Y60.681 Z-17.972
X86.442 Y60.692
X86.336 Y60.753 Z-17.977
X86.199 Y60.729 Z-17.981
X86.107 Y60.621 Z-17.986
X86.109 Y60.499 Z-17.991
S12000
X86.11 Y60.475
X86.197 Y60.371
X86.336 Y60.347
X86.458 Y60.417
X86.506 Y60.55
X86.459 Y60.681
X86.442 Y60.692
X86.336 Y60.753
X86.199 Y60.729
X86.107 Y60.621
X86.109 Y60.499
X86.116 Y60.484
X86.131 Y60.477
X86.147 Y60.482
X86.197 Y60.524
X86.237 Y60.658
Y60.679
X86.226 Y60.697
X86.208 Y60.707
X86.187 Y60.706
X86.169 Y60.694
S20000
X86.107 Y60.621 Z-17.994
X86.11 Y60.475 Z-17.999
X86.197 Y60.372 Z-18.004
X86.336 Y60.347 Z-18.009
X86.458 Y60.418 Z-18.014
X86.506 Y60.55 Z-18.019
X86.459 Y60.68 Z-18.023
X86.442 Y60.691 Z-18.024
X86.336 Y60.753 Z-18.028
X86.199 Y60.729 Z-18.033
X86.107 Y60.621 Z-18.038
X86.11 Y60.475 Z-18.043
X86.197 Y60.372 Z-18.048
X86.336 Y60.347 Z-18.053
X86.458 Y60.418 Z-18.058
X86.506 Y60.55 Z-18.063
X86.466 Y60.66 Z-18.067
S12000
X86.459 Y60.68
X86.442 Y60.691
X86.336 Y60.753
X86.199 Y60.729
X86.107 Y60.621
X86.11 Y60.475
X86.197 Y60.372
X86.336 Y60.347
X86.458 Y60.418
X86.506 Y60.55
X86.466 Y60.66
X86.366 Y60.69
X86.203 Y60.707
X86.185 Y60.705
X86.169 Y60.694
S20000
X86.107 Y60.621 Z-18.07
X86.11 Y60.475 Z-18.075
X86.197 Y60.372 Z-18.08
X86.336 Y60.347 Z-18.085
X86.458 Y60.418 Z-18.09
X86.506 Y60.55 Z-18.095
X86.459 Y60.68 Z-18.1
X86.442 Y60.691
X86.336 Y60.753 Z-18.105
X86.199 Y60.729 Z-18.109
X86.107 Y60.621 Z-18.114
X86.11 Y60.475 Z-18.119
X86.197 Y60.372 Z-18.124
X86.336 Y60.347 Z-18.129
X86.458 Y60.418 Z-18.134
X86.506 Y60.55 Z-18.139
X86.466 Y60.66 Z-18.143
S12000
X86.459 Y60.68
X86.442 Y60.691
X86.336 Y60.753
X86.199 Y60.729
X86.107 Y60.621
X86.11 Y60.475
X86.197 Y60.372
X86.336 Y60.347
X86.458 Y60.418
X86.506 Y60.55
X86.466 Y60.66
X86.366 Y60.69
X86.203 Y60.707
X86.185 Y60.705
X86.169 Y60.694
S20000
X86.107 Y60.621 Z-18.146
X86.11 Y60.475 Z-18.151
X86.197 Y60.372 Z-18.156
X86.336 Y60.347 Z-18.161
X86.458 Y60.418 Z-18.166
X86.506 Y60.55 Z-18.171
X86.459 Y60.68 Z-18.176
X86.442 Y60.691
X86.336 Y60.753 Z-18.181
X86.199 Y60.729 Z-18.186
X86.107 Y60.621 Z-18.191
X86.11 Y60.475 Z-18.196
X86.197 Y60.372 Z-18.2
X86.336 Y60.347 Z-18.205
X86.458 Y60.418 Z-18.21
X86.506 Y60.55 Z-18.215
X86.466 Y60.66 Z-18.219
S12000
X86.459 Y60.68
X86.442 Y60.691
X86.336 Y60.753
X86.199 Y60.729
X86.107 Y60.621
X86.11 Y60.475
X86.197 Y60.372
X86.336 Y60.347
X86.458 Y60.418
X86.506 Y60.55
X86.466 Y60.66
X86.366 Y60.69
X86.203 Y60.707
X86.185 Y60.705
X86.169 Y60.694
S20000
X86.107 Y60.621 Z-18.223
X86.11 Y60.475 Z-18.228
X86.197 Y60.372 Z-18.232
X86.336 Y60.347 Z-18.237
X86.458 Y60.418 Z-18.242
X86.506 Y60.55 Z-18.247
X86.459 Y60.68 Z-18.252
X86.442 Y60.691 Z-18.253
X86.336 Y60.753 Z-18.257
X86.199 Y60.729 Z-18.262
X86.107 Y60.621 Z-18.267
X86.11 Y60.475 Z-18.272
X86.197 Y60.372 Z-18.277
X86.336 Y60.347 Z-18.281
X86.458 Y60.418 Z-18.286
X86.506 Y60.55 Z-18.291
X86.466 Y60.66 Z-18.295
S12000
X86.459 Y60.68
X86.442 Y60.691
X86.336 Y60.753
X86.199 Y60.729
X86.107 Y60.621
X86.11 Y60.475
X86.197 Y60.372
X86.336 Y60.347
X86.458 Y60.418
X86.506 Y60.55
X86.466 Y60.66
X86.366 Y60.69
X86.203 Y60.707
X86.185 Y60.705
X86.169 Y60.694
S20000
X86.107 Y60.621 Z-18.299
X86.11 Y60.475 Z-18.304
X86.197 Y60.372 Z-18.309
X86.336 Y60.347 Z-18.313
X86.458 Y60.418 Z-18.318
X86.506 Y60.55 Z-18.323
X86.459 Y60.68 Z-18.328
X86.442 Y60.691 Z-18.329
X86.336 Y60.753 Z-18.333
X86.199 Y60.729 Z-18.338
X86.107 Y60.621 Z-18.343
X86.11 Y60.475 Z-18.348
X86.197 Y60.372 Z-18.353
X86.336 Y60.347 Z-18.358
X86.458 Y60.418 Z-18.363
X86.506 Y60.55 Z-18.368
X86.466 Y60.66 Z-18.372
S12000
X86.459 Y60.68
X86.442 Y60.691
X86.336 Y60.753
X86.199 Y60.729
X86.107 Y60.621
X86.11 Y60.475
X86.197 Y60.372
X86.336 Y60.347
X86.458 Y60.418
X86.506 Y60.55
X86.466 Y60.66
X86.366 Y60.69
X86.203 Y60.707
X86.185 Y60.705
X86.169 Y60.694
S20000
X86.107 Y60.621 Z-18.375
X86.11 Y60.475 Z-18.38
X86.197 Y60.372 Z-18.385
X86.336 Y60.347 Z-18.39
X86.458 Y60.418 Z-18.395
X86.506 Y60.55 Z-18.4
X86.459 Y60.68 Z-18.404
X86.442 Y60.691 Z-18.405
X86.336 Y60.753 Z-18.409
X86.199 Y60.729 Z-18.414
X86.107 Y60.621 Z-18.419
X86.11 Y60.475 Z-18.424
X86.197 Y60.372 Z-18.429
X86.336 Y60.347 Z-18.434
X86.458 Y60.418 Z-18.439
X86.506 Y60.55 Z-18.444
X86.466 Y60.66 Z-18.448
S12000
X86.459 Y60.68
X86.442 Y60.691
X86.336 Y60.753
X86.199 Y60.729
X86.107 Y60.621
X86.11 Y60.475
X86.197 Y60.372
X86.336 Y60.347
X86.458 Y60.418
X86.506 Y60.55
X86.466 Y60.66
X86.454 Y60.673
X86.436 Y60.672
X86.425 Y60.659
X86.4 Y60.573
X86.399 Y60.551
X86.417 Y60.449
X86.425 Y60.434
X86.441 Y60.427
X86.457 Y60.431
X86.468 Y60.445
S20000
X86.506 Y60.55 Z-18.452
X86.459 Y60.68 Z-18.457
X86.442 Y60.691
X86.336 Y60.753 Z-18.462
X86.199 Y60.729 Z-18.466
X86.107 Y60.621 Z-18.471
X86.11 Y60.475 Z-18.476
X86.197 Y60.372 Z-18.481
X86.336 Y60.347 Z-18.486
X86.458 Y60.418 Z-18.491
X86.506 Y60.55 Z-18.496
X86.466 Y60.66 Z-18.5
S12000
X86.459 Y60.68
X86.442 Y60.691
X86.336 Y60.753
X86.199 Y60.729
X86.107 Y60.621
X86.11 Y60.475
X86.197 Y60.372
X86.336 Y60.347
X86.458 Y60.418
X86.506 Y60.55
X86.466 Y60.66
X86.459 Y60.68 Z-18.497
X86.442 Y60.691 Z-18.488
X86.425 Y60.701 Z-18.471
X86.414 Y60.708 Z-18.448
X86.41 Y60.71 Z-18.421
G0 Z5.
X66.946 Y60.365
Z-16.841
S20000
G1 X66.951 Y60.374 Z-16.88 F178.
X66.963 Y60.399 Z-16.909
X66.976 Y60.435 Z-16.92
X66.992 Y60.509 Z-16.922
X66.993 Y60.586 Z-16.925
X66.978 Y60.661 Z-16.927
X66.948 Y60.731 Z-16.93
X66.905 Y60.794 Z-16.932
X66.849 Y60.846 Z-16.935
X66.785 Y60.887 Z-16.937
X66.713 Y60.913 Z-16.94
X66.637 Y60.924 Z-16.942
X66.561 Y60.92 Z-16.945
X66.487 Y60.9 Z-16.947
X66.419 Y60.866 Z-16.95
X66.36 Y60.818 Z-16.952
X66.311 Y60.76 Z-16.955
X66.275 Y60.692 Z-16.957
X66.253 Y60.619 Z-16.96
X66.247 Y60.543 Z-16.962
X66.256 Y60.467 Z-16.965
X66.281 Y60.395 Z-16.967
X66.319 Y60.329 Z-16.97
X66.37 Y60.272 Z-16.972
X66.432 Y60.227 Z-16.975
X66.502 Y60.196 Z-16.977
X66.576 Y60.179 Z-16.979
X66.652 Y60.178 Z-16.982
X66.727 Y60.192 Z-16.984
X66.798 Y60.221 Z-16.987
X66.861 Y60.264 Z-16.989
X66.914 Y60.319 Z-16.992
X66.955 Y60.383 Z-16.994
X66.982 Y60.455 Z-16.997
X66.994 Y60.53 Z-16.999
X66.99 Y60.606 Z-17.002
X66.971 Y60.68 Z-17.004
X66.938 Y60.749 Z-17.007
X66.891 Y60.809 Z-17.009
X66.833 Y60.858 Z-17.012
X66.766 Y60.895 Z-17.014
X66.693 Y60.917 Z-17.017
X66.617 Y60.924 Z-17.019
X66.541 Y60.916 Z-17.022
X66.469 Y60.892 Z-17.024
X66.402 Y60.854 Z-17.027
X66.345 Y60.803 Z-17.029
X66.3 Y60.742 Z-17.032
X66.267 Y60.673 Z-17.034
X66.25 Y60.599 Z-17.037
X66.248 Y60.522 Z-17.039
X66.261 Y60.447 Z-17.041
X66.29 Y60.377 Z-17.044
X66.332 Y60.313 Z-17.046
X66.386 Y60.259 Z-17.049
X66.45 Y60.218 Z-17.051
X66.521 Y60.19 Z-17.054
X66.596 Y60.177 Z-17.056
X66.673 Y60.18 Z-17.059
X66.747 Y60.198 Z-17.061
X66.816 Y60.231 Z-17.064
X66.876 Y60.278 Z-17.066
X66.926 Y60.335 Z-17.069
X66.964 Y60.402 Z-17.071
X66.987 Y60.475 Z-17.074
X66.995 Y60.55 Z-17.076
S12000
G3 X66.803 Y60.743 R0.192
X66.61 Y60.55 R0.192
X66.803 Y60.358 R0.192
X66.995 Y60.55 R0.192
G2 X67.116 Y60.83 R0.383
G3 X67.181 Y60.983 R0.206
X67.111 Y61.135 R0.206
G1 X67.082 Y61.16
X66.709 Y61.217
X66.362 Y61.06
X66.162 Y60.75
X66.161 Y60.351
X66.331 Y60.086
X66.363 Y60.039
X66.705 Y59.884
X67.083 Y59.941
X67.362 Y60.183
X67.471 Y60.55
X67.365 Y60.911
X67.111 Y61.135
X67.079 Y61.153
X67.043 Y61.16
X67.006 Y61.152
X66.975 Y61.131
X66.323 Y60.5
X66.304 Y60.475
X66.294 Y60.446
Y60.415
X66.303 Y60.385
S20000
X66.342 Y60.321 Z-17.079
X66.393 Y60.266 Z-17.081
X66.454 Y60.223 Z-17.084
X66.523 Y60.192 Z-17.087
X66.596 Y60.176 Z-17.089
X66.671 Y60.175 Z-17.092
X66.745 Y60.189 Z-17.095
X66.815 Y60.217 Z-17.097
X66.877 Y60.259 Z-17.1
X66.93 Y60.312 Z-17.102
X66.971 Y60.375 Z-17.105
X66.999 Y60.445 Z-17.108
X67.012 Y60.519 Z-17.11
X67.011 Y60.594 Z-17.113
X66.994 Y60.667 Z-17.116
X66.963 Y60.735 Z-17.118
X66.919 Y60.796 Z-17.121
X66.864 Y60.847 Z-17.123
X66.799 Y60.886 Z-17.126
X66.728 Y60.911 Z-17.129
X66.654 Y60.921 Z-17.131
X66.579 Y60.916 Z-17.134
X66.506 Y60.897 Z-17.137
X66.439 Y60.863 Z-17.139
X66.38 Y60.817 Z-17.142
X66.332 Y60.76 Z-17.145
X66.295 Y60.694 Z-17.147
X66.273 Y60.622 Z-17.15
X66.265 Y60.547 Z-17.152
G3 X66.591 Y60.222 R0.326
X66.917 Y60.547 R0.326
S12000
X66.801 Y60.663 R0.116
X66.685 Y60.547 R0.116
X66.801 Y60.431 R0.116
X66.917 Y60.547 R0.116
G2 X67.011 Y60.837 R0.492
G3 X66.972 Y61.084 R0.177
X66.891 Y61.116 R0.177
G1 X66.719 Y61.139
X66.693 Y61.133
X66.416 Y61.004
X66.403 Y60.988
X66.236 Y60.724
Y60.377
X66.331 Y60.224
X66.423 Y60.092
X66.43 Y60.087
X66.708 Y59.962
X66.733 Y59.959
X67.04 Y60.006
X67.071 Y60.026
X67.291 Y60.217
X67.391 Y60.549
X67.287 Y60.886
X67.052 Y61.089
X67.037 Y61.097
X66.891 Y61.116
X66.861
X66.832 Y61.106
X66.807 Y61.088
X66.789 Y61.064
X66.435 Y60.385
X66.425 Y60.356
X66.424 Y60.326
X66.432 Y60.297
X66.449 Y60.272
S20000
X66.504 Y60.221 Z-17.155
X66.569 Y60.183 Z-17.158
X66.64 Y60.158 Z-17.16
X66.714 Y60.148 Z-17.163
X66.789 Y60.153 Z-17.166
X66.862 Y60.173 Z-17.168
X66.929 Y60.207 Z-17.171
X66.988 Y60.253 Z-17.173
X67.036 Y60.311 Z-17.176
X67.072 Y60.377 Z-17.179
X67.094 Y60.449 Z-17.181
X67.101 Y60.524 Z-17.184
X67.093 Y60.598 Z-17.187
X67.07 Y60.67 Z-17.189
X67.034 Y60.736 Z-17.192
X66.985 Y60.793 Z-17.194
X66.926 Y60.839 Z-17.197
X66.858 Y60.872 Z-17.2
X66.786 Y60.891 Z-17.202
X66.711 Y60.895 Z-17.205
X66.636 Y60.885 Z-17.208
X66.566 Y60.859 Z-17.21
X66.502 Y60.82 Z-17.213
X66.446 Y60.769 Z-17.215
X66.403 Y60.708 Z-17.218
X66.372 Y60.64 Z-17.221
X66.356 Y60.566 Z-17.223
X66.354 Y60.491 Z-17.226
X66.368 Y60.417 Z-17.229
G3 X66.685 Y60.243 R0.256
X66.86 Y60.56 R0.256
S12000
G1 X66.851 Y60.589
X66.837 Y60.611
X66.832 Y60.615
X66.809 Y60.625
X66.794 Y60.626
X66.78 Y60.623
X66.77 Y60.618
X66.751 Y60.601
X66.745 Y60.589
X66.743 Y60.575
Y60.524
X66.751 Y60.499
X66.77 Y60.483
X66.779 Y60.479
X66.805 Y60.475
X66.816 Y60.477
X66.839 Y60.487
X66.852 Y60.507
X66.86 Y60.528
X66.863 Y60.542
X66.861 Y60.556
X66.86 Y60.56
G2 X66.912 Y60.814 R0.277
G3 X66.892 Y61.023 R0.149
X66.818 Y61.056 R0.149
G1 X66.766 Y61.063
X66.686 Y61.049
X66.489 Y60.96
X66.422 Y60.881
X66.314 Y60.712
X66.317 Y60.382
X66.332 Y60.359
X66.43 Y60.208
X66.483 Y60.144
X66.686 Y60.051
X66.765 Y60.037
X66.985 Y60.07
X67.064 Y60.117
X67.213 Y60.246
X67.271 Y60.409
X67.31 Y60.541
X67.228 Y60.823
X67.216 Y60.85
X67.044 Y60.996
X66.972 Y61.034
X66.818 Y61.056
X66.788
X66.759 Y61.046
X66.735 Y61.029
X66.716 Y61.004
X66.433 Y60.478
X66.423 Y60.448
X66.422 Y60.417
X66.431 Y60.387
S20000
X66.471 Y60.323 Z-17.231
X66.522 Y60.268 Z-17.234
X66.583 Y60.225 Z-17.236
X66.652 Y60.194 Z-17.239
X66.725 Y60.178 Z-17.242
X66.8 Y60.177 Z-17.244
X66.874 Y60.191 Z-17.247
X66.944 Y60.219 Z-17.25
X67.006 Y60.261 Z-17.252
X67.059 Y60.314 Z-17.255
X67.1 Y60.377 Z-17.258
X67.128 Y60.447 Z-17.26
X67.141 Y60.521 Z-17.263
X67.14 Y60.596 Z-17.265
X67.123 Y60.669 Z-17.268
X67.092 Y60.737 Z-17.271
X67.048 Y60.798 Z-17.273
X66.992 Y60.849 Z-17.276
X66.928 Y60.888 Z-17.279
X66.857 Y60.913 Z-17.281
X66.783 Y60.923 Z-17.284
X66.708 Y60.919 Z-17.286
X66.635 Y60.899 Z-17.289
X66.568 Y60.865 Z-17.292
X66.509 Y60.819 Z-17.294
X66.46 Y60.762 Z-17.297
X66.424 Y60.696 Z-17.3
X66.402 Y60.624 Z-17.302
X66.394 Y60.549 Z-17.305
G3 X66.654 Y60.29 R0.259
X66.913 Y60.549 R0.259
S12000
X66.801 Y60.661 R0.112
X66.69 Y60.549 R0.112
X66.801 Y60.438 R0.112
X66.913 Y60.549 R0.112
G1 X66.919 Y60.601
X66.936 Y60.65
X66.964 Y60.694
X67.001 Y60.731
X67.027 Y60.76
X67.043 Y60.797
X67.046 Y60.836
X67.037 Y60.874
X67.015 Y60.908
X66.984 Y60.932
X66.919 Y60.968
X66.796 Y60.983
X66.659 Y60.958
X66.559 Y60.913
X66.441 Y60.773
X66.392 Y60.696
X66.391 Y60.405
X66.458 Y60.302
X66.531 Y60.215
X66.555 Y60.189
X66.658 Y60.142
X66.819 Y60.116
X66.916 Y60.13
X67.056 Y60.208
X67.144 Y60.283
X67.233 Y60.549
X67.145 Y60.816
X67.048 Y60.897
X66.984 Y60.932
X66.966 Y60.937
X66.947 Y60.933
X66.933 Y60.92
X66.827 Y60.767
X66.673 Y60.672
X66.518
X66.496 Y60.666
X66.483 Y60.647
S20000
X66.47 Y60.576 Z-17.307
X66.472 Y60.503 Z-17.31
X66.491 Y60.433 Z-17.312
X66.524 Y60.369 Z-17.315
X66.57 Y60.313 Z-17.318
X66.628 Y60.268 Z-17.32
X66.693 Y60.237 Z-17.323
X66.764 Y60.222 Z-17.325
X66.837 Y60.221 Z-17.328
X66.908 Y60.237 Z-17.33
X66.973 Y60.268 Z-17.333
X67.031 Y60.312 Z-17.335
X67.077 Y60.368 Z-17.338
X67.111 Y60.433 Z-17.34
X67.129 Y60.503 Z-17.343
X67.132 Y60.575 Z-17.345
X67.119 Y60.647 Z-17.348
X67.09 Y60.714 Z-17.351
X67.048 Y60.773 Z-17.353
X66.994 Y60.821 Z-17.356
X66.931 Y60.857 Z-17.358
X66.861 Y60.878 Z-17.361
X66.789 Y60.883 Z-17.363
X66.717 Y60.872 Z-17.366
X66.649 Y60.846 Z-17.368
X66.589 Y60.806 Z-17.371
X66.538 Y60.754 Z-17.373
X66.5 Y60.692 Z-17.376
X66.477 Y60.623 Z-17.378
X66.469 Y60.551 Z-17.381
S12000
Y60.425
X66.478 Y60.408
X66.533 Y60.341
X66.623 Y60.24
X66.653 Y60.229
X66.849 Y60.194
X66.863 Y60.196
X67.061 Y60.307
X67.069 Y60.314
X67.152 Y60.551
X67.072 Y60.78
X67.057 Y60.795
X66.863 Y60.904
X66.85 Y60.906
X66.632 Y60.866
X66.618 Y60.859
X66.469 Y60.677
Y60.551
X66.477 Y60.528
X66.497 Y60.514
X66.522
X66.743 Y60.593
X66.958 Y60.673
X66.975 Y60.684
X66.983 Y60.702
X66.982 Y60.722
X66.971 Y60.739
S20000
X66.92 Y60.774 Z-17.383
X66.862 Y60.797 Z-17.385
X66.8 Y60.804 Z-17.388
X66.738 Y60.796 Z-17.39
X66.68 Y60.774 Z-17.392
X66.63 Y60.738 Z-17.394
X66.589 Y60.69 Z-17.396
X66.561 Y60.635 Z-17.398
X66.548 Y60.574 Z-17.401
X66.55 Y60.512 Z-17.403
X66.566 Y60.452 Z-17.405
X66.597 Y60.398 Z-17.407
X66.64 Y60.353 Z-17.409
X66.693 Y60.32 Z-17.411
X66.752 Y60.301 Z-17.414
X66.814 Y60.296 Z-17.416
X66.875 Y60.307 Z-17.418
X66.932 Y60.332 Z-17.42
X66.981 Y60.37 Z-17.422
X67.019 Y60.42 Z-17.425
X67.044 Y60.476 Z-17.427
X67.055 Y60.538 Z-17.429
X67.05 Y60.6 Z-17.431
X67.03 Y60.659 Z-17.433
X66.997 Y60.711 Z-17.435
X66.952 Y60.754 Z-17.438
X66.898 Y60.785 Z-17.44
X66.838 Y60.801 Z-17.442
X66.776 Y60.803 Z-17.444
X66.715 Y60.789 Z-17.446
X66.66 Y60.761 Z-17.448
X66.612 Y60.72 Z-17.451
X66.577 Y60.67 Z-17.453
X66.554 Y60.612 Z-17.455
X66.547 Y60.55 Z-17.457
S12000
Y60.454
X66.668 Y60.312
X66.843 Y60.281
X67.007 Y60.374
X67.071 Y60.55
X67.009 Y60.722
X66.846 Y60.819
X66.666 Y60.788
X66.547 Y60.64
Y60.55
X66.551 Y60.532
X66.564 Y60.519
X66.581 Y60.514
X66.752 Y60.506
X66.856 Y60.377
X66.869 Y60.366
X66.886 Y60.363
X66.902 Y60.368
S20000
X66.948 Y60.402 Z-17.459
X66.982 Y60.448 Z-17.461
X67.003 Y60.501 Z-17.463
X67.008 Y60.558 Z-17.465
X66.998 Y60.614 Z-17.467
X66.973 Y60.666 Z-17.469
X66.935 Y60.708 Z-17.471
X66.887 Y60.739 Z-17.473
X66.832 Y60.755 Z-17.475
X66.774 Y60.756 Z-17.477
X66.719 Y60.741 Z-17.479
X66.67 Y60.712 Z-17.481
X66.631 Y60.67 Z-17.483
X66.604 Y60.619 Z-17.485
X66.593 Y60.563 Z-17.487
X66.597 Y60.506 Z-17.489
X66.616 Y60.452 Z-17.491
X66.65 Y60.406 Z-17.493
X66.695 Y60.37 Z-17.495
X66.747 Y60.348 Z-17.497
X66.804 Y60.341 Z-17.499
X66.861 Y60.35 Z-17.501
X66.913 Y60.374 Z-17.503
X66.956 Y60.411 Z-17.505
X66.988 Y60.459 Z-17.507
X67.006 Y60.513 Z-17.509
X67.008 Y60.571 Z-17.511
X66.994 Y60.626 Z-17.513
X66.966 Y60.676 Z-17.515
X66.925 Y60.716 Z-17.517
X66.875 Y60.744 Z-17.519
X66.819 Y60.757 Z-17.521
X66.762 Y60.754 Z-17.523
X66.708 Y60.736 Z-17.525
X66.66 Y60.703 Z-17.527
X66.624 Y60.659 Z-17.529
X66.6 Y60.607 Z-17.531
X66.592 Y60.55 Z-17.533
S12000
Y60.473
X66.689 Y60.357
X66.839 Y60.331
X66.97 Y60.407
X67.022 Y60.55
X66.97 Y60.693
X66.837 Y60.768
X66.687 Y60.74
X66.593 Y60.628
X66.592 Y60.55
X66.598 Y60.531
X66.615 Y60.518
X66.635 Y60.517
X66.798 Y60.559
X66.966 Y60.547
X66.986 Y60.551
X67. Y60.567
X67.003 Y60.587
S20000
X66.985 Y60.64 Z-17.535
X66.954 Y60.687 Z-17.537
X66.912 Y60.723 Z-17.539
X66.861 Y60.746 Z-17.541
X66.806 Y60.755 Z-17.543
X66.75 Y60.749 Z-17.545
X66.699 Y60.728 Z-17.547
X66.655 Y60.693 Z-17.549
X66.621 Y60.648 Z-17.551
X66.602 Y60.596 Z-17.553
X66.597 Y60.541 Z-17.555
X66.607 Y60.486 Z-17.557
X66.631 Y60.436 Z-17.559
X66.668 Y60.394 Z-17.561
X66.715 Y60.364 Z-17.563
X66.769 Y60.348 Z-17.565
X66.824 Y60.347 Z-17.567
X66.878 Y60.36 Z-17.569
X66.927 Y60.388 Z-17.571
X66.966 Y60.428 Z-17.572
X66.993 Y60.477 Z-17.574
X67.005 Y60.531 Z-17.576
X67.003 Y60.587 Z-17.578
X66.985 Y60.64 Z-17.58
X66.954 Y60.686 Z-17.582
X66.912 Y60.723 Z-17.584
X66.861 Y60.746 Z-17.586
X66.806 Y60.755 Z-17.588
X66.751 Y60.749 Z-17.59
X66.699 Y60.728 Z-17.592
X66.655 Y60.693 Z-17.594
X66.622 Y60.649 Z-17.596
X66.602 Y60.597 Z-17.598
X66.597 Y60.541 Z-17.6
X66.607 Y60.486 Z-17.602
X66.631 Y60.436 Z-17.604
X66.668 Y60.394 Z-17.606
X66.715 Y60.364 Z-17.608
X66.768 Y60.348 Z-17.61
S12000
X66.842 Y60.336
X66.968 Y60.409
X67.02 Y60.55
X66.968 Y60.691
X66.837 Y60.765
X66.688 Y60.737
X66.596 Y60.628
X66.595 Y60.473
X66.689 Y60.361
X66.768 Y60.348
X66.785 Y60.352
X66.794 Y60.367
X66.789 Y60.384
X66.727 Y60.454
X66.646 Y60.497
X66.628 Y60.499
X66.616 Y60.487
Y60.469
S20000
X66.645 Y60.421 Z-17.612
X66.685 Y60.384 Z-17.614
X66.735 Y60.358 Z-17.615
X66.79 Y60.347 Z-17.617
X66.845 Y60.352 Z-17.619
X66.898 Y60.371 Z-17.621
X66.943 Y60.404 Z-17.623
X66.977 Y60.449 Z-17.625
X66.998 Y60.5 Z-17.627
X67.004 Y60.556 Z-17.629
X66.994 Y60.611 Z-17.631
X66.97 Y60.661 Z-17.633
X66.934 Y60.703 Z-17.635
X66.887 Y60.733 Z-17.637
X66.833 Y60.75 Z-17.639
X66.778 Y60.751 Z-17.641
X66.724 Y60.737 Z-17.643
X66.676 Y60.708 Z-17.645
X66.637 Y60.668 Z-17.647
X66.611 Y60.619 Z-17.649
X66.599 Y60.564 Z-17.651
X66.603 Y60.509 Z-17.653
X66.622 Y60.456 Z-17.655
X66.654 Y60.411 Z-17.656
X66.698 Y60.376 Z-17.658
X66.749 Y60.354 Z-17.66
X66.804 Y60.347 Z-17.662
X66.859 Y60.356 Z-17.664
X66.91 Y60.379 Z-17.666
X66.953 Y60.415 Z-17.668
X66.984 Y60.461 Z-17.67
X67.001 Y60.514 Z-17.672
X67.003 Y60.57 Z-17.674
X66.99 Y60.624 Z-17.676
X66.962 Y60.673 Z-17.678
X66.922 Y60.712 Z-17.68
X66.873 Y60.739 Z-17.682
X66.819 Y60.751 Z-17.684
X66.763 Y60.749 Z-17.686
S12000
X66.688 Y60.734
X66.599 Y60.628
X66.598 Y60.473
X66.691 Y60.362
X66.838 Y60.337
X66.966 Y60.411
X67.017 Y60.55
X66.966 Y60.689
X66.837 Y60.763
X66.763 Y60.749
X66.746 Y60.74
X66.737 Y60.723
X66.738 Y60.704
X66.795 Y60.55
X66.779 Y60.388
X66.783 Y60.369
X66.796 Y60.355
X66.815 Y60.351
S20000
X66.869 Y60.362 Z-17.688
X66.919 Y60.388 Z-17.69
X66.959 Y60.427 Z-17.692
X66.987 Y60.475 Z-17.694
X67. Y60.529 Z-17.696
X66.999 Y60.585 Z-17.698
X66.981 Y60.638 Z-17.699
X66.95 Y60.684 Z-17.701
X66.907 Y60.72 Z-17.703
X66.856 Y60.742 Z-17.705
X66.801 Y60.75 Z-17.707
X66.746 Y60.742 Z-17.709
X66.695 Y60.719 Z-17.711
X66.652 Y60.683 Z-17.713
X66.622 Y60.636 Z-17.715
X66.605 Y60.583 Z-17.717
X66.603 Y60.527 Z-17.719
X66.617 Y60.473 Z-17.721
X66.646 Y60.425 Z-17.723
X66.686 Y60.387 Z-17.725
X66.736 Y60.361 Z-17.727
X66.791 Y60.351 Z-17.729
X66.846 Y60.355 Z-17.731
X66.898 Y60.375 Z-17.733
X66.943 Y60.409 Z-17.735
X66.977 Y60.453 Z-17.737
X66.996 Y60.505 Z-17.739
X67.001 Y60.561 Z-17.741
X66.99 Y60.616 Z-17.742
X66.965 Y60.665 Z-17.744
X66.927 Y60.706 Z-17.746
X66.879 Y60.734 Z-17.748
X66.825 Y60.748 Z-17.75
X66.769 Y60.747 Z-17.752
X66.716 Y60.73 Z-17.754
X66.669 Y60.699 Z-17.756
X66.633 Y60.657 Z-17.758
X66.61 Y60.606 Z-17.76
X66.602 Y60.551 Z-17.762
S12000
Y60.473
X66.693 Y60.364
X66.835 Y60.339
X66.964 Y60.413
X67.014 Y60.55
X66.965 Y60.684
X66.931 Y60.707
X66.836 Y60.761
X66.693 Y60.736
X66.603 Y60.628
X66.602 Y60.551
X66.606 Y60.535
X66.618 Y60.523
X66.634 Y60.519
X66.787 Y60.513
X66.883 Y60.4
X66.902 Y60.389
X66.924 Y60.393
S20000
X66.962 Y60.414 Z-17.764
X67.012 Y60.55 Z-17.769
X66.963 Y60.683 Z-17.774
X66.931 Y60.704 Z-17.775
X66.836 Y60.758 Z-17.779
X66.694 Y60.733 Z-17.784
X66.606 Y60.628 Z-17.789
X66.605 Y60.473 Z-17.794
X66.694 Y60.367 Z-17.799
X66.835 Y60.342 Z-17.804
X66.962 Y60.414 Z-17.809
X67.012 Y60.55 Z-17.814
X66.963 Y60.683 Z-17.819
X66.931 Y60.704 Z-17.82
X66.836 Y60.758 Z-17.824
X66.694 Y60.733 Z-17.829
X66.606 Y60.628 Z-17.834
X66.605 Y60.504 Z-17.838
S12000
Y60.473
X66.694 Y60.367
X66.835 Y60.342
X66.962 Y60.414
X67.012 Y60.55
X66.963 Y60.683
X66.931 Y60.704
X66.836 Y60.758
X66.694 Y60.733
X66.606 Y60.628
X66.605 Y60.504
X66.625 Y60.524
X66.604 Y60.544
S20000
X66.606 Y60.476 Z-17.841
X66.695 Y60.369 Z-17.845
X66.835 Y60.344 Z-17.85
X66.96 Y60.416 Z-17.855
X67.009 Y60.55 Z-17.86
X66.961 Y60.682 Z-17.865
X66.931 Y60.701 Z-17.867
X66.835 Y60.756 Z-17.87
X66.698 Y60.731 Z-17.875
X66.683 Y60.716 Z-17.876
X66.606 Y60.625 Z-17.88
X66.604 Y60.563 Z-17.882
X66.606 Y60.476 Z-17.885
X66.695 Y60.369 Z-17.89
X66.835 Y60.344 Z-17.895
X66.96 Y60.416 Z-17.9
X67.009 Y60.55 Z-17.905
X66.961 Y60.682 Z-17.91
X66.931 Y60.701 Z-17.911
X66.856 Y60.744 Z-17.914
S12000
X66.835 Y60.756
X66.698 Y60.731
X66.683 Y60.716
X66.606 Y60.625
X66.604 Y60.563
X66.606 Y60.476
X66.695 Y60.369
X66.835 Y60.344
X66.96 Y60.416
X67.009 Y60.55
X66.961 Y60.682
X66.931 Y60.701
X66.856 Y60.744
X66.843 Y60.747
X66.83 Y60.741
X66.758 Y60.673
X66.628 Y60.614
X66.613 Y60.602
X66.608 Y60.583
S20000
X66.61 Y60.475 Z-17.918
X66.697 Y60.371 Z-17.923
X66.833 Y60.347 Z-17.928
X66.96 Y60.424 Z-17.933
X67.006 Y60.55 Z-17.938
X66.96 Y60.677 Z-17.942
X66.833 Y60.753 Z-17.947
X66.703 Y60.73 Z-17.952
X66.607 Y60.62 Z-17.957
X66.61 Y60.475 Z-17.962
X66.697 Y60.371 Z-17.967
X66.833 Y60.347 Z-17.972
X66.96 Y60.424 Z-17.977
X67.006 Y60.55 Z-17.982
X66.96 Y60.677 Z-17.986
X66.857 Y60.738 Z-17.991
S12000
X66.833 Y60.753
X66.703 Y60.73
X66.607 Y60.62
X66.61 Y60.475
X66.697 Y60.371
X66.833 Y60.347
X66.96 Y60.424
X67.006 Y60.55
X66.96 Y60.677
X66.857 Y60.738
X66.843 Y60.742
X66.829 Y60.737
X66.82 Y60.725
X66.814 Y60.683
X66.88 Y60.633
X66.904 Y60.626
X66.926 Y60.635
X66.94 Y60.656
X66.938 Y60.681
X66.922 Y60.699
S20000
X66.833 Y60.752 Z-17.994
X66.703 Y60.729 Z-17.999
X66.607 Y60.62 Z-18.004
X66.61 Y60.475 Z-18.009
X66.697 Y60.372 Z-18.014
X66.833 Y60.348 Z-18.018
X66.96 Y60.424 Z-18.024
X67.006 Y60.55 Z-18.028
X66.96 Y60.677 Z-18.033
X66.833 Y60.752 Z-18.038
X66.703 Y60.729 Z-18.043
X66.607 Y60.62 Z-18.048
X66.61 Y60.475 Z-18.053
X66.697 Y60.372 Z-18.058
X66.833 Y60.348 Z-18.063
X66.938 Y60.411 Z-18.067
S12000
X66.96 Y60.424
X67.006 Y60.55
X66.96 Y60.677
X66.833 Y60.752
X66.703 Y60.729
X66.607 Y60.62
X66.61 Y60.475
X66.697 Y60.372
X66.833 Y60.348
X66.938 Y60.411
X66.958 Y60.516
X66.941 Y60.67
X66.935 Y60.687
X66.922 Y60.699
S20000
X66.833 Y60.752 Z-18.07
X66.703 Y60.729 Z-18.075
X66.607 Y60.62 Z-18.08
X66.61 Y60.475 Z-18.085
X66.697 Y60.372 Z-18.09
X66.833 Y60.348 Z-18.095
X66.96 Y60.424 Z-18.1
X67.006 Y60.55 Z-18.105
X66.96 Y60.677 Z-18.109
X66.833 Y60.752 Z-18.114
X66.703 Y60.729 Z-18.119
X66.607 Y60.62 Z-18.124
X66.61 Y60.475 Z-18.129
X66.697 Y60.372 Z-18.134
X66.833 Y60.348 Z-18.139
X66.938 Y60.411 Z-18.143
S12000
X66.96 Y60.424
X67.006 Y60.55
X66.96 Y60.677
X66.833 Y60.752
X66.703 Y60.729
X66.607 Y60.62
X66.61 Y60.475
X66.697 Y60.372
X66.833 Y60.348
X66.938 Y60.411
X66.958 Y60.516
X66.941 Y60.67
X66.935 Y60.687
X66.922 Y60.699
S20000
X66.833 Y60.752 Z-18.147
X66.703 Y60.729 Z-18.151
X66.607 Y60.62 Z-18.156
X66.61 Y60.475 Z-18.161
X66.697 Y60.372 Z-18.166
X66.833 Y60.348 Z-18.171
X66.96 Y60.424 Z-18.176
X67.006 Y60.55 Z-18.181
X66.96 Y60.677 Z-18.185
X66.833 Y60.752 Z-18.191
X66.703 Y60.729 Z-18.195
X66.607 Y60.62 Z-18.2
X66.61 Y60.475 Z-18.205
X66.697 Y60.372 Z-18.21
X66.833 Y60.348 Z-18.215
X66.938 Y60.411 Z-18.219
S12000
X66.96 Y60.424
X67.006 Y60.55
X66.96 Y60.677
X66.833 Y60.752
X66.703 Y60.729
X66.607 Y60.62
X66.61 Y60.475
X66.697 Y60.372
X66.833 Y60.348
X66.938 Y60.411
X66.958 Y60.516
X66.941 Y60.67
X66.935 Y60.687
X66.922 Y60.699
S20000
X66.833 Y60.752 Z-18.223
X66.703 Y60.729 Z-18.227
X66.607 Y60.62 Z-18.232
X66.61 Y60.475 Z-18.238
X66.697 Y60.372 Z-18.242
X66.833 Y60.348 Z-18.247
X66.96 Y60.424 Z-18.252
X67.006 Y60.55 Z-18.257
X66.96 Y60.677 Z-18.262
X66.833 Y60.752 Z-18.267
X66.703 Y60.729 Z-18.271
X66.607 Y60.62 Z-18.277
X66.61 Y60.475 Z-18.282
X66.697 Y60.372 Z-18.286
X66.833 Y60.348 Z-18.291
X66.938 Y60.411 Z-18.295
S12000
X66.96 Y60.424
X67.006 Y60.55
X66.96 Y60.677
X66.833 Y60.752
X66.703 Y60.729
X66.607 Y60.62
X66.61 Y60.475
X66.697 Y60.372
X66.833 Y60.348
X66.938 Y60.411
X66.958 Y60.516
X66.941 Y60.67
X66.935 Y60.687
X66.922 Y60.699
S20000
X66.833 Y60.752 Z-18.299
X66.703 Y60.729 Z-18.304
X66.607 Y60.62 Z-18.309
X66.61 Y60.475 Z-18.314
X66.697 Y60.372 Z-18.318
X66.833 Y60.348 Z-18.323
X66.96 Y60.424 Z-18.328
X67.006 Y60.55 Z-18.333
X66.96 Y60.677 Z-18.338
X66.833 Y60.752 Z-18.343
X66.703 Y60.729 Z-18.348
X66.607 Y60.62 Z-18.353
X66.61 Y60.475 Z-18.358
X66.697 Y60.372 Z-18.362
X66.833 Y60.348 Z-18.367
X66.938 Y60.411 Z-18.372
S12000
X66.96 Y60.424
X67.006 Y60.55
X66.96 Y60.677
X66.833 Y60.752
X66.703 Y60.729
X66.607 Y60.62
X66.61 Y60.475
X66.697 Y60.372
X66.833 Y60.348
X66.938 Y60.411
X66.958 Y60.516
X66.941 Y60.67
X66.935 Y60.687
X66.922 Y60.699
S20000
X66.833 Y60.752 Z-18.375
X66.703 Y60.729 Z-18.38
X66.607 Y60.62 Z-18.385
X66.61 Y60.475 Z-18.39
X66.697 Y60.372 Z-18.395
X66.833 Y60.348 Z-18.399
X66.96 Y60.424 Z-18.405
X67.006 Y60.55 Z-18.409
X66.96 Y60.677 Z-18.414
X66.833 Y60.752 Z-18.419
X66.703 Y60.729 Z-18.424
X66.607 Y60.62 Z-18.429
X66.61 Y60.475 Z-18.434
X66.697 Y60.372 Z-18.439
X66.833 Y60.348 Z-18.444
X66.938 Y60.411 Z-18.448
S12000
X66.96 Y60.424
X67.006 Y60.55
X66.96 Y60.677
X66.833 Y60.752
X66.703 Y60.729
X66.607 Y60.62
X66.61 Y60.475
X66.697 Y60.372
X66.833 Y60.348
X66.938 Y60.411
X66.948 Y60.422
X66.949 Y60.437
X66.941 Y60.45
X66.927 Y60.455
X66.831 Y60.458
X66.808 Y60.453
X66.717 Y60.413
X66.706 Y60.403
X66.703 Y60.388
X66.71 Y60.374
X66.723 Y60.367
S20000
X66.833 Y60.348 Z-18.452
X66.96 Y60.424 Z-18.457
X67.006 Y60.55 Z-18.462
X66.96 Y60.677 Z-18.466
X66.833 Y60.752 Z-18.471
X66.703 Y60.729 Z-18.476
X66.607 Y60.62 Z-18.481
X66.61 Y60.475 Z-18.486
X66.697 Y60.372 Z-18.491
X66.833 Y60.348 Z-18.496
X66.938 Y60.411 Z-18.5
S12000
X66.96 Y60.424
X67.006 Y60.55
X66.96 Y60.677
X66.833 Y60.752
X66.703 Y60.729
X66.607 Y60.62
X66.61 Y60.475
X66.697 Y60.372
X66.833 Y60.348
X66.938 Y60.411
X66.96 Y60.424 Z-18.496
X66.97 Y60.45 Z-18.479
X66.976 Y60.468 Z-18.453
X66.978 Y60.474 Z-18.421
G0 Z5.
X47.444 Y60.367
Z-16.841
S20000
G1 X47.449 Y60.376 Z-16.88 F178.
X47.461 Y60.401 Z-16.909
X47.475 Y60.436 Z-16.92
X47.491 Y60.511 Z-16.922
Y60.587 Z-16.925
X47.476 Y60.662 Z-16.927
X47.447 Y60.733 Z-16.93
X47.403 Y60.795 Z-16.932
X47.348 Y60.848 Z-16.935
X47.283 Y60.888 Z-16.937
X47.211 Y60.914 Z-16.94
X47.136 Y60.926 Z-16.942
X47.06 Y60.921 Z-16.945
X46.986 Y60.902 Z-16.947
X46.918 Y60.867 Z-16.95
X46.858 Y60.82 Z-16.952
X46.809 Y60.761 Z-16.955
X46.773 Y60.694 Z-16.957
X46.751 Y60.621 Z-16.96
X46.745 Y60.545 Z-16.962
X46.754 Y60.469 Z-16.965
X46.779 Y60.396 Z-16.967
X46.818 Y60.331 Z-16.97
X46.869 Y60.274 Z-16.972
X46.93 Y60.229 Z-16.975
X47. Y60.197 Z-16.977
X47.074 Y60.181 Z-16.979
X47.151 Y60.179 Z-16.982
X47.226 Y60.194 Z-16.984
X47.296 Y60.223 Z-16.987
X47.36 Y60.266 Z-16.989
X47.413 Y60.32 Z-16.992
X47.454 Y60.385 Z-16.994
X47.481 Y60.456 Z-16.997
X47.493 Y60.532 Z-16.999
X47.489 Y60.608 Z-17.002
X47.47 Y60.682 Z-17.004
X47.436 Y60.75 Z-17.007
X47.389 Y60.81 Z-17.009
X47.331 Y60.86 Z-17.012
X47.264 Y60.897 Z-17.014
X47.191 Y60.919 Z-17.017
X47.115 Y60.926 Z-17.019
X47.04 Y60.917 Z-17.022
X46.967 Y60.894 Z-17.024
X46.901 Y60.856 Z-17.027
X46.844 Y60.805 Z-17.029
X46.798 Y60.744 Z-17.032
X46.766 Y60.675 Z-17.034
X46.748 Y60.6 Z-17.037
X46.746 Y60.524 Z-17.039
X46.76 Y60.449 Z-17.041
X46.788 Y60.378 Z-17.044
X46.83 Y60.314 Z-17.046
X46.884 Y60.261 Z-17.049
X46.948 Y60.219 Z-17.051
X47.02 Y60.191 Z-17.054
X47.095 Y60.179 Z-17.056
X47.171 Y60.182 Z-17.059
X47.245 Y60.2 Z-17.061
X47.314 Y60.233 Z-17.064
X47.375 Y60.279 Z-17.066
X47.425 Y60.337 Z-17.069
X47.462 Y60.403 Z-17.071
X47.485 Y60.476 Z-17.074
X47.493 Y60.552 Z-17.076
S12000
G3 X47.302 Y60.743 R0.191
X47.11 Y60.552 R0.191
X47.302 Y60.361 R0.191
X47.493 Y60.552 R0.191
G2 X47.613 Y60.831 R0.383
G3 X47.678 Y60.984 R0.204
X47.607 Y61.134 R0.204
G1 X47.572 Y61.165
X47.199 Y61.215
X46.862 Y61.06
X46.662 Y60.75
X46.661 Y60.351
X46.819 Y60.106
X46.862 Y60.04
X47.206 Y59.883
X47.572 Y59.935
X47.857 Y60.178
X47.97 Y60.551
X47.864 Y60.912
X47.607 Y61.134
X47.577 Y61.152
X47.543 Y61.159
X47.509 Y61.153
X47.479 Y61.137
X47.456 Y61.111
X47.443 Y61.078
Y61.044
X47.561 Y60.252
X47.573 Y60.218
X47.596 Y60.19
X47.626 Y60.172
X47.662 Y60.166
X47.697 Y60.173
X47.727 Y60.192
X47.749 Y60.22
S20000
X47.777 Y60.29 Z-17.079
X47.79 Y60.364 Z-17.081
X47.788 Y60.439 Z-17.084
X47.771 Y60.512 Z-17.087
X47.74 Y60.581 Z-17.089
X47.696 Y60.642 Z-17.092
X47.641 Y60.692 Z-17.095
X47.576 Y60.731 Z-17.097
X47.505 Y60.756 Z-17.1
X47.431 Y60.766 Z-17.102
X47.356 Y60.762 Z-17.105
X47.283 Y60.742 Z-17.108
X47.216 Y60.708 Z-17.11
X47.157 Y60.662 Z-17.113
X47.109 Y60.604 Z-17.116
X47.073 Y60.539 Z-17.118
X47.05 Y60.467 Z-17.121
X47.043 Y60.392 Z-17.123
X47.051 Y60.317 Z-17.126
X47.073 Y60.246 Z-17.129
X47.109 Y60.18 Z-17.131
X47.158 Y60.123 Z-17.134
X47.217 Y60.076 Z-17.137
X47.284 Y60.043 Z-17.139
X47.357 Y60.023 Z-17.142
X47.432 Y60.019 Z-17.145
X47.506 Y60.029 Z-17.147
X47.577 Y60.055 Z-17.15
X47.641 Y60.093 Z-17.152
G3 X47.71 Y60.572 R0.342
X47.231 Y60.64 R0.342
S12000
X47.208 Y60.478 R0.116
X47.37 Y60.455 R0.116
X47.394 Y60.617 R0.116
X47.231 Y60.64 R0.116
G2 X46.953 Y60.568 R0.38
G3 X46.801 Y60.522 R0.191
X46.736 Y60.378 R0.191
G1 Y60.377
X46.818 Y60.243
X46.922 Y60.093
X46.932 Y60.086
X47.202 Y59.963
X47.227 Y59.958
X47.533 Y60.002
X47.566 Y60.022
X47.791 Y60.217
X47.891 Y60.549
X47.787 Y60.886
X47.551 Y61.088
X47.531 Y61.098
X47.227 Y61.142
X47.202 Y61.137
X46.925 Y61.011
X46.899 Y60.981
X46.736 Y60.724
Y60.378
X46.746 Y60.379
X46.881 Y60.383
S20000
X46.921 Y60.319 Z-17.155
X46.972 Y60.264 Z-17.158
X47.033 Y60.22 Z-17.16
X47.102 Y60.19 Z-17.163
X47.175 Y60.174 Z-17.166
X47.25 Y60.172 Z-17.168
X47.324 Y60.186 Z-17.171
X47.393 Y60.215 Z-17.173
X47.456 Y60.256 Z-17.176
X47.509 Y60.31 Z-17.179
X47.55 Y60.373 Z-17.181
X47.578 Y60.442 Z-17.184
X47.591 Y60.516 Z-17.187
X47.589 Y60.591 Z-17.189
X47.573 Y60.665 Z-17.192
X47.542 Y60.733 Z-17.194
X47.498 Y60.794 Z-17.197
X47.442 Y60.845 Z-17.2
X47.378 Y60.883 Z-17.202
X47.307 Y60.908 Z-17.205
X47.233 Y60.919 Z-17.208
X47.158 Y60.914 Z-17.21
X47.085 Y60.895 Z-17.213
X47.018 Y60.861 Z-17.215
X46.959 Y60.815 Z-17.218
X46.91 Y60.757 Z-17.221
X46.874 Y60.692 Z-17.223
X46.852 Y60.62 Z-17.226
X46.844 Y60.545 Z-17.229
G3 X47.093 Y60.297 R0.248
X47.341 Y60.545 R0.248
S12000
X47.302 Y60.584 R0.039
X47.263 Y60.545 R0.039
X47.302 Y60.506 R0.039
X47.341 Y60.545 R0.039
G2 X47.462 Y60.784 R0.297
G3 X47.493 Y60.986 R0.144
X47.395 Y61.043 R0.144
G1 X47.256 Y61.061
X47.175 Y61.045
X46.991 Y60.962
X46.922 Y60.881
X46.814 Y60.712
Y60.387
X46.818 Y60.381
X46.957 Y60.175
X46.988 Y60.14
X47.196 Y60.05
X47.277 Y60.038
X47.478 Y60.067
X47.559 Y60.113
X47.713 Y60.246
X47.771 Y60.409
X47.812 Y60.548
X47.718 Y60.849
X47.537 Y61.001
X47.478 Y61.033
X47.395 Y61.043
X47.359 Y61.041
X47.326 Y61.027
X47.3 Y61.002
X46.94 Y60.488
X46.925 Y60.456
X46.922 Y60.421
X46.931 Y60.387
S20000
X46.971 Y60.323 Z-17.231
X47.022 Y60.268 Z-17.234
X47.083 Y60.224 Z-17.236
X47.152 Y60.194 Z-17.239
X47.225 Y60.178 Z-17.242
X47.3 Y60.177 Z-17.244
X47.374 Y60.19 Z-17.247
X47.444 Y60.219 Z-17.25
X47.506 Y60.26 Z-17.252
X47.559 Y60.314 Z-17.255
X47.6 Y60.377 Z-17.258
X47.628 Y60.446 Z-17.26
X47.641 Y60.52 Z-17.263
X47.64 Y60.595 Z-17.265
X47.623 Y60.669 Z-17.268
X47.592 Y60.737 Z-17.271
X47.548 Y60.798 Z-17.273
X47.492 Y60.849 Z-17.276
X47.428 Y60.887 Z-17.279
X47.357 Y60.913 Z-17.281
X47.283 Y60.923 Z-17.284
X47.208 Y60.918 Z-17.286
X47.135 Y60.899 Z-17.289
X47.068 Y60.865 Z-17.292
X47.009 Y60.819 Z-17.294
X46.96 Y60.762 Z-17.297
X46.924 Y60.696 Z-17.3
X46.902 Y60.624 Z-17.302
X46.894 Y60.549 Z-17.305
G3 X47.154 Y60.29 R0.259
X47.413 Y60.549 R0.259
S12000
X47.301 Y60.661 R0.112
X47.19 Y60.549 R0.112
X47.301 Y60.438 R0.112
X47.413 Y60.549 R0.112
G1 X47.419 Y60.601
X47.436 Y60.651
X47.464 Y60.695
X47.5 Y60.732
X47.527 Y60.761
X47.543 Y60.797
X47.546 Y60.837
X47.537 Y60.875
X47.516 Y60.909
X47.485 Y60.934
X47.428 Y60.967
X47.308 Y60.984
X47.149 Y60.954
X47.049 Y60.906
X46.942 Y60.774
X46.892 Y60.696
X46.891 Y60.405
X46.958 Y60.302
X47.021 Y60.227
X47.047 Y60.197
X47.173 Y60.139
X47.307 Y60.115
X47.427 Y60.133
X47.568 Y60.217
X47.644 Y60.283
X47.733 Y60.549
X47.645 Y60.816
X47.542 Y60.901
X47.485 Y60.934
X47.466 Y60.939
X47.448 Y60.933
X47.435 Y60.919
X47.431 Y60.9
X47.444 Y60.734
X47.471 Y60.519
X47.505 Y60.366
X47.515 Y60.349
X47.532 Y60.34
X47.552 Y60.341
X47.567 Y60.353
S20000
X47.604 Y60.416 Z-17.307
X47.626 Y60.485 Z-17.31
X47.632 Y60.557 Z-17.312
X47.623 Y60.629 Z-17.315
X47.598 Y60.698 Z-17.318
X47.558 Y60.759 Z-17.32
X47.507 Y60.81 Z-17.323
X47.445 Y60.848 Z-17.325
X47.377 Y60.873 Z-17.328
X47.305 Y60.882 Z-17.33
X47.233 Y60.875 Z-17.333
X47.164 Y60.852 Z-17.335
X47.101 Y60.815 Z-17.338
X47.048 Y60.765 Z-17.34
X47.008 Y60.705 Z-17.343
X46.981 Y60.638 Z-17.345
X46.969 Y60.566 Z-17.348
X46.974 Y60.494 Z-17.351
X46.994 Y60.424 Z-17.353
X47.029 Y60.36 Z-17.356
X47.076 Y60.306 Z-17.358
X47.135 Y60.263 Z-17.361
X47.202 Y60.234 Z-17.363
X47.273 Y60.22 Z-17.366
X47.345 Y60.221 Z-17.368
X47.416 Y60.239 Z-17.371
X47.481 Y60.272 Z-17.373
X47.537 Y60.317 Z-17.376
X47.582 Y60.374 Z-17.378
X47.613 Y60.44 Z-17.381
S12000
X47.652 Y60.55
X47.57 Y60.784
X47.555 Y60.796
X47.377 Y60.899
X47.339 Y60.904
X47.125 Y60.863
X46.969 Y60.676
Y60.426
X46.983 Y60.401
X47.02 Y60.357
X47.122 Y60.239
X47.142 Y60.231
X47.357 Y60.195
X47.37 Y60.197
X47.57 Y60.317
X47.613 Y60.44
X47.615 Y60.46
X47.606 Y60.478
X47.59 Y60.49
X47.569 Y60.492
X47.373 Y60.456
X47.201 Y60.389
X47.184 Y60.375
X47.177 Y60.353
X47.183 Y60.331
X47.2 Y60.316
S20000
X47.26 Y60.299 Z-17.383
X47.322 Y60.296 Z-17.385
X47.383 Y60.309 Z-17.388
X47.439 Y60.336 Z-17.39
X47.487 Y60.376 Z-17.392
X47.523 Y60.426 Z-17.394
X47.546 Y60.484 Z-17.396
X47.555 Y60.546 Z-17.398
X47.548 Y60.608 Z-17.401
X47.526 Y60.666 Z-17.403
X47.491 Y60.717 Z-17.405
X47.444 Y60.758 Z-17.407
X47.389 Y60.787 Z-17.409
X47.328 Y60.801 Z-17.411
X47.266 Y60.8 Z-17.414
X47.206 Y60.784 Z-17.416
X47.152 Y60.754 Z-17.418
X47.106 Y60.711 Z-17.42
X47.073 Y60.659 Z-17.422
X47.053 Y60.6 Z-17.425
X47.048 Y60.538 Z-17.427
X47.058 Y60.477 Z-17.429
X47.083 Y60.42 Z-17.431
X47.121 Y60.37 Z-17.433
X47.17 Y60.332 Z-17.435
X47.227 Y60.307 Z-17.438
X47.288 Y60.296 Z-17.44
X47.35 Y60.3 Z-17.442
X47.409 Y60.319 Z-17.444
X47.462 Y60.353 Z-17.446
X47.505 Y60.398 Z-17.448
X47.535 Y60.452 Z-17.451
X47.552 Y60.512 Z-17.453
X47.553 Y60.574 Z-17.455
X47.54 Y60.634 Z-17.457
S12000
X47.508 Y60.724
X47.346 Y60.819
X47.166 Y60.788
X47.048 Y60.648
X47.047 Y60.454
X47.168 Y60.312
X47.347 Y60.28
X47.507 Y60.373
X47.571 Y60.548
X47.54 Y60.634
X47.525 Y60.653
X47.502 Y60.658
X47.481 Y60.648
X47.359 Y60.526
X47.239 Y60.409
X47.229 Y60.392
Y60.373
X47.239 Y60.357
X47.256 Y60.348
S20000
X47.313 Y60.344 Z-17.459
X47.369 Y60.355 Z-17.461
X47.42 Y60.381 Z-17.463
X47.462 Y60.42 Z-17.465
X47.492 Y60.469 Z-17.467
X47.507 Y60.525 Z-17.469
X47.506 Y60.582 Z-17.471
X47.49 Y60.637 Z-17.473
X47.459 Y60.685 Z-17.475
X47.416 Y60.723 Z-17.477
X47.365 Y60.749 Z-17.479
X47.309 Y60.759 Z-17.481
X47.252 Y60.753 Z-17.483
X47.198 Y60.732 Z-17.485
X47.153 Y60.697 Z-17.487
X47.119 Y60.651 Z-17.489
X47.098 Y60.598 Z-17.491
X47.093 Y60.541 Z-17.493
X47.104 Y60.485 Z-17.495
X47.129 Y60.434 Z-17.497
X47.168 Y60.391 Z-17.499
X47.217 Y60.361 Z-17.501
X47.272 Y60.345 Z-17.503
X47.329 Z-17.505
X47.384 Y60.361 Z-17.507
X47.433 Y60.391 Z-17.509
X47.471 Y60.433 Z-17.511
X47.497 Y60.484 Z-17.513
X47.508 Y60.54 Z-17.515
X47.503 Y60.597 Z-17.517
X47.483 Y60.651 Z-17.519
X47.448 Y60.697 Z-17.521
X47.403 Y60.732 Z-17.523
X47.35 Y60.753 Z-17.525
X47.293 Y60.759 Z-17.527
X47.237 Y60.749 Z-17.529
X47.185 Y60.724 Z-17.531
X47.142 Y60.686 Z-17.533
S12000
X47.093 Y60.627
X47.092 Y60.474
X47.191 Y60.357
X47.337 Y60.331
X47.472 Y60.411
X47.522 Y60.55
X47.472 Y60.688
X47.418 Y60.723
X47.339 Y60.769
X47.191 Y60.743
X47.142 Y60.686
X47.136 Y60.666
X47.144 Y60.647
X47.164 Y60.639
X47.291 Y60.638
X47.417 Y60.661
X47.431 Y60.668
X47.439 Y60.682
X47.438 Y60.698
X47.429 Y60.711
S20000
X47.381 Y60.74 Z-17.535
X47.327 Y60.754 Z-17.537
X47.272 Z-17.539
X47.218 Y60.739 Z-17.541
X47.171 Y60.71 Z-17.543
X47.133 Y60.669 Z-17.545
X47.107 Y60.619 Z-17.547
X47.096 Y60.564 Z-17.549
X47.1 Y60.509 Z-17.551
X47.119 Y60.456 Z-17.553
X47.151 Y60.411 Z-17.555
X47.194 Y60.376 Z-17.557
X47.246 Y60.353 Z-17.559
X47.301 Y60.346 Z-17.561
X47.356 Y60.354 Z-17.563
X47.407 Y60.376 Z-17.565
X47.451 Y60.411 Z-17.567
X47.483 Y60.456 Z-17.569
X47.502 Y60.509 Z-17.571
X47.505 Y60.565 Z-17.572
X47.494 Y60.619 Z-17.574
X47.469 Y60.669 Z-17.576
X47.431 Y60.71 Z-17.578
X47.383 Y60.739 Z-17.58
X47.329 Y60.754 Z-17.582
X47.274 Z-17.584
X47.22 Y60.74 Z-17.586
X47.172 Y60.711 Z-17.588
X47.134 Y60.67 Z-17.59
X47.108 Y60.621 Z-17.592
X47.096 Y60.566 Z-17.594
X47.1 Y60.511 Z-17.596
X47.118 Y60.458 Z-17.598
X47.15 Y60.412 Z-17.6
X47.193 Y60.377 Z-17.602
X47.244 Y60.354 Z-17.604
X47.299 Y60.346 Z-17.606
X47.354 Y60.353 Z-17.608
X47.406 Y60.375 Z-17.61
S12000
X47.47 Y60.413
X47.52 Y60.55
X47.47 Y60.687
X47.418 Y60.72
X47.338 Y60.766
X47.191 Y60.74
X47.096 Y60.628
X47.095 Y60.473
X47.19 Y60.361
X47.341 Y60.336
X47.406 Y60.375
X47.419 Y60.391
X47.42 Y60.412
X47.408 Y60.43
X47.28 Y60.523
X47.166 Y60.635
X47.147 Y60.644
X47.127 Y60.639
X47.113 Y60.623
S20000
X47.1 Y60.569 Z-17.612
X47.102 Y60.513 Z-17.614
X47.12 Y60.46 Z-17.615
X47.151 Y60.414 Z-17.617
X47.194 Y60.378 Z-17.619
X47.245 Y60.356 Z-17.621
X47.3 Y60.348 Z-17.623
X47.355 Y60.356 Z-17.625
X47.406 Y60.378 Z-17.627
X47.449 Y60.414 Z-17.629
X47.481 Y60.46 Z-17.631
X47.499 Y60.513 Z-17.633
X47.501 Y60.568 Z-17.635
X47.488 Y60.623 Z-17.637
X47.461 Y60.671 Z-17.639
X47.422 Y60.711 Z-17.641
X47.373 Y60.738 Z-17.643
X47.319 Y60.75 Z-17.645
X47.263 Y60.748 Z-17.647
X47.21 Y60.73 Z-17.649
X47.164 Y60.698 Z-17.651
X47.129 Y60.655 Z-17.653
X47.106 Y60.604 Z-17.655
X47.099 Y60.549 Z-17.656
X47.107 Y60.494 Z-17.658
X47.13 Y60.443 Z-17.66
X47.165 Y60.4 Z-17.662
X47.211 Y60.369 Z-17.664
X47.264 Y60.351 Z-17.666
X47.32 Y60.349 Z-17.668
X47.374 Y60.362 Z-17.67
X47.423 Y60.39 Z-17.672
X47.462 Y60.429 Z-17.674
X47.489 Y60.478 Z-17.676
X47.501 Y60.532 Z-17.678
X47.498 Y60.588 Z-17.68
X47.48 Y60.641 Z-17.682
X47.448 Y60.687 Z-17.684
X47.405 Y60.722 Z-17.686
S12000
X47.337 Y60.764
X47.192 Y60.738
X47.099 Y60.628
X47.098 Y60.473
X47.192 Y60.362
X47.337 Y60.337
X47.468 Y60.414
X47.517 Y60.55
X47.468 Y60.684
X47.405 Y60.722
X47.385 Y60.727
X47.366 Y60.718
X47.356 Y60.7
X47.328 Y60.543
X47.273 Y60.395
Y60.374
X47.285 Y60.357
X47.305 Y60.351
S20000
X47.36 Y60.359 Z-17.688
X47.41 Y60.383 Z-17.69
X47.452 Y60.42 Z-17.692
X47.482 Y60.467 Z-17.694
X47.498 Y60.52 Z-17.696
Y60.576 Z-17.698
X47.483 Y60.63 Z-17.699
X47.453 Y60.677 Z-17.701
X47.412 Y60.715 Z-17.703
X47.362 Y60.739 Z-17.705
X47.307 Y60.748 Z-17.707
X47.251 Y60.742 Z-17.709
X47.2 Y60.721 Z-17.711
X47.156 Y60.686 Z-17.713
X47.124 Y60.64 Z-17.715
X47.106 Y60.588 Z-17.717
X47.103 Y60.532 Z-17.719
X47.116 Y60.478 Z-17.721
X47.143 Y60.429 Z-17.723
X47.183 Y60.39 Z-17.725
X47.232 Y60.363 Z-17.727
X47.286 Y60.351 Z-17.729
X47.342 Y60.355 Z-17.731
X47.394 Y60.374 Z-17.733
X47.439 Y60.407 Z-17.735
X47.473 Y60.451 Z-17.737
X47.494 Y60.502 Z-17.739
X47.5 Y60.558 Z-17.741
X47.49 Y60.613 Z-17.742
X47.465 Y60.662 Z-17.744
X47.427 Y60.703 Z-17.746
X47.379 Y60.732 Z-17.748
X47.325 Y60.747 Z-17.75
X47.269 Y60.746 Z-17.752
X47.216 Y60.729 Z-17.754
X47.17 Y60.699 Z-17.756
X47.133 Y60.656 Z-17.758
X47.11 Y60.606 Z-17.76
X47.102 Y60.55 Z-17.762
S12000
Y60.473
X47.192 Y60.365
X47.336 Y60.339
X47.466 Y60.416
X47.514 Y60.55
X47.466 Y60.682
X47.336 Y60.761
X47.192 Y60.735
X47.103 Y60.628
X47.102 Y60.55
X47.106 Y60.535
X47.117 Y60.523
X47.133 Y60.519
X47.284 Y60.512
X47.379 Y60.399
X47.39 Y60.39
X47.405 Y60.387
X47.419 Y60.391
S20000
X47.463 Y60.417 Z-17.764
X47.512 Y60.55 Z-17.769
X47.464 Y60.681 Z-17.774
X47.336 Y60.758 Z-17.779
X47.192 Y60.731 Z-17.784
X47.106 Y60.628 Z-17.789
X47.105 Y60.473 Z-17.794
X47.192 Y60.369 Z-17.799
X47.336 Y60.342 Z-17.804
X47.463 Y60.417 Z-17.809
X47.512 Y60.55 Z-17.814
X47.464 Y60.681 Z-17.819
X47.336 Y60.758 Z-17.824
X47.192 Y60.731 Z-17.829
X47.106 Y60.628 Z-17.834
X47.105 Y60.503 Z-17.838
S12000
Y60.473
X47.192 Y60.369
X47.336 Y60.342
X47.463 Y60.417
X47.512 Y60.55
X47.464 Y60.681
X47.336 Y60.758
X47.192 Y60.731
X47.106 Y60.628
X47.105 Y60.503
X47.112 Y60.484
X47.13 Y60.476
X47.15 Y60.481
X47.163 Y60.494
X47.458 Y60.56
X47.477 Y60.571
X47.488 Y60.59
X47.486 Y60.612
S20000
X47.462 Y60.68 Z-17.841
X47.336 Y60.755 Z-17.846
X47.193 Y60.728 Z-17.851
X47.106 Y60.625 Z-17.856
X47.104 Y60.563 Z-17.858
X47.106 Y60.476 Z-17.861
X47.193 Y60.372 Z-17.866
X47.336 Y60.345 Z-17.871
X47.461 Y60.419 Z-17.876
X47.509 Y60.55 Z-17.881
X47.462 Y60.68 Z-17.885
X47.336 Y60.755 Z-17.891
X47.193 Y60.728 Z-17.896
X47.106 Y60.625 Z-17.9
X47.104 Y60.563 Z-17.902
X47.106 Y60.476 Z-17.906
X47.193 Y60.372 Z-17.91
X47.31 Y60.35 Z-17.914
S12000
X47.336 Y60.345
X47.461 Y60.419
X47.509 Y60.55
X47.462 Y60.68
X47.336 Y60.755
X47.193 Y60.728
X47.106 Y60.625
X47.104 Y60.563
X47.106 Y60.476
X47.193 Y60.372
X47.31 Y60.35
X47.323 Y60.352
X47.334 Y60.36
X47.391 Y60.446
X47.486 Y60.55
X47.495 Y60.567
X47.493 Y60.585
S20000
X47.46 Y60.678 Z-17.918
X47.336 Y60.752 Z-17.923
X47.193 Y60.724 Z-17.928
X47.107 Y60.622 Z-17.933
X47.11 Y60.475 Z-17.938
X47.193 Y60.376 Z-17.942
X47.337 Y60.348 Z-17.947
X47.458 Y60.417 Z-17.952
X47.506 Y60.55 Z-17.957
X47.46 Y60.678 Z-17.962
X47.336 Y60.752 Z-17.967
X47.193 Y60.724 Z-17.972
X47.107 Y60.622 Z-17.977
X47.11 Y60.475 Z-17.982
X47.193 Y60.376 Z-17.986
X47.31 Y60.353 Z-17.991
S12000
X47.337 Y60.348
X47.458 Y60.417
X47.506 Y60.55
X47.46 Y60.678
X47.336 Y60.752
X47.193 Y60.724
X47.107 Y60.622
X47.11 Y60.475
X47.193 Y60.376
X47.31 Y60.353
X47.325 Y60.355
X47.336 Y60.365
X47.389 Y60.458
X47.486 Y60.548
X47.495 Y60.564
X47.494 Y60.582
S20000
X47.459 Y60.678 Z-17.994
X47.336 Y60.752 Z-17.999
X47.193 Y60.724 Z-18.004
X47.107 Y60.622 Z-18.009
X47.11 Y60.475 Z-18.014
X47.193 Y60.376 Z-18.019
X47.337 Y60.348 Z-18.024
X47.458 Y60.418 Z-18.029
X47.506 Y60.55 Z-18.033
X47.459 Y60.678 Z-18.038
X47.336 Y60.752 Z-18.043
X47.193 Y60.724 Z-18.048
X47.107 Y60.622 Z-18.053
X47.11 Y60.475 Z-18.058
X47.193 Y60.376 Z-18.063
X47.311 Y60.353 Z-18.067
S12000
X47.337 Y60.348
X47.458 Y60.418
X47.506 Y60.55
X47.459 Y60.678
X47.336 Y60.752
X47.193 Y60.724
X47.107 Y60.622
X47.11 Y60.475
X47.193 Y60.376
X47.311 Y60.353
X47.325 Y60.355
X47.336 Y60.365
X47.389 Y60.458
X47.486 Y60.548
X47.495 Y60.564
X47.494 Y60.582
S20000
X47.459 Y60.678 Z-18.07
X47.336 Y60.752 Z-18.075
X47.193 Y60.724 Z-18.08
X47.107 Y60.622 Z-18.085
X47.11 Y60.475 Z-18.09
X47.193 Y60.376 Z-18.095
X47.337 Y60.348 Z-18.1
X47.458 Y60.418 Z-18.105
X47.506 Y60.55 Z-18.11
X47.459 Y60.678 Z-18.114
X47.336 Y60.752 Z-18.119
X47.193 Y60.724 Z-18.125
X47.107 Y60.622 Z-18.129
X47.11 Y60.475 Z-18.134
X47.193 Y60.376 Z-18.139
X47.311 Y60.353 Z-18.143
S12000
X47.337 Y60.348
X47.458 Y60.418
X47.506 Y60.55
X47.459 Y60.678
X47.336 Y60.752
X47.193 Y60.724
X47.107 Y60.622
X47.11 Y60.475
X47.193 Y60.376
X47.311 Y60.353
X47.325 Y60.355
X47.336 Y60.365
X47.389 Y60.458
X47.486 Y60.548
X47.495 Y60.564
X47.494 Y60.582
S20000
X47.459 Y60.678 Z-18.147
X47.336 Y60.752 Z-18.152
X47.193 Y60.724 Z-18.157
X47.107 Y60.622 Z-18.161
X47.11 Y60.475 Z-18.166
X47.193 Y60.376 Z-18.171
X47.337 Y60.348 Z-18.176
X47.458 Y60.418 Z-18.181
X47.506 Y60.55 Z-18.186
X47.459 Y60.678 Z-18.191
X47.336 Y60.752 Z-18.196
X47.193 Y60.724 Z-18.201
X47.107 Y60.622 Z-18.205
X47.11 Y60.475 Z-18.211
X47.193 Y60.376 Z-18.215
X47.311 Y60.353 Z-18.219
S12000
X47.337 Y60.348
X47.458 Y60.418
X47.506 Y60.55
X47.459 Y60.678
X47.336 Y60.752
X47.193 Y60.724
X47.107 Y60.622
X47.11 Y60.475
X47.193 Y60.376
X47.311 Y60.353
X47.325 Y60.355
X47.336 Y60.365
X47.389 Y60.458
X47.486 Y60.548
X47.495 Y60.564
X47.494 Y60.582
S20000
X47.459 Y60.678 Z-18.223
X47.336 Y60.752 Z-18.228
X47.193 Y60.724 Z-18.233
X47.107 Y60.622 Z-18.238
X47.11 Y60.475 Z-18.243
X47.193 Y60.376 Z-18.247
X47.337 Y60.348 Z-18.252
X47.458 Y60.418 Z-18.257
X47.506 Y60.55 Z-18.262
X47.459 Y60.678 Z-18.267
X47.336 Y60.752 Z-18.272
X47.193 Y60.724 Z-18.277
X47.107 Y60.622 Z-18.282
X47.11 Y60.475 Z-18.287
X47.193 Y60.376 Z-18.291
X47.311 Y60.353 Z-18.295
S12000
X47.337 Y60.348
X47.458 Y60.418
X47.506 Y60.55
X47.459 Y60.678
X47.336 Y60.752
X47.193 Y60.724
X47.107 Y60.622
X47.11 Y60.475
X47.193 Y60.376
X47.311 Y60.353
X47.325 Y60.355
X47.336 Y60.365
X47.389 Y60.458
X47.486 Y60.548
X47.495 Y60.564
X47.494 Y60.582
S20000
X47.459 Y60.678 Z-18.299
X47.336 Y60.752 Z-18.304
X47.193 Y60.724 Z-18.309
X47.107 Y60.622 Z-18.314
X47.11 Y60.475 Z-18.319
X47.193 Y60.376 Z-18.323
X47.337 Y60.348 Z-18.328
X47.458 Y60.418 Z-18.333
X47.506 Y60.55 Z-18.338
X47.459 Y60.678 Z-18.343
X47.336 Y60.752 Z-18.348
X47.193 Y60.724 Z-18.353
X47.107 Y60.622 Z-18.358
X47.11 Y60.475 Z-18.363
X47.193 Y60.376 Z-18.367
X47.311 Y60.353 Z-18.372
S12000
X47.337 Y60.348
X47.458 Y60.418
X47.506 Y60.55
X47.459 Y60.678
X47.336 Y60.752
X47.193 Y60.724
X47.107 Y60.622
X47.11 Y60.475
X47.193 Y60.376
X47.311 Y60.353
X47.325 Y60.355
X47.336 Y60.365
X47.389 Y60.458
X47.486 Y60.548
X47.495 Y60.564
X47.494 Y60.582
S20000
X47.459 Y60.678 Z-18.375
X47.336 Y60.752 Z-18.38
X47.193 Y60.724 Z-18.385
X47.107 Y60.622 Z-18.39
X47.11 Y60.475 Z-18.395
X47.193 Y60.376 Z-18.4
X47.337 Y60.348 Z-18.405
X47.458 Y60.418 Z-18.41
X47.506 Y60.55 Z-18.414
X47.459 Y60.678 Z-18.419
X47.336 Y60.752 Z-18.424
X47.193 Y60.724 Z-18.429
X47.107 Y60.622 Z-18.434
X47.11 Y60.475 Z-18.439
X47.193 Y60.376 Z-18.444
X47.311 Y60.353 Z-18.448
S12000
X47.337 Y60.348
X47.458 Y60.418
X47.506 Y60.55
X47.459 Y60.678
X47.336 Y60.752
X47.193 Y60.724
X47.107 Y60.622
X47.11 Y60.475
X47.193 Y60.376
X47.311 Y60.353
X47.326 Y60.355
X47.337 Y60.367
X47.339 Y60.383
X47.33 Y60.396
X47.257 Y60.451
X47.195 Y60.475
X47.134 Y60.487
X47.123 Y60.484
X47.117 Y60.474
X47.12 Y60.463
S20000
X47.193 Y60.376 Z-18.452
X47.337 Y60.348 Z-18.457
X47.458 Y60.418 Z-18.462
X47.506 Y60.55 Z-18.467
X47.459 Y60.678 Z-18.471
X47.336 Y60.752 Z-18.476
X47.193 Y60.724 Z-18.482
X47.107 Y60.622 Z-18.486
X47.11 Y60.475 Z-18.491
X47.193 Y60.376 Z-18.496
X47.311 Y60.353 Z-18.5
S12000
X47.337 Y60.348
X47.458 Y60.418
X47.506 Y60.55
X47.459 Y60.678
X47.336 Y60.752
X47.193 Y60.724
X47.107 Y60.622
X47.11 Y60.475
X47.193 Y60.376
X47.311 Y60.353
X47.337 Y60.348 Z-18.495
X47.361 Y60.361 Z-18.478
X47.376 Y60.371 Z-18.452
X47.382 Y60.374 Z-18.421
G0 Z5.
X47.365 Y80.276
Z-16.841
S20000
G1 X47.355 Y80.275 Z-16.88 F178.
X47.327 Y80.269 Z-16.909
X47.291 Y80.259 Z-16.92
X47.221 Y80.227 Z-16.922
X47.16 Y80.182 Z-16.925
X47.109 Y80.125 Z-16.927
X47.071 Y80.059 Z-16.93
X47.047 Y79.986 Z-16.932
X47.038 Y79.911 Z-16.935
X47.044 Y79.835 Z-16.937
X47.066 Y79.761 Z-16.94
X47.103 Y79.694 Z-16.942
X47.152 Y79.636 Z-16.945
X47.212 Y79.589 Z-16.947
X47.28 Y79.555 Z-16.95
X47.354 Y79.535 Z-16.952
X47.43 Y79.532 Z-16.955
X47.506 Y79.543 Z-16.957
X47.577 Y79.57 Z-16.96
X47.642 Y79.61 Z-16.962
X47.697 Y79.663 Z-16.965
X47.74 Y79.726 Z-16.967
X47.77 Y79.797 Z-16.97
X47.784 Y79.872 Z-16.972
X47.783 Y79.948 Z-16.975
X47.767 Y80.022 Z-16.977
X47.736 Y80.092 Z-16.979
X47.691 Y80.154 Z-16.982
X47.634 Y80.205 Z-16.984
X47.569 Y80.244 Z-16.987
X47.497 Y80.269 Z-16.989
X47.421 Y80.279 Z-16.992
X47.345 Y80.273 Z-16.994
X47.271 Y80.252 Z-16.997
X47.204 Y80.216 Z-16.999
X47.145 Y80.167 Z-17.002
X47.097 Y80.108 Z-17.004
X47.063 Y80.04 Z-17.007
X47.043 Y79.966 Z-17.009
X47.038 Y79.89 Z-17.012
X47.049 Y79.814 Z-17.014
X47.075 Y79.743 Z-17.017
X47.115 Y79.678 Z-17.019
X47.167 Y79.622 Z-17.022
X47.23 Y79.578 Z-17.024
X47.3 Y79.548 Z-17.027
X47.374 Y79.533 Z-17.029
X47.451 Z-17.032
X47.526 Y79.549 Z-17.034
X47.595 Y79.579 Z-17.037
X47.658 Y79.623 Z-17.039
X47.71 Y79.679 Z-17.041
X47.749 Y79.745 Z-17.044
X47.775 Y79.816 Z-17.046
X47.785 Y79.892 Z-17.049
X47.78 Y79.968 Z-17.051
X47.76 Y80.042 Z-17.054
X47.725 Y80.11 Z-17.056
X47.677 Y80.169 Z-17.059
X47.618 Y80.217 Z-17.061
X47.55 Y80.253 Z-17.064
X47.477 Y80.273 Z-17.066
X47.4 Y80.279 Z-17.069
X47.325 Y80.269 Z-17.071
X47.253 Y80.244 Z-17.074
X47.187 Y80.204 Z-17.076
S12000
G3 X47.149 Y79.936 R0.192
X47.418 Y79.897 R0.192
X47.456 Y80.166 R0.192
X47.187 Y80.204 R0.192
G2 X46.896 Y80.144 R0.35
G3 X46.666 Y80.004 R0.19
X46.661 Y79.96 R0.19
G1 X46.66 Y79.852
X46.817 Y79.608
X46.866 Y79.537
X47.198 Y79.385
X47.571 Y79.435
X47.865 Y79.691
X47.971 Y80.05
X47.863 Y80.416
X47.572 Y80.664
X47.198 Y80.715
X46.864 Y80.562
X46.857 Y80.554
X46.663 Y80.252
X46.661 Y79.96
X46.665 Y79.942
X46.678 Y79.928
X46.695 Y79.92
X46.774 Y79.908
X46.791 Y79.901
X46.804 Y79.886
S20000
X46.843 Y79.822 Z-17.079
X46.894 Y79.767 Z-17.081
X46.955 Y79.723 Z-17.084
X47.024 Y79.693 Z-17.087
X47.097 Y79.677 Z-17.089
X47.172 Y79.676 Z-17.092
X47.246 Y79.689 Z-17.095
X47.316 Y79.718 Z-17.097
X47.378 Y79.759 Z-17.1
X47.431 Y79.813 Z-17.102
X47.472 Y79.876 Z-17.105
X47.5 Y79.945 Z-17.108
X47.513 Y80.019 Z-17.11
X47.512 Y80.094 Z-17.113
X47.495 Y80.168 Z-17.116
X47.464 Y80.236 Z-17.118
X47.42 Y80.297 Z-17.121
X47.364 Y80.348 Z-17.123
X47.3 Y80.386 Z-17.126
X47.229 Y80.411 Z-17.129
X47.155 Y80.422 Z-17.131
X47.08 Y80.417 Z-17.134
X47.007 Y80.398 Z-17.137
X46.94 Y80.364 Z-17.139
X46.881 Y80.318 Z-17.142
X46.833 Y80.26 Z-17.145
X46.796 Y80.195 Z-17.147
X46.774 Y80.123 Z-17.15
X46.766 Y80.048 Z-17.152
G3 X47.092 Y79.722 R0.326
X47.418 Y80.048 R0.326
S12000
X47.301 Y80.165 R0.117
X47.185 Y80.048 R0.117
X47.301 Y79.932 R0.117
X47.418 Y80.048 R0.117
G2 X47.512 Y80.338 R0.496
G3 X47.471 Y80.586 R0.178
X47.392 Y80.618 R0.178
G1 X47.227 Y80.642
X47.202 Y80.637
X46.926 Y80.511
X46.893 Y80.472
X46.736 Y80.226
Y79.878
X46.819 Y79.742
X46.919 Y79.593
X47.202 Y79.463
X47.227 Y79.458
X47.533 Y79.502
X47.566 Y79.522
X47.792 Y79.717
X47.796 Y79.727
X47.892 Y80.05
X47.791 Y80.383
X47.544 Y80.593
X47.535 Y80.598
X47.392 Y80.618
X47.356 Y80.617
X47.322 Y80.602
X47.296 Y80.576
X46.889 Y79.989
X46.874 Y79.957
X46.871 Y79.923
X46.881 Y79.889
S20000
X46.92 Y79.825 Z-17.155
X46.971 Y79.77 Z-17.158
X47.032 Y79.726 Z-17.16
X47.101 Y79.696 Z-17.163
X47.174 Y79.68 Z-17.166
X47.25 Y79.679 Z-17.168
X47.323 Y79.692 Z-17.171
X47.393 Y79.721 Z-17.173
X47.455 Y79.762 Z-17.176
X47.508 Y79.816 Z-17.179
X47.55 Y79.879 Z-17.181
X47.577 Y79.948 Z-17.184
X47.591 Y80.022 Z-17.187
X47.589 Y80.097 Z-17.189
X47.572 Y80.171 Z-17.192
X47.541 Y80.239 Z-17.194
X47.497 Y80.3 Z-17.197
X47.442 Y80.351 Z-17.2
X47.377 Y80.389 Z-17.202
X47.307 Y80.414 Z-17.205
X47.232 Y80.425 Z-17.208
X47.157 Y80.42 Z-17.21
X47.085 Y80.401 Z-17.213
X47.018 Y80.367 Z-17.215
X46.958 Y80.321 Z-17.218
X46.91 Y80.263 Z-17.221
X46.874 Y80.198 Z-17.223
X46.851 Y80.126 Z-17.226
X46.844 Y80.051 Z-17.229
G3 X47.092 Y79.803 R0.248
X47.339 Y80.051 R0.248
S12000
X47.302 Y80.089 R0.038
X47.264 Y80.051 R0.038
X47.302 Y80.014 R0.038
X47.339 Y80.051 R0.038
G2 X47.456 Y80.289 R0.302
G3 X47.481 Y80.49 R0.143
X47.386 Y80.544 R0.143
G1 X47.257 Y80.561
X47.167 Y80.542
X46.993 Y80.462
X46.909 Y80.361
X46.814 Y80.213
X46.817 Y79.883
X46.946 Y79.689
X46.989 Y79.64
X47.196 Y79.55
X47.276 Y79.538
X47.485 Y79.571
X47.58 Y79.631
X47.717 Y79.75
X47.812 Y80.051
X47.718 Y80.35
X47.542 Y80.498
X47.484 Y80.532
X47.386 Y80.544
X47.349 Y80.542
X47.316 Y80.527
X47.29 Y80.501
X46.939 Y79.986
X46.925 Y79.954
X46.923 Y79.92
X46.932 Y79.886
S20000
X46.971 Y79.822 Z-17.231
X47.023 Y79.767 Z-17.234
X47.084 Y79.724 Z-17.236
X47.152 Y79.693 Z-17.239
X47.226 Y79.677 Z-17.242
X47.301 Y79.676 Z-17.244
X47.375 Y79.69 Z-17.247
X47.444 Y79.718 Z-17.25
X47.507 Y79.76 Z-17.252
X47.56 Y79.813 Z-17.255
X47.601 Y79.876 Z-17.258
X47.629 Y79.946 Z-17.26
X47.642 Y80.02 Z-17.263
X47.64 Y80.095 Z-17.265
X47.623 Y80.168 Z-17.268
X47.592 Y80.236 Z-17.271
X47.548 Y80.297 Z-17.273
X47.493 Y80.348 Z-17.276
X47.429 Y80.387 Z-17.279
X47.358 Y80.412 Z-17.281
X47.283 Y80.422 Z-17.284
X47.208 Y80.418 Z-17.286
X47.136 Y80.398 Z-17.289
X47.069 Y80.364 Z-17.292
X47.01 Y80.318 Z-17.294
X46.961 Y80.261 Z-17.297
X46.925 Y80.195 Z-17.3
X46.903 Y80.123 Z-17.302
X46.895 Y80.048 Z-17.305
G3 X47.154 Y79.789 R0.259
X47.413 Y80.048 R0.259
S12000
X47.302 Y80.16 R0.112
X47.19 Y80.048 R0.112
X47.302 Y79.937 R0.112
X47.413 Y80.048 R0.112
G1 X47.419 Y80.1
X47.436 Y80.15
X47.464 Y80.194
X47.501 Y80.231
X47.527 Y80.261
X47.543 Y80.297
X47.546 Y80.337
X47.537 Y80.375
X47.516 Y80.409
X47.485 Y80.434
X47.428 Y80.467
X47.308 Y80.484
X47.147 Y80.454
X47.062 Y80.415
X46.949 Y80.286
X46.893 Y80.198
X46.892 Y79.908
X46.979 Y79.777
X47.021 Y79.727
X47.047 Y79.696
X47.164 Y79.641
X47.307 Y79.615
X47.425 Y79.632
X47.568 Y79.717
X47.644 Y79.783
X47.647 Y79.789
X47.732 Y80.044
X47.734 Y80.049
X47.645 Y80.313
X47.543 Y80.4
X47.485 Y80.434
X47.468 Y80.439
X47.451 Y80.434
X47.437 Y80.422
X47.341 Y80.282
X47.173 Y80.175
X47.02 Y80.173
X46.998 Y80.167
X46.985 Y80.149
S20000
X46.972 Y80.078 Z-17.307
X46.974 Y80.005 Z-17.31
X46.992 Y79.935 Z-17.312
X47.025 Y79.87 Z-17.315
X47.071 Y79.814 Z-17.318
X47.128 Y79.769 Z-17.32
X47.194 Y79.738 Z-17.323
X47.265 Y79.722 Z-17.325
X47.337 Z-17.328
X47.408 Y79.738 Z-17.33
X47.474 Y79.769 Z-17.333
X47.531 Y79.813 Z-17.335
X47.578 Y79.869 Z-17.338
X47.611 Y79.933 Z-17.34
X47.629 Y80.004 Z-17.343
X47.632 Y80.076 Z-17.345
X47.619 Y80.148 Z-17.348
X47.59 Y80.214 Z-17.351
X47.548 Y80.273 Z-17.353
X47.493 Y80.321 Z-17.356
X47.43 Y80.357 Z-17.358
X47.36 Y80.377 Z-17.361
X47.288 Y80.382 Z-17.363
X47.216 Y80.371 Z-17.366
X47.149 Y80.345 Z-17.368
X47.088 Y80.305 Z-17.371
X47.038 Y80.252 Z-17.373
X47.001 Y80.19 Z-17.376
X46.978 Y80.121 Z-17.378
X46.971 Y80.049 Z-17.381
S12000
X46.972 Y79.923
X47.024 Y79.853
X47.125 Y79.738
X47.141 Y79.731
X47.357 Y79.695
X47.37 Y79.697
X47.57 Y79.816
X47.653 Y80.052
X47.572 Y80.279
X47.533 Y80.309
X47.377 Y80.399
X47.338 Y80.404
X47.133 Y80.366
X47.116 Y80.357
X46.969 Y80.177
X46.971 Y80.049
X46.974 Y80.033
X46.985 Y80.021
X46.999 Y80.015
X47.155 Y79.985
X47.165 Y79.973
X47.168 Y79.958
X47.17 Y79.857
X47.176 Y79.839
X47.189 Y79.827
S20000
X47.248 Y79.806 Z-17.383
X47.31 Y79.8 Z-17.385
X47.371 Y79.809 Z-17.388
X47.428 Y79.833 Z-17.39
X47.478 Y79.871 Z-17.392
X47.517 Y79.919 Z-17.394
X47.543 Y79.976 Z-17.396
X47.554 Y80.037 Z-17.398
X47.55 Y80.099 Z-17.401
X47.531 Y80.158 Z-17.403
X47.498 Y80.211 Z-17.405
X47.453 Y80.254 Z-17.407
X47.399 Y80.284 Z-17.409
X47.339 Y80.3 Z-17.411
X47.276 Y80.302 Z-17.414
X47.216 Y80.287 Z-17.416
X47.161 Y80.259 Z-17.418
X47.114 Y80.218 Z-17.42
X47.079 Y80.166 Z-17.422
X47.058 Y80.108 Z-17.425
X47.051 Y80.046 Z-17.427
X47.06 Y79.984 Z-17.429
X47.084 Y79.927 Z-17.431
X47.122 Y79.877 Z-17.433
X47.17 Y79.838 Z-17.435
X47.226 Y79.812 Z-17.438
X47.287 Y79.8 Z-17.44
X47.349 Y79.804 Z-17.442
X47.409 Y79.823 Z-17.444
X47.461 Y79.856 Z-17.446
X47.505 Y79.901 Z-17.448
X47.535 Y79.955 Z-17.451
X47.552 Y80.015 Z-17.453
X47.553 Y80.077 Z-17.455
X47.539 Y80.137 Z-17.457
S12000
X47.509 Y80.221
X47.347 Y80.318
X47.168 Y80.288
X47.051 Y80.151
Y79.948
X47.166 Y79.813
X47.347 Y79.782
X47.508 Y79.878
X47.57 Y80.052
X47.539 Y80.137
X47.527 Y80.154
X47.508 Y80.162
X47.487 Y80.159
X47.32 Y80.078
X47.137 Y80.1
X47.116 Y80.097
X47.1 Y80.084
X47.094 Y80.065
S20000
X47.098 Y80.008 Z-17.459
X47.118 Y79.954 Z-17.461
X47.152 Y79.908 Z-17.463
X47.197 Y79.872 Z-17.465
X47.25 Y79.851 Z-17.467
X47.307 Y79.845 Z-17.469
X47.363 Y79.854 Z-17.471
X47.415 Y79.879 Z-17.473
X47.458 Y79.917 Z-17.475
X47.489 Y79.965 Z-17.477
X47.505 Y80.02 Z-17.479
X47.506 Y80.077 Z-17.481
X47.491 Y80.133 Z-17.483
X47.462 Y80.182 Z-17.485
X47.42 Y80.221 Z-17.487
X47.369 Y80.247 Z-17.489
X47.313 Y80.259 Z-17.491
X47.256 Y80.254 Z-17.493
X47.202 Y80.234 Z-17.495
X47.156 Y80.201 Z-17.497
X47.121 Y80.155 Z-17.499
X47.1 Y80.102 Z-17.501
X47.093 Y80.045 Z-17.503
X47.103 Y79.989 Z-17.505
X47.128 Y79.937 Z-17.507
X47.166 Y79.895 Z-17.509
X47.214 Y79.864 Z-17.511
X47.269 Y79.847 Z-17.513
X47.326 Y79.846 Z-17.515
X47.381 Y79.861 Z-17.517
X47.43 Y79.89 Z-17.519
X47.469 Y79.932 Z-17.521
X47.496 Y79.983 Z-17.523
X47.507 Y80.039 Z-17.525
X47.503 Y80.096 Z-17.527
X47.483 Y80.15 Z-17.529
X47.449 Y80.196 Z-17.531
X47.404 Y80.231 Z-17.533
S12000
X47.339 Y80.269
X47.191 Y80.243
X47.094 Y80.128
X47.092 Y79.975
X47.191 Y79.857
X47.333 Y79.832
X47.472 Y79.911
X47.522 Y80.05
X47.47 Y80.193
X47.404 Y80.231
X47.385 Y80.234
X47.369 Y80.222
X47.367 Y80.203
X47.396 Y80.096
X47.454 Y80.002
X47.47 Y79.991
X47.489 Y79.994
X47.5 Y80.01
S20000
X47.504 Y80.066 Z-17.535
X47.493 Y80.12 Z-17.537
X47.467 Y80.17 Z-17.539
X47.429 Y80.211 Z-17.541
X47.381 Y80.24 Z-17.543
X47.328 Y80.255 Z-17.545
X47.272 Y80.254 Z-17.547
X47.218 Y80.239 Z-17.549
X47.171 Y80.21 Z-17.551
X47.133 Y80.169 Z-17.553
X47.107 Y80.12 Z-17.555
X47.096 Y80.065 Z-17.557
X47.1 Y80.009 Z-17.559
X47.119 Y79.957 Z-17.561
X47.152 Y79.912 Z-17.563
X47.195 Y79.877 Z-17.565
X47.247 Y79.855 Z-17.567
X47.302 Y79.848 Z-17.569
X47.357 Y79.856 Z-17.571
X47.408 Y79.878 Z-17.572
X47.451 Y79.914 Z-17.574
X47.483 Y79.96 Z-17.576
X47.501 Y80.013 Z-17.578
X47.504 Y80.068 Z-17.58
X47.492 Y80.123 Z-17.582
X47.466 Y80.172 Z-17.584
X47.427 Y80.212 Z-17.586
X47.379 Y80.241 Z-17.588
X47.325 Y80.255 Z-17.59
X47.269 Y80.254 Z-17.592
X47.216 Y80.238 Z-17.594
X47.169 Y80.208 Z-17.596
X47.131 Y80.167 Z-17.598
X47.106 Y80.117 Z-17.6
X47.096 Y80.062 Z-17.602
X47.101 Y80.007 Z-17.604
X47.12 Y79.955 Z-17.606
X47.154 Y79.91 Z-17.608
X47.197 Y79.875 Z-17.61
G3 X47.477 Y79.949 R0.204
X47.403 Y80.229 R0.204
S12000
G1 X47.338 Y80.266
X47.191 Y80.24
X47.097 Y80.129
X47.095 Y79.974
X47.191 Y79.86
X47.331 Y79.835
X47.47 Y79.913
X47.52 Y80.05
X47.468 Y80.191
X47.403 Y80.229
X47.382 Y80.233
X47.362 Y80.223
X47.353 Y80.204
X47.338 Y80.046
X47.304 Y79.891
X47.306 Y79.87
X47.322 Y79.855
X47.343 Y79.852
S20000
X47.395 Y79.871 Z-17.612
X47.441 Y79.903 Z-17.614
X47.476 Y79.947 Z-17.615
X47.497 Y79.998 Z-17.617
X47.504 Y80.054 Z-17.619
X47.495 Y80.109 Z-17.621
X47.472 Y80.159 Z-17.623
X47.436 Y80.202 Z-17.625
X47.389 Y80.233 Z-17.627
X47.336 Y80.25 Z-17.629
X47.28 Y80.252 Z-17.631
X47.226 Y80.238 Z-17.633
X47.178 Y80.211 Z-17.635
X47.139 Y80.171 Z-17.637
X47.112 Y80.122 Z-17.639
X47.1 Y80.068 Z-17.641
X47.103 Y80.012 Z-17.643
X47.121 Y79.959 Z-17.645
X47.152 Y79.913 Z-17.647
X47.195 Y79.878 Z-17.649
X47.246 Y79.855 Z-17.651
X47.302 Y79.848 Z-17.653
X47.357 Y79.856 Z-17.655
X47.408 Y79.878 Z-17.656
X47.451 Y79.914 Z-17.658
X47.482 Y79.96 Z-17.66
X47.5 Y80.012 Z-17.662
X47.503 Y80.068 Z-17.664
X47.491 Y80.122 Z-17.666
X47.464 Y80.171 Z-17.668
X47.425 Y80.211 Z-17.67
X47.376 Y80.239 Z-17.672
X47.322 Y80.252 Z-17.674
X47.266 Y80.25 Z-17.676
X47.213 Y80.233 Z-17.678
X47.167 Y80.202 Z-17.68
X47.131 Y80.159 Z-17.682
X47.107 Y80.108 Z-17.684
X47.099 Y80.053 Z-17.686
S12000
X47.098 Y79.974
X47.192 Y79.862
X47.337 Y79.836
X47.467 Y79.913
X47.517 Y80.05
X47.466 Y80.189
X47.338 Y80.264
X47.192 Y80.238
X47.1 Y80.129
X47.099 Y80.053
X47.105 Y80.033
X47.123 Y80.021
X47.144 Y80.023
X47.289 Y80.083
X47.441 Y80.122
X47.458 Y80.133
X47.465 Y80.153
X47.458 Y80.173
S20000
X47.418 Y80.212 Z-17.688
X47.369 Y80.238 Z-17.69
X47.315 Y80.25 Z-17.692
X47.259 Y80.247 Z-17.694
X47.207 Y80.228 Z-17.696
X47.161 Y80.196 Z-17.698
X47.127 Y80.152 Z-17.699
X47.105 Y80.1 Z-17.701
X47.099 Y80.045 Z-17.703
X47.108 Y79.99 Z-17.705
X47.132 Y79.94 Z-17.707
X47.169 Y79.898 Z-17.709
X47.216 Y79.868 Z-17.711
X47.269 Y79.852 Z-17.713
X47.325 Y79.851 Z-17.715
X47.379 Y79.866 Z-17.717
X47.427 Y79.895 Z-17.719
X47.465 Y79.936 Z-17.721
X47.49 Y79.985 Z-17.723
X47.5 Y80.04 Z-17.725
X47.495 Y80.096 Z-17.727
X47.475 Y80.148 Z-17.729
X47.441 Y80.192 Z-17.731
X47.397 Y80.226 Z-17.733
X47.345 Y80.246 Z-17.735
X47.289 Y80.251 Z-17.737
X47.234 Y80.24 Z-17.739
X47.185 Y80.215 Z-17.741
X47.144 Y80.177 Z-17.742
X47.115 Y80.129 Z-17.744
X47.1 Y80.075 Z-17.746
X47.101 Y80.019 Z-17.748
X47.117 Y79.966 Z-17.75
X47.148 Y79.919 Z-17.752
X47.189 Y79.882 Z-17.754
X47.24 Y79.858 Z-17.756
X47.295 Y79.849 Z-17.758
X47.35 Y79.856 Z-17.76
X47.402 Y79.877 Z-17.762
S12000
X47.465 Y79.915
X47.514 Y80.05
X47.464 Y80.188
X47.338 Y80.261
X47.192 Y80.235
X47.101 Y80.126
X47.099 Y80.089
Y79.976
X47.192 Y79.865
X47.337 Y79.839
X47.402 Y79.877
X47.413 Y79.891
X47.414 Y79.909
X47.381 Y80.027
X47.468 Y80.111
X47.477 Y80.127
X47.474 Y80.145
S20000
X47.441 Y80.189 Z-17.764
X47.396 Y80.223 Z-17.766
X47.344 Y80.243 Z-17.768
X47.288 Y80.247 Z-17.77
X47.234 Y80.236 Z-17.772
X47.184 Y80.21 Z-17.774
X47.144 Y80.172 Z-17.776
X47.116 Y80.123 Z-17.778
X47.103 Y80.069 Z-17.78
X47.106 Y80.014 Z-17.782
X47.124 Y79.961 Z-17.783
X47.156 Y79.915 Z-17.785
X47.199 Y79.88 Z-17.787
X47.25 Y79.859 Z-17.789
X47.306 Y79.852 Z-17.791
X47.361 Y79.862 Z-17.793
X47.411 Y79.886 Z-17.795
X47.452 Y79.924 Z-17.797
X47.482 Y79.971 Z-17.799
X47.496 Y80.025 Z-17.801
Y80.081 Z-17.803
X47.479 Y80.134 Z-17.805
X47.449 Y80.181 Z-17.807
X47.406 Y80.217 Z-17.809
X47.356 Y80.24 Z-17.811
X47.3 Y80.248 Z-17.813
X47.245 Y80.24 Z-17.815
X47.194 Y80.217 Z-17.817
X47.152 Y80.181 Z-17.819
X47.121 Y80.134 Z-17.821
X47.105 Y80.081 Z-17.823
X47.104 Y80.025 Z-17.825
X47.119 Y79.972 Z-17.826
X47.148 Y79.924 Z-17.828
X47.189 Y79.886 Z-17.83
X47.239 Y79.862 Z-17.832
X47.294 Y79.852 Z-17.834
X47.349 Y79.858 Z-17.836
X47.401 Y79.88 Z-17.838
S12000
X47.463 Y79.917
X47.512 Y80.05
X47.462 Y80.186
X47.337 Y80.258
X47.192 Y80.231
X47.103 Y80.125
X47.101 Y80.089
X47.102 Y79.976
X47.192 Y79.869
X47.337 Y79.842
X47.401 Y79.88
X47.413 Y79.895
X47.41 Y79.914
X47.395 Y79.926
X47.286 Y79.958
X47.173 Y79.962
X47.155 Y79.956
X47.146 Y79.939
X47.152 Y79.92
S20000
X47.193 Y79.872 Z-17.84
X47.337 Y79.845 Z-17.846
X47.46 Y79.916 Z-17.85
X47.509 Y80.05 Z-17.855
X47.461 Y80.181 Z-17.86
X47.418 Y80.209 Z-17.862
X47.337 Y80.255 Z-17.865
X47.193 Y80.228 Z-17.871
X47.104 Y80.122 Z-17.875
X47.106 Y79.976 Z-17.88
X47.193 Y79.872 Z-17.885
X47.337 Y79.845 Z-17.89
X47.46 Y79.916 Z-17.895
X47.509 Y80.05 Z-17.9
X47.461 Y80.181 Z-17.905
X47.418 Y80.209 Z-17.907
X47.337 Y80.255 Z-17.91
X47.219 Y80.233 Z-17.914
S12000
X47.193 Y80.228
X47.104 Y80.122
X47.106 Y79.976
X47.193 Y79.872
X47.337 Y79.845
X47.46 Y79.916
X47.509 Y80.05
X47.461 Y80.181
X47.418 Y80.209
X47.337 Y80.255
X47.219 Y80.233
X47.166 Y80.126
X47.128 Y79.979
Y79.96
X47.136 Y79.944
S20000
X47.193 Y79.876 Z-17.917
X47.337 Y79.848 Z-17.923
X47.458 Y79.917 Z-17.928
X47.506 Y80.05 Z-17.932
X47.46 Y80.177 Z-17.937
X47.336 Y80.252 Z-17.942
X47.193 Y80.224 Z-17.947
X47.107 Y80.121 Z-17.952
X47.109 Y79.976 Z-17.957
X47.193 Y79.876 Z-17.962
X47.337 Y79.848 Z-17.967
X47.458 Y79.917 Z-17.972
X47.506 Y80.05 Z-17.977
X47.46 Y80.177 Z-17.981
X47.336 Y80.252 Z-17.986
X47.217 Y80.229 Z-17.991
S12000
X47.193 Y80.224
X47.107 Y80.121
X47.109 Y79.976
X47.193 Y79.876
X47.337 Y79.848
X47.458 Y79.917
X47.506 Y80.05
X47.46 Y80.177
X47.336 Y80.252
X47.217 Y80.229
X47.203 Y80.22
X47.199 Y80.203
X47.207 Y80.188
X47.289 Y80.124
X47.326 Y80.1
X47.452 Y80.043
X47.47 Y80.04
X47.486 Y80.048
X47.495 Y80.064
X47.494 Y80.082
S20000
X47.46 Y80.177 Z-17.994
X47.336 Y80.252 Z-17.999
X47.193 Y80.224 Z-18.004
X47.107 Y80.121 Z-18.009
X47.109 Y79.976 Z-18.014
X47.193 Y79.876 Z-18.019
X47.337 Y79.848 Z-18.024
X47.458 Y79.918 Z-18.029
X47.506 Y80.05 Z-18.033
X47.46 Y80.177 Z-18.038
X47.336 Y80.252 Z-18.043
X47.193 Y80.224 Z-18.048
X47.107 Y80.121 Z-18.053
X47.109 Y79.976 Z-18.058
X47.193 Y79.876 Z-18.063
X47.31 Y79.853 Z-18.067
S12000
X47.337 Y79.848
X47.458 Y79.918
X47.506 Y80.05
X47.46 Y80.177
X47.336 Y80.252
X47.193 Y80.224
X47.107 Y80.121
X47.109 Y79.976
X47.193 Y79.876
X47.31 Y79.853
X47.325 Y79.855
X47.336 Y79.865
X47.391 Y79.957
X47.487 Y80.049
X47.495 Y80.064
X47.494 Y80.082
S20000
X47.46 Y80.177 Z-18.07
X47.336 Y80.252 Z-18.075
X47.193 Y80.224 Z-18.08
X47.107 Y80.121 Z-18.085
X47.109 Y79.976 Z-18.09
X47.193 Y79.876 Z-18.095
X47.337 Y79.848 Z-18.1
X47.458 Y79.918 Z-18.105
X47.506 Y80.05 Z-18.11
X47.46 Y80.177 Z-18.114
X47.336 Y80.252 Z-18.119
X47.193 Y80.224 Z-18.125
X47.107 Y80.121 Z-18.129
X47.109 Y79.976 Z-18.134
X47.193 Y79.876 Z-18.139
X47.31 Y79.853 Z-18.143
S12000
X47.337 Y79.848
X47.458 Y79.918
X47.506 Y80.05
X47.46 Y80.177
X47.336 Y80.252
X47.193 Y80.224
X47.107 Y80.121
X47.109 Y79.976
X47.193 Y79.876
X47.31 Y79.853
X47.325 Y79.855
X47.336 Y79.865
X47.391 Y79.957
X47.487 Y80.049
X47.495 Y80.064
X47.494 Y80.082
S20000
X47.46 Y80.177 Z-18.147
X47.336 Y80.252 Z-18.152
X47.193 Y80.224 Z-18.157
X47.107 Y80.121 Z-18.161
X47.109 Y79.976 Z-18.166
X47.193 Y79.876 Z-18.171
X47.337 Y79.848 Z-18.176
X47.458 Y79.918 Z-18.181
X47.506 Y80.05 Z-18.186
X47.46 Y80.177 Z-18.191
X47.336 Y80.252 Z-18.196
X47.193 Y80.224 Z-18.201
X47.107 Y80.121 Z-18.205
X47.109 Y79.976 Z-18.21
X47.193 Y79.876 Z-18.215
X47.31 Y79.853 Z-18.219
S12000
X47.337 Y79.848
X47.458 Y79.918
X47.506 Y80.05
X47.46 Y80.177
X47.336 Y80.252
X47.193 Y80.224
X47.107 Y80.121
X47.109 Y79.976
X47.193 Y79.876
X47.31 Y79.853
X47.325 Y79.855
X47.336 Y79.865
X47.391 Y79.957
X47.487 Y80.049
X47.495 Y80.064
X47.494 Y80.082
S20000
X47.46 Y80.177 Z-18.223
X47.336 Y80.252 Z-18.228
X47.193 Y80.224 Z-18.233
X47.107 Y80.121 Z-18.238
X47.109 Y79.976 Z-18.243
X47.193 Y79.876 Z-18.247
X47.337 Y79.848 Z-18.252
X47.458 Y79.918 Z-18.257
X47.506 Y80.05 Z-18.262
X47.46 Y80.177 Z-18.267
X47.336 Y80.252 Z-18.272
X47.193 Y80.224 Z-18.277
X47.107 Y80.121 Z-18.282
X47.109 Y79.976 Z-18.287
X47.193 Y79.876 Z-18.291
X47.31 Y79.853 Z-18.295
S12000
X47.337 Y79.848
X47.458 Y79.918
X47.506 Y80.05
X47.46 Y80.177
X47.336 Y80.252
X47.193 Y80.224
X47.107 Y80.121
X47.109 Y79.976
X47.193 Y79.876
X47.31 Y79.853
X47.325 Y79.855
X47.336 Y79.865
X47.391 Y79.957
X47.487 Y80.049
X47.495 Y80.064
X47.494 Y80.082
S20000
X47.46 Y80.177 Z-18.299
X47.336 Y80.252 Z-18.304
X47.193 Y80.224 Z-18.309
X47.107 Y80.121 Z-18.314
X47.109 Y79.976 Z-18.319
X47.193 Y79.876 Z-18.323
X47.337 Y79.848 Z-18.328
X47.458 Y79.918 Z-18.333
X47.506 Y80.05 Z-18.338
X47.46 Y80.177 Z-18.343
X47.336 Y80.252 Z-18.348
X47.193 Y80.224 Z-18.353
X47.107 Y80.121 Z-18.358
X47.109 Y79.976 Z-18.363
X47.193 Y79.876 Z-18.367
X47.31 Y79.853 Z-18.372
S12000
X47.337 Y79.848
X47.458 Y79.918
X47.506 Y80.05
X47.46 Y80.177
X47.336 Y80.252
X47.193 Y80.224
X47.107 Y80.121
X47.109 Y79.976
X47.193 Y79.876
X47.31 Y79.853
X47.325 Y79.855
X47.336 Y79.865
X47.391 Y79.957
X47.487 Y80.049
X47.495 Y80.064
X47.494 Y80.082
S20000
X47.46 Y80.177 Z-18.375
X47.336 Y80.252 Z-18.38
X47.193 Y80.224 Z-18.385
X47.107 Y80.121 Z-18.39
X47.109 Y79.976 Z-18.395
X47.193 Y79.876 Z-18.4
X47.337 Y79.848 Z-18.405
X47.458 Y79.918 Z-18.41
X47.506 Y80.05 Z-18.414
X47.46 Y80.177 Z-18.419
X47.336 Y80.252 Z-18.424
X47.193 Y80.224 Z-18.429
X47.107 Y80.121 Z-18.434
X47.109 Y79.976 Z-18.439
X47.193 Y79.876 Z-18.444
X47.31 Y79.853 Z-18.448
S12000
X47.337 Y79.848
X47.458 Y79.918
X47.506 Y80.05
X47.46 Y80.177
X47.336 Y80.252
X47.193 Y80.224
X47.107 Y80.121
X47.109 Y79.976
X47.193 Y79.876
X47.31 Y79.853
X47.326 Y79.855
X47.337 Y79.867
X47.339 Y79.883
X47.33 Y79.897
X47.256 Y79.954
X47.202 Y79.976
X47.136 Y79.989
X47.123 Y79.987
X47.116 Y79.976
X47.12 Y79.963
S20000
X47.193 Y79.876 Z-18.452
X47.337 Y79.848 Z-18.457
X47.458 Y79.918 Z-18.462
X47.506 Y80.05 Z-18.467
X47.46 Y80.177 Z-18.471
X47.336 Y80.252 Z-18.476
X47.193 Y80.224 Z-18.482
X47.107 Y80.121 Z-18.486
X47.109 Y79.976 Z-18.491
X47.193 Y79.876 Z-18.496
X47.31 Y79.853 Z-18.5
S12000
X47.337 Y79.848
X47.458 Y79.918
X47.506 Y80.05
X47.46 Y80.177
X47.336 Y80.252
X47.193 Y80.224
X47.107 Y80.121
X47.109 Y79.976
X47.193 Y79.876
X47.31 Y79.853
X47.337 Y79.848 Z-18.495
X47.36 Y79.861 Z-18.478
X47.376 Y79.87 Z-18.452
X47.381 Y79.873 Z-18.421
G0 Z5.
X66.865 Y80.278
Z-16.841
S20000
G1 X66.855 Y80.276 Z-16.88 F178.
X66.827 Y80.271 Z-16.909
X66.791 Y80.26 Z-16.92
X66.721 Y80.229 Z-16.922
X66.66 Y80.183 Z-16.925
X66.609 Y80.126 Z-16.927
X66.571 Y80.06 Z-16.93
X66.547 Y79.988 Z-16.932
X66.538 Y79.912 Z-16.935
X66.544 Y79.836 Z-16.937
X66.566 Y79.763 Z-16.94
X66.603 Y79.696 Z-16.942
X66.652 Y79.637 Z-16.945
X66.712 Y79.59 Z-16.947
X66.78 Y79.556 Z-16.95
X66.854 Y79.537 Z-16.952
X66.93 Y79.533 Z-16.955
X67.006 Y79.545 Z-16.957
X67.077 Y79.571 Z-16.96
X67.142 Y79.612 Z-16.962
X67.197 Y79.665 Z-16.965
X67.24 Y79.728 Z-16.967
X67.27 Y79.798 Z-16.97
X67.284 Y79.873 Z-16.972
X67.283 Y79.949 Z-16.975
X67.267 Y80.024 Z-16.977
X67.235 Y80.094 Z-16.979
X67.191 Y80.155 Z-16.982
X67.134 Y80.207 Z-16.984
X67.069 Y80.246 Z-16.987
X66.997 Y80.271 Z-16.989
X66.921 Y80.28 Z-16.992
X66.845 Y80.275 Z-16.994
X66.771 Y80.253 Z-16.997
X66.704 Y80.218 Z-16.999
X66.645 Y80.169 Z-17.002
X66.597 Y80.109 Z-17.004
X66.563 Y80.041 Z-17.007
X66.543 Y79.968 Z-17.009
X66.538 Y79.892 Z-17.012
X66.549 Y79.816 Z-17.014
X66.575 Y79.744 Z-17.017
X66.615 Y79.679 Z-17.019
X66.667 Y79.624 Z-17.022
X66.73 Y79.58 Z-17.024
X66.8 Y79.55 Z-17.027
X66.874 Y79.534 Z-17.029
X66.951 Y79.535 Z-17.032
X67.025 Y79.55 Z-17.034
X67.095 Y79.581 Z-17.037
X67.158 Y79.625 Z-17.039
X67.21 Y79.681 Z-17.041
X67.249 Y79.746 Z-17.044
X67.275 Y79.818 Z-17.046
X67.285 Y79.894 Z-17.049
X67.28 Y79.97 Z-17.051
X67.26 Y80.043 Z-17.054
X67.225 Y80.111 Z-17.056
X67.177 Y80.17 Z-17.059
X67.118 Y80.219 Z-17.061
X67.05 Y80.254 Z-17.064
X66.976 Y80.275 Z-17.066
X66.9 Y80.28 Z-17.069
X66.825 Y80.27 Z-17.071
X66.753 Y80.245 Z-17.074
X66.687 Y80.206 Z-17.076
S12000
G3 X66.649 Y79.937 R0.192
X66.917 Y79.899 R0.192
X66.956 Y80.167 R0.192
X66.687 Y80.206 R0.192
G2 X66.396 Y80.147 R0.346
G3 X66.167 Y80.009 R0.189
X66.161 Y79.965 R0.189
G1 X66.16 Y79.852
X66.332 Y79.585
X66.36 Y79.542
X66.376 Y79.532
X66.709 Y79.383
X67.083 Y79.44
X67.359 Y79.679
X67.471 Y80.051
X67.363 Y80.416
X67.083 Y80.66
X66.709 Y80.717
X66.361 Y80.561
X66.163 Y80.252
X66.161 Y79.965
X66.167 Y79.931
X66.183 Y79.902
X66.208 Y79.879
X66.24 Y79.866
X67.139 Y79.67
X67.172 Y79.668
X67.203 Y79.677
X67.23 Y79.695
X67.249 Y79.722
S20000
X67.277 Y79.791 Z-17.079
X67.29 Y79.865 Z-17.081
X67.288 Y79.94 Z-17.084
X67.272 Y80.014 Z-17.087
X67.24 Y80.082 Z-17.089
X67.196 Y80.143 Z-17.092
X67.141 Y80.193 Z-17.095
X67.076 Y80.232 Z-17.097
X67.006 Y80.257 Z-17.1
X66.931 Y80.267 Z-17.102
X66.856 Y80.263 Z-17.105
X66.784 Y80.243 Z-17.108
X66.717 Y80.209 Z-17.11
X66.658 Y80.163 Z-17.113
X66.609 Y80.106 Z-17.116
X66.573 Y80.04 Z-17.118
X66.551 Y79.968 Z-17.121
X66.543 Y79.893 Z-17.123
X66.551 Y79.818 Z-17.126
X66.573 Y79.747 Z-17.129
X66.61 Y79.681 Z-17.131
X66.658 Y79.624 Z-17.134
X66.717 Y79.577 Z-17.137
X66.785 Y79.544 Z-17.139
X66.857 Y79.525 Z-17.142
X66.932 Y79.52 Z-17.145
X67.007 Y79.53 Z-17.147
X67.077 Y79.556 Z-17.15
X67.142 Y79.594 Z-17.152
G3 X67.21 Y80.073 R0.342
X66.731 Y80.141 R0.342
S12000
X66.708 Y79.978 R0.117
X66.871 Y79.955 R0.117
X66.895 Y80.118 R0.117
X66.731 Y80.141 R0.117
G2 X66.454 Y80.072 R0.367
G3 X66.302 Y80.03 R0.188
X66.236 Y79.887 R0.188
G1 Y79.878
X66.333 Y79.721
X66.405 Y79.61
X66.425 Y79.589
X66.708 Y79.462
X66.732 Y79.459
X67.042 Y79.508
X67.077 Y79.531
X67.29 Y79.716
X67.297 Y79.73
X67.392 Y80.05
X67.291 Y80.383
X67.049 Y80.589
X67.03 Y80.598
X66.719 Y80.639
X66.693 Y80.633
X66.419 Y80.503
X66.357 Y80.417
X66.236 Y80.226
Y79.887
X66.296 Y79.894
X66.372 Y79.913
X66.38 Y79.889
S20000
X66.419 Y79.825 Z-17.155
X66.471 Y79.77 Z-17.158
X66.532 Y79.726 Z-17.16
X66.6 Y79.696 Z-17.163
X66.674 Y79.68 Z-17.166
X66.749 Y79.678 Z-17.168
X66.823 Y79.692 Z-17.171
X66.892 Y79.721 Z-17.173
X66.955 Y79.762 Z-17.176
X67.008 Y79.816 Z-17.179
X67.049 Y79.879 Z-17.181
X67.077 Y79.948 Z-17.184
X67.09 Y80.022 Z-17.187
X67.088 Y80.097 Z-17.189
X67.072 Y80.171 Z-17.192
X67.041 Y80.239 Z-17.194
X66.996 Y80.3 Z-17.197
X66.941 Y80.351 Z-17.2
X66.877 Y80.389 Z-17.202
X66.806 Y80.414 Z-17.205
X66.732 Y80.425 Z-17.208
X66.657 Y80.42 Z-17.21
X66.584 Y80.401 Z-17.213
X66.517 Y80.367 Z-17.215
X66.458 Y80.321 Z-17.218
X66.409 Y80.263 Z-17.221
X66.373 Y80.198 Z-17.223
X66.351 Y80.126 Z-17.226
X66.343 Y80.051 Z-17.229
G3 X66.591 Y79.803 R0.248
X66.839 Y80.051 R0.248
S12000
X66.801 Y80.09 R0.038
X66.763 Y80.051 R0.038
X66.801 Y80.013 R0.038
X66.839 Y80.051 R0.038
G2 X66.955 Y80.29 R0.303
G3 X66.98 Y80.492 R0.144
X66.886 Y80.546 R0.144
G1 X66.765 Y80.562
X66.664 Y80.54
X66.482 Y80.453
X66.413 Y80.367
X66.314 Y80.212
Y79.888
X66.331 Y79.861
X66.45 Y79.684
X66.48 Y79.647
X66.687 Y79.551
X66.766 Y79.537
X66.982 Y79.568
X67.065 Y79.618
X67.217 Y79.751
X67.312 Y80.051
X67.217 Y80.35
X67.057 Y80.488
X66.972 Y80.534
X66.886 Y80.546
X66.866 Y80.543
X66.85 Y80.532
X66.842 Y80.514
X66.843 Y80.494
X66.911 Y80.286
X67. Y80.028
X67.083 Y79.852
X67.097 Y79.835
X67.118 Y79.829
X67.139 Y79.834
X67.154 Y79.85
S20000
X67.181 Y79.92 Z-17.231
X67.194 Y79.994 Z-17.234
X67.193 Y80.069 Z-17.236
X67.176 Y80.142 Z-17.239
X67.145 Y80.211 Z-17.242
X67.101 Y80.271 Z-17.244
X67.045 Y80.322 Z-17.247
X66.981 Y80.361 Z-17.25
X66.91 Y80.386 Z-17.252
X66.835 Y80.396 Z-17.255
X66.761 Y80.391 Z-17.258
X66.688 Y80.372 Z-17.26
X66.621 Y80.338 Z-17.263
X66.562 Y80.292 Z-17.265
X66.513 Y80.234 Z-17.268
X66.477 Y80.168 Z-17.271
X66.455 Y80.097 Z-17.273
X66.448 Y80.022 Z-17.276
X66.455 Y79.947 Z-17.279
X66.478 Y79.875 Z-17.281
X66.514 Y79.81 Z-17.284
X66.563 Y79.752 Z-17.286
X66.622 Y79.706 Z-17.289
X66.689 Y79.673 Z-17.292
X66.761 Y79.653 Z-17.294
X66.836 Y79.649 Z-17.297
X66.911 Y79.659 Z-17.3
X66.982 Y79.684 Z-17.302
X67.046 Y79.723 Z-17.305
G3 X67.098 Y80.086 R0.259
X66.735 Y80.138 R0.259
S12000
X66.713 Y79.982 R0.112
X66.869 Y79.959 R0.112
X66.891 Y80.116 R0.112
X66.735 Y80.138 R0.112
G1 X66.691 Y80.112
X66.644 Y80.095
X66.593 Y80.088
X66.543 Y80.091
X66.498 Y80.09
X66.456 Y80.075
X66.422 Y80.046
X66.4 Y80.007
X66.392 Y79.963
Y79.908
X66.479 Y79.777
X66.531 Y79.715
X66.555 Y79.689
X66.658 Y79.642
X66.819 Y79.616
X66.923 Y79.631
X67.08 Y79.727
X67.144 Y79.783
X67.147 Y79.789
X67.232 Y80.044
X67.234 Y80.049
X67.147 Y80.31
X67.079 Y80.373
X67.016 Y80.416
X66.919 Y80.468
X66.796 Y80.483
X66.659 Y80.458
X66.56 Y80.413
X66.532 Y80.385
X66.425 Y80.248
X66.393 Y80.198
X66.392 Y79.963
X66.396 Y79.946
X66.409 Y79.933
X66.427 Y79.929
X66.444 Y79.935
X66.533 Y79.994
X66.543 Y80.005
X66.548 Y80.02
X66.562 Y80.131
X66.558 Y80.154
X66.542 Y80.17
X66.52 Y80.175
X66.498 Y80.166
X66.485 Y80.147
S20000
X66.472 Y80.076 Z-17.307
X66.475 Y80.003 Z-17.31
X66.493 Y79.933 Z-17.312
X66.526 Y79.869 Z-17.315
X66.573 Y79.813 Z-17.318
X66.63 Y79.768 Z-17.32
X66.696 Y79.738 Z-17.323
X66.767 Y79.722 Z-17.325
X66.839 Z-17.328
X66.91 Y79.738 Z-17.33
X66.976 Y79.769 Z-17.333
X67.033 Y79.814 Z-17.335
X67.079 Y79.87 Z-17.338
X67.112 Y79.934 Z-17.34
X67.13 Y80.005 Z-17.343
X67.132 Y80.077 Z-17.345
X67.119 Y80.149 Z-17.348
X67.09 Y80.215 Z-17.351
X67.047 Y80.274 Z-17.353
X66.993 Y80.322 Z-17.356
X66.93 Y80.357 Z-17.358
X66.86 Y80.377 Z-17.361
X66.787 Y80.382 Z-17.363
X66.716 Y80.371 Z-17.366
X66.648 Y80.344 Z-17.368
X66.588 Y80.304 Z-17.371
X66.538 Y80.251 Z-17.373
X66.501 Y80.189 Z-17.376
X66.478 Y80.12 Z-17.378
X66.471 Y80.047 Z-17.381
S12000
X66.473 Y79.92
X66.505 Y79.875
X66.615 Y79.744
X66.641 Y79.731
X66.849 Y79.694
X66.861 Y79.696
X67.069 Y79.816
X67.072 Y79.82
X67.153 Y80.052
X67.074 Y80.276
X67.038 Y80.306
X66.863 Y80.404
X66.849 Y80.406
X66.64 Y80.369
X66.616 Y80.357
X66.47 Y80.178
X66.471 Y80.047
X66.475 Y80.032
X66.485 Y80.02
X66.5 Y80.013
X66.657 Y79.982
X66.666 Y79.97
X66.67 Y79.956
X66.673 Y79.851
X66.678 Y79.833
X66.693 Y79.821
S20000
X66.752 Y79.801 Z-17.383
X66.814 Y79.796 Z-17.385
X66.875 Y79.807 Z-17.388
X66.932 Y79.832 Z-17.39
X66.981 Y79.871 Z-17.392
X67.019 Y79.92 Z-17.394
X67.044 Y79.977 Z-17.396
X67.054 Y80.038 Z-17.398
X67.049 Y80.1 Z-17.401
X67.029 Y80.159 Z-17.403
X66.995 Y80.211 Z-17.405
X66.949 Y80.253 Z-17.407
X66.895 Y80.283 Z-17.409
X66.835 Y80.299 Z-17.411
X66.772 Z-17.414
X66.712 Y80.285 Z-17.416
X66.657 Y80.256 Z-17.418
X66.611 Y80.214 Z-17.42
X66.576 Y80.162 Z-17.422
X66.555 Y80.104 Z-17.425
X66.549 Y80.042 Z-17.427
X66.558 Y79.981 Z-17.429
X66.582 Y79.923 Z-17.431
X66.62 Y79.873 Z-17.433
X66.668 Y79.834 Z-17.435
X66.724 Y79.808 Z-17.438
X66.786 Y79.797 Z-17.44
X66.848 Y79.8 Z-17.442
X66.907 Y79.819 Z-17.444
X66.96 Y79.852 Z-17.446
X67.003 Y79.896 Z-17.448
X67.034 Y79.95 Z-17.451
X67.051 Y80.01 Z-17.453
X67.053 Y80.072 Z-17.455
X67.04 Y80.133 Z-17.457
S12000
X67.008 Y80.223
X66.932 Y80.27
X66.848 Y80.319
X66.663 Y80.284
X66.548 Y80.147
X66.55 Y79.95
X66.671 Y79.811
X66.846 Y79.781
X67.009 Y79.879
X67.07 Y80.047
X67.04 Y80.133
X67.027 Y80.15
X67.008 Y80.158
X66.987 Y80.155
X66.82 Y80.075
X66.636 Y80.097
X66.616 Y80.094
X66.6 Y80.081
X66.593 Y80.061
S20000
X66.598 Y80.004 Z-17.459
X66.618 Y79.951 Z-17.461
X66.653 Y79.905 Z-17.463
X66.698 Y79.87 Z-17.465
X66.751 Y79.849 Z-17.467
X66.808 Y79.844 Z-17.469
X66.865 Y79.854 Z-17.471
X66.916 Y79.879 Z-17.473
X66.959 Y79.917 Z-17.475
X66.989 Y79.966 Z-17.477
X67.005 Y80.021 Z-17.479
Y80.078 Z-17.481
X66.99 Y80.133 Z-17.483
X66.96 Y80.182 Z-17.485
X66.918 Y80.221 Z-17.487
X66.867 Y80.247 Z-17.489
X66.811 Y80.258 Z-17.491
X66.754 Y80.253 Z-17.493
X66.7 Y80.232 Z-17.495
X66.654 Y80.198 Z-17.497
X66.62 Y80.153 Z-17.499
X66.599 Y80.099 Z-17.501
X66.593 Y80.042 Z-17.503
X66.603 Y79.986 Z-17.505
X66.628 Y79.935 Z-17.507
X66.667 Y79.892 Z-17.509
X66.715 Y79.862 Z-17.511
X66.77 Y79.846 Z-17.513
X66.827 Y79.845 Z-17.515
X66.883 Y79.861 Z-17.517
X66.931 Y79.89 Z-17.519
X66.97 Y79.933 Z-17.521
X66.996 Y79.984 Z-17.523
X67.007 Y80.04 Z-17.525
X67.002 Y80.097 Z-17.527
X66.982 Y80.15 Z-17.529
X66.947 Y80.196 Z-17.531
X66.902 Y80.231 Z-17.533
S12000
X66.836 Y80.268
X66.689 Y80.243
X66.594 Y80.129
X66.592 Y79.974
X66.689 Y79.858
X66.838 Y79.832
X66.972 Y79.912
X67.022 Y80.05
X66.971 Y80.192
X66.902 Y80.231
X66.907 Y80.204
X66.933 Y80.206
S20000
X66.886 Y80.237 Z-17.535
X66.833 Y80.253 Z-17.537
X66.777 Y80.254 Z-17.539
X66.723 Y80.241 Z-17.541
X66.675 Y80.213 Z-17.543
X66.636 Y80.173 Z-17.545
X66.609 Y80.124 Z-17.547
X66.597 Y80.069 Z-17.549
X66.599 Y80.014 Z-17.551
X66.617 Y79.961 Z-17.553
X66.648 Y79.915 Z-17.555
X66.69 Y79.879 Z-17.557
X66.741 Y79.855 Z-17.559
X66.796 Y79.847 Z-17.561
X66.852 Y79.853 Z-17.563
X66.903 Y79.874 Z-17.565
X66.947 Y79.909 Z-17.567
X66.98 Y79.954 Z-17.569
X67. Y80.006 Z-17.571
X67.004 Y80.062 Z-17.572
X66.994 Y80.116 Z-17.574
X66.969 Y80.166 Z-17.576
X66.932 Y80.208 Z-17.578
X66.885 Y80.237 Z-17.58
X66.831 Y80.253 Z-17.582
X66.775 Y80.254 Z-17.584
X66.721 Y80.24 Z-17.586
X66.673 Y80.211 Z-17.588
X66.635 Y80.171 Z-17.59
X66.608 Y80.122 Z-17.592
X66.596 Y80.068 Z-17.594
X66.599 Y80.012 Z-17.596
X66.618 Y79.959 Z-17.598
X66.649 Y79.913 Z-17.6
X66.692 Y79.878 Z-17.602
X66.743 Y79.855 Z-17.604
X66.798 Y79.847 Z-17.606
X66.853 Y79.854 Z-17.608
X66.905 Y79.875 Z-17.61
S12000
X66.97 Y79.914
X67.02 Y80.05
X66.968 Y80.191
X66.836 Y80.266
X66.69 Y80.24
X66.597 Y80.129
X66.595 Y79.974
X66.69 Y79.86
X66.836 Y79.834
X66.905 Y79.875
X66.88 Y79.882
X66.832 Y79.852
S20000
X66.885 Y79.869 Z-17.612
X66.932 Y79.899 Z-17.614
X66.969 Y79.941 Z-17.615
X66.993 Y79.991 Z-17.617
X67.002 Y80.046 Z-17.619
X66.996 Y80.102 Z-17.621
X66.975 Y80.153 Z-17.623
X66.94 Y80.197 Z-17.625
X66.895 Y80.23 Z-17.627
X66.842 Y80.249 Z-17.629
X66.787 Y80.253 Z-17.631
X66.732 Y80.241 Z-17.633
X66.683 Y80.215 Z-17.635
X66.642 Y80.177 Z-17.637
X66.614 Y80.129 Z-17.639
X66.6 Y80.075 Z-17.641
X66.602 Y80.019 Z-17.643
X66.618 Y79.966 Z-17.645
X66.649 Y79.919 Z-17.647
X66.691 Y79.882 Z-17.649
X66.741 Y79.859 Z-17.651
X66.796 Y79.85 Z-17.653
X66.852 Y79.857 Z-17.655
X66.903 Y79.878 Z-17.656
X66.947 Y79.913 Z-17.658
X66.979 Y79.958 Z-17.66
X66.998 Y80.011 Z-17.662
X67.002 Y80.066 Z-17.664
X66.99 Y80.121 Z-17.666
X66.963 Y80.17 Z-17.668
X66.925 Y80.21 Z-17.67
X66.876 Y80.238 Z-17.672
X66.822 Y80.252 Z-17.674
X66.767 Y80.25 Z-17.676
X66.714 Y80.233 Z-17.678
X66.667 Y80.203 Z-17.68
X66.631 Y80.16 Z-17.682
X66.607 Y80.11 Z-17.684
X66.599 Y80.054 Z-17.686
S12000
X66.598 Y79.974
X66.691 Y79.862
X66.834 Y79.837
X66.968 Y79.916
X67.017 Y80.05
X66.966 Y80.189
X66.836 Y80.263
X66.693 Y80.238
X66.686 Y80.231
X66.6 Y80.129
X66.599 Y80.054
X66.605 Y80.018
X66.625 Y79.986
X66.654 Y79.964
X66.69 Y79.953
X66.727 Y79.957
X66.91 Y80.011
X66.943 Y80.028
X66.968 Y80.055
X66.981 Y80.09
X66.98 Y80.127
X66.965 Y80.162
S20000
X66.928 Y80.204 Z-17.688
X66.881 Y80.233 Z-17.69
X66.828 Y80.249 Z-17.692
X66.772 Z-17.694
X66.718 Y80.234 Z-17.696
X66.671 Y80.205 Z-17.698
X66.634 Y80.163 Z-17.699
X66.609 Y80.113 Z-17.701
X66.6 Y80.058 Z-17.703
X66.606 Y80.003 Z-17.705
X66.627 Y79.951 Z-17.707
X66.661 Y79.908 Z-17.709
X66.706 Y79.875 Z-17.711
X66.759 Y79.856 Z-17.713
X66.815 Y79.853 Z-17.715
X66.869 Y79.865 Z-17.717
X66.918 Y79.892 Z-17.719
X66.958 Y79.931 Z-17.721
X66.985 Y79.98 Z-17.723
X66.998 Y80.034 Z-17.725
X66.995 Y80.09 Z-17.727
X66.977 Y80.142 Z-17.729
X66.945 Y80.188 Z-17.731
X66.901 Y80.223 Z-17.733
X66.85 Y80.245 Z-17.735
X66.794 Y80.251 Z-17.737
X66.739 Y80.242 Z-17.739
X66.689 Y80.218 Z-17.741
X66.647 Y80.181 Z-17.742
X66.617 Y80.134 Z-17.744
X66.602 Y80.081 Z-17.746
X66.601 Y80.025 Z-17.748
X66.616 Y79.971 Z-17.75
X66.646 Y79.924 Z-17.752
X66.687 Y79.887 Z-17.754
X66.737 Y79.862 Z-17.756
X66.792 Y79.852 Z-17.758
X66.848 Y79.858 Z-17.76
X66.899 Y79.879 Z-17.762
S12000
X66.967 Y79.919
X67.014 Y80.05
X66.964 Y80.188
X66.836 Y80.261
X66.694 Y80.236
X66.689 Y80.231
X66.601 Y80.126
X66.599 Y80.089
Y79.976
X66.693 Y79.864
X66.832 Y79.84
X66.899 Y79.879
X66.911 Y79.894
X66.908 Y79.913
X66.892 Y79.923
X66.792 Y79.943
X66.684 Y79.939
X66.668 Y79.932
X66.661 Y79.916
X66.666 Y79.9
S20000
X66.694 Y79.867 Z-17.764
X66.83 Y79.843 Z-17.768
X66.965 Y79.921 Z-17.774
X67.012 Y80.05 Z-17.779
X66.962 Y80.186 Z-17.784
X66.835 Y80.258 Z-17.789
X66.695 Y80.233 Z-17.794
X66.691 Y80.23
X66.603 Y80.125 Z-17.799
X66.601 Y80.089 Z-17.8
X66.602 Y79.976 Z-17.804
X66.694 Y79.867 Z-17.809
X66.83 Y79.843 Z-17.814
X66.965 Y79.921 Z-17.819
X67.012 Y80.05 Z-17.824
X66.962 Y80.186 Z-17.829
X66.835 Y80.258 Z-17.834
X66.718 Y80.238 Z-17.838
S12000
X66.695 Y80.233
X66.691 Y80.23
X66.603 Y80.125
X66.601 Y80.089
X66.602 Y79.976
X66.694 Y79.867
X66.83 Y79.843
X66.965 Y79.921
X67.012 Y80.05
X66.962 Y80.186
X66.835 Y80.258
X66.718 Y80.238
X66.708 Y80.231
X66.704 Y80.22
X66.709 Y80.209
Y80.211
X66.713 Y80.187
X66.703 Y80.165
X66.616 Y80.073
X66.608 Y80.061
X66.605 Y80.046
S20000
X66.606 Y79.976 Z-17.841
X66.695 Y79.869 Z-17.846
X66.835 Y79.844 Z-17.85
X66.962 Y79.921 Z-17.856
X67.009 Y80.05 Z-17.86
X66.961 Y80.181 Z-17.865
X66.931 Y80.201 Z-17.867
X66.835 Y80.256 Z-17.87
X66.7 Y80.232 Z-17.875
X66.653 Y80.18 Z-17.878
X66.604 Y80.122 Z-17.88
X66.606 Y79.976 Z-17.885
X66.695 Y79.869 Z-17.89
X66.835 Y79.844 Z-17.895
X66.962 Y79.921 Z-17.9
X67.009 Y80.05 Z-17.905
X66.961 Y80.181 Z-17.91
X66.931 Y80.201 Z-17.911
X66.856 Y80.244 Z-17.914
S12000
X66.835 Y80.256
X66.7 Y80.232
X66.653 Y80.18
X66.604 Y80.122
X66.606 Y79.976
X66.695 Y79.869
X66.835 Y79.844
X66.962 Y79.921
X67.009 Y80.05
X66.961 Y80.181
X66.931 Y80.201
X66.856 Y80.244
X66.842 Y80.247
X66.83 Y80.241
X66.824 Y80.228
X66.822 Y80.193
X66.872 Y80.139
X66.891 Y80.129
X66.913 Y80.131
X66.93 Y80.144
X66.938 Y80.164
X66.934 Y80.186
X66.919 Y80.201
S20000
X66.833 Y80.253 Z-17.918
X66.703 Y80.23 Z-17.923
X66.607 Y80.119 Z-17.928
X66.609 Y79.978 Z-17.933
X66.703 Y79.87 Z-17.938
X66.835 Y79.847 Z-17.942
X66.96 Y79.922 Z-17.947
X67.006 Y80.05 Z-17.952
X66.96 Y80.177 Z-17.957
X66.833 Y80.253 Z-17.962
X66.703 Y80.23 Z-17.967
X66.607 Y80.119 Z-17.972
X66.609 Y79.978 Z-17.977
X66.703 Y79.87 Z-17.982
X66.835 Y79.847 Z-17.986
X66.94 Y79.91 Z-17.991
S12000
X66.96 Y79.922
X67.006 Y80.05
X66.96 Y80.177
X66.833 Y80.253
X66.703 Y80.23
X66.607 Y80.119
X66.609 Y79.978
X66.703 Y79.87
X66.835 Y79.847
X66.94 Y79.91
X66.954 Y80.013
X66.941 Y80.169
X66.935 Y80.187
X66.922 Y80.2
S20000
X66.833 Y80.252 Z-17.994
X66.703 Y80.229 Z-17.999
X66.607 Y80.119 Z-18.004
X66.609 Y79.978 Z-18.009
X66.703 Y79.871 Z-18.014
X66.835 Y79.847 Z-18.019
X66.96 Y79.922 Z-18.024
X67.006 Y80.05 Z-18.028
X66.96 Y80.177 Z-18.033
X66.833 Y80.252 Z-18.038
X66.703 Y80.229 Z-18.043
X66.607 Y80.119 Z-18.048
X66.609 Y79.978 Z-18.053
X66.703 Y79.871 Z-18.058
X66.835 Y79.847 Z-18.063
X66.939 Y79.91 Z-18.067
S12000
X66.96 Y79.922
X67.006 Y80.05
X66.96 Y80.177
X66.833 Y80.252
X66.703 Y80.229
X66.607 Y80.119
X66.609 Y79.978
X66.703 Y79.871
X66.835 Y79.847
X66.939 Y79.91
X66.953 Y80.014
X66.941 Y80.169
X66.935 Y80.187
X66.922 Y80.2
S20000
X66.833 Y80.252 Z-18.07
X66.703 Y80.229 Z-18.075
X66.607 Y80.119 Z-18.08
X66.609 Y79.978 Z-18.085
X66.703 Y79.871 Z-18.09
X66.835 Y79.847 Z-18.095
X66.96 Y79.922 Z-18.1
X67.006 Y80.05 Z-18.105
X66.96 Y80.177 Z-18.109
X66.833 Y80.252 Z-18.114
X66.703 Y80.229 Z-18.119
X66.607 Y80.119 Z-18.124
X66.609 Y79.978 Z-18.129
X66.703 Y79.871 Z-18.134
X66.835 Y79.847 Z-18.139
X66.939 Y79.91 Z-18.143
S12000
X66.96 Y79.922
X67.006 Y80.05
X66.96 Y80.177
X66.833 Y80.252
X66.703 Y80.229
X66.607 Y80.119
X66.609 Y79.978
X66.703 Y79.871
X66.835 Y79.847
X66.939 Y79.91
X66.953 Y80.014
X66.941 Y80.169
X66.935 Y80.187
X66.922 Y80.2
S20000
X66.833 Y80.252 Z-18.147
X66.703 Y80.229 Z-18.151
X66.607 Y80.119 Z-18.156
X66.609 Y79.978 Z-18.161
X66.703 Y79.871 Z-18.166
X66.835 Y79.847 Z-18.171
X66.96 Y79.922 Z-18.176
