(NMJPLATE0PT0PT3_TOP_STEP1_4MM_SIDE1)
(T8  D=4. CR=0. - ZMIN=-19. - FLAT END MILL)
G0 G90 G94 G17
G21
G53 G0 Z0.

(UPPER WELL 4MM)
M5
T8
M3 S16000
G55
M8
G0 X76.773 Y49.799
Z15.
Z-1.492
G1 Z-2.067 F380.
X76.788 Y49.81 Z-2.188 F1500.
X76.831 Y49.844 Z-2.297
X76.896 Y49.899 Z-2.385
X76.974 Y49.973 Z-2.444
X77.056 Y50.06 Z-2.467
X77.165 Y50.195 Z-2.473
X77.261 Y50.34 Z-2.479
X77.343 Y50.492 Z-2.485
X77.412 Y50.652 Z-2.491
X77.465 Y50.817 Z-2.497
X77.503 Y50.986 Z-2.503
X77.526 Y51.157 Z-2.509
X77.532 Y51.331 Z-2.515
X77.523 Y51.504 Z-2.521
X77.499 Y51.675 Z-2.527
X77.458 Y51.844 Z-2.533
X77.403 Y52.008 Z-2.539
X77.333 Y52.167 Z-2.545
X77.248 Y52.318 Z-2.551
X77.15 Y52.461 Z-2.557
X77.04 Y52.595 Z-2.563
X76.918 Y52.718 Z-2.57
X76.785 Y52.829 Z-2.576
X76.643 Y52.928 Z-2.582
X76.492 Y53.013 Z-2.588
X76.334 Y53.084 Z-2.594
X76.17 Y53.141 Z-2.6
X76.002 Y53.182 Z-2.606
X75.83 Y53.208 Z-2.612
X75.657 Y53.218 Z-2.618
X75.484 Y53.213 Z-2.624
X75.312 Y53.191 Z-2.63
X75.143 Y53.154 Z-2.636
X74.977 Y53.102 Z-2.642
X74.818 Y53.035 Z-2.648
X74.665 Y52.953 Z-2.654
X74.52 Y52.858 Z-2.66
X74.384 Y52.751 Z-2.666
X74.259 Y52.631 Z-2.672
X74.145 Y52.5 Z-2.679
X74.043 Y52.36 Z-2.685
X73.955 Y52.211 Z-2.691
X73.881 Y52.054 Z-2.697
X73.821 Y51.891 Z-2.703
X73.776 Y51.724 Z-2.709
X73.747 Y51.553 Z-2.715
X73.733 Y51.38 Z-2.721
X73.736 Y51.207 Z-2.727
X73.754 Y51.034 Z-2.733
X73.787 Y50.864 Z-2.739
X73.836 Y50.698 Z-2.745
X73.9 Y50.537 Z-2.751
X73.979 Y50.383 Z-2.757
X74.071 Y50.236 Z-2.763
X74.176 Y50.098 Z-2.769
X74.293 Y49.97 Z-2.775
X74.422 Y49.854 Z-2.781
X74.56 Y49.75 Z-2.787
X74.708 Y49.659 Z-2.794
X74.863 Y49.581 Z-2.8
X75.024 Y49.518 Z-2.806
X75.191 Y49.47 Z-2.812
X75.361 Y49.438 Z-2.818
X75.534 Y49.421 Z-2.824
X75.707 Y49.42 Z-2.83
X75.88 Y49.435 Z-2.836
X76.05 Y49.465 Z-2.842
X76.218 Y49.511 Z-2.848
X76.38 Y49.572 Z-2.854
X76.536 Y49.647 Z-2.86
X76.684 Y49.736 Z-2.866
X76.824 Y49.839 Z-2.872
X76.954 Y49.953 Z-2.878
X77.073 Y50.08 Z-2.884
X77.18 Y50.216 Z-2.89
X77.274 Y50.362 Z-2.896
X77.354 Y50.515 Z-2.903
X77.42 Y50.675 Z-2.909
X77.471 Y50.841 Z-2.915
X77.507 Y51.011 Z-2.921
X77.528 Y51.183 Z-2.927
X77.532 Y51.356 Z-2.933
X77.521 Y51.529 Z-2.939
X77.494 Y51.7 Z-2.945
X77.451 Y51.868 Z-2.951
X77.393 Y52.032 Z-2.957
X77.321 Y52.189 Z-2.963
X77.235 Y52.339 Z-2.969
X77.135 Y52.481 Z-2.975
X77.023 Y52.613 Z-2.981
X76.899 Y52.735 Z-2.987
X76.765 Y52.844 Z-2.993
X76.621 Y52.941 Z-2.999
X76.469 Y53.024 Z-3.005
X76.31 Y53.093 Z-3.012
X76.146 Y53.148 Z-3.018
X75.977 Y53.187 Z-3.024
X75.805 Y53.211 Z-3.03
X75.632 Y53.218 Z-3.036
X75.459 Y53.21 Z-3.042
X75.287 Y53.187 Z-3.048
X75.118 Y53.147 Z-3.054
X74.954 Y53.093 Z-3.06
X74.795 Y53.024 Z-3.066
X74.643 Y52.94 Z-3.072
X74.499 Y52.843 Z-3.078
X74.365 Y52.734 Z-3.084
X74.241 Y52.612 Z-3.09
X74.129 Y52.48 Z-3.096
X74.029 Y52.338 Z-3.102
X73.943 Y52.188 Z-3.108
X73.871 Y52.031 Z-3.114
X73.813 Y51.867 Z-3.121
X73.771 Y51.699 Z-3.127
X73.744 Y51.528 Z-3.133
X73.733 Y51.355 Z-3.139
X73.737 Y51.182 Z-3.145
X73.758 Y51.009 Z-3.151
X73.794 Y50.84 Z-3.157
X73.845 Y50.674 Z-3.163
X73.911 Y50.514 Z-3.169
X73.992 Y50.361 Z-3.175
X74.086 Y50.215 Z-3.181
X74.193 Y50.079 Z-3.187
X74.312 Y49.953 Z-3.193
X74.442 Y49.838 Z-3.199
X74.581 Y49.736 Z-3.205
X74.73 Y49.646 Z-3.211
X74.886 Y49.571 Z-3.217
X75.048 Y49.51 Z-3.223
X75.216 Y49.465 Z-3.229
X75.386 Y49.434 Z-3.236
X75.559 Y49.42 Z-3.242
X75.732 Y49.421 Z-3.248
X75.905 Y49.438 Z-3.254
X76.075 Y49.471 Z-3.26
X76.242 Y49.519 Z-3.266
X76.403 Y49.582 Z-3.272
X76.558 Y49.659 Z-3.278
X76.705 Y49.75 Z-3.284
X76.844 Y49.855 Z-3.29
X76.972 Y49.971 Z-3.296
X77.089 Y50.099 Z-3.302
X77.194 Y50.237 Z-3.308
X77.287 Y50.384 Z-3.314
X77.365 Y50.538 Z-3.32
X77.429 Y50.699 Z-3.326
X77.478 Y50.866 Z-3.332
X77.511 Y51.036 Z-3.338
X77.529 Y51.208 Z-3.345
X77.531 Y51.381 Z-3.351
X77.518 Y51.554 Z-3.357
X77.488 Y51.725 Z-3.363
X77.444 Y51.892 Z-3.369
X77.384 Y52.055 Z-3.375
X77.309 Y52.212 Z-3.381
X77.221 Y52.361 Z-3.387
X77.119 Y52.501 Z-3.393
X77.005 Y52.632 Z-3.399
X76.88 Y52.751 Z-3.405
X76.744 Y52.859 Z-3.411
X76.599 Y52.954 Z-3.417
X76.446 Y53.035 Z-3.423
X76.286 Y53.102 Z-3.429
X76.121 Y53.154 Z-3.435
X75.952 Y53.191 Z-3.441
X75.78 Y53.213 Z-3.447
X75.606 Y53.218 Z-3.454
X75.433 Y53.208 Z-3.46
X75.262 Y53.182 Z-3.466
X75.094 Y53.14 Z-3.472
X74.93 Y53.084 Z-3.478
X74.772 Y53.012 Z-3.484
X74.621 Y52.927 Z-3.49
X74.479 Y52.828 Z-3.496
X74.346 Y52.717 Z-3.502
X74.224 Y52.594 Z-3.508
G3 X74.336 Y50.333 R1.6
X76.597 Y50.445 R1.6
G1 X76.664 Y50.52
G3 X76.661 Y51.087 R0.42
G1 X76.511 Y51.249
G3 X76.2 Y51.384 R0.42
X75.89 Y51.245 R0.42
G1 X75.812 Y51.159
X75.745 Y51.085
G3 X75.74 Y50.514 R0.42
G1 X75.889 Y50.35
G3 X76.201 Y50.213 R0.42
X76.511 Y50.351 R0.42
G1 X76.597 Y50.445
G2 X78.022 Y50.831 R1.367
G3 X78.962 Y51.318 R0.748
X78.69 Y52.149 R0.748
G1 X78.607 Y52.209
X78.532 Y52.27
X78.463 Y52.338
X77.97 Y52.871
X77.961 Y52.881
X77.063 Y53.881
X76.998 Y53.962
X76.907 Y54.087
X76.85 Y54.176
X76.202 Y55.304
X75.549 Y54.174
X75.498 Y54.095
X75.409 Y53.97
X75.338 Y53.881
X74.188 Y52.601
X74.172 Y52.583
X73.965 Y52.364
X73.875 Y52.279
X73.727 Y52.157
X73.676 Y52.117
X72.136 Y51.004
X72.053 Y50.951
X71.943 Y50.886
X71.846 Y50.837
X71.763 Y50.8
X71.846 Y50.763
X71.91 Y50.732
X71.971 Y50.697
X72.192 Y50.558
X72.249 Y50.519
X73.752 Y49.425
X73.832 Y49.36
X73.906 Y49.294
X73.976 Y49.224
X74.684 Y48.449
X74.69 Y48.442
X75.339 Y47.718
X75.409 Y47.63
X75.498 Y47.505
X75.549 Y47.426
X76.201 Y46.297
X76.894 Y47.491
X76.947 Y47.573
X77.009 Y47.65
X77.505 Y48.212
X77.513 Y48.222
X78.419 Y49.222
X78.482 Y49.286
X78.551 Y49.344
X78.848 Y49.572
X78.87 Y49.588
X80.263 Y50.597
X80.316 Y50.633
X80.372 Y50.666
X80.482 Y50.726
X80.554 Y50.761
X80.644 Y50.801
X80.496 Y50.868
X80.423 Y50.904
X80.354 Y50.946
X80.189 Y51.055
X80.15 Y51.082
X78.69 Y52.149
X78.653 Y52.17
X78.612 Y52.183
X78.569 Y52.187
X78.527 Y52.182
X74.012 Y51.134
X73.967 Y51.118
X73.928 Y51.092
X73.896 Y51.058
X73.872 Y51.017
X73.812 Y50.854 Z-3.514
X73.767 Y50.686 Z-3.52
X73.738 Y50.515 Z-3.526
X73.724 Y50.341 Z-3.532
X73.726 Y50.168 Z-3.538
X73.744 Y49.995 Z-3.544
X73.778 Y49.824 Z-3.551
X73.827 Y49.657 Z-3.557
X73.891 Y49.496 Z-3.563
X73.97 Y49.341 Z-3.569
X74.063 Y49.194 Z-3.575
X74.169 Y49.056 Z-3.581
X74.286 Y48.928 Z-3.587
X74.415 Y48.811 Z-3.593
X74.555 Y48.707 Z-3.599
X74.703 Y48.616 Z-3.605
X74.859 Y48.539 Z-3.611
X75.021 Y48.476 Z-3.617
X75.188 Y48.429 Z-3.623
X75.359 Y48.397 Z-3.629
X75.532 Y48.38 Z-3.636
X75.706 Z-3.642
X75.879 Y48.396 Z-3.648
X76.05 Y48.427 Z-3.654
X76.218 Y48.474 Z-3.66
X76.38 Y48.536 Z-3.666
X76.536 Y48.612 Z-3.672
X76.685 Y48.703 Z-3.678
X76.824 Y48.806 Z-3.684
X76.954 Y48.922 Z-3.69
X77.072 Y49.05 Z-3.696
X77.178 Y49.187 Z-3.702
X77.272 Y49.334 Z-3.708
X77.351 Y49.489 Z-3.715
X77.416 Y49.65 Z-3.721
X77.466 Y49.817 Z-3.727
X77.5 Y49.987 Z-3.733
X77.519 Y50.16 Z-3.739
X77.522 Y50.334 Z-3.745
X77.509 Y50.507 Z-3.751
X77.48 Y50.679 Z-3.757
X77.436 Y50.847 Z-3.763
X77.376 Y51.01 Z-3.769
X77.302 Y51.167 Z-3.775
X77.214 Y51.317 Z-3.781
X77.112 Y51.458 Z-3.787
X76.998 Y51.589 Z-3.793
X76.872 Y51.71 Z-3.8
X76.736 Y51.818 Z-3.806
X76.591 Y51.913 Z-3.812
X76.437 Y51.995 Z-3.818
X76.277 Y52.062 Z-3.824
X76.111 Y52.114 Z-3.83
X75.941 Y52.151 Z-3.836
X75.769 Y52.173 Z-3.842
X75.595 Y52.178 Z-3.848
X75.421 Y52.167 Z-3.854
X75.249 Y52.141 Z-3.86
X75.081 Y52.099 Z-3.866
X74.917 Y52.042 Z-3.872
X74.758 Y51.97 Z-3.879
X74.607 Y51.884 Z-3.885
X74.465 Y51.784 Z-3.891
X74.332 Y51.672 Z-3.897
X74.21 Y51.548 Z-3.903
X74.1 Y51.414 Z-3.909
X74.002 Y51.27 Z-3.915
X73.918 Y51.117 Z-3.921
X73.849 Y50.958 Z-3.927
X73.794 Y50.793 Z-3.933
X73.755 Y50.624 Z-3.939
X73.731 Y50.451 Z-3.945
X73.723 Y50.278 Z-3.951
X73.731 Y50.104 Z-3.957
X73.755 Y49.932 Z-3.964
X73.794 Y49.763 Z-3.97
X73.849 Y49.598 Z-3.976
X73.919 Y49.438 Z-3.982
X74.003 Y49.286 Z-3.988
X74.1 Y49.142 Z-3.994
X74.21 Y49.007 Z-4.
G3 X76.465 Y48.888 R1.596
X76.584 Y51.143 R1.596
G1 X76.516 Y51.218
G3 X76.203 Y51.357 R0.42
X75.891 Y51.218 R0.42
G1 X75.803 Y51.12
X75.771 Y51.086
G3 Y50.514 R0.42
G1 X75.803 Y50.48
X75.89 Y50.383
G3 X76.202 Y50.243 R0.42
X76.515 Y50.382 R0.42
G1 X76.638 Y50.518
G3 X76.639 Y51.082 R0.42
G1 X76.584 Y51.143
G2 X76.31 Y53.155 R1.806
G3 X76.248 Y55.185 R2.148
G1 X76.201 Y55.266
X75.566 Y54.172
X75.513 Y54.09
X75.388 Y53.917
X75.32 Y53.832
X74.188 Y52.572
X74.154 Y52.537
X73.89 Y52.271
X73.832 Y52.217
X73.77 Y52.168
X72.266 Y51.07
X72.203 Y51.028
X71.966 Y50.881
X71.907 Y50.847
X71.845 Y50.817
X71.807 Y50.8
X71.845 Y50.783
X71.907 Y50.753
X71.966 Y50.719
X72.203 Y50.572
X72.266 Y50.53
X73.77 Y49.432
X73.832 Y49.383
X73.89 Y49.329
X74.154 Y49.063
X74.188 Y49.028
X75.32 Y47.768
X75.388 Y47.683
X75.513 Y47.51
X75.567 Y47.426
X76.2 Y46.33
X76.873 Y47.49
X76.921 Y47.565
X76.975 Y47.636
X77.191 Y47.89
X77.212 Y47.913
X78.393 Y49.221
X78.455 Y49.284
X78.522 Y49.341
X78.844 Y49.59
X78.871 Y49.61
X80.256 Y50.613
X80.314 Y50.652
X80.375 Y50.687
X80.492 Y50.749
X80.554 Y50.779
X80.601 Y50.8
X80.552 Y50.822
X80.492 Y50.851
X80.375 Y50.913
X80.313 Y50.949
X80.254 Y50.989
X78.627 Y52.172
X78.566 Y52.22
X78.486 Y52.289
X78.437 Y52.333
X78.392 Y52.381
X77.043 Y53.88
X76.973 Y53.966
X76.884 Y54.091
X76.83 Y54.175
X76.248 Y55.185
X76.224 Y55.226 Z-3.997
X76.201 Y55.266 Z-3.989
X76.165 Y55.204 Z-3.964
X76.132 Y55.147 Z-3.926
X76.103 Y55.097 Z-3.876
X76.079 Y55.056 Z-3.817
X76.062 Y55.026 Z-3.749
X76.051 Y55.007 Z-3.676
X76.047 Y55.001 Z-3.6
G0 Z5.
X71.262 Y40.689
Z-2.067
G1 X71.265 Y40.707 Z-2.188 F1500.
X71.274 Y40.761 Z-2.297
X71.285 Y40.845 Z-2.385
X71.294 Y40.952 Z-2.444
X71.296 Y41.072 Z-2.467
X71.286 Y41.245 Z-2.473
X71.26 Y41.417 Z-2.479
X71.219 Y41.585 Z-2.485
X71.163 Y41.749 Z-2.491
X71.092 Y41.907 Z-2.497
X71.006 Y42.058 Z-2.503
X70.908 Y42.201 Z-2.509
X70.797 Y42.334 Z-2.515
X70.674 Y42.456 Z-2.521
X70.54 Y42.566 Z-2.527
X70.397 Y42.664 Z-2.533
X70.246 Y42.749 Z-2.539
X70.087 Y42.819 Z-2.545
X69.923 Y42.875 Z-2.551
X69.755 Y42.915 Z-2.557
X69.583 Y42.94 Z-2.563
X69.41 Y42.949 Z-2.57
X69.237 Y42.942 Z-2.576
X69.065 Y42.92 Z-2.582
X68.896 Y42.882 Z-2.588
X68.731 Y42.829 Z-2.594
X68.572 Y42.761 Z-2.6
X68.419 Y42.678 Z-2.606
X68.275 Y42.583 Z-2.612
X68.14 Y42.474 Z-2.618
X68.015 Y42.354 Z-2.624
X67.902 Y42.222 Z-2.63
X67.801 Y42.081 Z-2.636
X67.714 Y41.931 Z-2.642
X67.64 Y41.774 Z-2.648
X67.582 Y41.611 Z-2.654
X67.538 Y41.444 Z-2.66
X67.51 Y41.273 Z-2.666
X67.497 Y41.1 Z-2.672
X67.5 Y40.927 Z-2.679
X67.519 Y40.754 Z-2.685
X67.554 Y40.584 Z-2.691
X67.604 Y40.418 Z-2.697
X67.669 Y40.258 Z-2.703
X67.748 Y40.104 Z-2.709
X67.841 Y39.957 Z-2.715
X67.947 Y39.82 Z-2.721
X68.065 Y39.693 Z-2.727
X68.194 Y39.578 Z-2.733
X68.334 Y39.474 Z-2.739
X68.481 Y39.384 Z-2.745
X68.637 Y39.307 Z-2.751
X68.799 Y39.246 Z-2.757
X68.966 Y39.199 Z-2.763
X69.136 Y39.167 Z-2.769
X69.309 Y39.151 Z-2.775
X69.482 Z-2.781
X69.655 Y39.167 Z-2.787
X69.825 Y39.198 Z-2.794
X69.992 Y39.245 Z-2.8
X70.154 Y39.307 Z-2.806
X70.31 Y39.383 Z-2.812
X70.458 Y39.473 Z-2.818
X70.597 Y39.576 Z-2.824
X70.726 Y39.692 Z-2.83
X70.844 Y39.819 Z-2.836
X70.95 Y39.956 Z-2.842
X71.043 Y40.102 Z-2.848
X71.123 Y40.256 Z-2.854
X71.188 Y40.417 Z-2.86
X71.238 Y40.582 Z-2.866
X71.273 Y40.752 Z-2.872
X71.292 Y40.925 Z-2.878
X71.296 Y41.098 Z-2.884
X71.283 Y41.271 Z-2.89
X71.255 Y41.442 Z-2.896
X71.212 Y41.609 Z-2.903
X71.153 Y41.773 Z-2.909
X71.08 Y41.93 Z-2.915
X70.993 Y42.079 Z-2.921
X70.892 Y42.221 Z-2.927
X70.779 Y42.352 Z-2.933
X70.655 Y42.473 Z-2.939
X70.52 Y42.581 Z-2.945
X70.376 Y42.677 Z-2.951
X70.223 Y42.76 Z-2.957
X70.064 Y42.828 Z-2.963
X69.899 Y42.881 Z-2.969
X69.73 Y42.92 Z-2.975
X69.558 Y42.942 Z-2.981
X69.385 Y42.949 Z-2.987
X69.212 Y42.94 Z-2.993
X69.04 Y42.915 Z-2.999
X68.872 Y42.875 Z-3.005
X68.707 Y42.82 Z-3.012
X68.549 Y42.75 Z-3.018
X68.397 Y42.665 Z-3.024
X68.254 Y42.568 Z-3.03
X68.121 Y42.457 Z-3.036
X67.998 Y42.335 Z-3.042
X67.886 Y42.202 Z-3.048
X67.788 Y42.06 Z-3.054
X67.702 Y41.909 Z-3.06
X67.631 Y41.751 Z-3.066
X67.574 Y41.587 Z-3.072
X67.533 Y41.419 Z-3.078
X67.507 Y41.247 Z-3.084
X67.497 Y41.074 Z-3.09
X67.502 Y40.901 Z-3.096
X67.524 Y40.729 Z-3.102
X67.56 Y40.56 Z-3.108
X67.613 Y40.395 Z-3.114
X67.68 Y40.235 Z-3.121
X67.761 Y40.082 Z-3.127
X67.856 Y39.937 Z-3.133
X67.964 Y39.801 Z-3.139
X68.084 Y39.676 Z-3.145
X68.214 Y39.562 Z-3.151
X68.355 Y39.46 Z-3.157
X68.504 Y39.372 Z-3.163
X68.66 Y39.298 Z-3.169
X68.823 Y39.238 Z-3.175
X68.99 Y39.193 Z-3.181
X69.161 Y39.164 Z-3.187
X69.334 Y39.15 Z-3.193
X69.507 Y39.152 Z-3.199
X69.68 Y39.17 Z-3.205
X69.85 Y39.204 Z-3.211
X70.016 Y39.253 Z-3.217
X70.177 Y39.317 Z-3.223
X70.332 Y39.395 Z-3.229
X70.479 Y39.487 Z-3.236
X70.616 Y39.593 Z-3.242
X70.744 Y39.71 Z-3.248
X70.861 Y39.838 Z-3.254
X70.965 Y39.977 Z-3.26
X71.056 Y40.124 Z-3.266
X71.133 Y40.279 Z-3.272
X71.196 Y40.441 Z-3.278
X71.244 Y40.607 Z-3.284
X71.277 Y40.777 Z-3.29
X71.294 Y40.95 Z-3.296
X71.295 Y41.123 Z-3.302
X71.28 Y41.296 Z-3.308
X71.25 Y41.466 Z-3.314
X71.204 Y41.634 Z-3.32
X71.143 Y41.796 Z-3.326
X71.068 Y41.952 Z-3.332
X70.979 Y42.101 Z-3.338
X70.877 Y42.24 Z-3.345
X70.762 Y42.37 Z-3.351
X70.636 Y42.489 Z-3.357
X70.499 Y42.596 Z-3.363
X70.354 Y42.69 Z-3.369
X70.2 Y42.771 Z-3.375
X70.04 Y42.837 Z-3.381
X69.874 Y42.888 Z-3.387
X69.705 Y42.924 Z-3.393
X69.533 Y42.944 Z-3.399
X69.359 Y42.949 Z-3.405
X69.186 Y42.937 Z-3.411
X69.015 Y42.91 Z-3.417
X68.847 Y42.868 Z-3.423
X68.684 Y42.81 Z-3.429
X68.526 Y42.738 Z-3.435
X68.376 Y42.652 Z-3.441
X68.234 Y42.552 Z-3.447
X68.102 Y42.44 Z-3.454
X67.981 Y42.316 Z-3.46
X67.871 Y42.182 Z-3.466
X67.774 Y42.038 Z-3.472
X67.691 Y41.886 Z-3.478
X67.622 Y41.727 Z-3.484
X67.567 Y41.563 Z-3.49
X67.528 Y41.394 Z-3.496
X67.504 Y41.222 Z-3.502
X67.496 Y41.049 Z-3.508
G3 X67.649 Y40.897 R0.153
X67.801 Y41.049 R0.153
X66.449 Y42.402 R1.353
X65.096 Y41.049 R1.353
X67.649 Y38.497 R2.553
X70.201 Y41.049 R2.553
X66.449 Y44.802 R3.753
X62.696 Y41.049 R3.753
X66.449 Y37.297 R3.753
X70.201 Y41.049 R3.753
G2 X71.151 Y42.557 R1.673
G3 X71.691 Y44.091 R1.149
X71.569 Y44.29 R1.149
G1 X70.855 Y45.228
X69.856 Y46.076
X69.811 Y46.103
X68.703 Y46.687
X67.447 Y47.037
X67.231 Y47.053
X66.11 Y47.11
X64.819 Y46.897
X63.632 Y46.427
X63.474 Y46.324
X62.516 Y45.674
X61.626 Y44.735
X60.935 Y43.586
X60.518 Y42.337
X60.378 Y41.052
X60.408 Y40.771
X60.518 Y39.767
X60.939 Y38.501
X61.624 Y37.367
X62.515 Y36.427
X63.613 Y35.681
X64.819 Y35.203
X66.11 Y34.99
X67.429 Y35.058
X67.445 Y35.062
X68.707 Y35.415
X69.847 Y36.017
X70.856 Y36.873
X71.651 Y37.919
X72.206 Y39.123
X72.482 Y40.377
X72.481 Y41.725
X72.205 Y42.981
X71.655 Y44.174
X71.633 Y44.205
X71.569 Y44.29
G3 X71.428 Y44.368 R0.2
X71.275 Y44.317 R0.2
G1 X70.436 Y43.555
X70.399 Y43.528
X68.87 Y42.684
X68.848 Y42.677
X68.824
X68.802 Y42.686
X68.67 Y42.767
X68.649 Y42.775
X68.627 Y42.776
X68.606 Y42.77
X68.452 Y42.689 Z-3.514
X68.306 Y42.594 Z-3.52
X68.169 Y42.487 Z-3.526
X68.043 Y42.367 Z-3.532
X67.929 Y42.236 Z-3.538
X67.826 Y42.096 Z-3.544
X67.737 Y41.946 Z-3.551
X67.662 Y41.789 Z-3.557
X67.602 Y41.626 Z-3.563
X67.557 Y41.458 Z-3.569
X67.528 Y41.287 Z-3.575
X67.514 Y41.114 Z-3.581
X67.516 Y40.94 Z-3.587
X67.534 Y40.767 Z-3.593
X67.568 Y40.596 Z-3.599
X67.617 Y40.43 Z-3.605
X67.681 Y40.268 Z-3.611
X67.76 Y40.113 Z-3.617
X67.852 Y39.966 Z-3.623
X67.958 Y39.828 Z-3.629
X68.076 Y39.7 Z-3.636
X68.205 Y39.583 Z-3.642
X68.344 Y39.479 Z-3.648
X68.492 Y39.388 Z-3.654
X68.648 Y39.311 Z-3.66
X68.81 Y39.248 Z-3.666
X68.977 Y39.201 Z-3.672
X69.148 Y39.169 Z-3.678
X69.321 Y39.152 Z-3.684
X69.495 Z-3.69
X69.668 Y39.167 Z-3.696
X69.84 Y39.199 Z-3.702
X70.007 Y39.245 Z-3.708
X70.169 Y39.307 Z-3.715
X70.326 Y39.384 Z-3.721
X70.474 Y39.474 Z-3.727
X70.614 Y39.578 Z-3.733
X70.743 Y39.694 Z-3.739
X70.862 Y39.821 Z-3.745
X70.968 Y39.959 Z-3.751
X71.061 Y40.106 Z-3.757
X71.141 Y40.26 Z-3.763
X71.206 Y40.421 Z-3.769
X71.256 Y40.588 Z-3.775
X71.29 Y40.758 Z-3.781
X71.309 Y40.931 Z-3.787
X71.312 Y41.105 Z-3.793
X71.299 Y41.279 Z-3.8
X71.27 Y41.45 Z-3.806
X71.226 Y41.618 Z-3.812
X71.166 Y41.782 Z-3.818
X71.092 Y41.939 Z-3.824
X71.004 Y42.089 Z-3.83
X70.902 Y42.23 Z-3.836
X70.788 Y42.361 Z-3.842
X70.662 Y42.481 Z-3.848
X70.526 Y42.589 Z-3.854
X70.381 Y42.685 Z-3.86
X70.227 Y42.766 Z-3.866
X70.067 Y42.834 Z-3.872
X69.901 Y42.886 Z-3.879
X69.731 Y42.923 Z-3.885
X69.559 Y42.944 Z-3.891
X69.385 Y42.95 Z-3.897
X69.212 Y42.939 Z-3.903
X69.04 Y42.913 Z-3.909
X68.871 Y42.871 Z-3.915
X68.707 Y42.814 Z-3.921
X68.548 Y42.742 Z-3.927
X68.397 Y42.656 Z-3.933
X68.255 Y42.556 Z-3.939
X68.122 Y42.444 Z-3.945
X68. Y42.32 Z-3.951
X67.89 Y42.186 Z-3.957
X67.792 Y42.042 Z-3.964
X67.708 Y41.89 Z-3.97
X67.639 Y41.73 Z-3.976
X67.584 Y41.565 Z-3.982
X67.544 Y41.396 Z-3.988
X67.521 Y41.224 Z-3.994
X67.513 Y41.05 Z-4.
G3 X67.649 Y40.914 R0.136
X67.785 Y41.05 R0.136
X66.449 Y42.386 R1.336
X65.113 Y41.05 R1.336
X67.649 Y38.514 R2.536
X70.185 Y41.05 R2.536
X66.449 Y44.786 R3.736
X62.713 Y41.05 R3.736
X66.449 Y37.314 R3.736
X70.185 Y41.05 R3.736
G2 X71.133 Y42.558 R1.673
G3 X71.67 Y44.092 R1.15
X71.549 Y44.289 R1.15
G1 X70.847 Y45.213
X69.834 Y46.074
X68.977 Y46.53
X68.688 Y46.675
X68.167 Y46.824
X67.401 Y47.027
X66.108 Y47.093
X64.858 Y46.891
X64.772 Y46.861
X63.642 Y46.415
X62.518 Y45.654
X61.632 Y44.718
X60.949 Y43.58
X60.533 Y42.337
X60.394 Y41.051
X60.408 Y40.913
X60.533 Y39.768
X60.948 Y38.524
X61.631 Y37.383
X62.518 Y36.447
X63.641 Y35.685
X64.843 Y35.213
X64.864 Y35.208
X66.108 Y35.007
X67.401 Y35.073
X68.171 Y35.277
X68.651 Y35.41
X68.74 Y35.451
X69.829 Y36.022
X70.848 Y36.889
X71.624 Y37.909
X71.891 Y38.475
X72.189 Y39.123
X72.465 Y40.377
Y41.724
X72.188 Y42.981
X71.64 Y44.168
X71.628 Y44.186
X71.549 Y44.289
G3 X71.412 Y44.367 R0.2
X71.26 Y44.321 R0.2
G1 X69.831 Y43.106
X69.807 Y43.088
X69.333 Y42.793
X69.307 Y42.782
X69.278 Y42.78
X69.25 Y42.788
X69.226 Y42.804
X69.135 Y42.89
X69.112 Y42.906
X69.085 Y42.914
X69.057 Y42.913
X68.889 Y42.871 Z-4.006
X68.725 Y42.814 Z-4.012
X68.567 Y42.743 Z-4.018
X68.417 Y42.657 Z-4.024
X68.275 Y42.559 Z-4.03
X68.142 Y42.447 Z-4.036
X68.02 Y42.324 Z-4.042
X67.91 Y42.191 Z-4.048
X67.813 Y42.048 Z-4.054
X67.729 Y41.896 Z-4.06
X67.659 Y41.738 Z-4.067
X67.603 Y41.574 Z-4.073
X67.563 Y41.406 Z-4.079
X67.539 Y41.234 Z-4.085
X67.53 Y41.061 Z-4.091
X67.537 Y40.888 Z-4.097
X67.559 Y40.717 Z-4.103
X67.597 Y40.548 Z-4.109
X67.651 Y40.383 Z-4.115
X67.719 Y40.224 Z-4.121
X67.801 Y40.072 Z-4.127
X67.897 Y39.927 Z-4.133
X68.005 Y39.792 Z-4.139
X68.126 Y39.668 Z-4.145
X68.257 Y39.555 Z-4.151
X68.398 Y39.455 Z-4.157
X68.547 Y39.367 Z-4.163
X68.704 Y39.294 Z-4.169
X68.867 Y39.235 Z-4.175
X69.034 Y39.191 Z-4.181
X69.205 Y39.163 Z-4.187
X69.378 Y39.151 Z-4.194
X69.551 Y39.154 Z-4.2
X69.723 Y39.173 Z-4.206
X69.893 Y39.207 Z-4.212
X70.058 Y39.257 Z-4.218
X70.219 Y39.322 Z-4.224
X70.373 Y39.401 Z-4.23
X70.519 Y39.493 Z-4.236
X70.656 Y39.599 Z-4.242
X70.783 Y39.717 Z-4.248
X70.899 Y39.845 Z-4.254
X71.003 Y39.984 Z-4.26
X71.093 Y40.132 Z-4.266
X71.17 Y40.287 Z-4.272
X71.232 Y40.448 Z-4.278
X71.279 Y40.615 Z-4.284
X71.311 Y40.785 Z-4.29
X71.327 Y40.958 Z-4.296
X71.328 Y41.131 Z-4.302
X71.313 Y41.303 Z-4.308
X71.282 Y41.473 Z-4.314
X71.236 Y41.64 Z-4.321
X71.174 Y41.802 Z-4.327
X71.099 Y41.958 Z-4.333
X71.009 Y42.106 Z-4.339
X70.906 Y42.245 Z-4.345
X70.791 Y42.375 Z-4.351
X70.665 Y42.493 Z-4.357
X70.529 Y42.6 Z-4.363
X70.383 Y42.693 Z-4.369
X70.229 Y42.773 Z-4.375
X70.069 Y42.839 Z-4.381
X69.904 Y42.89 Z-4.387
X69.734 Y42.925 Z-4.393
X69.562 Y42.945 Z-4.399
X69.389 Y42.949 Z-4.405
X69.217 Y42.938 Z-4.411
X69.046 Y42.911 Z-4.417
X68.878 Y42.868 Z-4.423
X68.715 Y42.81 Z-4.429
X68.557 Y42.738 Z-4.435
X68.407 Y42.651 Z-4.441
X68.266 Y42.552 Z-4.448
X68.134 Y42.439 Z-4.454
X68.013 Y42.316 Z-4.46
X67.903 Y42.181 Z-4.466
X67.807 Y42.038 Z-4.472
X67.724 Y41.886 Z-4.478
X67.655 Y41.727 Z-4.484
X67.6 Y41.563 Z-4.49
X67.561 Y41.394 Z-4.496
X67.538 Y41.223 Z-4.502
X67.53 Y41.05 Z-4.508
X67.537 Y41.009
X67.558 Y40.973
X67.59 Y40.946
X67.629 Y40.932
X67.67
X67.709 Y40.946
X67.741 Y40.973
X67.762 Y41.009
X67.769 Y41.05
G3 X66.449 Y42.37 R1.32
X65.13 Y41.05 R1.32
X67.649 Y38.53 R2.52
X70.169 Y41.05 R2.52
X66.449 Y44.77 R3.72
X62.73 Y41.05 R3.72
X66.449 Y37.33 R3.72
X70.169 Y41.05 R3.72
G2 X71.113 Y42.558 R1.677
G3 X71.645 Y44.096 R1.151
X71.527 Y44.289 R1.151
G1 X70.838 Y45.197
X69.824 Y46.061
X69.629 Y46.168
X68.635 Y46.678
X67.4 Y47.011
X66.108 Y47.075
X64.872 Y46.876
X64.193 Y46.619
X63.645 Y46.4
X62.524 Y45.635
X61.642 Y44.701
X60.966 Y43.573
X60.552 Y42.337
X60.412 Y41.037
X60.551 Y39.768
X60.964 Y38.531
X61.641 Y37.4
X62.523 Y36.466
X63.645 Y35.7
X64.285 Y35.444
X64.871 Y35.224
X66.108 Y35.025
X67.4 Y35.089
X68.63 Y35.421
X68.982 Y35.595
X69.793 Y36.02
X70.84 Y36.906
X71.616 Y37.928
X72.171 Y39.124
X72.451 Y40.401
Y41.699
X72.169 Y42.98
X71.615 Y44.173
X71.527 Y44.289
G3 X71.388 Y44.367 R0.2
X71.236 Y44.319 R0.2
G1 X69.94 Y43.191
X69.915 Y43.172
X69.328 Y42.802
X69.294 Y42.789
X69.259 Y42.793
X69.228 Y42.811
X69.145 Y42.89
X69.123 Y42.905
X69.098 Y42.912
X69.072 Y42.911
X68.904 Y42.869 Z-4.514
X68.741 Y42.813 Z-4.52
X68.583 Y42.741 Z-4.526
X68.433 Y42.656 Z-4.532
X68.291 Y42.557 Z-4.538
X68.158 Y42.445 Z-4.544
X68.036 Y42.322 Z-4.55
X67.926 Y42.189 Z-4.556
X67.828 Y42.046 Z-4.562
X67.744 Y41.895 Z-4.568
X67.674 Y41.736 Z-4.575
X67.619 Y41.572 Z-4.581
X67.579 Y41.404 Z-4.587
X67.554 Y41.232 Z-4.593
X67.545 Y41.06 Z-4.599
X67.552 Y40.887 Z-4.605
X67.575 Y40.715 Z-4.611
X67.613 Y40.546 Z-4.617
X67.666 Y40.381 Z-4.623
X67.734 Y40.222 Z-4.629
X67.817 Y40.07 Z-4.635
X67.912 Y39.926 Z-4.641
X68.021 Y39.791 Z-4.647
X68.141 Y39.666 Z-4.653
X68.272 Y39.553 Z-4.659
X68.413 Y39.453 Z-4.665
X68.563 Y39.365 Z-4.671
X68.72 Y39.292 Z-4.677
X68.882 Y39.233 Z-4.683
X69.05 Y39.19 Z-4.689
X69.221 Y39.161 Z-4.695
X69.393 Y39.149 Z-4.702
X69.567 Y39.152 Z-4.708
X69.739 Y39.171 Z-4.714
X69.908 Y39.205 Z-4.72
X70.074 Y39.255 Z-4.726
X70.235 Y39.32 Z-4.732
X70.389 Y39.399 Z-4.738
X70.535 Y39.492 Z-4.744
X70.672 Y39.597 Z-4.75
X70.799 Y39.715 Z-4.756
X70.915 Y39.844 Z-4.762
X71.018 Y39.982 Z-4.768
X71.109 Y40.13 Z-4.774
X71.185 Y40.285 Z-4.78
X71.248 Y40.447 Z-4.786
X71.295 Y40.613 Z-4.792
X71.327 Y40.783 Z-4.798
X71.343 Y40.956 Z-4.804
X71.344 Y41.129 Z-4.81
X71.328 Y41.301 Z-4.816
X71.297 Y41.472 Z-4.822
X71.251 Y41.639 Z-4.829
X71.19 Y41.8 Z-4.835
X71.114 Y41.956 Z-4.841
X71.025 Y42.104 Z-4.847
X70.922 Y42.244 Z-4.853
X70.807 Y42.373 Z-4.859
X70.681 Y42.492 Z-4.865
X70.544 Y42.598 Z-4.871
X70.399 Y42.692 Z-4.877
X70.245 Y42.772 Z-4.883
X70.085 Y42.837 Z-4.889
X69.919 Y42.888 Z-4.895
X69.75 Y42.923 Z-4.901
X69.578 Y42.943 Z-4.907
X69.405 Y42.948 Z-4.913
X69.232 Y42.936 Z-4.919
X69.061 Y42.909 Z-4.925
X68.893 Y42.866 Z-4.931
X68.73 Y42.808 Z-4.937
X68.573 Y42.736 Z-4.943
X68.423 Y42.65 Z-4.949
X68.281 Y42.55 Z-4.956
X68.15 Y42.438 Z-4.962
X68.028 Y42.314 Z-4.968
X67.919 Y42.18 Z-4.974
X67.822 Y42.036 Z-4.98
X67.739 Y41.884 Z-4.986
X67.67 Y41.726 Z-4.992
X67.616 Y41.561 Z-4.998
X67.577 Y41.393 Z-5.004
X67.553 Y41.221 Z-5.01
X67.545 Y41.048 Z-5.016
X67.553 Y41.009
X67.575 Y40.976
X67.608 Y40.954
X67.647 Y40.946
X67.686 Y40.954
X67.72 Y40.976
X67.742 Y41.009
X67.749 Y41.048
G3 X66.447 Y42.35 R1.302
X65.145 Y41.048 R1.302
X67.647 Y38.546 R2.502
X70.149 Y41.048 R2.502
X66.447 Y44.75 R3.702
X62.745 Y41.048 R3.702
X66.447 Y37.346 R3.702
X70.149 Y41.048 R3.702
G2 X71.092 Y42.558 R1.68
G3 X71.621 Y44.099 R1.152
X71.504 Y44.289 R1.152
G1 X70.828 Y45.181
X69.802 Y46.057
X69.763 Y46.081
X68.983 Y46.482
X68.615 Y46.666
X67.399 Y46.993
X66.133 Y47.06
X64.875 Y46.858
X63.665 Y46.392
X62.526 Y45.614
X61.673 Y44.713
X61.645 Y44.678
X60.989 Y43.586
X60.977 Y43.559
X60.575 Y42.366
X60.561 Y42.285
X60.429 Y41.077
X60.432 Y41.
X60.572 Y39.757
X60.617 Y39.609
X60.862 Y38.882
X60.981 Y38.536
X61.257 Y38.066
X61.654 Y37.414
X61.817 Y37.235
X62.528 Y36.484
X62.986 Y36.165
X63.643 Y35.721
X64.286 Y35.464
X64.872 Y35.243
X66.13 Y35.04
X67.399 Y35.107
X68.615 Y35.434
X69.613 Y35.939
X69.779 Y36.03
X70.831 Y36.922
X71.608 Y37.949
X72.151 Y39.123
X72.433 Y40.411
Y41.693
X72.149 Y42.981
X71.608 Y44.152
X71.504 Y44.289
G3 X71.365 Y44.367 R0.2
X71.213 Y44.318 R0.2
G1 X69.906 Y43.169
X69.883 Y43.151
X69.346 Y42.804
X69.321 Y42.793
X69.294 Y42.791
X69.267 Y42.798
X69.245 Y42.813
X69.163 Y42.891
X69.141 Y42.906
X69.116 Y42.913
X69.09 Y42.912
X68.922 Y42.87 Z-5.022
X68.758 Y42.814 Z-5.028
X68.601 Y42.742 Z-5.034
X68.45 Y42.657 Z-5.04
X68.308 Y42.558 Z-5.046
X68.175 Y42.446 Z-5.052
X68.054 Y42.323 Z-5.058
X67.943 Y42.19 Z-5.064
X67.846 Y42.047 Z-5.07
X67.762 Y41.896 Z-5.076
X67.692 Y41.737 Z-5.083
X67.636 Y41.573 Z-5.089
X67.596 Y41.405 Z-5.095
X67.572 Y41.233 Z-5.101
X67.563 Y41.06 Z-5.107
X67.57 Y40.887 Z-5.113
X67.592 Y40.716 Z-5.119
X67.63 Y40.547 Z-5.125
X67.684 Y40.382 Z-5.131
X67.752 Y40.223 Z-5.137
X67.834 Y40.071 Z-5.143
X67.93 Y39.927 Z-5.149
X68.038 Y39.792 Z-5.155
X68.159 Y39.667 Z-5.161
X68.29 Y39.554 Z-5.167
X68.431 Y39.454 Z-5.173
X68.58 Y39.366 Z-5.179
X68.737 Y39.293 Z-5.185
X68.9 Y39.234 Z-5.191
X69.067 Y39.191 Z-5.197
X69.238 Y39.162 Z-5.203
X69.411 Y39.15 Z-5.21
X69.584 Y39.153 Z-5.216
X69.756 Y39.172 Z-5.222
X69.926 Y39.206 Z-5.228
X70.092 Y39.256 Z-5.234
X70.252 Y39.321 Z-5.24
X70.406 Y39.4 Z-5.246
X70.552 Y39.492 Z-5.252
X70.69 Y39.598 Z-5.258
X70.816 Y39.716 Z-5.264
X70.932 Y39.845 Z-5.27
X71.036 Y39.983 Z-5.276
X71.126 Y40.131 Z-5.282
X71.203 Y40.286 Z-5.288
X71.265 Y40.448 Z-5.294
X71.312 Y40.614 Z-5.3
X71.344 Y40.784 Z-5.306
X71.361 Y40.957 Z-5.312
Y41.13 Z-5.318
X71.346 Y41.302 Z-5.324
X71.315 Y41.473 Z-5.33
X71.269 Y41.639 Z-5.337
X71.207 Y41.801 Z-5.343
X71.132 Y41.957 Z-5.349
X71.042 Y42.105 Z-5.355
X70.939 Y42.245 Z-5.361
X70.824 Y42.374 Z-5.367
X70.698 Y42.493 Z-5.373
X70.562 Y42.599 Z-5.379
X70.416 Y42.693 Z-5.385
X70.263 Y42.773 Z-5.391
X70.102 Y42.838 Z-5.397
X69.937 Y42.889 Z-5.403
X69.767 Y42.924 Z-5.409
X69.595 Y42.944 Z-5.415
X69.422 Y42.949 Z-5.421
X69.25 Y42.937 Z-5.427
X69.079 Y42.91 Z-5.433
X68.911 Y42.867 Z-5.439
X68.748 Y42.809 Z-5.445
X68.59 Y42.737 Z-5.451
X68.44 Y42.651 Z-5.457
X68.299 Y42.551 Z-5.464
X68.167 Y42.439 Z-5.47
X68.046 Y42.315 Z-5.476
X67.937 Y42.181 Z-5.482
X67.84 Y42.037 Z-5.488
X67.757 Y41.885 Z-5.494
X67.688 Y41.727 Z-5.5
X67.633 Y41.562 Z-5.506
X67.594 Y41.393 Z-5.512
X67.571 Y41.222 Z-5.518
X67.563 Y41.049 Z-5.524
X67.569 Y41.016
X67.588 Y40.989
X67.615 Y40.97
X67.648 Y40.964
X67.68 Y40.97
X67.708 Y40.989
X67.726 Y41.016
X67.733 Y41.049
G3 X66.448 Y42.334 R1.285
X65.163 Y41.049 R1.285
X67.648 Y38.564 R2.485
X70.133 Y41.049 R2.485
X66.448 Y44.734 R3.685
X62.763 Y41.049 R3.685
X66.448 Y37.364 R3.685
X70.133 Y41.049 R3.685
G2 X71.073 Y42.557 R1.68
G3 X71.6 Y44.099 R1.152
X71.484 Y44.287 R1.152
G1 X70.817 Y45.167
X70.289 Y45.622
X69.792 Y46.044
X69.743 Y46.075
X68.578 Y46.661
X67.4 Y46.973
X66.148 Y47.042
X66.065 Y47.032
X64.922 Y46.852
X64.771 Y46.798
X63.675 Y46.378
X62.541 Y45.605
X62.534 Y45.599
X61.683 Y44.696
X61.64 Y44.638
X61.003 Y43.574
X60.99 Y43.546
X60.592 Y42.358
X60.576 Y42.276
X60.447 Y41.072
X60.449 Y40.992
X60.58 Y39.79
X60.601 Y39.708
X60.863 Y38.929
X60.988 Y38.557
X61.001 Y38.53
X61.664 Y37.43
X61.843 Y37.232
X62.538 Y36.498
X62.71 Y36.373
X63.656 Y35.732
X63.8 Y35.67
X64.904 Y35.251
X66.151 Y35.058
X67.4 Y35.127
X68.578 Y35.439
X69.743 Y36.025
X69.79 Y36.055
X70.778 Y36.894
X70.809 Y36.923
X71.593 Y37.958
X71.611 Y37.993
X72.132 Y39.123
X72.416 Y40.412
Y41.693
X72.13 Y42.981
X71.598 Y44.136
X71.484 Y44.287
G3 X71.346 Y44.365 R0.2
X71.195 Y44.318 R0.2
G1 X69.879 Y43.204
X69.853 Y43.185
X68.649 Y42.463
X68.626 Y42.453
X68.601 Y42.451
X68.576 Y42.457
X68.364 Y42.54
X68.336 Y42.546
X68.308 Y42.541
X68.283 Y42.528
X68.153 Y42.413 Z-5.53
X68.035 Y42.288 Z-5.536
X67.929 Y42.152 Z-5.542
X67.835 Y42.007 Z-5.548
X67.755 Y41.854 Z-5.554
X67.69 Y41.695 Z-5.56
X67.639 Y41.53 Z-5.566
X67.603 Y41.361 Z-5.572
X67.582 Y41.19 Z-5.578
X67.577 Y41.017 Z-5.584
X67.588 Y40.845 Z-5.59
X67.614 Y40.675 Z-5.596
X67.656 Y40.507 Z-5.602
X67.713 Y40.345 Z-5.608
X67.784 Y40.187 Z-5.614
X67.869 Y40.037 Z-5.62
X67.968 Y39.896 Z-5.626
X68.079 Y39.764 Z-5.632
X68.201 Y39.642 Z-5.638
X68.334 Y39.532 Z-5.645
X68.476 Y39.435 Z-5.651
X68.627 Y39.351 Z-5.657
X68.784 Y39.281 Z-5.663
X68.948 Y39.225 Z-5.669
X69.115 Y39.185 Z-5.675
X69.286 Y39.16 Z-5.681
X69.458 Y39.15 Z-5.687
X69.631 Y39.156 Z-5.693
X69.802 Y39.178 Z-5.699
X69.97 Y39.215 Z-5.705
X70.135 Y39.267 Z-5.711
X70.294 Y39.334 Z-5.717
X70.446 Y39.416 Z-5.723
X70.59 Y39.51 Z-5.729
X70.725 Y39.617 Z-5.735
X70.85 Y39.736 Z-5.741
X70.963 Y39.866 Z-5.747
X71.064 Y40.006 Z-5.753
X71.153 Y40.154 Z-5.759
X71.227 Y40.31 Z-5.765
X71.287 Y40.472 Z-5.771
X71.332 Y40.638 Z-5.777
X71.362 Y40.808 Z-5.783
X71.376 Y40.98 Z-5.789
X71.374 Y41.153 Z-5.795
X71.357 Y41.324 Z-5.801
X71.324 Y41.494 Z-5.807
X71.277 Y41.659 Z-5.813
X71.214 Y41.82 Z-5.819
X71.137 Y41.974 Z-5.825
X71.046 Y42.121 Z-5.831
X70.943 Y42.259 Z-5.837
X70.827 Y42.387 Z-5.843
X70.7 Y42.504 Z-5.849
X70.563 Y42.609 Z-5.855
X70.418 Y42.701 Z-5.861
X70.264 Y42.779 Z-5.867
X70.104 Y42.844 Z-5.873
X69.939 Y42.893 Z-5.879
X69.77 Y42.927 Z-5.886
X69.598 Y42.946 Z-5.892
X69.426 Y42.949 Z-5.898
X69.254 Y42.937 Z-5.904
X69.083 Y42.909 Z-5.91
X68.917 Y42.865 Z-5.916
X68.754 Y42.807 Z-5.922
X68.598 Y42.734 Z-5.928
X68.449 Y42.648 Z-5.934
X68.308 Y42.548 Z-5.94
X68.177 Y42.436 Z-5.946
X68.057 Y42.312 Z-5.952
X67.948 Y42.178 Z-5.958
X67.852 Y42.035 Z-5.964
X67.77 Y41.883 Z-5.97
X67.701 Y41.725 Z-5.976
X67.647 Y41.561 Z-5.982
X67.608 Y41.393 Z-5.988
X67.585 Y41.222 Z-5.994
X67.577 Y41.05 Z-6.
X67.584 Y41.019
X67.604 Y40.995
X67.632 Y40.981
X67.664
X67.692 Y40.995
X67.712 Y41.019
X67.719 Y41.05
G3 X66.448 Y42.321 R1.271
X65.177 Y41.05 R1.271
X67.648 Y38.579 R2.471
X70.119 Y41.05 R2.471
X66.448 Y44.721 R3.671
X62.777 Y41.05 R3.671
X66.448 Y37.379 R3.671
X70.119 Y41.05 R3.671
G2 X71.056 Y42.557 R1.68
G3 X71.579 Y44.098 R1.151
X71.465 Y44.283 R1.151
G1 X70.809 Y45.152
X70.288 Y45.603
X69.787 Y46.028
X69.723 Y46.07
X68.579 Y46.641
X67.373 Y46.963
X67.352 Y46.965
X66.151 Y47.026
X66.066 Y47.016
X64.932 Y46.838
X63.703 Y46.375
X63.682 Y46.365
X62.747 Y45.732
X62.54 Y45.582
X61.87 Y44.875
X61.671 Y44.651
X61.274 Y44.001
X61.03 Y43.588
X60.988 Y43.494
X60.622 Y42.408
X60.59 Y42.266
X60.464 Y41.066
X60.465 Y40.986
X60.598 Y39.797
X60.635 Y39.651
X60.862 Y38.978
X61.004 Y38.563
X61.02 Y38.531
X61.647 Y37.48
X61.683 Y37.432
X62.33 Y36.739
X62.542 Y36.516
X62.739 Y36.372
X63.676 Y35.737
X63.695 Y35.727
X64.932 Y35.262
X66.132 Y35.074
X66.154
X67.355 Y35.135
X67.441 Y35.155
X68.577 Y35.458
X69.749 Y36.049
X69.816 Y36.098
X70.776 Y36.914
X70.8 Y36.936
X71.579 Y37.968
X72.118 Y39.134
X72.153 Y39.277
X72.4 Y40.41
Y41.694
X72.125 Y42.953
X71.579 Y44.132
X71.465 Y44.283
X71.424 Y44.329 Z-5.99
X71.377 Y44.369 Z-5.98
X71.329 Y44.397 Z-5.952
X71.278 Y44.419 Z-5.924
X71.235 Y44.432 Z-5.879
X71.192 Y44.439 Z-5.835
X71.135 Y44.442 Z-5.724
X71.115 Y44.441 Z-5.6
G0 Z5.
X57.758 Y31.764
Z-2.067
G1 X57.748 Y31.78 Z-2.188 F1500.
X57.719 Y31.826 Z-2.297
X57.671 Y31.896 Z-2.385
X57.605 Y31.982 Z-2.444
X57.527 Y32.073 Z-2.467
X57.403 Y32.194 Z-2.473
X57.269 Y32.305 Z-2.479
X57.126 Y32.402 Z-2.485
X56.974 Y32.486 Z-2.491
X56.816 Y32.556 Z-2.497
X56.651 Y32.611 Z-2.503
X56.483 Y32.651 Z-2.509
X56.311 Y32.675 Z-2.515
X56.138 Y32.683 Z-2.521
X55.965 Y32.676 Z-2.527
X55.793 Y32.653 Z-2.533
X55.624 Y32.615 Z-2.539
X55.459 Y32.561 Z-2.545
X55.3 Y32.492 Z-2.551
X55.148 Y32.409 Z-2.557
X55.004 Y32.313 Z-2.563
X54.869 Y32.204 Z-2.57
X54.745 Y32.083 Z-2.576
X54.632 Y31.951 Z-2.582
X54.532 Y31.81 Z-2.588
X54.445 Y31.66 Z-2.594
X54.372 Y31.503 Z-2.6
X54.314 Y31.339 Z-2.606
X54.271 Y31.172 Z-2.612
X54.243 Y31. Z-2.618
X54.231 Y30.828 Z-2.624
X54.235 Y30.654 Z-2.63
X54.255 Y30.482 Z-2.636
X54.29 Y30.312 Z-2.642
X54.341 Y30.147 Z-2.648
X54.406 Y29.986 Z-2.654
X54.486 Y29.832 Z-2.66
X54.58 Y29.686 Z-2.666
X54.686 Y29.55 Z-2.672
X54.805 Y29.423 Z-2.679
X54.934 Y29.308 Z-2.685
X55.073 Y29.205 Z-2.691
X55.222 Y29.115 Z-2.697
X55.378 Y29.039 Z-2.703
X55.54 Y28.978 Z-2.709
X55.707 Y28.931 Z-2.715
X55.877 Y28.9 Z-2.721
X56.05 Y28.885 Z-2.727
X56.223 Y28.886 Z-2.733
X56.396 Y28.902 Z-2.739
X56.566 Y28.934 Z-2.745
X56.733 Y28.981 Z-2.751
X56.894 Y29.044 Z-2.757
X57.05 Y29.12 Z-2.763
X57.198 Y29.211 Z-2.769
X57.336 Y29.315 Z-2.775
X57.465 Y29.431 Z-2.781
X57.583 Y29.558 Z-2.787
X57.689 Y29.695 Z-2.794
X57.781 Y29.842 Z-2.8
X57.86 Y29.996 Z-2.806
X57.925 Y30.157 Z-2.812
X57.974 Y30.323 Z-2.818
X58.009 Y30.493 Z-2.824
X58.027 Y30.665 Z-2.83
X58.03 Y30.839 Z-2.836
X58.017 Y31.011 Z-2.842
X57.989 Y31.182 Z-2.848
X57.944 Y31.35 Z-2.854
X57.885 Y31.513 Z-2.86
X57.811 Y31.67 Z-2.866
X57.724 Y31.819 Z-2.872
X57.623 Y31.96 Z-2.878
X57.509 Y32.091 Z-2.884
X57.384 Y32.211 Z-2.89
X57.249 Y32.32 Z-2.896
X57.104 Y32.415 Z-2.903
X56.952 Y32.497 Z-2.909
X56.792 Y32.565 Z-2.915
X56.627 Y32.617 Z-2.921
X56.458 Y32.655 Z-2.927
X56.286 Y32.677 Z-2.933
X56.113 Y32.683 Z-2.939
X55.94 Y32.674 Z-2.945
X55.768 Y32.648 Z-2.951
X55.6 Y32.608 Z-2.957
X55.436 Y32.552 Z-2.963
X55.277 Y32.481 Z-2.969
X55.126 Y32.396 Z-2.975
X54.984 Y32.298 Z-2.981
X54.85 Y32.187 Z-2.987
X54.728 Y32.064 Z-2.993
X54.617 Y31.931 Z-2.999
X54.519 Y31.789 Z-3.005
X54.434 Y31.637 Z-3.012
X54.363 Y31.479 Z-3.018
X54.307 Y31.315 Z-3.024
X54.266 Y31.147 Z-3.03
X54.241 Y30.975 Z-3.036
X54.231 Y30.802 Z-3.042
X54.237 Y30.629 Z-3.048
X54.259 Y30.457 Z-3.054
X54.297 Y30.288 Z-3.06
X54.349 Y30.123 Z-3.066
X54.417 Y29.963 Z-3.072
X54.499 Y29.81 Z-3.078
X54.594 Y29.666 Z-3.084
X54.703 Y29.53 Z-3.09
X54.823 Y29.405 Z-3.096
X54.954 Y29.292 Z-3.102
X55.095 Y29.191 Z-3.108
X55.244 Y29.103 Z-3.114
X55.401 Y29.029 Z-3.121
X55.564 Y28.97 Z-3.127
X55.731 Y28.926 Z-3.133
X55.902 Y28.897 Z-3.139
X56.075 Y28.884 Z-3.145
X56.248 Y28.887 Z-3.151
X56.421 Y28.906 Z-3.157
X56.591 Y28.94 Z-3.163
X56.757 Y28.989 Z-3.169
X56.918 Y29.054 Z-3.175
X57.072 Y29.133 Z-3.181
X57.218 Y29.225 Z-3.187
X57.356 Y29.331 Z-3.193
X57.483 Y29.449 Z-3.199
X57.599 Y29.577 Z-3.205
X57.703 Y29.716 Z-3.211
X57.794 Y29.864 Z-3.217
X57.87 Y30.019 Z-3.223
X57.933 Y30.181 Z-3.229
X57.98 Y30.348 Z-3.236
X58.012 Y30.518 Z-3.242
X58.029 Y30.691 Z-3.248
Y30.864 Z-3.254
X58.014 Y31.037 Z-3.26
X57.983 Y31.207 Z-3.266
X57.937 Y31.374 Z-3.272
X57.875 Y31.536 Z-3.278
X57.8 Y31.692 Z-3.284
X57.71 Y31.84 Z-3.29
X57.607 Y31.98 Z-3.296
X57.492 Y32.109 Z-3.302
X57.365 Y32.228 Z-3.308
X57.228 Y32.334 Z-3.314
X57.083 Y32.428 Z-3.32
X56.929 Y32.508 Z-3.326
X56.768 Y32.573 Z-3.332
X56.603 Y32.624 Z-3.338
X56.433 Y32.659 Z-3.345
X56.261 Y32.679 Z-3.351
X56.087 Y32.683 Z-3.357
X55.914 Y32.671 Z-3.363
X55.743 Y32.643 Z-3.369
X55.575 Y32.6 Z-3.375
X55.412 Y32.542 Z-3.381
X55.255 Y32.469 Z-3.387
X55.105 Y32.383 Z-3.393
X54.963 Y32.282 Z-3.399
X54.832 Y32.17 Z-3.405
X54.711 Y32.046 Z-3.411
X54.602 Y31.911 Z-3.417
X54.505 Y31.767 Z-3.423
X54.422 Y31.615 Z-3.429
X54.354 Y31.456 Z-3.435
X54.3 Y31.291 Z-3.441
X54.261 Y31.122 Z-3.447
X54.238 Y30.95 Z-3.454
X54.231 Y30.777 Z-3.46
X54.239 Y30.604 Z-3.466
X54.264 Y30.432 Z-3.472
X54.303 Y30.263 Z-3.478
X54.358 Y30.099 Z-3.484
X54.428 Y29.94 Z-3.49
X54.512 Y29.789 Z-3.496
X54.609 Y29.645 Z-3.502
X54.719 Y29.511 Z-3.508
G3 X56.98 Y29.394 R1.6
X57.097 Y31.654 R1.6
G1 X57.015 Y31.745
G3 X56.702 Y31.884 R0.42
X56.39 Y31.745 R0.42
G1 X56.245 Y31.584
G3 X56.242 Y31.019 R0.42
G1 X56.39 Y30.854
G3 X56.703 Y30.715 R0.42
X57.015 Y30.854 R0.42
G1 X57.163 Y31.017
G3 Y31.581 R0.42
G1 X57.097 Y31.654
G2 X56.822 Y33.667 R1.805
G3 X56.76 Y35.698 R2.147
G1 X56.7 Y35.801
X56.052 Y34.679
X56.003 Y34.602
X55.915 Y34.477
X55.842 Y34.386
X54.647 Y33.054
X54.627 Y33.034
X54.468 Y32.866
X54.377 Y32.781
X54.206 Y32.641
X54.16 Y32.605
X52.731 Y31.567
X52.676 Y31.53
X52.492 Y31.414
X52.43 Y31.378
X52.366 Y31.347
X52.26 Y31.3
X52.364 Y31.254
X52.426 Y31.223
X52.486 Y31.189
X52.665 Y31.077
X52.725 Y31.037
X54.238 Y29.937
X54.333 Y29.859
X54.505 Y29.697
X54.566 Y29.635
X55.834 Y28.224
X55.9 Y28.142
X55.99 Y28.017
X56.046 Y27.931
X56.7 Y26.799
X57.354 Y27.931
X57.414 Y28.023
X57.506 Y28.148
X57.569 Y28.226
X58.923 Y29.726
X58.986 Y29.79
X59.055 Y29.848
X59.305 Y30.04
X59.329 Y30.058
X60.784 Y31.11
X60.867 Y31.164
X60.955 Y31.209
X61.15 Y31.298
X61.01 Y31.361
X60.905 Y31.415
X60.803 Y31.476
X60.728 Y31.526
X59.131 Y32.69
X59.065 Y32.742
X58.999 Y32.799
X58.912 Y32.885
X57.56 Y34.385
X57.49 Y34.472
X57.401 Y34.597
X57.348 Y34.679
X56.76 Y35.698
X56.745 Y35.709
X56.727 Y35.705
X56.717 Y35.69
X56.7 Y35.594
X56.738 Y28.994
X56.733 Y28.959
X56.901 Y28.916 Z-3.514
X57.073 Y28.889 Z-3.52
X57.247 Y28.878 Z-3.526
X57.421 Y28.882 Z-3.532
X57.593 Y28.903 Z-3.538
X57.763 Y28.939 Z-3.544
X57.929 Y28.991 Z-3.551
X58.09 Y29.057 Z-3.557
X58.244 Y29.138 Z-3.563
X58.39 Y29.233 Z-3.569
X58.526 Y29.34 Z-3.575
X58.652 Y29.46 Z-3.581
X58.767 Y29.591 Z-3.587
X58.869 Y29.731 Z-3.593
X58.958 Y29.881 Z-3.599
X59.033 Y30.038 Z-3.605
X59.094 Y30.201 Z-3.611
X59.139 Y30.369 Z-3.617
X59.169 Y30.54 Z-3.623
X59.182 Y30.713 Z-3.629
X59.18 Y30.887 Z-3.636
X59.162 Y31.06 Z-3.642
X59.129 Y31.231 Z-3.648
X59.08 Y31.397 Z-3.654
X59.015 Y31.559 Z-3.66
X58.937 Y31.714 Z-3.666
X58.844 Y31.861 Z-3.672
X58.739 Y31.999 Z-3.678
X58.621 Y32.127 Z-3.684
X58.492 Y32.244 Z-3.69
X58.353 Y32.348 Z-3.696
X58.205 Y32.439 Z-3.702
X58.049 Y32.517 Z-3.708
X57.887 Y32.579 Z-3.715
X57.719 Y32.627 Z-3.721
X57.548 Y32.659 Z-3.727
X57.375 Y32.675 Z-3.733
X57.202 Y32.676 Z-3.739
X57.028 Y32.66 Z-3.745
X56.857 Y32.629 Z-3.751
X56.69 Y32.582 Z-3.757
X56.527 Y32.521 Z-3.763
X56.371 Y32.444 Z-3.769
X56.223 Y32.354 Z-3.775
X56.083 Y32.25 Z-3.781
X55.953 Y32.134 Z-3.787
X55.835 Y32.007 Z-3.793
X55.729 Y31.869 Z-3.8
X55.635 Y31.723 Z-3.806
X55.556 Y31.568 Z-3.812
X55.491 Y31.407 Z-3.818
X55.441 Y31.24 Z-3.824
X55.406 Y31.07 Z-3.83
X55.387 Y30.897 Z-3.836
X55.384 Y30.723 Z-3.842
X55.397 Y30.55 Z-3.848
X55.426 Y30.378 Z-3.854
X55.47 Y30.21 Z-3.86
X55.53 Y30.047 Z-3.866
X55.604 Y29.889 Z-3.872
X55.692 Y29.74 Z-3.879
X55.794 Y29.598 Z-3.885
X55.908 Y29.467 Z-3.891
X56.033 Y29.347 Z-3.897
X56.169 Y29.239 Z-3.903
X56.315 Y29.143 Z-3.909
X56.468 Y29.061 Z-3.915
X56.628 Y28.994 Z-3.921
X56.794 Y28.942 Z-3.927
X56.964 Y28.905 Z-3.933
X57.137 Y28.883 Z-3.939
X57.31 Y28.878 Z-3.945
X57.484 Y28.888 Z-3.951
X57.656 Y28.914 Z-3.957
X57.825 Y28.956 Z-3.964
X57.989 Y29.013 Z-3.97
X58.147 Y29.085 Z-3.976
X58.298 Y29.171 Z-3.982
X58.441 Y29.271 Z-3.988
X58.574 Y29.383 Z-3.994
X58.696 Y29.507 Z-4.
G3 X58.577 Y31.761 R1.596
X56.323 Y31.642 R1.596
G1 X56.267 Y31.581
G3 Y31.018 R0.42
G1 X56.39 Y30.882
G3 X56.702 Y30.742 R0.42
X57.015 Y30.881 R0.42
G1 X57.138 Y31.018
G3 X57.139 Y31.581 R0.42
G1 X57.016 Y31.718
G3 X56.703 Y31.857 R0.42
X56.391 Y31.718 R0.42
G1 X56.323 Y31.642
G2 X54.935 Y31.218 R1.409
G3 X54.034 Y30.677 R0.743
X54.291 Y29.917 R0.743
G1 X54.347 Y29.869
X54.514 Y29.713
X54.577 Y29.65
X55.807 Y28.284
X55.875 Y28.199
X56.046 Y27.962
X56.1 Y27.878
X56.703 Y26.834
X57.376 Y27.995
X57.423 Y28.068
X57.476 Y28.137
X57.646 Y28.34
X57.67 Y28.367
X58.899 Y29.726
X58.959 Y29.788
X59.025 Y29.844
X59.3 Y30.058
X59.328 Y30.079
X60.726 Y31.093
X60.815 Y31.151
X60.921 Y31.212
X61.009 Y31.257
X61.105 Y31.3
X61.009 Y31.343
X60.919 Y31.389
X60.81 Y31.452
X60.72 Y31.51
X59.112 Y32.684
X59.043 Y32.74
X58.971 Y32.802
X58.886 Y32.886
X57.538 Y34.385
X57.466 Y34.476
X57.377 Y34.601
X57.327 Y34.68
X56.701 Y35.766
X56.064 Y34.668
X56.009 Y34.583
X55.88 Y34.406
X55.813 Y34.324
X54.646 Y33.026
X54.604 Y32.982
X54.376 Y32.757
X54.321 Y32.707
X54.263 Y32.661
X52.737 Y31.55
X52.657 Y31.498
X52.407 Y31.35
X52.306 Y31.298
X52.371 Y31.269
X52.482 Y31.21
X52.67 Y31.096
X52.738 Y31.05
X54.255 Y29.944
X54.291 Y29.917
X54.342 Y29.882 Z-3.99
X54.398 Y29.856 Z-3.98
X54.451 Y29.839 Z-3.952
X54.506 Y29.831 Z-3.924
X54.55 Y29.829 Z-3.879
X54.594 Y29.833 Z-3.835
X54.65 Y29.844 Z-3.724
X54.669 Y29.85 Z-3.6
G0 Z5.
X51.761 Y21.19
Z-2.067
G1 X51.765 Y21.208 Z-2.188 F1500.
X51.774 Y21.262 Z-2.297
X51.785 Y21.346 Z-2.385
X51.793 Y21.453 Z-2.444
X51.796 Y21.573 Z-2.467
X51.786 Y21.746 Z-2.473
X51.76 Y21.918 Z-2.479
X51.719 Y22.086 Z-2.485
X51.662 Y22.25 Z-2.491
X51.591 Y22.408 Z-2.497
X51.506 Y22.559 Z-2.503
X51.407 Y22.702 Z-2.509
X51.296 Y22.834 Z-2.515
X51.173 Y22.957 Z-2.521
X51.04 Y23.067 Z-2.527
X50.897 Y23.165 Z-2.533
X50.745 Y23.25 Z-2.539
X50.587 Y23.32 Z-2.545
X50.423 Y23.376 Z-2.551
X50.254 Y23.416 Z-2.557
X50.083 Y23.441 Z-2.563
X49.909 Y23.45 Z-2.57
X49.736 Y23.443 Z-2.576
X49.564 Y23.421 Z-2.582
X49.395 Y23.383 Z-2.588
X49.23 Y23.33 Z-2.594
X49.071 Y23.262 Z-2.6
X48.918 Y23.179 Z-2.606
X48.774 Y23.084 Z-2.612
X48.639 Y22.975 Z-2.618
X48.514 Y22.854 Z-2.624
X48.401 Y22.723 Z-2.63
X48.3 Y22.582 Z-2.636
X48.213 Y22.432 Z-2.642
X48.14 Y22.275 Z-2.648
X48.081 Y22.112 Z-2.654
X48.037 Y21.945 Z-2.66
X48.009 Y21.774 Z-2.666
X47.996 Y21.601 Z-2.672
X48. Y21.427 Z-2.679
X48.019 Y21.255 Z-2.685
X48.053 Y21.085 Z-2.691
X48.103 Y20.919 Z-2.697
X48.168 Y20.759 Z-2.703
X48.248 Y20.605 Z-2.709
X48.341 Y20.458 Z-2.715
X48.447 Y20.321 Z-2.721
X48.565 Y20.194 Z-2.727
X48.694 Y20.079 Z-2.733
X48.833 Y19.975 Z-2.739
X48.981 Y19.885 Z-2.745
X49.136 Y19.808 Z-2.751
X49.298 Y19.746 Z-2.757
X49.465 Y19.7 Z-2.763
X49.636 Y19.668 Z-2.769
X49.808 Y19.652 Z-2.775
X49.981 Z-2.781
X50.154 Y19.668 Z-2.787
X50.324 Y19.699 Z-2.794
X50.491 Y19.746 Z-2.8
X50.653 Y19.808 Z-2.806
X50.809 Y19.884 Z-2.812
X50.957 Y19.974 Z-2.818
X51.096 Y20.077 Z-2.824
X51.225 Y20.193 Z-2.83
X51.344 Y20.32 Z-2.836
X51.45 Y20.457 Z-2.842
X51.543 Y20.603 Z-2.848
X51.622 Y20.757 Z-2.854
X51.687 Y20.918 Z-2.86
X51.738 Y21.083 Z-2.866
X51.772 Y21.253 Z-2.872
X51.792 Y21.425 Z-2.878
X51.795 Y21.599 Z-2.884
X51.783 Y21.772 Z-2.89
X51.755 Y21.943 Z-2.896
X51.711 Y22.11 Z-2.903
X51.653 Y22.274 Z-2.909
X51.579 Y22.431 Z-2.915
X51.492 Y22.58 Z-2.921
X51.392 Y22.722 Z-2.927
X51.279 Y22.853 Z-2.933
X51.154 Y22.974 Z-2.939
X51.019 Y23.082 Z-2.945
X50.875 Y23.178 Z-2.951
X50.722 Y23.261 Z-2.957
X50.563 Y23.329 Z-2.963
X50.398 Y23.382 Z-2.969
X50.229 Y23.421 Z-2.975
X50.057 Y23.443 Z-2.981
X49.884 Y23.45 Z-2.987
X49.711 Y23.441 Z-2.993
X49.539 Y23.416 Z-2.999
X49.371 Y23.376 Z-3.005
X49.207 Y23.321 Z-3.012
X49.048 Y23.251 Z-3.018
X48.897 Y23.166 Z-3.024
X48.754 Y23.068 Z-3.03
X48.62 Y22.958 Z-3.036
X48.497 Y22.836 Z-3.042
X48.386 Y22.703 Z-3.048
X48.287 Y22.561 Z-3.054
X48.201 Y22.41 Z-3.06
X48.13 Y22.252 Z-3.066
X48.074 Y22.088 Z-3.072
X48.032 Y21.92 Z-3.078
X48.006 Y21.748 Z-3.084
X47.996 Y21.575 Z-3.09
X48.002 Y21.402 Z-3.096
X48.023 Y21.23 Z-3.102
X48.06 Y21.061 Z-3.108
X48.112 Y20.896 Z-3.114
X48.179 Y20.736 Z-3.121
X48.26 Y20.583 Z-3.127
X48.355 Y20.438 Z-3.133
X48.463 Y20.302 Z-3.139
X48.583 Y20.177 Z-3.145
X48.714 Y20.063 Z-3.151
X48.854 Y19.961 Z-3.157
X49.003 Y19.873 Z-3.163
X49.16 Y19.798 Z-3.169
X49.322 Y19.739 Z-3.175
X49.49 Y19.694 Z-3.181
X49.661 Y19.665 Z-3.187
X49.833 Y19.651 Z-3.193
X50.007 Y19.653 Z-3.199
X50.179 Y19.671 Z-3.205
X50.349 Y19.705 Z-3.211
X50.515 Y19.754 Z-3.217
X50.676 Y19.818 Z-3.223
X50.831 Y19.896 Z-3.229
X50.978 Y19.988 Z-3.236
X51.116 Y20.093 Z-3.242
X51.243 Y20.211 Z-3.248
X51.36 Y20.339 Z-3.254
X51.464 Y20.478 Z-3.26
X51.555 Y20.625 Z-3.266
X51.633 Y20.78 Z-3.272
X51.696 Y20.941 Z-3.278
X51.744 Y21.108 Z-3.284
X51.776 Y21.278 Z-3.29
X51.793 Y21.451 Z-3.296
X51.794 Y21.624 Z-3.302
X51.78 Y21.797 Z-3.308
X51.749 Y21.967 Z-3.314
X51.704 Y22.135 Z-3.32
X51.643 Y22.297 Z-3.326
X51.567 Y22.453 Z-3.332
X51.478 Y22.602 Z-3.338
X51.376 Y22.741 Z-3.345
X51.261 Y22.871 Z-3.351
X51.135 Y22.99 Z-3.357
X50.999 Y23.097 Z-3.363
X50.853 Y23.191 Z-3.369
X50.7 Y23.272 Z-3.375
X50.539 Y23.338 Z-3.381
X50.374 Y23.389 Z-3.387
X50.204 Y23.425 Z-3.393
X50.032 Y23.445 Z-3.399
X49.859 Y23.45 Z-3.405
X49.686 Y23.438 Z-3.411
X49.515 Y23.411 Z-3.417
X49.347 Y23.369 Z-3.423
X49.183 Y23.311 Z-3.429
X49.026 Y23.239 Z-3.435
X48.875 Y23.153 Z-3.441
X48.733 Y23.053 Z-3.447
X48.601 Y22.941 Z-3.454
X48.48 Y22.817 Z-3.46
X48.37 Y22.683 Z-3.466
X48.274 Y22.539 Z-3.472
X48.19 Y22.387 Z-3.478
X48.121 Y22.228 Z-3.484
X48.067 Y22.064 Z-3.49
X48.027 Y21.895 Z-3.496
X48.004 Y21.723 Z-3.502
X47.996 Y21.55 Z-3.508
G3 X48.149 Y21.397 R0.153
X48.303 Y21.55 R0.153
X46.949 Y22.904 R1.353
X45.596 Y21.55 R1.353
X48.149 Y18.997 R2.553
X50.703 Y21.55 R2.553
X46.949 Y25.304 R3.753
X43.196 Y21.55 R3.753
X46.949 Y17.797 R3.753
X50.703 Y21.55 R3.753
G2 X51.651 Y23.059 R1.675
G3 X52.188 Y24.593 R1.149
X52.066 Y24.793 R1.149
G1 X51.343 Y25.737
X50.333 Y26.591
X49.191 Y27.193
X47.917 Y27.542
X46.628 Y27.612
X45.339 Y27.403
X44.101 Y26.911
X43.028 Y26.183
X42.121 Y25.229
X42.097 Y25.193
X41.443 Y24.105
X41.434 Y24.085
X41.019 Y22.842
X40.878 Y21.548
X41.018 Y20.262
X41.063 Y20.118
X41.45 Y18.982
X42.115 Y17.878
X42.12 Y17.872
X43.028 Y16.917
X44.101 Y16.189
X45.339 Y15.697
X46.628 Y15.488
X47.917 Y15.558
X49.193 Y15.909
X50.334 Y16.509
X51.359 Y17.376
X52.153 Y18.422
X52.706 Y19.626
X52.985 Y20.915
Y22.199
X52.703 Y23.486
X52.15 Y24.683
X52.066 Y24.793
G3 X51.925 Y24.87 R0.2
X51.772 Y24.819 R0.2
G1 X50.922 Y24.047
X50.885 Y24.02
X49.373 Y23.183
X49.35 Y23.175
X49.326 Y23.176
X49.304 Y23.184
X49.171 Y23.266
X49.15 Y23.274
X49.127 Y23.275
X49.106 Y23.269
X48.952 Y23.188 Z-3.514
X48.806 Y23.094 Z-3.52
X48.67 Y22.986 Z-3.526
X48.543 Y22.866 Z-3.532
X48.429 Y22.736 Z-3.538
X48.327 Y22.595 Z-3.544
X48.238 Y22.446 Z-3.551
X48.163 Y22.289 Z-3.557
X48.102 Y22.126 Z-3.563
X48.057 Y21.958 Z-3.569
X48.028 Y21.786 Z-3.575
X48.014 Y21.613 Z-3.581
X48.016 Y21.439 Z-3.587
X48.034 Y21.266 Z-3.593
X48.068 Y21.096 Z-3.599
X48.117 Y20.929 Z-3.605
X48.181 Y20.767 Z-3.611
X48.26 Y20.612 Z-3.617
X48.353 Y20.465 Z-3.623
X48.458 Y20.327 Z-3.629
X48.576 Y20.199 Z-3.636
X48.705 Y20.083 Z-3.642
X48.844 Y19.978 Z-3.648
X48.992 Y19.887 Z-3.654
X49.148 Y19.81 Z-3.66
X49.31 Y19.747 Z-3.666
X49.478 Y19.7 Z-3.672
X49.649 Y19.668 Z-3.678
X49.822 Y19.652 Z-3.684
X49.996 Y19.651 Z-3.69
X50.169 Y19.667 Z-3.696
X50.34 Y19.698 Z-3.702
X50.507 Y19.745 Z-3.708
X50.67 Y19.807 Z-3.715
X50.826 Y19.883 Z-3.721
X50.974 Y19.973 Z-3.727
X51.114 Y20.077 Z-3.733
X51.244 Y20.193 Z-3.739
X51.362 Y20.32 Z-3.745
X51.468 Y20.458 Z-3.751
X51.561 Y20.605 Z-3.757
X51.641 Y20.759 Z-3.763
X51.706 Y20.921 Z-3.769
X51.756 Y21.087 Z-3.775
X51.79 Y21.258 Z-3.781
X51.809 Y21.431 Z-3.787
X51.812 Y21.604 Z-3.793
X51.799 Y21.778 Z-3.8
X51.77 Y21.949 Z-3.806
X51.726 Y22.117 Z-3.812
X51.666 Y22.281 Z-3.818
X51.592 Y22.438 Z-3.824
X51.504 Y22.588 Z-3.83
X51.402 Y22.729 Z-3.836
X51.288 Y22.86 Z-3.842
X51.163 Y22.98 Z-3.848
X51.027 Y23.089 Z-3.854
X50.881 Y23.184 Z-3.86
X50.728 Y23.266 Z-3.866
X50.567 Y23.333 Z-3.872
X50.402 Y23.385 Z-3.879
X50.232 Y23.422 Z-3.885
X50.059 Y23.444 Z-3.891
X49.885 Y23.449 Z-3.897
X49.712 Y23.439 Z-3.903
X49.54 Y23.412 Z-3.909
X49.371 Y23.37 Z-3.915
X49.207 Y23.313 Z-3.921
X49.049 Y23.241 Z-3.927
X48.898 Y23.155 Z-3.933
X48.755 Y23.056 Z-3.939
X48.622 Y22.944 Z-3.945
X48.5 Y22.82 Z-3.951
X48.39 Y22.685 Z-3.957
X48.292 Y22.541 Z-3.964
X48.208 Y22.389 Z-3.97
X48.139 Y22.23 Z-3.976
X48.084 Y22.065 Z-3.982
X48.045 Y21.895 Z-3.988
X48.021 Y21.723 Z-3.994
X48.013 Y21.549 Z-4.
G3 X48.15 Y21.413 R0.137
X48.286 Y21.549 R0.137
X46.95 Y22.886 R1.337
X45.613 Y21.549 R1.337
X48.15 Y19.013 R2.537
X50.686 Y21.549 R2.537
X46.95 Y25.286 R3.737
X43.213 Y21.549 R3.737
X46.95 Y17.813 R3.737
X50.686 Y21.549 R3.737
G2 X51.633 Y23.058 R1.675
G3 X52.168 Y24.593 R1.149
X52.047 Y24.79 R1.149
G1 X51.333 Y25.726
X50.333 Y26.575
X49.207 Y27.165
X49.169 Y27.184
X47.917 Y27.527
X46.629 Y27.595
X45.337 Y27.385
X44.13 Y26.911
X43.029 Y26.164
X42.139 Y25.226
X41.447 Y24.073
X41.034 Y22.842
X40.894 Y21.557
X41.033 Y20.268
X41.162 Y19.872
X41.321 Y19.399
X41.453 Y19.008
X42.136 Y17.877
X43.029 Y16.935
X44.122 Y16.194
X44.146 Y16.183
X45.337 Y15.715
X46.629 Y15.505
X47.916 Y15.573
X49.183 Y15.922
X49.436 Y16.049
X50.331 Y16.524
X51.334 Y17.376
X52.142 Y18.436
X52.689 Y19.627
X52.968 Y20.915
Y22.199
X52.687 Y23.486
X52.139 Y24.67
X52.047 Y24.79
G3 X51.907 Y24.868 R0.2
X51.754 Y24.818 R0.2
G1 X50.725 Y23.894
X50.694 Y23.871
X49.773 Y23.318
X49.746 Y23.308
X49.716 Y23.312
X49.691 Y23.327
X49.618 Y23.396
X49.59 Y23.412
X49.558 Y23.413
X49.39 Y23.371 Z-4.006
X49.226 Y23.315 Z-4.012
X49.068 Y23.243 Z-4.018
X48.918 Y23.158 Z-4.024
X48.776 Y23.059 Z-4.03
X48.643 Y22.947 Z-4.036
X48.521 Y22.824 Z-4.042
X48.411 Y22.691 Z-4.048
X48.314 Y22.548 Z-4.054
X48.23 Y22.397 Z-4.06
X48.16 Y22.238 Z-4.067
X48.104 Y22.074 Z-4.073
X48.064 Y21.906 Z-4.079
X48.04 Y21.734 Z-4.085
X48.031 Y21.561 Z-4.091
X48.037 Y21.388 Z-4.097
X48.06 Y21.217 Z-4.103
X48.098 Y21.048 Z-4.109
X48.151 Y20.883 Z-4.115
X48.219 Y20.724 Z-4.121
X48.302 Y20.572 Z-4.127
X48.398 Y20.428 Z-4.133
X48.506 Y20.293 Z-4.139
X48.626 Y20.168 Z-4.145
X48.758 Y20.055 Z-4.151
X48.899 Y19.955 Z-4.157
X49.048 Y19.867 Z-4.163
X49.205 Y19.794 Z-4.169
X49.368 Y19.735 Z-4.175
X49.535 Y19.692 Z-4.181
X49.706 Y19.663 Z-4.187
X49.879 Y19.651 Z-4.194
X50.052 Y19.654 Z-4.2
X50.224 Y19.673 Z-4.206
X50.394 Y19.707 Z-4.212
X50.559 Y19.757 Z-4.218
X50.72 Y19.822 Z-4.224
X50.874 Y19.901 Z-4.23
X51.02 Y19.993 Z-4.236
X51.157 Y20.099 Z-4.242
X51.284 Y20.217 Z-4.248
X51.4 Y20.346 Z-4.254
X51.504 Y20.484 Z-4.26
X51.594 Y20.632 Z-4.266
X51.671 Y20.787 Z-4.272
X51.733 Y20.949 Z-4.278
X51.78 Y21.115 Z-4.284
X51.812 Y21.285 Z-4.29
X51.828 Y21.458 Z-4.296
X51.829 Y21.631 Z-4.302
X51.814 Y21.803 Z-4.308
X51.783 Y21.974 Z-4.314
X51.736 Y22.14 Z-4.321
X51.675 Y22.302 Z-4.327
X51.6 Y22.458 Z-4.333
X51.51 Y22.606 Z-4.339
X51.407 Y22.746 Z-4.345
X51.292 Y22.875 Z-4.351
X51.166 Y22.993 Z-4.357
X51.03 Y23.1 Z-4.363
X50.884 Y23.194 Z-4.369
X50.73 Y23.273 Z-4.375
X50.57 Y23.339 Z-4.381
X50.405 Y23.39 Z-4.387
X50.235 Y23.425 Z-4.393
X50.063 Y23.445 Z-4.399
X49.89 Y23.45 Z-4.405
X49.717 Y23.438 Z-4.411
X49.546 Y23.411 Z-4.417
X49.379 Y23.368 Z-4.423
X49.215 Y23.31 Z-4.429
X49.058 Y23.238 Z-4.435
X48.908 Y23.151 Z-4.441
X48.767 Y23.052 Z-4.448
X48.635 Y22.94 Z-4.454
X48.514 Y22.816 Z-4.46
X48.404 Y22.682 Z-4.466
X48.308 Y22.538 Z-4.472
X48.225 Y22.386 Z-4.478
X48.155 Y22.227 Z-4.484
X48.101 Y22.063 Z-4.49
X48.062 Y21.894 Z-4.496
X48.038 Y21.723 Z-4.502
X48.031 Y21.55 Z-4.508
X48.038 Y21.509
X48.058 Y21.474
X48.09 Y21.447
X48.129 Y21.433
X48.17
X48.209 Y21.447
X48.24 Y21.474
X48.261 Y21.509
X48.268 Y21.55
G3 X46.949 Y22.869 R1.319
X45.631 Y21.55 R1.319
X48.149 Y19.031 R2.519
X50.668 Y21.55 R2.519
X46.949 Y25.269 R3.719
X43.231 Y21.55 R3.719
X46.949 Y17.831 R3.719
X50.668 Y21.55 R3.719
G2 X51.612 Y23.059 R1.679
G3 X52.143 Y24.599 R1.152
X52.025 Y24.79 R1.152
G1 X51.332 Y25.704
X50.297 Y26.579
X49.439 Y27.027
X49.147 Y27.173
X47.917 Y27.507
X46.638 Y27.577
X45.381 Y27.378
X45.232 Y27.325
X44.161 Y26.906
X43.029 Y26.141
X42.146 Y25.205
X41.466 Y24.073
X41.053 Y22.842
X40.913 Y21.556
X41.05 Y20.27
X41.322 Y19.449
X41.468 Y19.016
X42.144 Y17.898
X43.029 Y16.959
X44.161 Y16.194
X45.232 Y15.775
X45.382 Y15.722
X46.627 Y15.522
X47.918 Y15.593
X49.135 Y15.922
X50.146 Y16.441
X50.323 Y16.54
X51.317 Y17.384
X51.605 Y17.755
X52.128 Y18.448
X52.672 Y19.628
X52.951 Y20.894
Y22.188
X52.667 Y23.487
X52.126 Y24.657
X52.025 Y24.79
G3 X51.887 Y24.868 R0.2
X51.735 Y24.821 R0.2
G1 X50.338 Y23.614
X50.315 Y23.597
X49.845 Y23.297
X49.819 Y23.285
X49.79 Y23.283
X49.762 Y23.291
X49.738 Y23.307
X49.651 Y23.39
X49.628 Y23.405
X49.602 Y23.413
X49.574 Y23.412
X49.406 Y23.37 Z-4.514
X49.243 Y23.313 Z-4.52
X49.085 Y23.242 Z-4.526
X48.934 Y23.156 Z-4.532
X48.792 Y23.058 Z-4.538
X48.66 Y22.946 Z-4.544
X48.538 Y22.823 Z-4.55
X48.428 Y22.69 Z-4.556
X48.33 Y22.547 Z-4.562
X48.246 Y22.395 Z-4.568
X48.176 Y22.237 Z-4.575
X48.121 Y22.073 Z-4.581
X48.081 Y21.905 Z-4.587
X48.056 Y21.733 Z-4.593
X48.047 Y21.56 Z-4.599
X48.054 Y21.387 Z-4.605
X48.076 Y21.216 Z-4.611
X48.115 Y21.047 Z-4.617
X48.168 Y20.882 Z-4.623
X48.236 Y20.723 Z-4.629
X48.318 Y20.571 Z-4.635
X48.414 Y20.426 Z-4.641
X48.523 Y20.291 Z-4.647
X48.643 Y20.167 Z-4.653
X48.774 Y20.054 Z-4.659
X48.915 Y19.954 Z-4.665
X49.064 Y19.866 Z-4.671
X49.221 Y19.793 Z-4.677
X49.384 Y19.734 Z-4.683
X49.552 Y19.69 Z-4.689
X49.722 Y19.662 Z-4.695
X49.895 Y19.65 Z-4.702
X50.068 Y19.653 Z-4.708
X50.24 Y19.672 Z-4.714
X50.41 Y19.706 Z-4.72
X50.576 Y19.756 Z-4.726
X50.736 Y19.821 Z-4.732
X50.89 Y19.9 Z-4.738
X51.037 Y19.992 Z-4.744
X51.174 Y20.098 Z-4.75
X51.301 Y20.216 Z-4.756
X51.416 Y20.344 Z-4.762
X51.52 Y20.483 Z-4.768
X51.61 Y20.631 Z-4.774
X51.687 Y20.786 Z-4.78
X51.749 Y20.947 Z-4.786
X51.797 Y21.114 Z-4.792
X51.828 Y21.284 Z-4.798
X51.845 Y21.457 Z-4.804
Y21.63 Z-4.81
X51.83 Y21.802 Z-4.816
X51.799 Y21.972 Z-4.822
X51.753 Y22.139 Z-4.829
X51.692 Y22.301 Z-4.835
X51.616 Y22.457 Z-4.841
X51.526 Y22.605 Z-4.847
X51.424 Y22.744 Z-4.853
X51.309 Y22.874 Z-4.859
X51.182 Y22.992 Z-4.865
X51.046 Y23.099 Z-4.871
X50.9 Y23.192 Z-4.877
X50.747 Y23.272 Z-4.883
X50.587 Y23.338 Z-4.889
X50.421 Y23.389 Z-4.895
X50.252 Y23.424 Z-4.901
X50.08 Y23.444 Z-4.907
X49.907 Y23.448 Z-4.913
X49.734 Y23.437 Z-4.919
X49.563 Y23.41 Z-4.925
X49.395 Y23.367 Z-4.931
X49.232 Y23.309 Z-4.937
X49.075 Y23.237 Z-4.943
X48.925 Y23.15 Z-4.949
X48.783 Y23.051 Z-4.956
X48.651 Y22.938 Z-4.962
X48.53 Y22.815 Z-4.968
X48.421 Y22.681 Z-4.974
X48.324 Y22.537 Z-4.98
X48.241 Y22.385 Z-4.986
X48.172 Y22.226 Z-4.992
X48.118 Y22.062 Z-4.998
X48.078 Y21.893 Z-5.004
X48.055 Y21.722 Z-5.01
X48.047 Y21.549 Z-5.016
X48.055 Y21.51
X48.077 Y21.477
X48.11 Y21.454
X48.149 Y21.447
X48.188 Y21.454
X48.221 Y21.477
X48.244 Y21.51
X48.251 Y21.549
G3 X46.949 Y22.851 R1.302
X45.647 Y21.549 R1.302
X48.149 Y19.047 R2.502
X50.651 Y21.549 R2.502
X46.949 Y25.251 R3.702
X43.247 Y21.549 R3.702
X46.949 Y17.847 R3.702
X50.651 Y21.549 R3.702
G2 X51.593 Y23.057 R1.679
G3 X52.121 Y24.598 R1.152
X52.005 Y24.787 R1.152
G1 X51.325 Y25.685
X50.287 Y26.565
X49.933 Y26.756
X49.124 Y27.162
X48.132 Y27.432
X47.906 Y27.491
X47.821 Y27.499
X46.632 Y27.56
X45.393 Y27.363
X44.25 Y26.926
X44.17 Y26.894
X43.031 Y26.118
X42.156 Y25.191
X42.126 Y25.147
X41.49 Y24.088
X41.477 Y24.062
X41.076 Y22.869
X41.061 Y22.788
X40.93 Y21.579
X40.932 Y21.502
X41.071 Y20.26
X41.115 Y20.113
X41.32 Y19.505
X41.48 Y19.04
X41.756 Y18.569
X42.146 Y17.92
X43.034 Y16.979
X43.443 Y16.695
X44.162 Y16.211
X44.742 Y15.981
X45.389 Y15.737
X46.652 Y15.541
X47.887 Y15.605
X47.909 Y15.61
X49.09 Y15.926
X49.935 Y16.345
X50.29 Y16.537
X51.32 Y17.411
X51.347 Y17.443
X52.116 Y18.462
X52.653 Y19.628
X52.933 Y20.908
Y22.196
X52.647 Y23.486
X52.113 Y24.644
X52.005 Y24.787
G3 X51.866 Y24.865 R0.2
X51.714 Y24.817 R0.2
G1 X50.346 Y23.623
X50.324 Y23.607
X49.853 Y23.301
X49.827 Y23.289
X49.799 Y23.287
X49.771 Y23.294
X49.748 Y23.31
X49.663 Y23.391
X49.641 Y23.406
X49.615 Y23.414
X49.587 Y23.413
X49.419 Y23.371 Z-5.022
X49.256 Y23.314 Z-5.028
X49.098 Y23.243 Z-5.034
X48.948 Y23.157 Z-5.04
X48.805 Y23.058 Z-5.046
X48.673 Y22.947 Z-5.052
X48.551 Y22.824 Z-5.058
X48.441 Y22.69 Z-5.064
X48.343 Y22.547 Z-5.07
X48.259 Y22.396 Z-5.076
X48.189 Y22.238 Z-5.083
X48.134 Y22.074 Z-5.089
X48.094 Y21.905 Z-5.095
X48.069 Y21.734 Z-5.101
X48.06 Y21.561 Z-5.107
X48.067 Y21.388 Z-5.113
X48.09 Y21.216 Z-5.119
X48.128 Y21.047 Z-5.125
X48.181 Y20.883 Z-5.131
X48.249 Y20.724 Z-5.137
X48.331 Y20.571 Z-5.143
X48.427 Y20.427 Z-5.149
X48.536 Y20.292 Z-5.155
X48.656 Y20.168 Z-5.161
X48.787 Y20.055 Z-5.167
X48.928 Y19.954 Z-5.173
X49.078 Y19.867 Z-5.179
X49.235 Y19.794 Z-5.185
X49.397 Y19.735 Z-5.191
X49.565 Y19.691 Z-5.197
X49.736 Y19.663 Z-5.203
X49.908 Y19.65 Z-5.21
X50.082 Y19.653 Z-5.216
X50.254 Y19.672 Z-5.222
X50.423 Y19.707 Z-5.228
X50.589 Y19.757 Z-5.234
X50.75 Y19.821 Z-5.24
X50.904 Y19.9 Z-5.246
X51.05 Y19.993 Z-5.252
X51.187 Y20.099 Z-5.258
X51.314 Y20.216 Z-5.264
X51.43 Y20.345 Z-5.27
X51.533 Y20.484 Z-5.276
X51.624 Y20.631 Z-5.282
X51.7 Y20.787 Z-5.288
X51.763 Y20.948 Z-5.294
X51.81 Y21.115 Z-5.3
X51.842 Y21.285 Z-5.306
X51.858 Y21.457 Z-5.312
X51.859 Y21.63 Z-5.318
X51.843 Y21.803 Z-5.324
X51.812 Y21.973 Z-5.33
X51.766 Y22.14 Z-5.337
X51.705 Y22.302 Z-5.343
X51.629 Y22.458 Z-5.349
X51.54 Y22.606 Z-5.355
X51.437 Y22.745 Z-5.361
X51.322 Y22.875 Z-5.367
X51.196 Y22.993 Z-5.373
X51.059 Y23.099 Z-5.379
X50.914 Y23.193 Z-5.385
X50.76 Y23.273 Z-5.391
X50.6 Y23.339 Z-5.397
X50.434 Y23.389 Z-5.403
X50.265 Y23.425 Z-5.409
X50.093 Y23.445 Z-5.415
X49.92 Y23.449 Z-5.421
X49.747 Y23.438 Z-5.427
X49.576 Y23.41 Z-5.433
X49.408 Y23.368 Z-5.439
X49.245 Y23.31 Z-5.445
X49.088 Y23.237 Z-5.451
X48.938 Y23.151 Z-5.457
X48.796 Y23.051 Z-5.464
X48.665 Y22.939 Z-5.47
X48.543 Y22.815 Z-5.476
X48.434 Y22.681 Z-5.482
X48.337 Y22.538 Z-5.488
X48.254 Y22.386 Z-5.494
X48.185 Y22.227 Z-5.5
X48.131 Y22.063 Z-5.506
X48.092 Y21.894 Z-5.512
X48.068 Y21.722 Z-5.518
X48.06 Y21.55 Z-5.524
X48.067 Y21.516
X48.086 Y21.488
X48.114 Y21.47
X48.147 Y21.463
X48.18 Y21.47
X48.208 Y21.488
X48.227 Y21.516
X48.233 Y21.55
G3 X46.947 Y22.836 R1.286
X45.66 Y21.55 R1.286
X48.147 Y19.063 R2.486
X50.633 Y21.55 R2.486
X46.947 Y25.236 R3.686
X43.26 Y21.55 R3.686
X46.947 Y17.863 R3.686
X50.633 Y21.55 R3.686
G2 X51.573 Y23.056 R1.678
G3 X52.1 Y24.596 R1.151
X51.985 Y24.783 R1.151
G1 X51.324 Y25.659
X51.232 Y25.745
X50.266 Y26.561
X50.229 Y26.583
X49.098 Y27.152
X48.633 Y27.281
X47.863 Y27.48
X46.628 Y27.542
X45.393 Y27.345
X44.188 Y26.885
X44.166 Y26.873
X43.225 Y26.235
X43.037 Y26.101
X42.354 Y25.381
X42.14 Y25.139
X41.505 Y24.077
X41.491 Y24.05
X41.093 Y22.861
X41.076 Y22.78
X40.947 Y21.575
X40.949 Y21.496
X41.079 Y20.293
X41.099 Y20.211
X41.321 Y19.553
X41.487 Y19.06
X41.501 Y19.031
X42.15 Y17.945
X42.606 Y17.453
X43.034 Y17.002
X43.445 Y16.713
X44.175 Y16.222
X44.258 Y16.186
X45.393 Y15.755
X46.636 Y15.557
X47.861 Y15.62
X49.078 Y15.939
X50.258 Y16.533
X50.286 Y16.553
X51.312 Y17.428
X51.336 Y17.457
X52.097 Y18.463
X52.634 Y19.629
X52.911 Y20.882
X52.915 Y22.186
X52.639 Y23.462
X52.101 Y24.63
X51.985 Y24.783
G3 X51.848 Y24.862 R0.2
X51.696 Y24.816 R0.2
G1 X50.36 Y23.689
X50.334 Y23.67
X49.152 Y22.962
X49.128 Y22.953
X49.103 Y22.95
X49.079 Y22.956
X48.864 Y23.04
X48.836 Y23.046
X48.807 Y23.042
X48.781 Y23.028
X48.652 Y22.913 Z-5.53
X48.534 Y22.788 Z-5.536
X48.428 Y22.652 Z-5.542
X48.334 Y22.507 Z-5.548
X48.254 Y22.354 Z-5.554
X48.188 Y22.195 Z-5.56
X48.137 Y22.03 Z-5.566
X48.101 Y21.861 Z-5.572
X48.081 Y21.69 Z-5.578
X48.076 Y21.518 Z-5.584
X48.087 Y21.345 Z-5.59
X48.113 Y21.175 Z-5.596
X48.155 Y21.008 Z-5.602
X48.212 Y20.845 Z-5.608
X48.283 Y20.688 Z-5.614
X48.368 Y20.538 Z-5.62
X48.467 Y20.396 Z-5.626
X48.577 Y20.264 Z-5.632
X48.7 Y20.142 Z-5.638
X48.833 Y20.032 Z-5.645
X48.975 Y19.935 Z-5.651
X49.126 Y19.851 Z-5.657
X49.283 Y19.781 Z-5.663
X49.447 Y19.725 Z-5.669
X49.614 Y19.685 Z-5.675
X49.785 Y19.66 Z-5.681
X49.957 Y19.65 Z-5.687
X50.13 Y19.656 Z-5.693
X50.301 Y19.678 Z-5.699
X50.469 Y19.715 Z-5.705
X50.633 Y19.768 Z-5.711
X50.792 Y19.835 Z-5.717
X50.945 Y19.916 Z-5.723
X51.089 Y20.01 Z-5.729
X51.224 Y20.118 Z-5.735
X51.349 Y20.237 Z-5.741
X51.462 Y20.367 Z-5.747
X51.563 Y20.506 Z-5.753
X51.651 Y20.655 Z-5.759
X51.726 Y20.81 Z-5.765
X51.786 Y20.972 Z-5.771
X51.831 Y21.138 Z-5.777
X51.86 Y21.308 Z-5.783
X51.875 Y21.48 Z-5.789
X51.873 Y21.653 Z-5.795
X51.856 Y21.824 Z-5.801
X51.823 Y21.994 Z-5.807
X51.775 Y22.159 Z-5.813
X51.713 Y22.32 Z-5.819
X51.636 Y22.474 Z-5.825
X51.545 Y22.621 Z-5.831
X51.442 Y22.759 Z-5.837
X51.326 Y22.887 Z-5.843
X51.199 Y23.004 Z-5.849
X51.062 Y23.109 Z-5.855
X50.916 Y23.201 Z-5.861
X50.763 Y23.28 Z-5.867
X50.603 Y23.344 Z-5.873
X50.437 Y23.393 Z-5.879
X50.268 Y23.428 Z-5.886
X50.097 Y23.446 Z-5.892
X49.925 Y23.449 Z-5.898
X49.753 Y23.437 Z-5.904
X49.582 Y23.409 Z-5.91
X49.415 Y23.366 Z-5.916
X49.253 Y23.307 Z-5.922
X49.097 Y23.235 Z-5.928
X48.948 Y23.148 Z-5.934
X48.807 Y23.048 Z-5.94
X48.676 Y22.936 Z-5.946
X48.556 Y22.812 Z-5.952
X48.447 Y22.678 Z-5.958
X48.351 Y22.535 Z-5.964
X48.268 Y22.384 Z-5.97
X48.2 Y22.225 Z-5.976
X48.146 Y22.061 Z-5.982
X48.107 Y21.893 Z-5.988
X48.084 Y21.722 Z-5.994
X48.076 Y21.55 Z-6.
X48.083 Y21.52
X48.102 Y21.495
X48.131 Y21.482
X48.162
X48.19 Y21.495
X48.21 Y21.52
X48.216 Y21.55
G3 X46.946 Y22.821 R1.27
X45.676 Y21.55 R1.27
X48.146 Y19.08 R2.47
X50.616 Y21.55 R2.47
X46.946 Y25.221 R3.67
X43.276 Y21.55 R3.67
X46.946 Y17.88 R3.67
X50.616 Y21.55 R3.67
G2 X51.553 Y23.058 R1.682
G3 X52.075 Y24.603 R1.153
X51.963 Y24.785 R1.153
G1 X51.319 Y25.64
X51.139 Y25.804
X50.26 Y26.545
X50.21 Y26.576
X49.04 Y27.156
X47.862 Y27.464
X46.628 Y27.525
X45.419 Y27.336
X44.194 Y26.871
X44.179 Y26.863
X43.254 Y26.236
X43.039 Y26.081
X42.377 Y25.382
X42.147 Y25.12
X41.531 Y24.088
X41.489 Y23.998
X41.123 Y22.911
X41.09 Y22.769
X40.964 Y21.569
Y21.489
X41.097 Y20.301
X41.134 Y20.155
X41.321 Y19.601
X41.502 Y19.067
X41.518 Y19.036
X42.146 Y17.981
X42.364 Y17.731
X43.042 Y17.016
X43.231 Y16.877
X44.181 Y16.237
X44.258 Y16.204
X45.402 Y15.771
X45.551 Y15.744
X46.628 Y15.575
X47.862 Y15.636
X49.04 Y15.944
X50.242 Y16.542
X50.286 Y16.572
X51.228 Y17.371
X51.316 Y17.456
X52.082 Y18.471
X52.097 Y18.5
X52.616 Y19.628
X52.899 Y20.916
Y22.199
X52.628 Y23.438
X52.537 Y23.65
X52.09 Y24.615
X51.963 Y24.785
X51.922 Y24.832 Z-5.99
X51.874 Y24.871 Z-5.98
X51.827 Y24.9 Z-5.952
X51.775 Y24.922 Z-5.924
X51.733 Y24.934 Z-5.879
X51.689 Y24.942 Z-5.835
X51.633 Y24.944 Z-5.724
X51.613 Y24.943 Z-5.6
G0 Z5.
X38.251 Y14.531
Z-2.067
G1 X38.245 Y14.549 Z-2.188 F1500.
X38.226 Y14.6 Z-2.297
X38.191 Y14.677 Z-2.385
X38.139 Y14.771 Z-2.444
X38.07 Y14.87 Z-2.467
X37.982 Y14.97 Z-2.471
X37.883 Y15.058 Z-2.476
X37.773 Y15.134 Z-2.481
X37.656 Y15.196 Z-2.485
X37.532 Y15.244 Z-2.49
X37.402 Y15.276 Z-2.494
X37.27 Y15.293 Z-2.499
X37.137 Y15.294 Z-2.504
X37.005 Y15.279 Z-2.508
X36.876 Y15.248 Z-2.513
X36.751 Y15.202 Z-2.518
X36.633 Y15.141 Z-2.522
X36.522 Y15.067 Z-2.527
X36.422 Y14.98 Z-2.532
X36.332 Y14.881 Z-2.536
X36.255 Y14.772 Z-2.541
X36.192 Y14.655 Z-2.546
X36.143 Y14.532 Z-2.55
X36.109 Y14.403 Z-2.555
X36.091 Y14.271 Z-2.56
X36.089 Y14.138 Z-2.564
X36.103 Y14.006 Z-2.569
X36.132 Y13.876 Z-2.574
X36.177 Y13.751 Z-2.578
X36.237 Y13.632 Z-2.583
X36.31 Y13.521 Z-2.587
X36.396 Y13.419 Z-2.592
X36.494 Y13.329 Z-2.597
X36.602 Y13.251 Z-2.601
X36.718 Y13.186 Z-2.606
X36.841 Y13.136 Z-2.611
X36.97 Y13.101 Z-2.615
X37.101 Y13.082 Z-2.62
X37.234 Y13.078 Z-2.625
X37.367 Y13.091 Z-2.629
X37.497 Y13.119 Z-2.634
X37.622 Y13.163 Z-2.639
X37.742 Y13.221 Z-2.643
X37.854 Y13.293 Z-2.648
X37.956 Y13.378 Z-2.653
X38.047 Y13.475 Z-2.657
X38.126 Y13.582 Z-2.662
X38.192 Y13.698 Z-2.667
X38.244 Y13.821 Z-2.671
X38.28 Y13.949 Z-2.676
X38.301 Y14.08 Z-2.68
X38.305 Y14.213 Z-2.685
X38.294 Y14.346 Z-2.69
X38.267 Y14.476 Z-2.694
X38.225 Y14.602 Z-2.699
X38.168 Y14.722 Z-2.704
X38.097 Y14.835 Z-2.708
X38.013 Y14.938 Z-2.713
X37.917 Y15.03 Z-2.718
X37.811 Y15.11 Z-2.722
X37.696 Y15.177 Z-2.727
X37.573 Y15.23 Z-2.732
X37.446 Y15.267 Z-2.736
X37.314 Y15.289 Z-2.741
X37.182 Y15.295 Z-2.746
X37.049 Y15.286 Z-2.75
X36.918 Y15.26 Z-2.755
X36.792 Y15.219 Z-2.759
X36.671 Y15.163 Z-2.764
X36.558 Y15.093 Z-2.769
X36.454 Y15.01 Z-2.773
X36.361 Y14.915 Z-2.778
X36.28 Y14.809 Z-2.783
X36.212 Y14.695 Z-2.787
X36.158 Y14.573 Z-2.792
X36.119 Y14.446 Z-2.797
X36.096 Y14.315 Z-2.801
X36.088 Y14.182 Z-2.806
X36.097 Y14.05 Z-2.811
X36.121 Y13.919 Z-2.815
X36.161 Y13.792 Z-2.82
X36.215 Y13.671 Z-2.825
X36.284 Y13.557 Z-2.829
X36.366 Y13.452 Z-2.834
X36.46 Y13.358 Z-2.839
X36.565 Y13.275 Z-2.843
X36.679 Y13.206 Z-2.848
X36.8 Y13.151 Z-2.852
X36.927 Y13.111 Z-2.857
X37.057 Y13.087 Z-2.862
X37.19 Y13.078 Z-2.866
X37.323 Y13.085 Z-2.871
X37.454 Y13.108 Z-2.876
X37.581 Y13.147 Z-2.88
X37.703 Y13.2 Z-2.885
X37.818 Y13.268 Z-2.89
X37.923 Y13.349 Z-2.894
X38.018 Y13.442 Z-2.899
X38.102 Y13.546 Z-2.904
X38.172 Y13.659 Z-2.908
X38.228 Y13.779 Z-2.913
X38.27 Y13.906 Z-2.918
X38.295 Y14.036 Z-2.922
X38.306 Y14.169 Z-2.927
X38.3 Y14.302 Z-2.932
X38.278 Y14.433 Z-2.936
X38.241 Y14.561 Z-2.941
X38.188 Y14.683 Z-2.945
X38.122 Y14.798 Z-2.95
X38.042 Y14.905 Z-2.955
X37.95 Y15.001 Z-2.959
X37.847 Y15.085 Z-2.964
X37.735 Y15.156 Z-2.969
X37.615 Y15.214 Z-2.973
X37.489 Y15.256 Z-2.978
X37.358 Y15.284 Z-2.983
X37.226 Y15.295 Z-2.987
X37.093 Y15.291 Z-2.992
X36.961 Y15.27 Z-2.997
X36.833 Y15.234 Z-3.001
X36.71 Y15.183 Z-3.006
X36.595 Y15.118 Z-3.011
X36.487 Y15.039 Z-3.015
X36.39 Y14.948 Z-3.02
X36.305 Y14.845 Z-3.024
X36.233 Y14.734 Z-3.029
X36.174 Y14.614 Z-3.034
X36.13 Y14.489 Z-3.038
X36.102 Y14.359 Z-3.043
X36.089 Y14.226 Z-3.048
X36.092 Y14.093 Z-3.052
X36.111 Y13.962 Z-3.057
X36.146 Y13.833 Z-3.062
X36.196 Y13.71 Z-3.066
X36.26 Y13.594 Z-3.071
X36.338 Y13.486 Z-3.076
X36.428 Y13.388 Z-3.08
X36.529 Y13.301 Z-3.085
X36.64 Y13.228 Z-3.09
X36.759 Y13.168 Z-3.094
X36.884 Y13.123 Z-3.099
X37.014 Y13.093 Z-3.104
X37.146 Y13.079 Z-3.108
X37.279 Y13.081 Z-3.113
X37.411 Y13.099 Z-3.117
X37.54 Y13.132 Z-3.122
X37.663 Y13.181 Z-3.127
X37.781 Y13.244 Z-3.131
X37.889 Y13.321 Z-3.136
X37.988 Y13.41 Z-3.141
X38.075 Y13.51 Z-3.145
X38.15 Y13.62 Z-3.15
X38.211 Y13.738 Z-3.155
X38.258 Y13.863 Z-3.159
X38.289 Y13.992 Z-3.164
X38.304 Y14.125 Z-3.169
X38.303 Y14.258 Z-3.173
X38.287 Y14.39 Z-3.178
X38.255 Y14.519 Z-3.183
X38.207 Y14.643 Z-3.187
X38.145 Y14.761 Z-3.192
X38.07 Y14.87 Z-3.197
X37.982 Y14.97 Z-3.201
X37.882 Y15.058 Z-3.206
X37.773 Y15.134 Z-3.21
X37.655 Y15.196 Z-3.215
X37.531 Y15.244 Z-3.22
X37.402 Y15.276 Z-3.224
X37.27 Y15.293 Z-3.229
X37.137 Y15.294 Z-3.234
X37.005 Y15.279 Z-3.238
X36.875 Y15.248 Z-3.243
X36.75 Y15.202 Z-3.248
X36.632 Y15.141 Z-3.252
X36.522 Y15.066 Z-3.257
X36.421 Y14.979 Z-3.262
X36.332 Y14.88 Z-3.266
X36.255 Y14.772 Z-3.271
X36.192 Y14.655 Z-3.276
X36.143 Y14.531 Z-3.28
X36.109 Y14.402 Z-3.285
X36.091 Y14.271 Z-3.289
X36.089 Y14.138 Z-3.294
X36.103 Y14.005 Z-3.299
X36.133 Y13.875 Z-3.303
X36.178 Y13.75 Z-3.308
X36.237 Y13.631 Z-3.313
X36.311 Y13.52 Z-3.317
X36.397 Y13.419 Z-3.322
X36.494 Y13.329 Z-3.327
X36.602 Y13.251 Z-3.331
X36.719 Y13.186 Z-3.336
X36.842 Y13.136 Z-3.341
X36.97 Y13.101 Z-3.345
X37.102 Y13.082 Z-3.35
X37.235 Y13.078 Z-3.355
X37.367 Y13.091 Z-3.359
X37.497 Y13.119 Z-3.364
X37.623 Y13.163 Z-3.369
X37.743 Y13.221 Z-3.373
X37.854 Y13.294 Z-3.378
X37.957 Y13.379 Z-3.382
X38.048 Y13.476 Z-3.387
X38.127 Y13.583 Z-3.392
X38.192 Y13.698 Z-3.396
X38.244 Y13.821 Z-3.401
X38.28 Y13.949 Z-3.406
X38.301 Y14.081 Z-3.41
X38.305 Y14.214 Z-3.415
X38.294 Y14.346 Z-3.42
X38.267 Y14.476 Z-3.424
X38.225 Y14.603 Z-3.429
X38.168 Y14.723 Z-3.434
X38.096 Y14.835 Z-3.438
X38.012 Y14.938 Z-3.443
X37.916 Y15.03 Z-3.448
X37.81 Y15.11 Z-3.452
X37.695 Y15.177 Z-3.457
X37.573 Y15.23 Z-3.462
X37.445 Y15.267 Z-3.466
X37.314 Y15.289 Z-3.471
X37.181 Y15.295 Z-3.475
X37.048 Y15.285 Z-3.48
X36.918 Y15.26 Z-3.485
X36.791 Y15.219 Z-3.489
X36.671 Y15.163 Z-3.494
X36.557 Y15.092 Z-3.499
X36.454 Y15.009 Z-3.503
X36.36 Y14.914 Z-3.508
X36.117 Y14.635
X36.105 Y14.621
X34.992 Y13.389
X34.903 Y13.302
X34.805 Y13.218
X34.739 Y13.166
X34.618 Y13.078
X39.785
X39.617 Y13.2
X39.532 Y13.269
X39.476 Y13.32
X39.407 Y13.39
X38.055 Y14.889
X38.013 Y14.939
X37.975 Y14.992
X37.888 Y15.117
X37.846 Y15.185
X37.2 Y16.305
X36.507 Y15.11
X36.455 Y15.031
X36.396 Y14.956
X36.36 Y14.914
G3 X36.377 Y14.676 R0.169
X36.457 Y14.638 R0.169
G1 X37.241 Y14.494
X38.026 Y14.366
G3 X38.22 Y14.506 R0.169
X38.21 Y14.596 R0.169
G1 X38.153 Y14.715 Z-3.513
X38.083 Y14.826 Z-3.517
X37.999 Y14.928 Z-3.522
X37.904 Y15.019 Z-3.526
X37.799 Y15.098 Z-3.531
X37.685 Y15.164 Z-3.536
X37.564 Y15.216 Z-3.54
X37.438 Y15.252 Z-3.545
X37.308 Y15.274 Z-3.549
X37.177 Y15.279 Z-3.554
X37.045 Y15.269 Z-3.559
X36.916 Y15.243 Z-3.563
X36.791 Y15.201 Z-3.568
X36.672 Y15.145 Z-3.572
X36.561 Y15.075 Z-3.577
X36.459 Y14.992 Z-3.582
X36.367 Y14.898 Z-3.586
X36.288 Y14.793 Z-3.591
X36.222 Y14.679 Z-3.595
X36.169 Y14.558 Z-3.6
X36.132 Y14.432 Z-3.605
X36.11 Y14.302 Z-3.609
X36.104 Y14.171 Z-3.614
X36.114 Y14.04 Z-3.618
X36.14 Y13.911 Z-3.623
X36.181 Y13.786 Z-3.628
X36.236 Y13.666 Z-3.632
X36.306 Y13.555 Z-3.637
X36.388 Y13.452 Z-3.641
X36.483 Y13.36 Z-3.646
X36.587 Y13.28 Z-3.651
X36.701 Y13.214 Z-3.655
X36.821 Y13.161 Z-3.66
X36.947 Y13.123 Z-3.664
X37.077 Y13.101 Z-3.669
X37.209 Y13.095 Z-3.674
X37.34 Y13.104 Z-3.678
X37.469 Y13.129 Z-3.683
X37.594 Y13.169 Z-3.687
X37.714 Y13.225 Z-3.692
X37.826 Y13.294 Z-3.697
X37.928 Y13.376 Z-3.701
X38.021 Y13.47 Z-3.706
X38.101 Y13.574 Z-3.71
X38.168 Y13.687 Z-3.715
X38.221 Y13.808 Z-3.72
X38.259 Y13.934 Z-3.724
X38.282 Y14.063 Z-3.729
X38.289 Y14.195 Z-3.733
X38.28 Y14.326 Z-3.738
X38.256 Y14.455 Z-3.743
X38.216 Y14.581 Z-3.747
X38.161 Y14.7 Z-3.752
X38.092 Y14.813 Z-3.756
X38.01 Y14.916 Z-3.761
X37.917 Y15.008 Z-3.765
X37.813 Y15.089 Z-3.77
X37.7 Y15.156 Z-3.775
X37.58 Y15.21 Z-3.779
X37.454 Y15.249 Z-3.784
X37.324 Y15.272 Z-3.788
X37.193 Y15.279 Z-3.793
X37.062 Y15.271 Z-3.798
X36.932 Y15.247 Z-3.802
X36.807 Y15.207 Z-3.807
X36.687 Y15.153 Z-3.811
X36.575 Y15.085 Z-3.816
X36.471 Y15.004 Z-3.821
X36.378 Y14.91 Z-3.825
X36.297 Y14.807 Z-3.83
X36.229 Y14.694 Z-3.834
X36.175 Y14.574 Z-3.839
X36.136 Y14.448 Z-3.844
X36.112 Y14.319 Z-3.848
X36.104 Y14.188 Z-3.853
X36.112 Y14.056 Z-3.857
X36.136 Y13.927 Z-3.862
X36.175 Y13.801 Z-3.867
X36.229 Y13.681 Z-3.871
X36.296 Y13.568 Z-3.876
X36.377 Y13.464 Z-3.88
X36.47 Y13.371 Z-3.885
X36.574 Y13.29 Z-3.89
X36.686 Y13.221 Z-3.894
X36.806 Y13.167 Z-3.899
X36.931 Y13.127 Z-3.903
X37.061 Y13.103 Z-3.908
X37.192 Y13.095 Z-3.913
X37.323 Y13.102 Z-3.917
X37.453 Y13.125 Z-3.922
X37.579 Y13.164 Z-3.926
X37.699 Y13.217 Z-3.931
X37.812 Y13.284 Z-3.936
X37.916 Y13.365 Z-3.94
X38.01 Y13.457 Z-3.945
X38.092 Y13.56 Z-3.949
X38.16 Y13.673 Z-3.954
X38.215 Y13.792 Z-3.959
X38.255 Y13.918 Z-3.963
X38.28 Y14.047 Z-3.968
X38.289 Y14.178 Z-3.972
X38.282 Y14.309 Z-3.977
X38.26 Y14.439 Z-3.982
X38.222 Y14.565 Z-3.986
X38.169 Y14.686 Z-3.991
X38.102 Y14.799 Z-3.995
X38.021 Y14.903 Z-4.
X37.974 Y14.962
X37.932 Y15.024
X37.773 Y15.274
X37.751 Y15.31
X37.2 Y16.269
X36.524 Y15.106
X36.473 Y15.027
X36.415 Y14.953
X36.119 Y14.611
X36.105 Y14.596
X35.016 Y13.389
X34.937 Y13.311
X34.834 Y13.219
X34.757 Y13.158
X34.67 Y13.095
X39.734
X39.599 Y13.193
X39.503 Y13.273
X39.441 Y13.331
X39.383 Y13.39
X38.033 Y14.89
X38.021 Y14.903
X37.978 Y14.947 Z-3.99
X37.927 Y14.983 Z-3.98
X37.878 Y15.008 Z-3.952
X37.825 Y15.027 Z-3.924
X37.782 Y15.036 Z-3.879
X37.738 Y15.04 Z-3.835
X37.681 Y15.039 Z-3.724
X37.662 Y15.037 Z-3.6
G0 Z5.
X32.262 Y21.191
Z-2.067
G1 X32.266 Y21.209 Z-2.188 F1500.
X32.275 Y21.263 Z-2.297
X32.286 Y21.347 Z-2.385
X32.294 Y21.454 Z-2.444
X32.297 Y21.574 Z-2.467
X32.287 Y21.747 Z-2.473
X32.261 Y21.919 Z-2.479
X32.22 Y22.087 Z-2.485
X32.163 Y22.251 Z-2.491
X32.092 Y22.409 Z-2.497
X32.007 Y22.56 Z-2.503
X31.908 Y22.703 Z-2.509
X31.797 Y22.835 Z-2.515
X31.674 Y22.958 Z-2.521
X31.541 Y23.068 Z-2.527
X31.398 Y23.166 Z-2.533
X31.246 Y23.251 Z-2.539
X31.088 Y23.321 Z-2.545
X30.924 Y23.377 Z-2.551
X30.755 Y23.417 Z-2.557
X30.584 Y23.442 Z-2.563
X30.411 Y23.451 Z-2.57
X30.237 Y23.444 Z-2.576
X30.065 Y23.422 Z-2.582
X29.896 Y23.384 Z-2.588
X29.731 Y23.331 Z-2.594
X29.572 Y23.263 Z-2.6
X29.419 Y23.18 Z-2.606
X29.275 Y23.085 Z-2.612
X29.14 Y22.976 Z-2.618
X29.015 Y22.856 Z-2.624
X28.902 Y22.724 Z-2.63
X28.802 Y22.583 Z-2.636
X28.714 Y22.433 Z-2.642
X28.641 Y22.276 Z-2.648
X28.582 Y22.113 Z-2.654
X28.538 Y21.946 Z-2.66
X28.51 Y21.775 Z-2.666
X28.498 Y21.602 Z-2.672
X28.501 Y21.428 Z-2.679
X28.52 Y21.256 Z-2.685
X28.555 Y21.086 Z-2.691
X28.605 Y20.92 Z-2.697
X28.669 Y20.76 Z-2.703
X28.749 Y20.606 Z-2.709
X28.842 Y20.459 Z-2.715
X28.948 Y20.322 Z-2.721
X29.066 Y20.195 Z-2.727
X29.195 Y20.08 Z-2.733
X29.334 Y19.976 Z-2.739
X29.482 Y19.886 Z-2.745
X29.637 Y19.809 Z-2.751
X29.799 Y19.748 Z-2.757
X29.966 Y19.701 Z-2.763
X30.137 Y19.669 Z-2.769
X30.309 Y19.653 Z-2.775
X30.482 Z-2.781
X30.655 Y19.669 Z-2.787
X30.826 Y19.7 Z-2.794
X30.992 Y19.747 Z-2.8
X31.154 Y19.809 Z-2.806
X31.31 Y19.885 Z-2.812
X31.458 Y19.975 Z-2.818
X31.597 Y20.078 Z-2.824
X31.726 Y20.194 Z-2.83
X31.845 Y20.321 Z-2.836
X31.951 Y20.458 Z-2.842
X32.044 Y20.604 Z-2.848
X32.123 Y20.758 Z-2.854
X32.188 Y20.919 Z-2.86
X32.239 Y21.084 Z-2.866
X32.273 Y21.254 Z-2.872
X32.293 Y21.426 Z-2.878
X32.296 Y21.6 Z-2.884
X32.284 Y21.773 Z-2.89
X32.256 Y21.944 Z-2.896
X32.212 Y22.111 Z-2.903
X32.154 Y22.275 Z-2.909
X32.08 Y22.432 Z-2.915
X31.993 Y22.581 Z-2.921
X31.893 Y22.723 Z-2.927
X31.78 Y22.854 Z-2.933
X31.655 Y22.975 Z-2.939
X31.52 Y23.083 Z-2.945
X31.376 Y23.179 Z-2.951
X31.223 Y23.262 Z-2.957
X31.064 Y23.33 Z-2.963
X30.899 Y23.383 Z-2.969
X30.73 Y23.422 Z-2.975
X30.558 Y23.444 Z-2.981
X30.385 Y23.451 Z-2.987
X30.212 Y23.442 Z-2.993
X30.041 Y23.417 Z-2.999
X29.872 Y23.377 Z-3.005
X29.708 Y23.322 Z-3.012
X29.549 Y23.252 Z-3.018
X29.398 Y23.167 Z-3.024
X29.255 Y23.069 Z-3.03
X29.121 Y22.959 Z-3.036
X28.998 Y22.837 Z-3.042
X28.887 Y22.704 Z-3.048
X28.788 Y22.562 Z-3.054
X28.703 Y22.411 Z-3.06
X28.631 Y22.253 Z-3.066
X28.575 Y22.089 Z-3.072
X28.533 Y21.921 Z-3.078
X28.507 Y21.749 Z-3.084
X28.497 Y21.576 Z-3.09
X28.503 Y21.403 Z-3.096
X28.524 Y21.231 Z-3.102
X28.561 Y21.062 Z-3.108
X28.613 Y20.897 Z-3.114
X28.68 Y20.737 Z-3.121
X28.762 Y20.584 Z-3.127
X28.856 Y20.439 Z-3.133
X28.964 Y20.303 Z-3.139
X29.084 Y20.178 Z-3.145
X29.215 Y20.064 Z-3.151
X29.355 Y19.962 Z-3.157
X29.504 Y19.874 Z-3.163
X29.661 Y19.799 Z-3.169
X29.823 Y19.74 Z-3.175
X29.991 Y19.695 Z-3.181
X30.162 Y19.666 Z-3.187
X30.334 Y19.652 Z-3.193
X30.508 Y19.654 Z-3.199
X30.68 Y19.672 Z-3.205
X30.85 Y19.706 Z-3.211
X31.016 Y19.755 Z-3.217
X31.178 Y19.819 Z-3.223
X31.332 Y19.897 Z-3.229
X31.479 Y19.989 Z-3.236
X31.617 Y20.094 Z-3.242
X31.744 Y20.212 Z-3.248
X31.861 Y20.34 Z-3.254
X31.965 Y20.479 Z-3.26
X32.056 Y20.626 Z-3.266
X32.134 Y20.781 Z-3.272
X32.197 Y20.943 Z-3.278
X32.245 Y21.109 Z-3.284
X32.277 Y21.279 Z-3.29
X32.294 Y21.452 Z-3.296
X32.295 Y21.625 Z-3.302
X32.281 Y21.798 Z-3.308
X32.25 Y21.968 Z-3.314
X32.205 Y22.136 Z-3.32
X32.144 Y22.298 Z-3.326
X32.069 Y22.454 Z-3.332
X31.979 Y22.603 Z-3.338
X31.877 Y22.742 Z-3.345
X31.762 Y22.872 Z-3.351
X31.636 Y22.991 Z-3.357
X31.5 Y23.098 Z-3.363
X31.354 Y23.192 Z-3.369
X31.201 Y23.273 Z-3.375
X31.04 Y23.339 Z-3.381
X30.875 Y23.39 Z-3.387
X30.705 Y23.426 Z-3.393
X30.533 Y23.446 Z-3.399
X30.36 Y23.451 Z-3.405
X30.187 Y23.439 Z-3.411
X30.016 Y23.412 Z-3.417
X29.848 Y23.37 Z-3.423
X29.684 Y23.312 Z-3.429
X29.527 Y23.24 Z-3.435
X29.376 Y23.154 Z-3.441
X29.235 Y23.054 Z-3.447
X29.102 Y22.942 Z-3.454
X28.981 Y22.818 Z-3.46
X28.871 Y22.684 Z-3.466
X28.775 Y22.54 Z-3.472
X28.691 Y22.388 Z-3.478
X28.622 Y22.229 Z-3.484
X28.568 Y22.065 Z-3.49
X28.528 Y21.896 Z-3.496
X28.505 Y21.724 Z-3.502
X28.497 Y21.551 Z-3.508
G3 X28.649 Y21.399 R0.152
X28.801 Y21.551 R0.152
X27.449 Y22.903 R1.352
X26.097 Y21.551 R1.352
X28.649 Y18.999 R2.552
X31.201 Y21.551 R2.552
X27.449 Y25.303 R3.752
X23.697 Y21.551 R3.752
X27.449 Y17.799 R3.752
X31.201 Y21.551 R3.752
G2 X32.147 Y23.061 R1.678
G3 X32.682 Y24.598 R1.151
X32.561 Y24.794 R1.151
G1 X31.84 Y25.741
X30.851 Y26.581
X29.701 Y27.188
X28.435 Y27.54
X27.135 Y27.611
X26.993 Y27.592
X25.844 Y27.404
X25.696 Y27.351
X24.622 Y26.923
X23.535 Y26.187
X22.622 Y25.23
X22.586 Y25.175
X21.943 Y24.106
X21.934 Y24.082
X21.519 Y22.842
X21.379 Y21.557
X21.518 Y20.261
X21.564 Y20.116
X21.778 Y19.479
X21.949 Y18.984
X22.605 Y17.895
X23.531 Y16.915
X24.621 Y16.178
X25.83 Y15.699
X27.12 Y15.488
X28.451 Y15.564
X29.681 Y15.904
X29.893 Y16.01
X30.852 Y16.52
X31.853 Y17.37
X32.644 Y18.409
X32.685 Y18.491
X33.206 Y19.626
X33.485 Y20.915
Y22.199
X33.203 Y23.486
X32.658 Y24.668
X32.561 Y24.794
G3 X32.423 Y24.872 R0.2
X32.272 Y24.825 R0.2
G1 X31.229 Y23.927
X31.195 Y23.904
X29.882 Y23.179
X29.858 Y23.171
X29.833 Y23.172
X29.81 Y23.181
X29.672 Y23.265
X29.65 Y23.274
X29.627 Y23.275
X29.605 Y23.269
X29.451 Y23.188 Z-3.514
X29.305 Y23.093 Z-3.52
X29.168 Y22.986 Z-3.526
X29.042 Y22.866 Z-3.532
X28.928 Y22.735 Z-3.538
X28.825 Y22.595 Z-3.544
X28.736 Y22.445 Z-3.551
X28.662 Y22.288 Z-3.557
X28.601 Y22.125 Z-3.563
X28.556 Y21.957 Z-3.569
X28.527 Y21.786 Z-3.575
X28.513 Y21.613 Z-3.581
X28.515 Y21.439 Z-3.587
X28.533 Y21.266 Z-3.593
X28.567 Y21.095 Z-3.599
X28.616 Y20.928 Z-3.605
X28.68 Y20.767 Z-3.611
X28.759 Y20.612 Z-3.617
X28.852 Y20.465 Z-3.623
X28.957 Y20.327 Z-3.629
X29.075 Y20.199 Z-3.636
X29.204 Y20.082 Z-3.642
X29.343 Y19.978 Z-3.648
X29.491 Y19.887 Z-3.654
X29.647 Y19.81 Z-3.66
X29.809 Y19.747 Z-3.666
X29.977 Y19.699 Z-3.672
X30.147 Y19.667 Z-3.678
X30.321 Y19.651 Z-3.684
X30.494 Z-3.69
X30.668 Y19.666 Z-3.696
X30.839 Y19.697 Z-3.702
X31.006 Y19.744 Z-3.708
X31.169 Y19.806 Z-3.715
X31.325 Y19.883 Z-3.721
X31.473 Y19.973 Z-3.727
X31.613 Y20.077 Z-3.733
X31.742 Y20.193 Z-3.739
X31.861 Y20.32 Z-3.745
X31.967 Y20.458 Z-3.751
X32.06 Y20.604 Z-3.757
X32.14 Y20.759 Z-3.763
X32.205 Y20.92 Z-3.769
X32.255 Y21.087 Z-3.775
X32.289 Y21.257 Z-3.781
X32.308 Y21.43 Z-3.787
X32.311 Y21.604 Z-3.793
X32.298 Y21.777 Z-3.8
X32.269 Y21.949 Z-3.806
X32.225 Y22.117 Z-3.812
X32.165 Y22.28 Z-3.818
X32.091 Y22.438 Z-3.824
X32.003 Y22.587 Z-3.83
X31.901 Y22.728 Z-3.836
X31.787 Y22.86 Z-3.842
X31.662 Y22.98 Z-3.848
X31.526 Y23.088 Z-3.854
X31.38 Y23.184 Z-3.86
X31.227 Y23.265 Z-3.866
X31.066 Y23.333 Z-3.872
X30.9 Y23.385 Z-3.879
X30.731 Y23.422 Z-3.885
X30.558 Y23.443 Z-3.891
X30.384 Y23.449 Z-3.897
X30.211 Y23.438 Z-3.903
X30.039 Y23.412 Z-3.909
X29.87 Y23.37 Z-3.915
X29.706 Y23.313 Z-3.921
X29.548 Y23.241 Z-3.927
X29.396 Y23.155 Z-3.933
X29.254 Y23.055 Z-3.939
X29.121 Y22.943 Z-3.945
X28.999 Y22.819 Z-3.951
X28.889 Y22.685 Z-3.957
X28.791 Y22.541 Z-3.964
X28.707 Y22.388 Z-3.97
X28.638 Y22.229 Z-3.976
X28.583 Y22.064 Z-3.982
X28.544 Y21.895 Z-3.988
X28.52 Y21.723 Z-3.994
X28.512 Y21.549 Z-4.
G3 X28.648 Y21.412 R0.136
X28.785 Y21.549 R0.136
X27.448 Y22.885 R1.336
X26.112 Y21.549 R1.336
X28.648 Y19.012 R2.536
X31.185 Y21.549 R2.536
X27.448 Y25.285 R3.736
X23.712 Y21.549 R3.736
X27.448 Y17.812 R3.736
X31.185 Y21.549 R3.736
G2 X32.13 Y23.058 R1.678
G3 X32.663 Y24.596 R1.151
X32.544 Y24.791 R1.151
G1 X31.832 Y25.727
X30.846 Y26.564
X29.898 Y27.07
X29.653 Y27.189
X28.437 Y27.522
X27.143 Y27.594
X26.5 Y27.496
X25.858 Y27.391
X24.63 Y26.911
X23.543 Y26.174
X22.635 Y25.22
X21.947 Y24.073
X21.534 Y22.842
X21.394 Y21.557
X21.533 Y20.268
X21.662 Y19.872
X21.953 Y19.008
X22.634 Y17.88
X23.537 Y16.929
X24.621 Y16.195
X25.847 Y15.711
X27.123 Y15.504
X28.437 Y15.578
X29.664 Y15.914
X29.897 Y16.029
X30.818 Y16.516
X30.849 Y16.539
X31.835 Y17.376
X32.625 Y18.411
X33.19 Y19.628
X33.468 Y20.915
Y22.199
X33.187 Y23.486
X32.644 Y24.658
X32.544 Y24.791
G3 X32.404 Y24.869 R0.2
X32.252 Y24.819 R0.2
G1 X31.169 Y23.856
X31.139 Y23.835
X30.281 Y23.314
X30.252 Y23.305
X30.222 Y23.308
X30.195 Y23.323
X30.12 Y23.395
X30.101 Y23.407
X30.08 Y23.413
X30.057
X29.889 Y23.371 Z-4.006
X29.726 Y23.314 Z-4.012
X29.568 Y23.243 Z-4.018
X29.417 Y23.157 Z-4.024
X29.275 Y23.058 Z-4.03
X29.143 Y22.947 Z-4.036
X29.021 Y22.824 Z-4.042
X28.911 Y22.69 Z-4.048
X28.813 Y22.547 Z-4.054
X28.729 Y22.396 Z-4.06
X28.659 Y22.238 Z-4.067
X28.604 Y22.074 Z-4.073
X28.564 Y21.905 Z-4.079
X28.539 Y21.734 Z-4.085
X28.53 Y21.561 Z-4.091
X28.537 Y21.388 Z-4.097
X28.56 Y21.216 Z-4.103
X28.598 Y21.047 Z-4.109
X28.651 Y20.883 Z-4.115
X28.719 Y20.724 Z-4.121
X28.801 Y20.571 Z-4.127
X28.897 Y20.427 Z-4.133
X29.006 Y20.292 Z-4.139
X29.126 Y20.168 Z-4.145
X29.257 Y20.055 Z-4.151
X29.398 Y19.954 Z-4.157
X29.548 Y19.867 Z-4.163
X29.704 Y19.794 Z-4.169
X29.867 Y19.735 Z-4.175
X30.035 Y19.691 Z-4.181
X30.206 Y19.663 Z-4.187
X30.378 Y19.65 Z-4.194
X30.551 Y19.653 Z-4.2
X30.723 Y19.672 Z-4.206
X30.893 Y19.707 Z-4.212
X31.059 Y19.757 Z-4.218
X31.219 Y19.821 Z-4.224
X31.373 Y19.9 Z-4.23
X31.52 Y19.993 Z-4.236
X31.657 Y20.099 Z-4.242
X31.784 Y20.216 Z-4.248
X31.9 Y20.345 Z-4.254
X32.003 Y20.484 Z-4.26
X32.094 Y20.631 Z-4.266
X32.17 Y20.787 Z-4.272
X32.232 Y20.948 Z-4.278
X32.28 Y21.115 Z-4.284
X32.312 Y21.285 Z-4.29
X32.328 Y21.457 Z-4.296
Y21.63 Z-4.302
X32.313 Y21.803 Z-4.308
X32.282 Y21.973 Z-4.314
X32.236 Y22.14 Z-4.321
X32.175 Y22.302 Z-4.327
X32.099 Y22.458 Z-4.333
X32.009 Y22.606 Z-4.339
X31.907 Y22.745 Z-4.345
X31.792 Y22.875 Z-4.351
X31.666 Y22.993 Z-4.357
X31.529 Y23.1 Z-4.363
X31.383 Y23.193 Z-4.369
X31.23 Y23.273 Z-4.375
X31.07 Y23.339 Z-4.381
X30.904 Y23.389 Z-4.387
X30.735 Y23.425 Z-4.393
X30.563 Y23.445 Z-4.399
X30.39 Y23.449 Z-4.405
X30.217 Y23.438 Z-4.411
X30.046 Y23.41 Z-4.417
X29.878 Y23.368 Z-4.423
X29.715 Y23.31 Z-4.429
X29.558 Y23.237 Z-4.435
X29.408 Y23.151 Z-4.441
X29.266 Y23.051 Z-4.448
X29.134 Y22.939 Z-4.454
X29.013 Y22.815 Z-4.46
X28.904 Y22.681 Z-4.466
X28.807 Y22.538 Z-4.472
X28.724 Y22.386 Z-4.478
X28.655 Y22.227 Z-4.484
X28.601 Y22.063 Z-4.49
X28.562 Y21.894 Z-4.496
X28.538 Y21.723 Z-4.502
X28.53 Y21.55 Z-4.508
X28.537 Y21.509
X28.558 Y21.473
X28.59 Y21.446
X28.629 Y21.432
X28.67
X28.709 Y21.446
X28.741 Y21.473
X28.762 Y21.509
X28.769 Y21.55
G3 X27.449 Y22.869 R1.319
X26.13 Y21.55 R1.319
X28.649 Y19.03 R2.519
X31.169 Y21.55 R2.519
X27.449 Y25.269 R3.719
X23.73 Y21.55 R3.719
X27.449 Y17.83 R3.719
X31.169 Y21.55 R3.719
G2 X32.111 Y23.058 R1.679
G3 X32.641 Y24.599 R1.152
X32.524 Y24.788 R1.152
G1 X31.845 Y25.687
X30.812 Y26.571
X29.9 Y27.046
X29.629 Y27.179
X28.41 Y27.509
X28.39 Y27.511
X27.126 Y27.577
X25.856 Y27.371
X24.721 Y26.931
X24.637 Y26.894
X23.551 Y26.158
X22.635 Y25.192
X21.966 Y24.074
X21.553 Y22.842
X21.413 Y21.556
X21.55 Y20.27
X21.78 Y19.572
X21.968 Y19.015
X22.635 Y17.909
X23.546 Y16.946
X24.626 Y16.212
X25.207 Y15.976
X25.853 Y15.729
X27.128 Y15.522
X28.389 Y15.589
X28.598 Y15.64
X29.635 Y15.923
X30.655 Y16.446
X30.791 Y16.518
X31.828 Y17.394
X32.613 Y18.424
X33.172 Y19.628
X33.451 Y20.915
Y22.198
X33.167 Y23.486
X32.629 Y24.649
X32.524 Y24.788
G3 X32.384 Y24.866 R0.2
X32.231 Y24.816 R0.2
G1 X31.215 Y23.896
X31.186 Y23.874
X30.285 Y23.32
X30.257 Y23.311
X30.228 Y23.314
X30.203 Y23.329
X30.132 Y23.396
X30.104 Y23.412
X30.072 Y23.413
X29.904 Y23.371 Z-4.514
X29.741 Y23.314 Z-4.52
X29.583 Y23.243 Z-4.526
X29.432 Y23.157 Z-4.532
X29.29 Y23.059 Z-4.538
X29.158 Y22.947 Z-4.544
X29.036 Y22.824 Z-4.55
X28.926 Y22.691 Z-4.556
X28.828 Y22.548 Z-4.562
X28.744 Y22.396 Z-4.568
X28.674 Y22.238 Z-4.575
X28.619 Y22.074 Z-4.581
X28.579 Y21.906 Z-4.587
X28.554 Y21.734 Z-4.593
X28.545 Y21.561 Z-4.599
X28.552 Y21.388 Z-4.605
X28.575 Y21.217 Z-4.611
X28.613 Y21.048 Z-4.617
X28.666 Y20.883 Z-4.623
X28.734 Y20.724 Z-4.629
X28.816 Y20.572 Z-4.635
X28.912 Y20.427 Z-4.641
X29.021 Y20.293 Z-4.647
X29.141 Y20.168 Z-4.653
X29.272 Y20.055 Z-4.659
X29.413 Y19.955 Z-4.665
X29.563 Y19.867 Z-4.671
X29.719 Y19.794 Z-4.677
X29.882 Y19.735 Z-4.683
X30.05 Y19.691 Z-4.689
X30.221 Y19.663 Z-4.695
X30.393 Y19.651 Z-4.702
X30.566 Y19.654 Z-4.708
X30.738 Y19.673 Z-4.714
X30.908 Y19.707 Z-4.72
X31.074 Y19.757 Z-4.726
X31.234 Y19.822 Z-4.732
X31.388 Y19.901 Z-4.738
X31.535 Y19.993 Z-4.744
X31.672 Y20.099 Z-4.75
X31.799 Y20.217 Z-4.756
X31.915 Y20.345 Z-4.762
X32.018 Y20.484 Z-4.768
X32.109 Y20.632 Z-4.774
X32.185 Y20.787 Z-4.78
X32.247 Y20.949 Z-4.786
X32.295 Y21.115 Z-4.792
X32.327 Y21.285 Z-4.798
X32.343 Y21.458 Z-4.804
Y21.631 Z-4.81
X32.328 Y21.803 Z-4.816
X32.297 Y21.973 Z-4.822
X32.251 Y22.14 Z-4.829
X32.19 Y22.302 Z-4.835
X32.114 Y22.458 Z-4.841
X32.024 Y22.606 Z-4.847
X31.922 Y22.745 Z-4.853
X31.807 Y22.875 Z-4.859
X31.681 Y22.993 Z-4.865
X31.544 Y23.1 Z-4.871
X31.398 Y23.193 Z-4.877
X31.245 Y23.273 Z-4.883
X31.085 Y23.339 Z-4.889
X30.919 Y23.39 Z-4.895
X30.75 Y23.425 Z-4.901
X30.578 Y23.445 Z-4.907
X30.405 Y23.449 Z-4.913
X30.232 Y23.438 Z-4.919
X30.061 Y23.411 Z-4.925
X29.893 Y23.368 Z-4.931
X29.73 Y23.31 Z-4.937
X29.573 Y23.238 Z-4.943
X29.423 Y23.151 Z-4.949
X29.281 Y23.052 Z-4.956
X29.149 Y22.939 Z-4.962
X29.028 Y22.816 Z-4.968
X28.919 Y22.682 Z-4.974
X28.822 Y22.538 Z-4.98
X28.739 Y22.386 Z-4.986
X28.67 Y22.227 Z-4.992
X28.616 Y22.063 Z-4.998
X28.577 Y21.894 Z-5.004
X28.553 Y21.723 Z-5.01
X28.545 Y21.55 Z-5.016
X28.553 Y21.51
X28.575 Y21.477
X28.609 Y21.455
X28.648 Y21.447
X28.688 Y21.455
X28.721 Y21.477
X28.743 Y21.51
X28.751 Y21.55
G3 X27.448 Y22.853 R1.303
X26.145 Y21.55 R1.303
X28.648 Y19.047 R2.503
X31.151 Y21.55 R2.503
X27.448 Y25.253 R3.703
X23.745 Y21.55 R3.703
X27.448 Y17.847 R3.703
X31.151 Y21.55 R3.703
G2 X32.093 Y23.058 R1.678
G3 X32.623 Y24.597 R1.151
X32.505 Y24.788 R1.151
G1 X31.829 Y25.68
X30.787 Y26.565
X30.393 Y26.777
X29.606 Y27.169
X28.38 Y27.495
X27.132 Y27.56
X25.904 Y27.365
X25.691 Y27.289
X24.681 Y26.898
X24.395 Y26.71
X23.536 Y26.124
X22.827 Y25.376
X22.64 Y25.17
X21.99 Y24.088
X21.977 Y24.062
X21.576 Y22.869
X21.561 Y22.788
X21.43 Y21.579
X21.432 Y21.502
X21.571 Y20.26
X21.615 Y20.113
X21.779 Y19.628
X21.98 Y19.039
X22.256 Y18.569
X22.638 Y17.934
X23.063 Y17.475
X23.552 Y16.966
X24.656 Y16.212
X25.881 Y15.739
X25.903 Y15.735
X27.137 Y15.54
X28.38 Y15.605
X29.607 Y15.93
X30.621 Y16.444
X30.785 Y16.533
X31.82 Y17.41
X31.84 Y17.434
X32.6 Y18.437
X33.153 Y19.629
X33.433 Y20.915
Y22.198
X33.147 Y23.485
X32.611 Y24.649
X32.505 Y24.788
G3 X32.366 Y24.866 R0.2
X32.214 Y24.818 R0.2
G1 X30.877 Y23.646
X30.854 Y23.629
X30.349 Y23.302
X30.323 Y23.291
X30.295 Y23.289
X30.268 Y23.296
X30.245 Y23.312
X30.162 Y23.391
X30.14 Y23.406
X30.114 Y23.413
X30.088 Y23.412
X29.919 Y23.371 Z-5.022
X29.756 Y23.314 Z-5.028
X29.598 Y23.242 Z-5.034
X29.448 Y23.157 Z-5.04
X29.306 Y23.058 Z-5.046
X29.173 Y22.947 Z-5.052
X29.051 Y22.824 Z-5.058
X28.941 Y22.69 Z-5.064
X28.844 Y22.547 Z-5.07
X28.759 Y22.396 Z-5.076
X28.689 Y22.237 Z-5.083
X28.634 Y22.073 Z-5.089
X28.594 Y21.905 Z-5.095
X28.569 Y21.734 Z-5.101
X28.56 Y21.561 Z-5.107
X28.567 Y21.388 Z-5.113
X28.59 Y21.216 Z-5.119
X28.628 Y21.047 Z-5.125
X28.681 Y20.882 Z-5.131
X28.749 Y20.723 Z-5.137
X28.832 Y20.571 Z-5.143
X28.927 Y20.427 Z-5.149
X29.036 Y20.292 Z-5.155
X29.156 Y20.167 Z-5.161
X29.288 Y20.055 Z-5.167
X29.428 Y19.954 Z-5.173
X29.578 Y19.867 Z-5.179
X29.735 Y19.793 Z-5.185
X29.898 Y19.735 Z-5.191
X30.065 Y19.691 Z-5.197
X30.236 Y19.663 Z-5.203
X30.409 Y19.65 Z-5.21
X30.582 Y19.653 Z-5.216
X30.754 Y19.672 Z-5.222
X30.923 Y19.707 Z-5.228
X31.089 Y19.756 Z-5.234
X31.25 Y19.821 Z-5.24
X31.404 Y19.9 Z-5.246
X31.55 Y19.993 Z-5.252
X31.687 Y20.098 Z-5.258
X31.814 Y20.216 Z-5.264
X31.93 Y20.345 Z-5.27
X32.033 Y20.484 Z-5.276
X32.124 Y20.631 Z-5.282
X32.201 Y20.786 Z-5.288
X32.263 Y20.948 Z-5.294
X32.31 Y21.114 Z-5.3
X32.342 Y21.285 Z-5.306
X32.358 Y21.457 Z-5.312
X32.359 Y21.63 Z-5.318
X32.343 Y21.803 Z-5.324
X32.313 Y21.973 Z-5.33
X32.266 Y22.14 Z-5.337
X32.205 Y22.302 Z-5.343
X32.129 Y22.457 Z-5.349
X32.04 Y22.605 Z-5.355
X31.937 Y22.745 Z-5.361
X31.822 Y22.874 Z-5.367
X31.696 Y22.993 Z-5.373
X31.559 Y23.099 Z-5.379
X31.414 Y23.193 Z-5.385
X31.26 Y23.273 Z-5.391
X31.1 Y23.338 Z-5.397
X30.934 Y23.389 Z-5.403
X30.765 Y23.425 Z-5.409
X30.593 Y23.445 Z-5.415
X30.42 Y23.449 Z-5.421
X30.247 Y23.437 Z-5.427
X30.076 Y23.41 Z-5.433
X29.909 Y23.367 Z-5.439
X29.745 Y23.31 Z-5.445
X29.588 Y23.237 Z-5.451
X29.438 Y23.151 Z-5.457
X29.297 Y23.051 Z-5.464
X29.165 Y22.939 Z-5.47
X29.044 Y22.815 Z-5.476
X28.934 Y22.681 Z-5.482
X28.838 Y22.537 Z-5.488
X28.754 Y22.386 Z-5.494
X28.685 Y22.227 Z-5.5
X28.631 Y22.062 Z-5.506
X28.592 Y21.894 Z-5.512
X28.568 Y21.722 Z-5.518
X28.56 Y21.549 Z-5.524
X28.567 Y21.516
X28.586 Y21.488
X28.614 Y21.47
X28.647 Y21.463
X28.68 Y21.47
X28.708 Y21.488
X28.726 Y21.516
X28.733 Y21.549
G3 X27.447 Y22.836 R1.286
X26.16 Y21.549 R1.286
X28.647 Y19.063 R2.486
X31.133 Y21.549 R2.486
X27.447 Y25.236 R3.686
X23.76 Y21.549 R3.686
X27.447 Y17.863 R3.686
X31.133 Y21.549 R3.686
G2 X32.076 Y23.058 R1.678
G3 X32.605 Y24.595 R1.15
X32.486 Y24.788 R1.15
G1 X31.817 Y25.666
X30.791 Y26.545
X30.761 Y26.565
X29.582 Y27.16
X28.38 Y27.479
X27.147 Y27.542
X25.913 Y27.35
X24.687 Y26.882
X24.394 Y26.688
X23.58 Y26.137
X23.549 Y26.113
X22.655 Y25.162
X22.005 Y24.077
X21.991 Y24.05
X21.593 Y22.861
X21.576 Y22.78
X21.447 Y21.575
X21.449 Y21.496
X21.579 Y20.293
X21.599 Y20.211
X21.987 Y19.06
X22.001 Y19.031
X22.653 Y17.94
X22.708 Y17.873
X23.536 Y17.
X23.704 Y16.877
X24.655 Y16.232
X24.727 Y16.199
X25.912 Y15.75
X27.135 Y15.557
X28.379 Y15.621
X29.596 Y15.947
X30.737 Y16.522
X30.798 Y16.563
X31.822 Y17.438
X32.587 Y18.45
X33.134 Y19.629
X33.416 Y20.916
X33.415 Y22.199
X33.139 Y23.462
X32.603 Y24.624
X32.545 Y24.711
X32.486 Y24.788
G3 X32.348 Y24.866 R0.2
X32.197 Y24.819 R0.2
G1 X30.935 Y23.741
X30.908 Y23.721
X29.636 Y22.964
X29.614 Y22.955
X29.59 Y22.953
X29.567 Y22.958
X29.361 Y23.039
X29.333 Y23.045
X29.306 Y23.041
X29.282 Y23.027
X29.153 Y22.913 Z-5.53
X29.034 Y22.787 Z-5.536
X28.928 Y22.651 Z-5.542
X28.835 Y22.506 Z-5.548
X28.755 Y22.353 Z-5.554
X28.689 Y22.194 Z-5.56
X28.638 Y22.029 Z-5.566
X28.602 Y21.861 Z-5.572
X28.581 Y21.689 Z-5.578
X28.576 Y21.517 Z-5.584
X28.587 Y21.345 Z-5.59
X28.614 Y21.174 Z-5.596
X28.655 Y21.007 Z-5.602
X28.712 Y20.844 Z-5.608
X28.783 Y20.687 Z-5.614
X28.868 Y20.537 Z-5.62
X28.967 Y20.395 Z-5.626
X29.078 Y20.263 Z-5.632
X29.2 Y20.142 Z-5.638
X29.333 Y20.032 Z-5.645
X29.475 Y19.934 Z-5.651
X29.626 Y19.85 Z-5.657
X29.784 Y19.78 Z-5.663
X29.947 Y19.725 Z-5.669
X30.115 Y19.684 Z-5.675
X30.285 Y19.659 Z-5.681
X30.457 Y19.65 Z-5.687
X30.63 Y19.656 Z-5.693
X30.801 Y19.677 Z-5.699
X30.969 Y19.715 Z-5.705
X31.134 Y19.767 Z-5.711
X31.293 Y19.834 Z-5.717
X31.445 Y19.915 Z-5.723
X31.589 Y20.01 Z-5.729
X31.724 Y20.117 Z-5.735
X31.849 Y20.236 Z-5.741
X31.962 Y20.366 Z-5.747
X32.064 Y20.506 Z-5.753
X32.152 Y20.654 Z-5.759
X32.226 Y20.81 Z-5.765
X32.286 Y20.971 Z-5.771
X32.331 Y21.138 Z-5.777
X32.361 Y21.308 Z-5.783
X32.375 Y21.48 Z-5.789
X32.373 Y21.652 Z-5.795
X32.356 Y21.824 Z-5.801
X32.324 Y21.993 Z-5.807
X32.276 Y22.159 Z-5.813
X32.213 Y22.319 Z-5.819
X32.136 Y22.474 Z-5.825
X32.045 Y22.621 Z-5.831
X31.942 Y22.758 Z-5.837
X31.826 Y22.886 Z-5.843
X31.699 Y23.003 Z-5.849
X31.562 Y23.108 Z-5.855
X31.417 Y23.2 Z-5.861
X31.263 Y23.279 Z-5.867
X31.103 Y23.343 Z-5.873
X30.938 Y23.393 Z-5.879
X30.769 Y23.427 Z-5.886
X30.597 Y23.446 Z-5.892
X30.425 Y23.449 Z-5.898
X30.253 Y23.436 Z-5.904
X30.083 Y23.408 Z-5.91
X29.916 Y23.365 Z-5.916
X29.753 Y23.307 Z-5.922
X29.597 Y23.234 Z-5.928
X29.448 Y23.147 Z-5.934
X29.307 Y23.047 Z-5.94
X29.176 Y22.935 Z-5.946
X29.056 Y22.812 Z-5.952
X28.947 Y22.678 Z-5.958
X28.851 Y22.534 Z-5.964
X28.769 Y22.383 Z-5.97
X28.7 Y22.225 Z-5.976
X28.646 Y22.061 Z-5.982
X28.607 Y21.893 Z-5.988
X28.584 Y21.722 Z-5.994
X28.576 Y21.55 Z-6.
X28.583 Y21.519
X28.602 Y21.495
X28.63 Y21.482
X28.661
X28.689 Y21.495
X28.708 Y21.519
X28.715 Y21.55
G3 X27.446 Y22.819 R1.27
X26.176 Y21.55 R1.27
X28.646 Y19.08 R2.47
X31.115 Y21.55 R2.47
X27.446 Y25.219 R3.67
X23.776 Y21.55 R3.67
X27.446 Y17.88 R3.67
X31.115 Y21.55 R3.67
G2 X32.057 Y23.056 R1.675
G3 X32.588 Y24.591 R1.148
X32.469 Y24.784 R1.148
G1 X31.801 Y25.66
X31.644 Y25.801
X30.772 Y26.537
X30.69 Y26.586
X29.564 Y27.149
X28.38 Y27.461
X27.147 Y27.526
X25.913 Y27.333
X24.676 Y26.86
X24.67 Y26.857
X23.594 Y26.126
X23.55 Y26.093
X22.727 Y25.223
X22.656 Y25.135
X22.031 Y24.088
X21.989 Y23.998
X21.623 Y22.911
X21.59 Y22.769
X21.464 Y21.569
Y21.489
X21.597 Y20.301
X21.634 Y20.155
X21.779 Y19.725
X22.002 Y19.067
X22.018 Y19.036
X22.656 Y17.964
X22.722 Y17.884
X23.541 Y17.017
X23.732 Y16.876
X24.666 Y16.244
X24.727 Y16.215
X25.912 Y15.767
X27.147 Y15.574
X28.379 Y15.639
X29.576 Y15.958
X30.754 Y16.55
X30.787 Y16.573
X31.801 Y17.438
X32.576 Y18.463
X33.116 Y19.63
X33.396 Y20.887
X33.395 Y22.219
X33.128 Y23.438
X33.037 Y23.65
X32.589 Y24.618
X32.545 Y24.684
X32.469 Y24.784
X32.427 Y24.83 Z-5.99
X32.38 Y24.87 Z-5.98
X32.332 Y24.898 Z-5.952
X32.281 Y24.92 Z-5.924
X32.238 Y24.932 Z-5.879
X32.195 Y24.939 Z-5.835
X32.138 Y24.942 Z-5.724
X32.118 Y24.941 Z-5.6
G0 Z5.
X20.525 Y32.275
Z-2.067
G1 X20.514 Y32.29 Z-2.188 F1500.
X20.483 Y32.334 Z-2.297
X20.431 Y32.402 Z-2.385
X20.36 Y32.483 Z-2.444
X20.276 Y32.568 Z-2.467
X20.149 Y32.677 Z-2.472
X20.013 Y32.773 Z-2.478
X19.869 Y32.855 Z-2.484
X19.717 Y32.923 Z-2.49
X19.559 Y32.977 Z-2.496
X19.397 Y33.015 Z-2.502
X19.232 Y33.037 Z-2.507
X19.065 Y33.044 Z-2.513
X18.899 Y33.035 Z-2.519
X18.734 Y33.01 Z-2.525
X18.573 Y32.969 Z-2.531
X18.416 Y32.913 Z-2.536
X18.265 Y32.842 Z-2.542
X18.122 Y32.757 Z-2.548
X17.987 Y32.659 Z-2.554
X17.863 Y32.549 Z-2.56
X17.749 Y32.427 Z-2.566
X17.648 Y32.295 Z-2.571
X17.56 Y32.153 Z-2.577
X17.486 Y32.004 Z-2.583
X17.426 Y31.849 Z-2.589
X17.381 Y31.688 Z-2.595
X17.352 Y31.524 Z-2.6
X17.339 Y31.358 Z-2.606
X17.341 Y31.192 Z-2.612
X17.36 Y31.026 Z-2.618
X17.394 Y30.863 Z-2.624
X17.443 Y30.704 Z-2.63
X17.508 Y30.551 Z-2.635
X17.587 Y30.404 Z-2.641
X17.68 Y30.266 Z-2.647
X17.785 Y30.137 Z-2.653
X17.902 Y30.019 Z-2.659
X18.03 Y29.912 Z-2.664
X18.168 Y29.818 Z-2.67
X18.313 Y29.738 Z-2.676
X18.466 Y29.672 Z-2.682
X18.625 Y29.621 Z-2.688
X18.788 Y29.585 Z-2.693
X18.953 Y29.565 Z-2.699
X19.119 Y29.561 Z-2.705
X19.285 Y29.572 Z-2.711
X19.45 Y29.6 Z-2.717
X19.611 Y29.643 Z-2.723
X19.767 Y29.701 Z-2.728
X19.916 Y29.774 Z-2.734
X20.058 Y29.861 Z-2.74
X20.192 Y29.961 Z-2.746
X20.315 Y30.074 Z-2.752
X20.426 Y30.197 Z-2.757
X20.526 Y30.331 Z-2.763
X20.612 Y30.473 Z-2.769
X20.684 Y30.623 Z-2.775
X20.741 Y30.78 Z-2.781
X20.784 Y30.941 Z-2.787
X20.81 Y31.105 Z-2.792
X20.821 Y31.271 Z-2.798
X20.816 Y31.438 Z-2.804
X20.795 Y31.603 Z-2.81
X20.759 Y31.765 Z-2.816
X20.707 Y31.924 Z-2.821
X20.64 Y32.076 Z-2.827
X20.559 Y32.222 Z-2.833
X20.465 Y32.359 Z-2.839
X20.357 Y32.486 Z-2.845
X20.238 Y32.603 Z-2.851
X20.109 Y32.707 Z-2.856
X19.97 Y32.799 Z-2.862
X19.823 Y32.878 Z-2.868
X19.669 Y32.941 Z-2.874
X19.51 Y32.99 Z-2.88
X19.347 Y33.023 Z-2.885
X19.181 Y33.041 Z-2.891
X19.015 Y33.043 Z-2.897
X18.849 Y33.029 Z-2.903
X18.685 Y32.999 Z-2.909
X18.525 Y32.953 Z-2.915
X18.37 Y32.893 Z-2.92
X18.221 Y32.818 Z-2.926
X18.08 Y32.729 Z-2.932
X17.948 Y32.627 Z-2.938
X17.827 Y32.513 Z-2.944
X17.717 Y32.388 Z-2.949
X17.62 Y32.252 Z-2.955
X17.536 Y32.109 Z-2.961
X17.466 Y31.958 Z-2.967
X17.411 Y31.8 Z-2.973
X17.371 Y31.639 Z-2.979
X17.346 Y31.474 Z-2.984
X17.338 Y31.308 Z-2.99
X17.345 Y31.141 Z-2.996
X17.368 Y30.976 Z-3.002
X17.407 Y30.814 Z-3.008
X17.462 Y30.657 Z-3.013
X17.531 Y30.505 Z-3.019
X17.614 Y30.361 Z-3.025
X17.71 Y30.225 Z-3.031
X17.819 Y30.1 Z-3.037
X17.94 Y29.985 Z-3.043
X18.071 Y29.882 Z-3.048
X18.211 Y29.792 Z-3.054
X18.359 Y29.716 Z-3.06
X18.514 Y29.655 Z-3.066
X18.674 Y29.608 Z-3.072
X18.838 Y29.577 Z-3.077
X19.004 Y29.562 Z-3.083
X19.17 Y29.563 Z-3.089
X19.336 Y29.579 Z-3.095
X19.499 Y29.611 Z-3.101
X19.659 Y29.659 Z-3.107
X19.813 Y29.722 Z-3.112
X19.96 Y29.799 Z-3.118
X20.1 Y29.89 Z-3.124
X20.23 Y29.994 Z-3.13
X20.35 Y30.11 Z-3.136
X20.458 Y30.237 Z-3.141
X20.553 Y30.373 Z-3.147
X20.635 Y30.518 Z-3.153
X20.703 Y30.67 Z-3.159
X20.756 Y30.828 Z-3.165
X20.794 Y30.99 Z-3.171
X20.815 Y31.156 Z-3.176
X20.822 Y31.322 Z-3.182
X20.812 Y31.488 Z-3.188
X20.786 Y31.653 Z-3.194
X20.745 Y31.814 Z-3.2
X20.688 Y31.971 Z-3.205
X20.617 Y32.121 Z-3.211
X20.532 Y32.264 Z-3.217
X20.433 Y32.399 Z-3.223
X20.322 Y32.523 Z-3.229
X20.2 Y32.636 Z-3.235
X20.068 Y32.737 Z-3.24
X19.926 Y32.825 Z-3.246
X19.777 Y32.899 Z-3.252
X19.621 Y32.958 Z-3.258
X19.461 Y33.002 Z-3.264
X19.296 Y33.031 Z-3.269
X19.13 Y33.043 Z-3.275
X18.964 Y33.04 Z-3.281
X18.798 Y33.021 Z-3.287
X18.636 Y32.987 Z-3.293
X18.477 Y32.936 Z-3.299
X18.323 Y32.871 Z-3.304
X18.177 Y32.792 Z-3.31
X18.039 Y32.699 Z-3.316
X17.91 Y32.593 Z-3.322
X17.792 Y32.476 Z-3.328
X17.686 Y32.347 Z-3.333
X17.593 Y32.209 Z-3.339
X17.513 Y32.063 Z-3.345
X17.447 Y31.91 Z-3.351
X17.397 Y31.752 Z-3.357
X17.361 Y31.589 Z-3.363
X17.342 Y31.423 Z-3.368
X17.338 Y31.257 Z-3.374
X17.351 Y31.091 Z-3.38
X17.379 Y30.927 Z-3.386
X17.422 Y30.766 Z-3.392
X17.481 Y30.61 Z-3.397
X17.554 Y30.461 Z-3.403
X17.642 Y30.319 Z-3.409
X17.742 Y30.186 Z-3.415
X17.855 Y30.063 Z-3.421
X17.979 Y29.952 Z-3.427
X18.113 Y29.853 Z-3.432
X18.256 Y29.767 Z-3.438
X18.406 Y29.696 Z-3.444
X18.562 Y29.639 Z-3.45
X18.724 Y29.597 Z-3.456
X18.888 Y29.571 Z-3.461
X19.054 Y29.56 Z-3.467
X19.221 Y29.566 Z-3.473
X19.386 Y29.587 Z-3.479
X19.548 Y29.624 Z-3.485
X19.706 Y29.677 Z-3.491
X19.859 Y29.744 Z-3.496
X20.004 Y29.826 Z-3.502
X20.141 Y29.921 Z-3.508
X20.163 Y29.937
X21.748 Y31.086
X21.833 Y31.142
X21.959 Y31.214
X22.054 Y31.263
X22.139 Y31.301
X22.052 Y31.339
X21.974 Y31.378
X21.849 Y31.448
X21.746 Y31.514
X20.11 Y32.707
X20.034 Y32.768
X19.989 Y32.808
X19.912 Y32.885
X18.56 Y34.385
X18.49 Y34.472
X18.401 Y34.597
X18.347 Y34.681
X17.343 Y36.429
X17.338 Y36.439
Y26.164
X17.368 Y26.221
X18.354 Y27.93
X18.415 Y28.024
X18.524 Y28.172
X18.586 Y28.248
X19.879 Y29.682
X19.954 Y29.757
X20.082 Y29.872
X20.141 Y29.921
G3 X20.191 Y30.181 R0.2
G1 X19.528 Y31.3
X19.509 Y31.344
X19.5 Y31.391
X19.503 Y31.439
X19.747 Y32.714
G3 X19.612 Y32.942 R0.2
G1 X19.452 Y32.986 Z-3.514
X19.289 Y33.014 Z-3.52
X19.124 Y33.026 Z-3.525
X18.958 Y33.022 Z-3.531
X18.794 Y33.003 Z-3.537
X18.632 Y32.967 Z-3.543
X18.474 Y32.917 Z-3.549
X18.322 Y32.851 Z-3.554
X18.177 Y32.771 Z-3.56
X18.04 Y32.678 Z-3.566
X17.912 Y32.572 Z-3.572
X17.796 Y32.454 Z-3.577
X17.691 Y32.325 Z-3.583
X17.6 Y32.187 Z-3.589
X17.521 Y32.041 Z-3.595
X17.458 Y31.888 Z-3.601
X17.409 Y31.73 Z-3.606
X17.375 Y31.568 Z-3.612
X17.358 Y31.403 Z-3.618
X17.356 Y31.237 Z-3.624
X17.37 Y31.072 Z-3.63
X17.4 Y30.909 Z-3.635
X17.445 Y30.75 Z-3.641
X17.506 Y30.596 Z-3.647
X17.581 Y30.448 Z-3.653
X17.669 Y30.308 Z-3.658
X17.771 Y30.177 Z-3.664
X17.885 Y30.057 Z-3.67
X18.01 Y29.948 Z-3.676
X18.145 Y29.852 Z-3.682
X18.288 Y29.769 Z-3.687
X18.439 Y29.7 Z-3.693
X18.595 Y29.646 Z-3.699
X18.756 Y29.607 Z-3.705
X18.921 Y29.584 Z-3.711
X19.086 Y29.577 Z-3.716
X19.252 Y29.585 Z-3.722
X19.415 Y29.61 Z-3.728
X19.576 Y29.65 Z-3.734
X19.732 Y29.705 Z-3.74
X19.883 Y29.775 Z-3.745
X20.025 Y29.859 Z-3.751
X20.159 Y29.956 Z-3.757
X20.283 Y30.066 Z-3.763
X20.396 Y30.187 Z-3.768
X20.497 Y30.319 Z-3.774
X20.585 Y30.459 Z-3.78
X20.659 Y30.608 Z-3.786
X20.718 Y30.763 Z-3.792
X20.762 Y30.922 Z-3.797
X20.791 Y31.085 Z-3.803
X20.804 Y31.251 Z-3.809
X20.801 Y31.416 Z-3.815
X20.782 Y31.581 Z-3.821
X20.747 Y31.743 Z-3.826
X20.697 Y31.901 Z-3.832
X20.632 Y32.053 Z-3.838
X20.553 Y32.199 Z-3.844
X20.46 Y32.336 Z-3.85
X20.354 Y32.464 Z-3.855
X20.237 Y32.581 Z-3.861
X20.109 Y32.686 Z-3.867
X19.971 Y32.778 Z-3.873
X19.825 Y32.857 Z-3.878
X19.673 Y32.921 Z-3.884
X19.515 Y32.971 Z-3.89
X19.352 Y33.005 Z-3.896
X19.188 Y33.023 Z-3.902
X19.022 Y33.025 Z-3.907
X18.857 Y33.012 Z-3.913
X18.694 Y32.983 Z-3.919
X18.534 Y32.938 Z-3.925
X18.38 Y32.878 Z-3.931
X18.232 Y32.804 Z-3.936
X18.092 Y32.715 Z-3.942
X17.96 Y32.614 Z-3.948
X17.84 Y32.501 Z-3.954
X17.73 Y32.376 Z-3.959
X17.633 Y32.242 Z-3.965
X17.55 Y32.099 Z-3.971
X17.48 Y31.948 Z-3.977
X17.426 Y31.792 Z-3.983
X17.386 Y31.631 Z-3.988
X17.363 Y31.467 Z-3.994
X17.355 Y31.301 Z-4.
Y26.228
X17.366 Y26.253
X17.408 Y26.334
X18.335 Y27.933
X18.395 Y28.023
X18.523 Y28.198
X18.585 Y28.274
X19.814 Y29.64
X19.877 Y29.704
X20.058 Y29.872
X20.15 Y29.948
X21.661 Y31.049
X21.733 Y31.097
X21.944 Y31.224
X22.052 Y31.281
X22.098 Y31.301
X22.049 Y31.323
X21.989 Y31.353
X21.864 Y31.42
X21.804 Y31.455
X21.747 Y31.493
X20.143 Y32.66
X20.085 Y32.706
X19.984 Y32.791
X19.934 Y32.837
X19.886 Y32.886
X18.538 Y34.385
X18.466 Y34.476
X18.377 Y34.601
X18.326 Y34.681
X17.355 Y36.375
Y31.301
X17.359 Y31.24 Z-3.99
X17.374 Y31.18 Z-3.98
X17.394 Y31.128 Z-3.952
X17.422 Y31.08 Z-3.924
X17.448 Y31.044 Z-3.879
X17.478 Y31.012 Z-3.835
X17.522 Y30.976 Z-3.724
X17.538 Y30.965 Z-3.6
G0 Z5.
X32.264 Y40.689
Z-2.067
G1 X32.267 Y40.708 Z-2.188 F1500.
X32.276 Y40.761 Z-2.297
X32.287 Y40.846 Z-2.385
X32.296 Y40.953 Z-2.444
X32.298 Y41.073 Z-2.467
X32.288 Y41.246 Z-2.473
X32.262 Y41.417 Z-2.479
X32.221 Y41.586 Z-2.485
X32.165 Y41.75 Z-2.491
X32.094 Y41.908 Z-2.497
X32.008 Y42.059 Z-2.503
X31.91 Y42.201 Z-2.509
X31.798 Y42.334 Z-2.515
X31.676 Y42.456 Z-2.521
X31.542 Y42.567 Z-2.527
X31.399 Y42.665 Z-2.533
X31.248 Y42.749 Z-2.539
X31.089 Y42.82 Z-2.545
X30.925 Y42.875 Z-2.551
X30.757 Y42.916 Z-2.557
X30.585 Y42.941 Z-2.563
X30.412 Y42.95 Z-2.57
X30.239 Y42.943 Z-2.576
X30.067 Y42.921 Z-2.582
X29.898 Y42.883 Z-2.588
X29.733 Y42.829 Z-2.594
X29.573 Y42.761 Z-2.6
X29.421 Y42.679 Z-2.606
X29.276 Y42.583 Z-2.612
X29.141 Y42.475 Z-2.618
X29.017 Y42.354 Z-2.624
X28.904 Y42.223 Z-2.63
X28.803 Y42.082 Z-2.636
X28.716 Y41.932 Z-2.642
X28.642 Y41.775 Z-2.648
X28.583 Y41.612 Z-2.654
X28.54 Y41.444 Z-2.66
X28.511 Y41.273 Z-2.666
X28.499 Y41.1 Z-2.672
X28.502 Y40.927 Z-2.679
X28.521 Y40.755 Z-2.685
X28.556 Y40.585 Z-2.691
X28.606 Y40.419 Z-2.697
X28.671 Y40.258 Z-2.703
X28.75 Y40.104 Z-2.709
X28.843 Y39.958 Z-2.715
X28.949 Y39.821 Z-2.721
X29.067 Y39.694 Z-2.727
X29.196 Y39.578 Z-2.733
X29.335 Y39.475 Z-2.739
X29.483 Y39.385 Z-2.745
X29.639 Y39.308 Z-2.751
X29.801 Y39.246 Z-2.757
X29.968 Y39.199 Z-2.763
X30.138 Y39.168 Z-2.769
X30.311 Y39.152 Z-2.775
X30.484 Z-2.781
X30.657 Y39.167 Z-2.787
X30.827 Y39.199 Z-2.794
X30.994 Y39.246 Z-2.8
X31.156 Y39.307 Z-2.806
X31.311 Y39.384 Z-2.812
X31.46 Y39.474 Z-2.818
X31.599 Y39.577 Z-2.824
X31.728 Y39.693 Z-2.83
X31.846 Y39.819 Z-2.836
