(NMJPLATE0PT0PT3_TOP_STEP2_332IN_SIDE1)
(T8  D=2.381 CR=0. - ZMIN=-18.65 - FLAT END MILL)
G0 G90 G94 G17
G21
G53 G0 Z0.

(UPPER WELL 332)
M5
T8
M3 S8000
G55
M8
G0 X71.871 Y51.661
Z15.
Z-1.084
G1 Z-1.094 F381.
Z-3.168 F1499.
X71.865 Y51.659 Z-3.221
X71.849 Y51.653 Z-3.272
X71.822 Y51.644 Z-3.317
X71.786 Y51.631 Z-3.354
X71.744 Y51.616 Z-3.383
X71.696 Y51.599 Z-3.4
X71.647 Y51.582 Z-3.406
G3 X70.541 Y51.14 R15.163
G1 X69.892 Y50.851
X69.869 Y50.842
X69.764 Y50.8
X69.869 Y50.758
X69.893 Y50.748
X70.54 Y50.458
X70.581 Y50.448
X70.622 Y50.453
X70.659 Y50.471
X72.004 Y51.444
X72.033 Y51.475
X72.05 Y51.514
X72.052 Y51.556
X72.039 Y51.596
X72.013 Y51.63
X71.977 Y51.652
X71.936 Y51.66
X71.894 Y51.653
X71.847 Y51.636 Z-3.412
X71.801 Y51.62 Z-3.428
X71.76 Y51.606 Z-3.454
X71.725 Y51.593 Z-3.488
X71.697 Y51.583 Z-3.53
X71.67 Y51.574 Z-3.571
X71.635 Y51.561 Z-3.606
X71.594 Y51.547 Z-3.632
X71.548 Y51.531 Z-3.648
X71.501 Y51.514 Z-3.653
G3 X70.551 Y51.134 R13.031
G1 X69.892 Y50.841
X69.866 Y50.83
X69.789 Y50.8
X69.866 Y50.77
X69.893 Y50.758
X70.55 Y50.464
X70.59 Y50.454
X70.631 Y50.458
X70.669 Y50.476
X71.996 Y51.432
X72.026 Y51.462
X72.043 Y51.501
X72.045 Y51.543
X72.032 Y51.583
X72.006 Y51.617
X71.97 Y51.639
X71.929 Y51.647
X71.887 Y51.641
X71.84 Y51.624 Z-3.659
X71.794 Y51.608 Z-3.675
X71.753 Y51.593 Z-3.7
X71.718 Y51.581 Z-3.735
X71.69 Y51.571 Z-3.777
X71.663 Y51.561 Z-3.818
X71.628 Y51.549 Z-3.853
X71.587 Y51.534 Z-3.879
X71.541 Y51.518 Z-3.895
X71.494 Y51.501 Z-3.9
G3 X70.561 Y51.129 R12.794
G1 X69.892 Y50.831
X69.864 Y50.819
X69.813 Y50.8
X69.864 Y50.781
X69.893 Y50.768
X70.565 Y50.467
X70.6 Y50.454
X73.589 Y49.644
X73.64 Y49.63 Z-3.894
X73.689 Y49.617 Z-3.876
X73.733 Y49.605 Z-3.848
X73.769 Y49.595 Z-3.81
X73.796 Y49.588 Z-3.765
X73.813 Y49.583 Z-3.715
X73.819 Y49.582 Z-3.662
G0 Z5.
X61.042 Y49.945
Z-1.084
G1 Z-1.094 F381.
Z-3.168 F1499.
X61.047 Y49.947 Z-3.221
X61.064 Y49.953 Z-3.272
X61.091 Y49.962 Z-3.317
X61.126 Y49.975 Z-3.354
X61.169 Y49.99 Z-3.383
X61.216 Y50.007 Z-3.4
X61.266 Y50.024 Z-3.406
G3 X62.373 Y50.463 R15.163
G1 X63.133 Y50.8
X62.373 Y51.139
X62.333 Y51.149
X62.292 Y51.144
X62.255 Y51.126
X60.945 Y50.177
X60.916 Y50.147
X60.899 Y50.108
X60.897 Y50.066
X60.909 Y50.026
X60.935 Y49.992
X60.971 Y49.97
X61.012 Y49.962
X61.054 Y49.969
X61.102 Y49.985 Z-3.412
X61.147 Y50.001 Z-3.428
X61.188 Y50.016 Z-3.454
X61.224 Y50.028 Z-3.488
X61.251 Y50.038 Z-3.53
X61.278 Y50.047 Z-3.571
X61.314 Y50.06 Z-3.606
X61.355 Y50.074 Z-3.632
X61.4 Y50.09 Z-3.648
X61.448 Y50.107 Z-3.653
G3 X62.365 Y50.469 R12.557
G1 X63.108 Y50.798
X62.373 Y51.127
X62.333 Y51.137
X62.292 Y51.133
X62.255 Y51.116
X60.942 Y50.184
X60.912 Y50.153
X60.895 Y50.115
X60.892 Y50.072
X60.905 Y50.032
X60.931 Y49.998
X60.967 Y49.976
X61.008 Y49.967
X61.05 Y49.974
X61.098 Y49.991 Z-3.659
X61.143 Y50.007 Z-3.675
X61.184 Y50.022 Z-3.7
X61.219 Y50.034 Z-3.735
X61.247 Y50.044 Z-3.777
X61.274 Y50.053 Z-3.818
X61.309 Y50.066 Z-3.853
X61.351 Y50.08 Z-3.879
X61.396 Y50.096 Z-3.895
X61.444 Y50.113 Z-3.9
G3 X62.351 Y50.475 R12.439
G1 X63.083 Y50.8
X62.352 Y51.127
X62.317 Y51.139
X59.327 Y51.945
X59.275 Y51.958 Z-3.894
X59.227 Y51.972 Z-3.876
X59.183 Y51.983 Z-3.848
X59.147 Y51.993 Z-3.81
X59.119 Y52. Z-3.765
X59.102 Y52.005 Z-3.715
X59.097 Y52.007 Z-3.662
G0 Z5.
X57.357 Y55.162
Z-1.094
G1 Z-3.168 F1499.
X57.355 Y55.168 Z-3.221
X57.351 Y55.185 Z-3.272
X57.344 Y55.212 Z-3.317
X57.336 Y55.249 Z-3.354
X57.325 Y55.293 Z-3.383
X57.313 Y55.342 Z-3.4
X57.3 Y55.393 Z-3.406
G3 X56.972 Y56.538 R15.163
G1 X56.701 Y57.359
X56.434 Y56.539
X56.429 Y56.507
X56.432 Y56.475
X56.444 Y56.444
X57.027 Y55.398
X57.054 Y55.365
X57.091 Y55.344
X57.133 Y55.337
X57.174 Y55.345
X57.211 Y55.367
X57.237 Y55.401
X57.249 Y55.441
X57.247 Y55.484
X57.235 Y55.533 Z-3.412
X57.223 Y55.58 Z-3.428
X57.213 Y55.622 Z-3.454
X57.204 Y55.658 Z-3.488
X57.197 Y55.687 Z-3.53
X57.19 Y55.715 Z-3.571
X57.182 Y55.751 Z-3.606
X57.171 Y55.794 Z-3.632
X57.16 Y55.84 Z-3.648
X57.148 Y55.889 Z-3.653
G3 X56.964 Y56.533 R8.529
G1 X56.702 Y57.332
X56.526 Y56.79
X56.52 Y56.772
X56.435 Y56.535
X56.428 Y56.503
X56.431 Y56.469
X56.443 Y56.438
X57.009 Y55.397
X57.035 Y55.364
X57.072 Y55.342
X57.114 Y55.335
X57.156 Y55.343
X57.192 Y55.365
X57.219 Y55.399
X57.231 Y55.439
X57.229 Y55.482
X57.217 Y55.531 Z-3.659
X57.206 Y55.578 Z-3.675
X57.196 Y55.62 Z-3.7
X57.187 Y55.656 Z-3.735
X57.181 Y55.685 Z-3.777
X57.174 Y55.713 Z-3.818
X57.165 Y55.749 Z-3.853
X57.155 Y55.792 Z-3.879
X57.144 Y55.839 Z-3.895
X57.132 Y55.888 Z-3.9
G3 X56.954 Y56.524 R8.411
G1 X56.702 Y57.304
X56.536 Y56.79
X56.529 Y56.771
X56.439 Y56.522
X56.429 Y56.486
X55.843 Y53.445
X55.833 Y53.393 Z-3.894
X55.824 Y53.343 Z-3.876
X55.815 Y53.299 Z-3.848
X55.808 Y53.262 Z-3.81
X55.803 Y53.234 Z-3.765
X55.799 Y53.217 Z-3.715
X55.798 Y53.211 Z-3.662
G0 Z5.
X55.997 Y65.925
Z-1.094
G1 Z-3.168 F1499.
X55.998 Y65.919 Z-3.221
X56.003 Y65.902 Z-3.272
X56.011 Y65.875 Z-3.317
X56.021 Y65.839 Z-3.354
X56.034 Y65.795 Z-3.383
X56.047 Y65.747 Z-3.4
X56.062 Y65.696 Z-3.406
G3 X56.431 Y64.564 R15.163
G1 X56.451 Y64.511
X56.459 Y64.488
X56.703 Y63.738
X56.97 Y64.561
X56.976 Y64.593
X56.973 Y64.626
X56.961 Y64.656
X56.384 Y65.702
X56.357 Y65.735
X56.32 Y65.757
X56.278 Y65.764
X56.236 Y65.756
X56.2 Y65.733
X56.174 Y65.7
X56.161 Y65.659
X56.164 Y65.617
X56.175 Y65.568 Z-3.412
X56.187 Y65.521 Z-3.428
X56.197 Y65.478 Z-3.454
X56.206 Y65.442 Z-3.488
X56.212 Y65.414 Z-3.53
X56.219 Y65.386 Z-3.571
X56.228 Y65.349 Z-3.606
X56.238 Y65.307 Z-3.632
X56.249 Y65.26 Z-3.648
X56.261 Y65.211 Z-3.653
G3 X56.443 Y64.566 R8.529
G1 X56.703 Y63.766
X56.962 Y64.565
X56.968 Y64.598
X56.964 Y64.631
X56.951 Y64.663
X56.303 Y65.74
X56.274 Y65.773
X56.236 Y65.793
X56.193 Y65.798
X56.151 Y65.787
X56.116 Y65.762
X56.092 Y65.726
X56.082 Y65.683
X56.088 Y65.64
X56.105 Y65.593 Z-3.659
X56.12 Y65.547 Z-3.675
X56.134 Y65.506 Z-3.7
X56.146 Y65.47 Z-3.735
X56.155 Y65.443 Z-3.777
X56.165 Y65.415 Z-3.818
X56.177 Y65.38 Z-3.853
X56.191 Y65.339 Z-3.879
X56.206 Y65.293 Z-3.895
X56.222 Y65.245 Z-3.9
X56.45 Y64.576
X56.452 Y64.568
X56.703 Y63.796
X56.957 Y64.578
X56.966 Y64.614
X57.449 Y67.673
X57.458 Y67.725 Z-3.894
X57.465 Y67.775 Z-3.876
X57.472 Y67.82 Z-3.848
X57.478 Y67.857 Z-3.81
X57.483 Y67.885 Z-3.765
X57.486 Y67.902 Z-3.715
Y67.908 Z-3.662
G0 Z5.
X52.373 Y71.161
Z-1.084
G1 Z-1.094 F381.
Z-3.168 F1499.
X52.368 Y71.159 Z-3.221
X52.351 Y71.154 Z-3.272
X52.325 Y71.144 Z-3.317
X52.289 Y71.132 Z-3.354
X52.246 Y71.117 Z-3.383
X52.199 Y71.1 Z-3.4
X52.149 Y71.082 Z-3.406
G3 X51.043 Y70.642 R15.163
G1 X50.272 Y70.3
X50.279 Y70.298
X50.317 Y70.282
X51.042 Y69.958
X51.082 Y69.948
X51.124 Y69.952
X51.161 Y69.97
X52.485 Y70.935
X52.515 Y70.966
X52.531 Y71.004
X52.533 Y71.047
X52.521 Y71.087
X52.495 Y71.12
X52.459 Y71.142
X52.418 Y71.15
X52.376 Y71.144
X52.328 Y71.127 Z-3.412
X52.283 Y71.111 Z-3.428
X52.242 Y71.097 Z-3.454
X52.206 Y71.084 Z-3.488
X52.179 Y71.075 Z-3.53
X52.152 Y71.065 Z-3.571
X52.116 Y71.053 Z-3.606
X52.075 Y71.038 Z-3.632
X52.03 Y71.022 Z-3.648
X51.982 Y71.005 Z-3.653
G3 X51.048 Y70.635 R12.794
G1 X50.294 Y70.302
X50.328 Y70.288
X51.049 Y69.966
X51.089 Y69.956
X51.13 Y69.96
X51.167 Y69.978
X52.494 Y70.93
X52.524 Y70.961
X52.541 Y70.999
X52.543 Y71.042
X52.53 Y71.082
X52.504 Y71.116
X52.468 Y71.138
X52.427 Y71.146
X52.385 Y71.139
X52.338 Y71.122 Z-3.659
X52.292 Y71.106 Z-3.675
X52.251 Y71.092 Z-3.7
X52.216 Y71.079 Z-3.735
X52.188 Y71.07 Z-3.777
X52.161 Y71.06 Z-3.818
X52.126 Y71.048 Z-3.853
X52.085 Y71.033 Z-3.879
X52.039 Y71.017 Z-3.895
X51.992 Y71. Z-3.9
G3 X51.067 Y70.632 R12.676
G1 X50.321 Y70.3
X50.34 Y70.293
X51.065 Y69.968
X51.1 Y69.956
X54.091 Y69.15
X54.142 Y69.136 Z-3.894
X54.19 Y69.123 Z-3.876
X54.234 Y69.111 Z-3.848
X54.27 Y69.101 Z-3.81
X54.298 Y69.094 Z-3.765
X54.315 Y69.089 Z-3.715
X54.321 Y69.088 Z-3.662
G0 Z5.
X41.525 Y69.438
Z-1.084
G1 Z-1.094 F381.
Z-3.168 F1499.
X41.53 Y69.44 Z-3.221
X41.547 Y69.446 Z-3.272
X41.574 Y69.456 Z-3.317
X41.609 Y69.468 Z-3.354
X41.652 Y69.483 Z-3.383
X41.699 Y69.5 Z-3.4
X41.749 Y69.517 Z-3.406
G3 X42.856 Y69.956 R15.163
G1 X43.628 Y70.298
X42.854 Y70.645
X42.814 Y70.655
X42.772 Y70.651
X42.735 Y70.632
X41.435 Y69.671
X41.406 Y69.641
X41.389 Y69.602
X41.387 Y69.56
X41.4 Y69.52
X41.426 Y69.487
X41.462 Y69.465
X41.504 Y69.457
X41.545 Y69.463
X41.593 Y69.48 Z-3.412
X41.638 Y69.496 Z-3.428
X41.679 Y69.511 Z-3.454
X41.714 Y69.523 Z-3.488
X41.742 Y69.533 Z-3.53
X41.769 Y69.543 Z-3.571
X41.804 Y69.555 Z-3.606
X41.846 Y69.57 Z-3.632
X41.891 Y69.586 Z-3.648
X41.939 Y69.602 Z-3.653
G3 X42.854 Y69.967 R12.557
G1 X43.601 Y70.3
X43.591 Y70.304
X42.855 Y70.632
X42.815 Y70.642
X42.774 Y70.637
X42.737 Y70.619
X41.465 Y69.694
X41.436 Y69.663
X41.419 Y69.624
X41.417 Y69.582
X41.43 Y69.542
X41.456 Y69.509
X41.492 Y69.487
X41.533 Y69.478
X41.575 Y69.485
X41.623 Y69.502 Z-3.659
X41.668 Y69.518 Z-3.675
X41.709 Y69.533 Z-3.7
X41.744 Y69.545 Z-3.735
X41.772 Y69.555 Z-3.777
X41.799 Y69.564 Z-3.818
X41.834 Y69.577 Z-3.853
X41.875 Y69.591 Z-3.879
X41.921 Y69.607 Z-3.895
X41.969 Y69.624 Z-3.9
G3 X42.85 Y69.975 R12.083
G1 X43.58 Y70.299
X42.854 Y70.622
X42.819 Y70.635
X39.827 Y71.437
X39.776 Y71.45 Z-3.894
X39.727 Y71.463 Z-3.876
X39.684 Y71.475 Z-3.848
X39.647 Y71.485 Z-3.81
X39.62 Y71.492 Z-3.765
X39.603 Y71.497 Z-3.715
X39.597 Y71.498 Z-3.662
G0 Z5.
X37.896 Y74.675
Z-1.094
G1 Z-3.168 F1499.
X37.894 Y74.681 Z-3.221
X37.889 Y74.698 Z-3.272
X37.882 Y74.725 Z-3.317
X37.872 Y74.761 Z-3.354
X37.859 Y74.805 Z-3.383
X37.846 Y74.853 Z-3.4
X37.832 Y74.905 Z-3.406
G3 X37.467 Y76.038 R15.163
G1 X37.459 Y76.06
X37.452 Y76.081
X37.2 Y76.861
X36.932 Y76.039
X36.926 Y76.007
X36.929 Y75.975
X36.941 Y75.944
X37.516 Y74.904
X37.542 Y74.871
X37.579 Y74.849
X37.621 Y74.842
X37.663 Y74.85
X37.699 Y74.873
X37.725 Y74.906
X37.738 Y74.947
X37.736 Y74.989
X37.724 Y75.038 Z-3.412
X37.713 Y75.085 Z-3.428
X37.703 Y75.127 Z-3.454
X37.694 Y75.164 Z-3.488
X37.687 Y75.192 Z-3.53
X37.68 Y75.22 Z-3.571
X37.672 Y75.256 Z-3.606
X37.662 Y75.299 Z-3.632
X37.65 Y75.346 Z-3.648
X37.639 Y75.395 Z-3.653
G3 X37.458 Y76.04 R8.529
G1 X37.201 Y76.834
X36.94 Y76.036
X36.935 Y76.005
X36.937 Y75.973
X36.948 Y75.943
X37.506 Y74.897
X37.533 Y74.864
X37.57 Y74.842
X37.612 Y74.834
X37.654 Y74.842
X37.69 Y74.864
X37.717 Y74.897
X37.73 Y74.938
X37.727 Y74.981
X37.716 Y75.03 Z-3.659
X37.705 Y75.077 Z-3.675
X37.694 Y75.119 Z-3.7
X37.686 Y75.155 Z-3.735
X37.679 Y75.184 Z-3.777
X37.672 Y75.212 Z-3.818
X37.664 Y75.248 Z-3.853
X37.654 Y75.291 Z-3.879
X37.643 Y75.337 Z-3.895
X37.631 Y75.387 Z-3.9
G3 X37.453 Y76.023 R8.411
G1 X37.201 Y76.805
X36.946 Y76.025
X36.937 Y75.989
X36.447 Y72.93
X36.439 Y72.878 Z-3.894
X36.431 Y72.828 Z-3.876
X36.424 Y72.784 Z-3.848
X36.418 Y72.747 Z-3.81
X36.413 Y72.719 Z-3.765
X36.41 Y72.701 Z-3.715
X36.409 Y72.695 Z-3.662
G0 Z5.
X36.541 Y85.432
Z-1.094
G1 Z-3.168 F1499.
X36.543 Y85.427 Z-3.221
X36.547 Y85.409 Z-3.272
X36.554 Y85.382 Z-3.317
X36.563 Y85.345 Z-3.354
X36.574 Y85.301 Z-3.383
X36.586 Y85.253 Z-3.4
X36.598 Y85.201 Z-3.406
G3 X36.928 Y84.057 R15.163
G1 X37.2 Y83.238
X37.466 Y84.052
X37.471 Y84.084
X37.468 Y84.117
X37.457 Y84.147
X36.868 Y85.203
X36.841 Y85.236
X36.804 Y85.258
X36.763 Y85.265
X36.721 Y85.256
X36.685 Y85.234
X36.659 Y85.2
X36.646 Y85.159
X36.649 Y85.117
X36.661 Y85.068 Z-3.412
X36.672 Y85.021 Z-3.428
X36.683 Y84.979 Z-3.454
X36.692 Y84.943 Z-3.488
X36.699 Y84.914 Z-3.53
X36.706 Y84.886 Z-3.571
X36.715 Y84.85 Z-3.606
X36.725 Y84.808 Z-3.632
X36.736 Y84.761 Z-3.648
X36.749 Y84.712 Z-3.653
G3 X36.937 Y84.059 R8.648
G1 X37.2 Y83.266
X37.458 Y84.056
X37.463 Y84.088
X37.461 Y84.12
X37.449 Y84.15
X36.875 Y85.21
X36.848 Y85.243
X36.812 Y85.265
X36.77 Y85.272
X36.728 Y85.264
X36.691 Y85.242
X36.665 Y85.208
X36.652 Y85.167
X36.655 Y85.125
X36.667 Y85.076 Z-3.659
X36.678 Y85.029 Z-3.675
X36.689 Y84.986 Z-3.7
X36.698 Y84.95 Z-3.735
X36.705 Y84.922 Z-3.777
X36.712 Y84.894 Z-3.818
X36.721 Y84.858 Z-3.853
X36.731 Y84.815 Z-3.879
X36.743 Y84.768 Z-3.895
X36.755 Y84.719 Z-3.9
G3 X36.937 Y84.085 R8.411
G1 X37.2 Y83.292
X37.457 Y84.079
X37.466 Y84.116
X37.955 Y87.174
X37.964 Y87.226 Z-3.894
X37.972 Y87.276 Z-3.876
X37.979 Y87.32 Z-3.848
X37.985 Y87.357 Z-3.81
X37.989 Y87.385 Z-3.765
X37.992 Y87.403 Z-3.715
X37.993 Y87.409 Z-3.662
G0 Z5.
X35.068 Y89.266
Z-1.083
G1 Z-1.094 F381.
Z-3.168 F1499.
X35.062 Y89.267 Z-3.221
X35.044 Y89.268 Z-3.272
X35.016 Y89.27 Z-3.317
X34.978 Y89.273 Z-3.354
X34.933 Y89.277 Z-3.383
X34.883 Y89.281 Z-3.4
X34.83 Y89.285 Z-3.406
G3 X33.64 Y89.332 R15.163
G1 X31.819
X32.515 Y89.023
X32.561 Y89.001
X32.604 Y88.974
X32.786 Y88.853
X32.807 Y88.839
X33.346 Y88.446
X33.38 Y88.429
X33.418 Y88.423
X33.456 Y88.431
X35.08 Y89.021
X35.115 Y89.041
X35.142 Y89.071
X35.156 Y89.109
X35.158 Y89.149
X35.146 Y89.187
X35.122 Y89.219
X35.088 Y89.242
X35.049 Y89.252
X34.999 Y89.256 Z-3.412
X34.951 Y89.259 Z-3.428
X34.907 Y89.263 Z-3.454
X34.87 Y89.266 Z-3.488
X34.841 Y89.268 Z-3.53
X34.812 Y89.27 Z-3.571
X34.775 Y89.273 Z-3.606
X34.731 Y89.277 Z-3.632
X34.683 Y89.28 Z-3.648
X34.633 Y89.284 Z-3.653
G3 X33.648 Y89.323 R12.557
G1 X31.861
X32.566 Y89.006
X32.62 Y88.978
X32.671 Y88.945
X33.357 Y88.446
X33.392 Y88.429
X33.43 Y88.424
X33.468 Y88.431
X35.081 Y89.013
X35.116 Y89.033
X35.142 Y89.064
X35.157 Y89.101
X35.158 Y89.141
X35.146 Y89.18
X35.122 Y89.212
X35.089 Y89.234
X35.05 Y89.244
X34.999 Y89.248 Z-3.659
X34.951 Y89.252 Z-3.675
X34.908 Y89.255 Z-3.7
X34.871 Y89.258 Z-3.735
X34.842 Y89.26 Z-3.777
X34.813 Y89.263 Z-3.818
X34.776 Y89.266 Z-3.853
X34.732 Y89.269 Z-3.879
X34.684 Y89.273 Z-3.895
X34.634 Y89.277 Z-3.9
G3 X33.667 Y89.315 R12.32
G1 X31.898
X32.566 Y89.015
X32.62 Y88.987
X32.672 Y88.954
X33.371 Y88.446
X33.403 Y88.427
X36.163 Y87.022
X36.21 Y86.998 Z-3.894
X36.255 Y86.975 Z-3.876
X36.296 Y86.955 Z-3.848
X36.329 Y86.938 Z-3.81
X36.354 Y86.925 Z-3.765
X36.37 Y86.917 Z-3.715
X36.375 Y86.914 Z-3.662
G0 Z5.
X39.864 Y87.659
Z-1.084
G1 Z-1.094 F381.
Z-3.168 F1499.
X39.869 Y87.662 Z-3.221
X39.884 Y87.671 Z-3.272
X39.909 Y87.686 Z-3.317
X39.941 Y87.705 Z-3.354
X39.979 Y87.729 Z-3.383
X40.022 Y87.755 Z-3.4
X40.067 Y87.783 Z-3.406
G3 X41.058 Y88.444 R15.163
G1 X41.75 Y88.947
X41.802 Y88.981
X41.857 Y89.009
X42.581 Y89.332
X40.762
X40.723 Y89.325
X40.689 Y89.307
X40.662 Y89.278
X39.742 Y87.87
X39.726 Y87.833
X39.723 Y87.793
X39.733 Y87.755
X39.756 Y87.722
X39.788 Y87.698
X39.827 Y87.687
X39.867 Y87.689
X39.904 Y87.703
X39.947 Y87.73 Z-3.412
X39.988 Y87.755 Z-3.428
X40.025 Y87.778 Z-3.454
X40.057 Y87.798 Z-3.488
X40.082 Y87.813 Z-3.53
X40.106 Y87.828 Z-3.571
X40.138 Y87.848 Z-3.606
X40.175 Y87.87 Z-3.632
X40.216 Y87.896 Z-3.648
X40.259 Y87.922 Z-3.653
G3 X41.047 Y88.45 R12.083
G1 X41.701 Y88.927
X41.744 Y88.955
X41.789 Y88.98
X42.03 Y89.098
X42.051 Y89.108
X42.535 Y89.323
X40.754
X40.715 Y89.317
X40.681 Y89.298
X40.654 Y89.269
X39.741 Y87.879
X39.725 Y87.843
X39.722 Y87.803
X39.732 Y87.764
X39.755 Y87.731
X39.787 Y87.707
X39.826 Y87.696
X39.866 Y87.697
X39.903 Y87.712
X39.946 Y87.739 Z-3.659
X39.987 Y87.764 Z-3.675
X40.024 Y87.787 Z-3.7
X40.056 Y87.806 Z-3.735
X40.081 Y87.822 Z-3.777
X40.105 Y87.837 Z-3.818
X40.137 Y87.856 Z-3.853
X40.174 Y87.879 Z-3.879
X40.215 Y87.905 Z-3.895
X40.258 Y87.931 Z-3.9
G3 X41.031 Y88.449 R11.846
G1 X41.701 Y88.937
X41.747 Y88.967
X41.795 Y88.993
X42.12 Y89.148
X42.135 Y89.155
X42.496 Y89.315
X40.735
X40.698 Y89.312
X37.639 Y88.827
X37.587 Y88.819 Z-3.894
X37.537 Y88.811 Z-3.876
X37.493 Y88.804 Z-3.848
X37.455 Y88.798 Z-3.81
X37.427 Y88.794 Z-3.765
X37.41 Y88.791 Z-3.715
X37.404 Y88.79 Z-3.662
G0 Z5.
X54.562 Y89.266
Z-1.083
G1 Z-1.094 F381.
Z-3.168 F1499.
X54.556 Y89.267 Z-3.221
X54.539 Y89.268 Z-3.272
X54.51 Y89.27 Z-3.317
X54.473 Y89.273 Z-3.354
X54.428 Y89.277 Z-3.383
X54.378 Y89.281 Z-3.4
X54.325 Y89.285 Z-3.406
G3 X53.135 Y89.332 R15.163
G1 X51.32
X52.022 Y89.02
X52.107 Y88.974
X52.252 Y88.879
X52.276 Y88.862
X52.84 Y88.451
X52.875 Y88.433
X52.913 Y88.428
X52.951 Y88.435
X54.59 Y89.02
X54.625 Y89.039
X54.652 Y89.07
X54.667 Y89.107
X54.668 Y89.148
X54.656 Y89.186
X54.632 Y89.218
X54.599 Y89.241
X54.559 Y89.251
X54.509 Y89.254 Z-3.412
X54.461 Y89.258 Z-3.428
X54.418 Y89.262 Z-3.454
X54.38 Y89.265 Z-3.488
X54.351 Y89.267 Z-3.53
X54.322 Y89.269 Z-3.571
X54.285 Y89.272 Z-3.606
X54.242 Y89.276 Z-3.632
X54.194 Y89.279 Z-3.648
X54.143 Y89.283 Z-3.653
G3 X53.13 Y89.323 R12.913
G1 X51.364
X51.973 Y89.054
X52.041 Y89.018
X52.234 Y88.901
X52.276 Y88.874
X52.858 Y88.449
X52.892 Y88.432
X52.93 Y88.427
X52.968 Y88.433
X54.601 Y89.013
X54.636 Y89.033
X54.663 Y89.063
X54.678 Y89.1
X54.679 Y89.141
X54.667 Y89.179
X54.643 Y89.211
X54.61 Y89.234
X54.57 Y89.244
X54.52 Y89.248 Z-3.659
X54.472 Y89.251 Z-3.675
X54.429 Y89.255 Z-3.7
X54.391 Y89.258 Z-3.735
X54.362 Y89.26 Z-3.777
X54.333 Y89.262 Z-3.818
X54.296 Y89.265 Z-3.853
X54.253 Y89.269 Z-3.879
X54.205 Y89.272 Z-3.895
X54.154 Y89.276 Z-3.9
G3 X53.178 Y89.315 R12.439
G1 X51.402
X52.022 Y89.04
X52.103 Y88.996
X52.248 Y88.902
X52.276 Y88.883
X52.888 Y88.437
X52.92 Y88.418
X55.677 Y87.008
X55.725 Y86.984 Z-3.894
X55.769 Y86.961 Z-3.876
X55.81 Y86.941 Z-3.848
X55.843 Y86.924 Z-3.81
X55.868 Y86.911 Z-3.765
X55.884 Y86.903 Z-3.715
X55.889 Y86.9 Z-3.662
G0 Z5.
X56.031 Y85.436
Z-1.094
G1 Z-3.168 F1499.
X56.033 Y85.431 Z-3.221
X56.037 Y85.414 Z-3.272
X56.044 Y85.386 Z-3.317
X56.053 Y85.349 Z-3.354
X56.064 Y85.306 Z-3.383
X56.077 Y85.257 Z-3.4
X56.09 Y85.206 Z-3.406
G3 X56.426 Y84.063 R15.163
G1 X56.65 Y83.4
X56.652 Y83.392
X56.701 Y83.241
X56.752 Y83.402
X56.755 Y83.409
X56.97 Y84.057
X56.976 Y84.09
X56.972 Y84.123
X56.96 Y84.154
X56.343 Y85.218
X56.316 Y85.25
X56.278 Y85.271
X56.236 Y85.277
X56.195 Y85.268
X56.159 Y85.245
X56.133 Y85.211
X56.122 Y85.17
X56.125 Y85.127
X56.138 Y85.079 Z-3.412
X56.15 Y85.032 Z-3.428
X56.162 Y84.99 Z-3.454
X56.171 Y84.954 Z-3.488
X56.179 Y84.926 Z-3.53
X56.186 Y84.898 Z-3.571
X56.196 Y84.862 Z-3.606
X56.207 Y84.82 Z-3.632
X56.219 Y84.773 Z-3.648
X56.232 Y84.724 Z-3.653
G3 X56.435 Y84.066 R8.766
G1 X56.532 Y83.793
X56.537 Y83.778
X56.701 Y83.268
X56.965 Y84.068
X56.97 Y84.1
X56.967 Y84.133
X56.955 Y84.164
X56.346 Y85.224
X56.319 Y85.257
X56.281 Y85.277
X56.239 Y85.284
X56.197 Y85.275
X56.161 Y85.252
X56.136 Y85.217
X56.124 Y85.176
X56.128 Y85.134
X56.141 Y85.085 Z-3.659
X56.154 Y85.038 Z-3.675
X56.165 Y84.996 Z-3.7
X56.175 Y84.96 Z-3.735
X56.182 Y84.932 Z-3.777
X56.19 Y84.904 Z-3.818
X56.199 Y84.868 Z-3.853
X56.211 Y84.826 Z-3.879
X56.223 Y84.779 Z-3.895
X56.236 Y84.731 Z-3.9
G3 X56.441 Y84.074 R8.766
G1 X56.541 Y83.795
X56.546 Y83.779
X56.702 Y83.296
X56.955 Y84.076
X56.963 Y84.112
X57.445 Y87.171
X57.453 Y87.224 Z-3.894
X57.461 Y87.273 Z-3.876
X57.468 Y87.318 Z-3.848
X57.474 Y87.355 Z-3.81
X57.478 Y87.383 Z-3.765
X57.481 Y87.401 Z-3.715
X57.482 Y87.407 Z-3.662
G0 Z5.
X59.366 Y87.659
Z-1.084
G1 Z-1.094 F381.
Z-3.168 F1499.
X59.371 Y87.662 Z-3.221
X59.386 Y87.671 Z-3.272
X59.41 Y87.686 Z-3.317
X59.443 Y87.706 Z-3.354
X59.481 Y87.729 Z-3.383
X59.524 Y87.756 Z-3.4
X59.569 Y87.784 Z-3.406
G3 X60.558 Y88.447 R15.163
G1 X61.207 Y88.921
X61.29 Y88.972
X61.47 Y89.062
X61.497 Y89.075
X62.076 Y89.332
X60.262
X60.223 Y89.325
X60.189 Y89.306
X60.162 Y89.277
X59.269 Y87.895
X59.254 Y87.858
X59.251 Y87.818
X59.262 Y87.78
X59.284 Y87.747
X59.316 Y87.724
X59.355 Y87.712
X59.394 Y87.714
X59.432 Y87.729
X59.475 Y87.755 Z-3.412
X59.516 Y87.78 Z-3.428
X59.553 Y87.803 Z-3.454
X59.585 Y87.822 Z-3.488
X59.61 Y87.837 Z-3.53
X59.634 Y87.853 Z-3.571
X59.666 Y87.872 Z-3.606
X59.703 Y87.895 Z-3.632
X59.745 Y87.92 Z-3.648
X59.788 Y87.946 Z-3.653
G3 X60.546 Y88.452 R11.609
G1 X61.209 Y88.932
X61.254 Y88.962
X61.302 Y88.988
X61.639 Y89.148
X61.654 Y89.155
X62.034 Y89.323
X60.268
X60.23 Y89.317
X60.195 Y89.298
X60.169 Y89.27
X59.255 Y87.895
X59.238 Y87.859
X59.235 Y87.819
X59.246 Y87.78
X59.268 Y87.747
X59.3 Y87.723
X59.339 Y87.711
X59.379 Y87.713
X59.416 Y87.728
X59.459 Y87.754 Z-3.659
X59.5 Y87.779 Z-3.675
X59.537 Y87.802 Z-3.7
X59.569 Y87.821 Z-3.735
X59.594 Y87.837 Z-3.777
X59.619 Y87.852 Z-3.818
X59.651 Y87.871 Z-3.853
X59.688 Y87.894 Z-3.879
X59.729 Y87.919 Z-3.895
X59.772 Y87.945 Z-3.9
G3 X60.523 Y88.446 R11.491
G1 X61.209 Y88.942
X61.255 Y88.973
X61.304 Y88.999
X61.689 Y89.18
X61.701 Y89.186
X61.991 Y89.315
X60.231
X60.194 Y89.312
X57.135 Y88.827
X57.082 Y88.819 Z-3.894
X57.033 Y88.811 Z-3.876
X56.988 Y88.804 Z-3.848
X56.951 Y88.798 Z-3.81
X56.923 Y88.794 Z-3.765
X56.905 Y88.791 Z-3.715
X56.899 Y88.79 Z-3.662
G0 Z5.
X74.074 Y89.266
Z-1.083
G1 Z-1.094 F381.
Z-3.168 F1499.
X74.068 Y89.267 Z-3.221
X74.05 Y89.268 Z-3.272
X74.022 Y89.27 Z-3.317
X73.984 Y89.273 Z-3.354
X73.939 Y89.277 Z-3.383
X73.889 Y89.281 Z-3.4
X73.836 Y89.285 Z-3.406
G3 X72.646 Y89.332 R15.163
G1 X70.823
X71.53 Y89.015
X71.603 Y88.977
X71.699 Y88.916
X71.734 Y88.893
X72.351 Y88.444
X72.385 Y88.426
X72.424 Y88.421
X72.462 Y88.428
X74.082 Y89.021
X74.117 Y89.041
X74.143 Y89.072
X74.158 Y89.109
X74.159 Y89.149
X74.147 Y89.187
X74.123 Y89.22
X74.09 Y89.242
X74.051 Y89.252
X74. Y89.256 Z-3.412
X73.952 Y89.259 Z-3.428
X73.909 Y89.263 Z-3.454
X73.872 Y89.266 Z-3.488
X73.843 Y89.268 Z-3.53
X73.814 Y89.27 Z-3.571
X73.777 Y89.273 Z-3.606
X73.733 Y89.277 Z-3.632
X73.685 Y89.28 Z-3.648
X73.635 Y89.284 Z-3.653
G3 X72.649 Y89.323 R12.557
G1 X70.865
X71.531 Y89.025
X71.578 Y89.001
X71.623 Y88.973
X71.912 Y88.775
X71.927 Y88.765
X72.358 Y88.45
X72.392 Y88.433
X72.431 Y88.427
X72.469 Y88.434
X74.076 Y89.013
X74.112 Y89.033
X74.138 Y89.064
X74.153 Y89.101
X74.154 Y89.141
X74.142 Y89.18
X74.118 Y89.212
X74.085 Y89.234
X74.045 Y89.244
X73.995 Y89.248 Z-3.659
X73.947 Y89.252 Z-3.675
X73.904 Y89.255 Z-3.7
X73.866 Y89.258 Z-3.735
X73.837 Y89.26 Z-3.777
X73.808 Y89.263 Z-3.818
X73.771 Y89.266 Z-3.853
X73.728 Y89.269 Z-3.879
X73.68 Y89.273 Z-3.895
X73.629 Y89.277 Z-3.9
G3 X72.663 Y89.315 R12.32
G1 X70.904
X71.531 Y89.033
X71.577 Y89.01
X71.621 Y88.983
X71.91 Y88.788
X71.927 Y88.776
X72.371 Y88.452
X72.403 Y88.432
X75.159 Y87.019
X75.206 Y86.995 Z-3.894
X75.251 Y86.972 Z-3.876
X75.291 Y86.952 Z-3.848
X75.325 Y86.934 Z-3.81
X75.35 Y86.921 Z-3.765
X75.365 Y86.913 Z-3.715
X75.371 Y86.911 Z-3.662
G0 Z5.
X75.49 Y85.417
Z-1.094
G1 Z-3.168 F1499.
X75.492 Y85.411 Z-3.221
X75.497 Y85.394 Z-3.272
X75.504 Y85.367 Z-3.317
X75.515 Y85.331 Z-3.354
X75.528 Y85.287 Z-3.383
X75.542 Y85.239 Z-3.4
X75.557 Y85.188 Z-3.406
G3 X75.934 Y84.059 R15.163
G1 X75.939 Y84.047
X75.948 Y84.02
X76.201 Y83.242
X76.249 Y83.391
X76.467 Y84.059
X76.473 Y84.094
X76.469 Y84.129
X76.454 Y84.161
X75.731 Y85.266
X75.702 Y85.297
X75.662 Y85.316
X75.619 Y85.319
X75.577 Y85.307
X75.543 Y85.28
X75.521 Y85.243
X75.513 Y85.201
X75.521 Y85.158
X75.539 Y85.111 Z-3.412
X75.556 Y85.066 Z-3.428
X75.572 Y85.025 Z-3.454
X75.585 Y84.99 Z-3.488
X75.596 Y84.963 Z-3.53
X75.606 Y84.936 Z-3.571
X75.62 Y84.902 Z-3.606
X75.636 Y84.861 Z-3.632
X75.653 Y84.816 Z-3.648
X75.671 Y84.769 Z-3.653
X75.943 Y84.066
X75.954 Y84.035
X76.201 Y83.272
X76.46 Y84.066
X76.466 Y84.101
X76.462 Y84.135
X76.448 Y84.167
X75.751 Y85.261
X75.725 Y85.29
X75.691 Y85.309
X75.653 Y85.316
X75.615 Y85.311
X75.58 Y85.293
X75.553 Y85.266
X75.536 Y85.231
X75.531 Y85.193
X75.539 Y85.155
X75.557 Y85.107 Z-3.659
X75.574 Y85.062 Z-3.675
X75.59 Y85.022 Z-3.7
X75.603 Y84.987 Z-3.735
X75.613 Y84.96 Z-3.777
X75.624 Y84.932 Z-3.818
X75.637 Y84.898 Z-3.853
X75.652 Y84.857 Z-3.879
X75.669 Y84.812 Z-3.895
X75.687 Y84.765 Z-3.9
X75.949 Y84.078
X75.958 Y84.049
X76.201 Y83.299
X76.455 Y84.077
X76.464 Y84.114
X76.952 Y87.172
X76.961 Y87.224 Z-3.894
X76.969 Y87.274 Z-3.876
X76.976 Y87.319 Z-3.848
X76.982 Y87.356 Z-3.81
X76.986 Y87.384 Z-3.765
X76.989 Y87.401 Z-3.715
X76.99 Y87.407 Z-3.662
G0 Z5.
X78.863 Y87.664
Z-1.084
G1 Z-1.094 F381.
Z-3.168 F1499.
X78.868 Y87.667 Z-3.221
X78.883 Y87.676 Z-3.272
X78.908 Y87.691 Z-3.317
X78.94 Y87.711 Z-3.354
X78.978 Y87.734 Z-3.383
X79.021 Y87.761 Z-3.4
X79.067 Y87.788 Z-3.406
G3 X80.057 Y88.449 R15.163
G1 X80.715 Y88.926
X80.794 Y88.975
X80.938 Y89.048
X80.968 Y89.062
X81.577 Y89.332
X79.763
X79.724 Y89.325
X79.689 Y89.306
X79.663 Y89.277
X78.766 Y87.893
X78.75 Y87.857
X78.748 Y87.817
X78.758 Y87.778
X78.781 Y87.745
X78.813 Y87.722
X78.851 Y87.71
X78.891 Y87.712
X78.928 Y87.727
X78.971 Y87.753 Z-3.412
X79.012 Y87.778 Z-3.428
X79.05 Y87.801 Z-3.454
X79.081 Y87.82 Z-3.488
X79.106 Y87.836 Z-3.53
X79.131 Y87.851 Z-3.571
X79.163 Y87.87 Z-3.606
X79.2 Y87.893 Z-3.632
X79.241 Y87.918 Z-3.648
X79.284 Y87.944 Z-3.653
G3 X80.051 Y88.455 R11.728
G1 X80.715 Y88.937
X80.761 Y88.967
X80.81 Y88.993
X81.14 Y89.149
X81.153 Y89.155
X81.531 Y89.323
X79.755
X79.716 Y89.317
X79.682 Y89.298
X79.655 Y89.269
X78.756 Y87.899
X78.74 Y87.862
X78.737 Y87.822
X78.747 Y87.784
X78.77 Y87.751
X78.802 Y87.727
X78.84 Y87.715
X78.88 Y87.717
X78.917 Y87.732
X78.961 Y87.758 Z-3.659
X79.002 Y87.783 Z-3.675
X79.039 Y87.806 Z-3.7
X79.071 Y87.825 Z-3.735
X79.096 Y87.84 Z-3.777
X79.12 Y87.855 Z-3.818
X79.152 Y87.875 Z-3.853
X79.19 Y87.897 Z-3.879
X79.231 Y87.922 Z-3.895
X79.274 Y87.949 Z-3.9
G3 X80.033 Y88.453 R11.609
G1 X80.716 Y88.947
X80.761 Y88.976
X80.809 Y89.002
X81.118 Y89.148
X81.132 Y89.155
X81.492 Y89.315
X79.742
X79.705 Y89.312
X76.646 Y88.827
X76.593 Y88.819 Z-3.894
X76.544 Y88.811 Z-3.876
X76.499 Y88.804 Z-3.848
X76.462 Y88.798 Z-3.81
X76.434 Y88.794 Z-3.765
X76.416 Y88.791 Z-3.715
X76.41 Y88.79 Z-3.662
G0 Z5.
X93.573 Y89.266
Z-1.083
G1 Z-1.094 F381.
Z-3.168 F1499.
X93.567 Y89.267 Z-3.221
X93.55 Y89.268 Z-3.272
X93.521 Y89.27 Z-3.317
X93.484 Y89.273 Z-3.354
X93.439 Y89.277 Z-3.383
X93.389 Y89.281 Z-3.4
X93.336 Y89.285 Z-3.406
G3 X92.146 Y89.332 R15.163
G1 X90.321
X91.041 Y89.009
X91.094 Y88.982
X91.144 Y88.95
X91.849 Y88.445
X91.883 Y88.428
X91.921 Y88.423
X91.958 Y88.43
X93.598 Y89.02
X93.633 Y89.04
X93.66 Y89.07
X93.675 Y89.107
X93.676 Y89.148
X93.664 Y89.186
X93.64 Y89.218
X93.606 Y89.241
X93.567 Y89.251
X93.517 Y89.254 Z-3.412
X93.469 Y89.258 Z-3.428
X93.426 Y89.262 Z-3.454
X93.388 Y89.265 Z-3.488
X93.359 Y89.267 Z-3.53
X93.33 Y89.269 Z-3.571
X93.293 Y89.272 Z-3.606
X93.25 Y89.276 Z-3.632
X93.202 Y89.279 Z-3.648
X93.151 Y89.283 Z-3.653
G3 X92.138 Y89.323 R12.913
G1 X90.369
X91.001 Y89.041
X91.065 Y89.008
X91.149 Y88.958
X91.191 Y88.929
X91.865 Y88.441
X91.9 Y88.424
X91.938 Y88.419
X91.976 Y88.426
X93.601 Y89.013
X93.636 Y89.033
X93.663 Y89.063
X93.678 Y89.101
X93.679 Y89.141
X93.667 Y89.179
X93.643 Y89.212
X93.609 Y89.234
X93.57 Y89.244
X93.52 Y89.248 Z-3.659
X93.472 Y89.251 Z-3.675
X93.428 Y89.255 Z-3.7
X93.391 Y89.258 Z-3.735
X93.362 Y89.26 Z-3.777
X93.333 Y89.262 Z-3.818
X93.296 Y89.265 Z-3.853
X93.253 Y89.269 Z-3.879
X93.205 Y89.272 Z-3.895
X93.154 Y89.276 Z-3.9
G3 X92.178 Y89.315 R12.439
G1 X90.408
X91.007 Y89.047
X91.055 Y89.023
X91.101 Y88.994
X91.565 Y88.676
X91.578 Y88.666
X91.884 Y88.443
X91.916 Y88.423
X94.673 Y87.012
X94.72 Y86.988 Z-3.894
X94.765 Y86.965 Z-3.876
X94.805 Y86.944 Z-3.848
X94.838 Y86.927 Z-3.81
X94.864 Y86.914 Z-3.765
X94.879 Y86.906 Z-3.715
X94.885 Y86.903 Z-3.662
G0 Z5.
X95.056 Y85.441
Z-1.094
G1 Z-3.168 F1499.
X95.057 Y85.435 Z-3.221
X95.061 Y85.418 Z-3.272
X95.068 Y85.39 Z-3.317
X95.077 Y85.354 Z-3.354
X95.087 Y85.31 Z-3.383
X95.099 Y85.261 Z-3.4
X95.111 Y85.209 Z-3.406
G3 X95.434 Y84.063 R15.163
G1 X95.701 Y83.242
X95.749 Y83.391
X95.967 Y84.059
X95.973 Y84.092
X95.969 Y84.126
X95.956 Y84.157
X95.314 Y85.227
X95.286 Y85.259
X95.247 Y85.279
X95.205 Y85.284
X95.163 Y85.274
X95.127 Y85.249
X95.103 Y85.213
X95.093 Y85.172
X95.099 Y85.129
X95.114 Y85.081 Z-3.412
X95.129 Y85.035 Z-3.428
X95.143 Y84.993 Z-3.454
X95.154 Y84.958 Z-3.488
X95.163 Y84.93 Z-3.53
X95.172 Y84.903 Z-3.571
X95.184 Y84.867 Z-3.606
X95.197 Y84.826 Z-3.632
X95.212 Y84.78 Z-3.648
X95.228 Y84.732 Z-3.653
X95.443 Y84.068
X95.701 Y83.271
X95.964 Y84.068
X95.97 Y84.101
X95.966 Y84.136
X95.952 Y84.167
X95.294 Y85.243
X95.265 Y85.275
X95.226 Y85.295
X95.183 Y85.3
X95.141 Y85.289
X95.106 Y85.263
X95.082 Y85.227
X95.073 Y85.185
X95.08 Y85.142
X95.096 Y85.094 Z-3.659
X95.112 Y85.049 Z-3.675
X95.126 Y85.007 Z-3.7
X95.138 Y84.972 Z-3.735
X95.148 Y84.945 Z-3.777
X95.158 Y84.917 Z-3.818
X95.17 Y84.882 Z-3.853
X95.184 Y84.841 Z-3.879
X95.2 Y84.795 Z-3.895
X95.216 Y84.748 Z-3.9
X95.448 Y84.08
X95.452 Y84.068
X95.702 Y83.298
X95.958 Y84.074
X95.967 Y84.111
X96.464 Y87.167
X96.473 Y87.22 Z-3.894
X96.481 Y87.269 Z-3.876
X96.488 Y87.314 Z-3.848
X96.494 Y87.351 Z-3.81
X96.499 Y87.379 Z-3.765
X96.502 Y87.396 Z-3.715
X96.503 Y87.402 Z-3.662
G0 Z5.
X98.363 Y87.664
Z-1.084
G1 Z-1.094 F381.
Z-3.168 F1499.
X98.368 Y87.668 Z-3.221
X98.383 Y87.677 Z-3.272
X98.407 Y87.692 Z-3.317
X98.44 Y87.711 Z-3.354
X98.478 Y87.735 Z-3.383
X98.521 Y87.761 Z-3.4
X98.566 Y87.789 Z-3.406
G3 X99.557 Y88.449 R15.163
G1 X100.222 Y88.931
X100.269 Y88.961
X100.318 Y88.987
X100.665 Y89.15
X100.677 Y89.155
X101.076 Y89.332
X99.262
X99.224 Y89.325
X99.189 Y89.306
X99.162 Y89.277
X98.264 Y87.893
X98.249 Y87.856
X98.246 Y87.816
X98.256 Y87.778
X98.279 Y87.745
X98.311 Y87.721
X98.349 Y87.71
X98.389 Y87.711
X98.426 Y87.726
X98.469 Y87.752 Z-3.412
X98.51 Y87.778 Z-3.428
X98.548 Y87.8 Z-3.454
X98.58 Y87.82 Z-3.488
X98.604 Y87.835 Z-3.53
X98.629 Y87.85 Z-3.571
X98.661 Y87.869 Z-3.606
X98.698 Y87.892 Z-3.632
X98.739 Y87.917 Z-3.648
X98.782 Y87.944 Z-3.653
G3 X99.549 Y88.454 R11.728
G1 X100.222 Y88.941
X100.271 Y88.973
X100.324 Y89.
X100.998 Y89.308
X101.004 Y89.311
X101.031 Y89.323
X99.265
X99.227 Y89.317
X99.193 Y89.298
X99.166 Y89.27
X98.264 Y87.906
X98.248 Y87.87
X98.244 Y87.83
X98.255 Y87.791
X98.277 Y87.758
X98.309 Y87.734
X98.348 Y87.722
X98.388 Y87.724
X98.425 Y87.739
X98.468 Y87.765 Z-3.659
X98.509 Y87.79 Z-3.675
X98.547 Y87.813 Z-3.7
X98.578 Y87.832 Z-3.735
X98.603 Y87.847 Z-3.777
X98.628 Y87.862 Z-3.818
X98.66 Y87.882 Z-3.853
X98.697 Y87.904 Z-3.879
X98.738 Y87.929 Z-3.895
X98.782 Y87.955 Z-3.9
G3 X99.534 Y88.454 R11.491
G1 X100.223 Y88.951
X100.272 Y88.982
X100.323 Y89.009
X100.991 Y89.315
X99.225
X99.188 Y89.312
X96.129 Y88.827
X96.077 Y88.819 Z-3.894
X96.027 Y88.811 Z-3.876
X95.983 Y88.804 Z-3.848
X95.945 Y88.798 Z-3.81
X95.917 Y88.794 Z-3.765
X95.9 Y88.791 Z-3.715
X95.894 Y88.79 Z-3.662
G0 Z5.
X113.062 Y89.266
Z-1.083
G1 Z-1.094 F381.
Z-3.168 F1499.
X113.056 Y89.267 Z-3.221
X113.039 Y89.268 Z-3.272
X113.01 Y89.27 Z-3.317
X112.973 Y89.273 Z-3.354
X112.928 Y89.277 Z-3.383
X112.878 Y89.281 Z-3.4
X112.825 Y89.285 Z-3.406
G3 X111.635 Y89.332 R15.163
G1 X109.828
X110.495 Y89.034
X110.579 Y88.988
X110.82 Y88.83
X110.843 Y88.814
X111.339 Y88.453
X111.374 Y88.436
X111.412 Y88.43
X111.449 Y88.437
X113.095 Y89.02
X113.131 Y89.04
X113.157 Y89.07
X113.172 Y89.107
X113.174 Y89.148
X113.162 Y89.186
X113.138 Y89.219
X113.104 Y89.241
X113.065 Y89.251
X113.015 Y89.255 Z-3.412
X112.967 Y89.259 Z-3.428
X112.923 Y89.262 Z-3.454
X112.886 Y89.265 Z-3.488
X112.857 Y89.267 Z-3.53
X112.828 Y89.27 Z-3.571
X112.791 Y89.272 Z-3.606
X112.747 Y89.276 Z-3.632
X112.699 Y89.28 Z-3.648
X112.649 Y89.284 Z-3.653
G3 X111.645 Y89.323 R12.794
G1 X109.869
X110.495 Y89.044
X110.577 Y89.
X110.818 Y88.843
X110.844 Y88.825
X111.352 Y88.455
X111.387 Y88.437
X111.424 Y88.432
X111.462 Y88.438
X113.106 Y89.012
X113.141 Y89.031
X113.168 Y89.062
X113.183 Y89.099
X113.185 Y89.14
X113.173 Y89.178
X113.149 Y89.211
X113.115 Y89.233
X113.076 Y89.243
X113.026 Y89.247 Z-3.659
X112.978 Y89.251 Z-3.675
X112.934 Y89.254 Z-3.7
X112.897 Y89.257 Z-3.735
X112.868 Y89.259 Z-3.777
X112.839 Y89.262 Z-3.818
X112.802 Y89.265 Z-3.853
X112.758 Y89.268 Z-3.879
X112.71 Y89.272 Z-3.895
X112.66 Y89.276 Z-3.9
G3 X111.665 Y89.315 R12.676
G1 X109.908
X110.494 Y89.054
X110.574 Y89.011
X110.815 Y88.856
X110.844 Y88.836
X111.374 Y88.449
X111.406 Y88.43
X114.163 Y87.018
X114.21 Y86.994 Z-3.894
X114.255 Y86.971 Z-3.876
X114.295 Y86.951 Z-3.848
X114.328 Y86.934 Z-3.81
X114.354 Y86.921 Z-3.765
X114.369 Y86.913 Z-3.715
X114.375 Y86.91 Z-3.662
G0 Z5.
X114.554 Y85.438
Z-1.094
G1 Z-3.168 F1499.
X114.556 Y85.432 Z-3.221
X114.56 Y85.415 Z-3.272
X114.566 Y85.387 Z-3.317
X114.575 Y85.35 Z-3.354
X114.586 Y85.307 Z-3.383
X114.598 Y85.258 Z-3.4
X114.61 Y85.206 Z-3.406
G3 X114.934 Y84.06 R15.163
G1 X115.201 Y83.241
X115.249 Y83.391
X115.467 Y84.059
X115.473 Y84.093
X115.469 Y84.127
X115.455 Y84.159
X114.786 Y85.238
X114.757 Y85.27
X114.718 Y85.29
X114.676 Y85.294
X114.634 Y85.283
X114.599 Y85.257
X114.575 Y85.221
X114.566 Y85.179
X114.572 Y85.136
X114.589 Y85.089 Z-3.412
X114.605 Y85.043 Z-3.428
X114.619 Y85.002 Z-3.454
X114.631 Y84.967 Z-3.488
X114.641 Y84.939 Z-3.53
X114.65 Y84.912 Z-3.571
X114.662 Y84.877 Z-3.606
X114.677 Y84.835 Z-3.632
X114.693 Y84.79 Z-3.648
X114.709 Y84.742 Z-3.653
X114.944 Y84.065
X114.947 Y84.054
X115.202 Y83.268
X115.46 Y84.064
X115.466 Y84.098
X115.462 Y84.131
X115.449 Y84.162
X114.811 Y85.23
X114.782 Y85.262
X114.744 Y85.283
X114.701 Y85.288
X114.659 Y85.277
X114.623 Y85.252
X114.599 Y85.216
X114.589 Y85.174
X114.595 Y85.131
X114.612 Y85.083 Z-3.659
X114.627 Y85.037 Z-3.675
X114.641 Y84.996 Z-3.7
X114.653 Y84.961 Z-3.735
X114.662 Y84.933 Z-3.777
X114.671 Y84.906 Z-3.818
X114.683 Y84.87 Z-3.853
X114.697 Y84.829 Z-3.879
X114.712 Y84.783 Z-3.895
X114.728 Y84.735 Z-3.9
X114.95 Y84.074
X114.952 Y84.068
X115.202 Y83.296
X115.457 Y84.082
X115.466 Y84.119
X115.947 Y87.178
X115.956 Y87.23 Z-3.894
X115.964 Y87.28 Z-3.876
X115.971 Y87.325 Z-3.848
X115.976 Y87.362 Z-3.81
X115.981 Y87.39 Z-3.765
X115.984 Y87.407 Z-3.715
Y87.413 Z-3.662
G0 Z5.
X117.864 Y87.665
Z-1.084
G1 Z-1.094 F381.
Z-3.168 F1499.
X117.869 Y87.668 Z-3.221
X117.884 Y87.677 Z-3.272
X117.908 Y87.692 Z-3.317
X117.94 Y87.712 Z-3.354
X117.979 Y87.735 Z-3.383
X118.022 Y87.761 Z-3.4
X118.067 Y87.789 Z-3.406
G3 X119.058 Y88.449 R15.163
G1 X119.731 Y88.936
X119.782 Y88.969
X119.836 Y88.997
X120.581 Y89.332
X118.762
X118.723 Y89.325
X118.689 Y89.306
X118.662 Y89.277
X117.767 Y87.894
X117.751 Y87.857
X117.748 Y87.817
X117.759 Y87.779
X117.781 Y87.746
X117.813 Y87.723
X117.852 Y87.711
X117.891 Y87.713
X117.928 Y87.728
X117.972 Y87.754 Z-3.412
X118.013 Y87.779 Z-3.428
X118.05 Y87.802 Z-3.454
X118.082 Y87.821 Z-3.488
X118.107 Y87.836 Z-3.53
X118.131 Y87.851 Z-3.571
X118.163 Y87.871 Z-3.606
X118.201 Y87.893 Z-3.632
X118.242 Y87.919 Z-3.648
X118.285 Y87.945 Z-3.653
G3 X119.052 Y88.455 R11.728
G1 X119.73 Y88.945
X119.78 Y88.978
X119.834 Y89.005
X120.538 Y89.323
X118.756
X118.718 Y89.317
X118.683 Y89.298
X118.657 Y89.269
X117.756 Y87.897
X117.74 Y87.86
X117.737 Y87.821
X117.747 Y87.782
X117.77 Y87.749
X117.802 Y87.725
X117.84 Y87.714
X117.88 Y87.715
X117.917 Y87.73
X117.96 Y87.756 Z-3.659
X118.002 Y87.781 Z-3.675
X118.039 Y87.804 Z-3.7
X118.071 Y87.823 Z-3.735
X118.095 Y87.839 Z-3.777
X118.12 Y87.854 Z-3.818
X118.152 Y87.873 Z-3.853
X118.189 Y87.896 Z-3.879
X118.231 Y87.921 Z-3.895
X118.274 Y87.947 Z-3.9
G3 X119.033 Y88.451 R11.609
G1 X119.729 Y88.954
X119.779 Y88.986
X119.831 Y89.013
X120.494 Y89.315
X118.739
X118.702 Y89.312
X115.643 Y88.827
X115.591 Y88.819 Z-3.894
X115.541 Y88.811 Z-3.876
X115.496 Y88.804 Z-3.848
X115.459 Y88.798 Z-3.81
X115.431 Y88.794 Z-3.765
X115.414 Y88.791 Z-3.715
X115.408 Y88.79 Z-3.662
G0 Z5.
X132.567 Y89.266
Z-1.083
G1 Z-1.094 F381.
Z-3.168 F1499.
X132.561 Y89.267 Z-3.221
X132.544 Y89.268 Z-3.272
X132.515 Y89.27 Z-3.317
X132.478 Y89.273 Z-3.354
X132.433 Y89.277 Z-3.383
X132.382 Y89.281 Z-3.4
X132.33 Y89.285 Z-3.406
G3 X131.14 Y89.332 R15.163
G1 X129.327
X130.001 Y89.031
X130.082 Y88.987
X130.273 Y88.864
X130.301 Y88.845
X130.848 Y88.446
X130.883 Y88.428
X130.921 Y88.423
X130.959 Y88.43
X132.593 Y89.02
X132.628 Y89.04
X132.654 Y89.07
X132.669 Y89.108
X132.671 Y89.148
X132.658 Y89.186
X132.634 Y89.219
X132.601 Y89.241
X132.562 Y89.251
X132.512 Y89.255 Z-3.412
X132.463 Y89.259 Z-3.428
X132.42 Y89.262 Z-3.454
X132.383 Y89.265 Z-3.488
X132.354 Y89.267 Z-3.53
X132.325 Y89.27 Z-3.571
X132.288 Y89.272 Z-3.606
X132.244 Y89.276 Z-3.632
X132.196 Y89.28 Z-3.648
X132.146 Y89.284 Z-3.653
G3 X131.142 Y89.323 R12.794
G1 X129.369
X130.002 Y89.041
X130.079 Y88.999
X130.272 Y88.876
X130.303 Y88.855
X130.863 Y88.446
X130.897 Y88.429
X130.935 Y88.423
X130.973 Y88.43
X132.607 Y89.012
X132.642 Y89.032
X132.669 Y89.062
X132.683 Y89.1
X132.685 Y89.14
X132.673 Y89.178
X132.649 Y89.211
X132.615 Y89.233
X132.576 Y89.243
X132.526 Y89.247 Z-3.659
X132.478 Y89.251 Z-3.675
X132.434 Y89.254 Z-3.7
X132.397 Y89.257 Z-3.735
X132.368 Y89.259 Z-3.777
X132.339 Y89.262 Z-3.818
X132.302 Y89.265 Z-3.853
X132.259 Y89.268 Z-3.879
X132.211 Y89.272 Z-3.895
X132.16 Y89.276 Z-3.9
G3 X131.166 Y89.315 R12.676
G1 X129.409
X130.002 Y89.05
X130.076 Y89.01
X130.269 Y88.889
X130.302 Y88.867
X130.884 Y88.443
X130.916 Y88.424
X133.675 Y87.017
X133.722 Y86.993 Z-3.894
X133.767 Y86.97 Z-3.876
X133.807 Y86.95 Z-3.848
X133.841 Y86.933 Z-3.81
X133.866 Y86.92 Z-3.765
X133.882 Y86.912 Z-3.715
X133.887 Y86.909 Z-3.662
G0 Z5.
X135.806 Y74.979
Z-1.083
G1 Z-1.094 F381.
Z-3.168 F1499.
X135.807 Y74.985 Z-3.221
X135.808 Y75.002 Z-3.272
X135.81 Y75.031 Z-3.317
X135.813 Y75.068 Z-3.354
X135.817 Y75.113 Z-3.383
X135.821 Y75.163 Z-3.4
X135.825 Y75.216 Z-3.406
G3 X135.872 Y76.406 R15.163
G1 Y83.688
X135.864 Y83.728
X135.844 Y83.764
X135.812 Y83.791
X135.773 Y83.805
X135.732
X134.719 Y83.623
X134.681 Y83.609
X134.65 Y83.583
X134.629 Y83.549
X134.621 Y83.509
X134.627 Y83.469
X135.006 Y82.296
X135.026 Y82.218
X135.054 Y82.06
X135.06 Y82.017
X135.252 Y80.185
X135.255 Y80.109
X135.251 Y79.916
X135.248 Y79.867
X135.054 Y78.035
X135.041 Y77.957
X134.994 Y77.764
X134.981 Y77.72
X134.628 Y76.634
X134.622 Y76.602
X134.626 Y76.569
X134.638 Y76.538
X135.57 Y74.937
X135.598 Y74.905
X135.635 Y74.884
X135.678 Y74.878
X135.72 Y74.888
X135.755 Y74.912
X135.78 Y74.946
X135.791 Y74.988
X135.795 Y75.038 Z-3.412
X135.799 Y75.086 Z-3.428
X135.802 Y75.13 Z-3.454
X135.805 Y75.167 Z-3.488
X135.808 Y75.196 Z-3.53
X135.81 Y75.225 Z-3.571
X135.813 Y75.262 Z-3.606
X135.816 Y75.306 Z-3.632
X135.82 Y75.354 Z-3.648
X135.824 Y75.404 Z-3.653
G3 X135.863 Y76.398 R12.676
G1 Y83.685
X135.856 Y83.726
X135.836 Y83.762
X135.804 Y83.788
X135.766 Y83.803
X135.725
X134.725 Y83.638
X134.687 Y83.624
X134.655 Y83.599
X134.634 Y83.564
X134.626 Y83.524
X134.632 Y83.484
X135.013 Y82.303
X135.031 Y82.231
X135.062 Y82.066
X135.07 Y82.017
X135.261 Y80.184
X135.264 Y80.112
X135.26 Y79.919
X135.257 Y79.867
X135.062 Y78.034
X135.05 Y77.961
X135.005 Y77.768
X134.991 Y77.72
X134.632 Y76.619
X134.627 Y76.586
X134.63 Y76.553
X134.643 Y76.522
X135.562 Y74.938
X135.59 Y74.905
X135.628 Y74.884
X135.67 Y74.878
X135.712 Y74.888
X135.748 Y74.912
X135.773 Y74.947
X135.784 Y74.988
X135.788 Y75.038 Z-3.659
X135.791 Y75.086 Z-3.675
X135.795 Y75.13 Z-3.7
X135.798 Y75.167 Z-3.735
X135.8 Y75.196 Z-3.777
X135.802 Y75.225 Z-3.818
X135.805 Y75.262 Z-3.853
X135.809 Y75.306 Z-3.879
X135.813 Y75.354 Z-3.895
X135.816 Y75.404 Z-3.9
G3 X135.855 Y76.38 R12.439
G1 Y83.742
X135.847 Y83.783
X135.826 Y83.819
X135.794 Y83.846
X135.754 Y83.859
X135.712 Y83.858
X134.724 Y83.657
X134.687 Y83.642
X134.656 Y83.617
X134.636 Y83.582
X134.629 Y83.543
X134.634 Y83.504
X135.019 Y82.311
X135.036 Y82.243
X135.07 Y82.071
X135.079 Y82.017
X135.268 Y80.184
X135.272 Y80.116
X135.27 Y79.924
X135.266 Y79.866
X135.07 Y78.034
X135.059 Y77.967
X135.016 Y77.774
X135.001 Y77.719
X134.634 Y76.599
X134.626 Y76.562
X134.136 Y73.504
X134.127 Y73.452 Z-3.894
X134.119 Y73.402 Z-3.876
X134.112 Y73.358 Z-3.848
X134.106 Y73.32 Z-3.81
X134.102 Y73.292 Z-3.765
X134.099 Y73.275 Z-3.715
X134.098 Y73.269 Z-3.662
G0 Z5.
X130.372 Y71.162
Z-1.084
G1 Z-1.094 F381.
Z-3.168 F1499.
X130.366 Y71.16 Z-3.221
X130.349 Y71.154 Z-3.272
X130.323 Y71.145 Z-3.317
X130.287 Y71.132 Z-3.354
X130.245 Y71.117 Z-3.383
X130.197 Y71.1 Z-3.4
X130.147 Y71.083 Z-3.406
G3 X129.042 Y70.641 R15.163
G1 X128.32 Y70.319
X128.282 Y70.304
X128.266 Y70.298
X128.442 Y70.226
X128.46 Y70.218
X129.04 Y69.96
X129.08 Y69.95
X129.121 Y69.954
X129.158 Y69.972
X130.496 Y70.943
X130.525 Y70.973
X130.542 Y71.012
X130.544 Y71.054
X130.531 Y71.095
X130.505 Y71.128
X130.469 Y71.15
X130.428 Y71.158
X130.386 Y71.151
X130.339 Y71.134 Z-3.412
X130.293 Y71.118 Z-3.428
X130.252 Y71.104 Z-3.454
X130.217 Y71.091 Z-3.488
X130.19 Y71.082 Z-3.53
X130.162 Y71.072 Z-3.571
X130.127 Y71.059 Z-3.606
X130.086 Y71.045 Z-3.632
X130.041 Y71.029 Z-3.648
X129.993 Y71.012 Z-3.653
G3 X129.052 Y70.635 R12.913
G1 X128.343 Y70.319
X128.308 Y70.305
X128.289 Y70.298
X128.441 Y70.237
X128.46 Y70.229
X129.05 Y69.965
X129.09 Y69.955
X129.131 Y69.96
X129.168 Y69.978
X130.497 Y70.934
X130.526 Y70.965
X130.543 Y71.003
X130.545 Y71.046
X130.533 Y71.086
X130.507 Y71.12
X130.471 Y71.142
X130.429 Y71.15
X130.387 Y71.143
X130.34 Y71.126 Z-3.659
X130.295 Y71.11 Z-3.675
X130.253 Y71.095 Z-3.7
X130.218 Y71.083 Z-3.735
X130.191 Y71.073 Z-3.777
X130.163 Y71.063 Z-3.818
X130.128 Y71.051 Z-3.853
X130.087 Y71.036 Z-3.879
X130.042 Y71.02 Z-3.895
X129.994 Y71.003 Z-3.9
G3 X129.062 Y70.63 R12.794
G1 X128.365 Y70.319
X128.332 Y70.306
X128.312 Y70.298
X128.438 Y70.248
X128.461 Y70.238
X129.065 Y69.969
X129.1 Y69.956
X132.09 Y69.15
X132.141 Y69.136 Z-3.894
X132.19 Y69.123 Z-3.876
X132.233 Y69.111 Z-3.848
X132.27 Y69.101 Z-3.81
X132.297 Y69.094 Z-3.765
X132.314 Y69.089 Z-3.715
X132.32 Y69.088 Z-3.662
G0 Z5.
X119.532 Y69.433
Z-1.084
G1 Z-1.094 F381.
Z-3.168 F1499.
X119.538 Y69.435 Z-3.221
X119.554 Y69.441 Z-3.272
X119.581 Y69.45 Z-3.317
X119.616 Y69.463 Z-3.354
X119.659 Y69.478 Z-3.383
X119.706 Y69.495 Z-3.4
X119.756 Y69.513 Z-3.406
G3 X120.861 Y69.957 R15.163
G1 X121.626 Y70.3
X120.861 Y70.642
X120.821 Y70.652
X120.78 Y70.648
X120.743 Y70.629
X119.387 Y69.642
X119.358 Y69.612
X119.341 Y69.573
X119.339 Y69.531
X119.352 Y69.49
X119.378 Y69.457
X119.414 Y69.435
X119.456 Y69.427
X119.497 Y69.434
X119.545 Y69.451 Z-3.412
X119.59 Y69.467 Z-3.428
X119.631 Y69.482 Z-3.454
X119.666 Y69.495 Z-3.488
X119.694 Y69.505 Z-3.53
X119.721 Y69.515 Z-3.571
X119.756 Y69.527 Z-3.606
X119.797 Y69.542 Z-3.632
X119.843 Y69.558 Z-3.648
X119.89 Y69.575 Z-3.653
G3 X120.856 Y69.967 R13.268
G1 X121.037 Y70.049
X121.043 Y70.051
X121.607 Y70.298
X120.852 Y70.637
X120.812 Y70.647
X120.771 Y70.643
X120.734 Y70.625
X119.417 Y69.679
X119.388 Y69.648
X119.371 Y69.609
X119.369 Y69.567
X119.381 Y69.527
X119.407 Y69.493
X119.443 Y69.471
X119.484 Y69.463
X119.526 Y69.469
X119.574 Y69.486 Z-3.659
X119.619 Y69.502 Z-3.675
X119.661 Y69.516 Z-3.7
X119.696 Y69.529 Z-3.735
X119.723 Y69.538 Z-3.777
X119.751 Y69.548 Z-3.818
X119.786 Y69.56 Z-3.853
X119.827 Y69.575 Z-3.879
X119.873 Y69.59 Z-3.895
X119.92 Y69.607 Z-3.9
G3 X120.838 Y69.969 R12.557
G1 X121.586 Y70.298
X120.836 Y70.634
X120.801 Y70.646
X117.811 Y71.454
X117.76 Y71.468 Z-3.894
X117.712 Y71.481 Z-3.876
X117.668 Y71.493 Z-3.848
X117.632 Y71.503 Z-3.81
X117.604 Y71.51 Z-3.765
X117.587 Y71.515 Z-3.715
X117.582 Y71.516 Z-3.662
G0 Z5.
X114.514 Y65.927
Z-1.094
G1 Z-3.168 F1499.
X114.516 Y65.921 Z-3.221
X114.52 Y65.904 Z-3.272
X114.528 Y65.877 Z-3.317
X114.538 Y65.84 Z-3.354
X114.55 Y65.797 Z-3.383
X114.563 Y65.748 Z-3.4
X114.577 Y65.697 Z-3.406
G3 X114.933 Y64.561 R15.163
G1 X114.953 Y64.504
X114.959 Y64.486
X115.199 Y63.74
X115.471 Y64.564
X115.477 Y64.596
X115.474 Y64.629
X115.462 Y64.659
X114.882 Y65.694
X114.855 Y65.726
X114.818 Y65.748
X114.776 Y65.755
X114.735 Y65.746
X114.699 Y65.724
X114.673 Y65.69
X114.66 Y65.65
X114.663 Y65.608
X114.674 Y65.559 Z-3.412
X114.686 Y65.512 Z-3.428
X114.696 Y65.469 Z-3.454
X114.705 Y65.433 Z-3.488
X114.711 Y65.405 Z-3.53
X114.718 Y65.376 Z-3.571
X114.727 Y65.34 Z-3.606
X114.737 Y65.298 Z-3.632
X114.749 Y65.251 Z-3.648
X114.76 Y65.202 Z-3.653
G3 X114.94 Y64.566 R8.411
G1 X115.2 Y63.772
X115.458 Y64.567
X115.464 Y64.598
X115.461 Y64.63
X115.45 Y64.66
X114.892 Y65.701
X114.865 Y65.734
X114.829 Y65.756
X114.787 Y65.763
X114.745 Y65.756
X114.708 Y65.734
X114.682 Y65.7
X114.669 Y65.659
X114.671 Y65.617
X114.683 Y65.568 Z-3.659
X114.694 Y65.521 Z-3.675
X114.705 Y65.478 Z-3.7
X114.713 Y65.442 Z-3.735
X114.72 Y65.414 Z-3.777
X114.727 Y65.385 Z-3.818
X114.736 Y65.349 Z-3.853
X114.746 Y65.307 Z-3.879
X114.757 Y65.26 Z-3.895
X114.769 Y65.211 Z-3.9
G3 X114.948 Y64.575 R8.411
G1 X115.2 Y63.802
X115.452 Y64.576
X115.461 Y64.612
X115.948 Y67.671
X115.956 Y67.723 Z-3.894
X115.964 Y67.773 Z-3.876
X115.971 Y67.818 Z-3.848
X115.977 Y67.855 Z-3.81
X115.981 Y67.883 Z-3.765
X115.984 Y67.9 Z-3.715
X115.985 Y67.906 Z-3.662
G0 Z5.
X115.855 Y55.167
Z-1.094
G1 Z-3.168 F1499.
X115.854 Y55.173 Z-3.221
X115.85 Y55.19 Z-3.272
X115.843 Y55.217 Z-3.317
X115.834 Y55.254 Z-3.354
X115.823 Y55.298 Z-3.383
X115.811 Y55.347 Z-3.4
X115.799 Y55.398 Z-3.406
G3 X115.47 Y56.543 R15.163
G1 X115.199 Y57.364
X114.928 Y56.539
X114.923 Y56.506
X114.926 Y56.474
X114.938 Y56.443
X115.527 Y55.401
X115.555 Y55.369
X115.591 Y55.348
X115.633 Y55.341
X115.675 Y55.349
X115.711 Y55.372
X115.737 Y55.405
X115.749 Y55.446
X115.747 Y55.488
X115.735 Y55.537 Z-3.412
X115.723 Y55.584 Z-3.428
X115.713 Y55.627 Z-3.454
X115.704 Y55.663 Z-3.488
X115.697 Y55.691 Z-3.53
X115.69 Y55.719 Z-3.571
X115.681 Y55.755 Z-3.606
X115.671 Y55.798 Z-3.632
X115.659 Y55.845 Z-3.648
X115.647 Y55.894 Z-3.653
G3 X115.462 Y56.537 R8.529
G1 X115.199 Y57.335
X114.937 Y56.535
X114.931 Y56.503
X114.934 Y56.471
X114.945 Y56.441
X115.519 Y55.396
X115.546 Y55.363
X115.583 Y55.341
X115.625 Y55.334
X115.667 Y55.342
X115.703 Y55.365
X115.729 Y55.398
X115.742 Y55.439
X115.739 Y55.481
X115.728 Y55.53 Z-3.659
X115.716 Y55.577 Z-3.675
X115.706 Y55.62 Z-3.7
X115.697 Y55.656 Z-3.735
X115.69 Y55.684 Z-3.777
X115.683 Y55.712 Z-3.818
X115.674 Y55.749 Z-3.853
X115.664 Y55.791 Z-3.879
X115.653 Y55.838 Z-3.895
X115.641 Y55.887 Z-3.9
G3 X115.462 Y56.513 R8.292
G1 X115.2 Y57.31
X114.939 Y56.515
X114.93 Y56.479
X114.437 Y53.421
X114.429 Y53.369 Z-3.894
X114.421 Y53.319 Z-3.876
X114.414 Y53.275 Z-3.848
X114.408 Y53.238 Z-3.81
X114.403 Y53.21 Z-3.765
X114.4 Y53.192 Z-3.715
Y53.186 Z-3.662
G0 Z5.
X110.869 Y51.665
Z-1.084
G1 Z-1.094 F381.
Z-3.168 F1499.
X110.864 Y51.663 Z-3.221
X110.847 Y51.657 Z-3.272
X110.82 Y51.648 Z-3.317
X110.785 Y51.635 Z-3.354
X110.742 Y51.62 Z-3.383
X110.695 Y51.603 Z-3.4
X110.645 Y51.585 Z-3.406
G3 X109.539 Y51.144 R15.163
G1 X108.769 Y50.8
X108.781 Y50.795
X108.81 Y50.784
X109.535 Y50.459
X109.575 Y50.449
X109.616 Y50.454
X109.654 Y50.472
X110.997 Y51.446
X111.026 Y51.477
X111.043 Y51.516
X111.045 Y51.558
X111.033 Y51.598
X111.007 Y51.632
X110.971 Y51.654
X110.929 Y51.662
X110.887 Y51.655
X110.84 Y51.638 Z-3.412
X110.794 Y51.622 Z-3.428
X110.753 Y51.607 Z-3.454
X110.718 Y51.595 Z-3.488
X110.691 Y51.585 Z-3.53
X110.663 Y51.576 Z-3.571
X110.628 Y51.563 Z-3.606
X110.587 Y51.549 Z-3.632
X110.542 Y51.532 Z-3.648
X110.494 Y51.516 Z-3.653
G3 X109.544 Y51.136 R13.031
G1 X108.792 Y50.801
X108.809 Y50.793
X109.545 Y50.465
X109.585 Y50.455
X109.626 Y50.459
X109.663 Y50.477
X110.991 Y51.431
X111.02 Y51.461
X111.037 Y51.5
X111.039 Y51.542
X111.027 Y51.583
X111.001 Y51.616
X110.965 Y51.639
X110.923 Y51.647
X110.882 Y51.64
X110.834 Y51.623 Z-3.659
X110.788 Y51.607 Z-3.675
X110.747 Y51.593 Z-3.7
X110.712 Y51.58 Z-3.735
X110.685 Y51.571 Z-3.777
X110.657 Y51.561 Z-3.818
X110.622 Y51.549 Z-3.853
X110.581 Y51.534 Z-3.879
X110.536 Y51.518 Z-3.895
X110.488 Y51.501 Z-3.9
G3 X109.554 Y51.13 R12.794
G1 X108.809 Y50.8
X109.555 Y50.468
X109.59 Y50.456
X112.582 Y49.654
X112.633 Y49.64 Z-3.894
X112.681 Y49.627 Z-3.876
X112.725 Y49.616 Z-3.848
X112.761 Y49.606 Z-3.81
X112.789 Y49.599 Z-3.765
X112.806 Y49.594 Z-3.715
X112.812 Y49.592 Z-3.662
G0 Z5.
X100.027 Y49.939
Z-1.084
G1 Z-1.094 F381.
Z-3.168 F1499.
X100.033 Y49.941 Z-3.221
X100.049 Y49.947 Z-3.272
X100.076 Y49.956 Z-3.317
X100.112 Y49.968 Z-3.354
X100.154 Y49.983 Z-3.383
X100.202 Y50. Z-3.4
X100.252 Y50.018 Z-3.406
G3 X101.359 Y50.456 R15.163
G1 X102.136 Y50.8
X101.361 Y51.144
X101.321 Y51.154
X101.28 Y51.149
X101.243 Y51.131
X99.9 Y50.158
X99.87 Y50.128
X99.854 Y50.089
X99.851 Y50.047
X99.864 Y50.006
X99.89 Y49.973
X99.926 Y49.951
X99.967 Y49.943
X100.009 Y49.949
X100.057 Y49.966 Z-3.412
X100.102 Y49.982 Z-3.428
X100.143 Y49.996 Z-3.454
X100.178 Y50.009 Z-3.488
X100.206 Y50.018 Z-3.53
X100.233 Y50.028 Z-3.571
X100.268 Y50.04 Z-3.606
X100.31 Y50.055 Z-3.632
X100.355 Y50.071 Z-3.648
X100.403 Y50.087 Z-3.653
G3 X101.354 Y50.464 R13.031
G1 X102.116 Y50.8
X101.36 Y51.134
X101.32 Y51.144
X101.279 Y51.14
X101.243 Y51.122
X99.894 Y50.165
X99.865 Y50.134
X99.848 Y50.096
X99.845 Y50.053
X99.857 Y50.013
X99.883 Y49.979
X99.919 Y49.957
X99.961 Y49.949
X100.003 Y49.955
X100.05 Y49.972 Z-3.659
X100.096 Y49.988 Z-3.675
X100.137 Y50.003 Z-3.7
X100.172 Y50.015 Z-3.735
X100.2 Y50.025 Z-3.777
X100.227 Y50.034 Z-3.818
X100.262 Y50.047 Z-3.853
X100.303 Y50.061 Z-3.879
X100.349 Y50.077 Z-3.895
X100.396 Y50.094 Z-3.9
G3 X101.339 Y50.467 R12.913
G1 X102.094 Y50.801
X101.342 Y51.132
X101.307 Y51.144
X98.312 Y51.933
X98.26 Y51.947 Z-3.894
X98.212 Y51.96 Z-3.876
X98.168 Y51.971 Z-3.848
X98.132 Y51.981 Z-3.81
X98.104 Y51.988 Z-3.765
X98.087 Y51.992 Z-3.715
X98.081 Y51.994 Z-3.662
G0 Z5.
X96.373 Y55.168
Z-1.094
G1 Z-3.168 F1499.
X96.372 Y55.173 Z-3.221
X96.367 Y55.19 Z-3.272
X96.36 Y55.218 Z-3.317
X96.351 Y55.254 Z-3.354
X96.34 Y55.298 Z-3.383
X96.327 Y55.347 Z-3.4
X96.314 Y55.398 Z-3.406
G3 X95.97 Y56.538 R15.163
G1 X95.887 Y56.779
X95.883 Y56.791
X95.701 Y57.357
X95.435 Y56.539
X95.429 Y56.506
X95.433 Y56.473
X95.445 Y56.442
X96.067 Y55.376
X96.094 Y55.344
X96.132 Y55.323
X96.174 Y55.317
X96.216 Y55.326
X96.251 Y55.349
X96.277 Y55.384
X96.288 Y55.425
X96.284 Y55.467
X96.271 Y55.516 Z-3.412
X96.258 Y55.562 Z-3.428
X96.247 Y55.605 Z-3.454
X96.237 Y55.64 Z-3.488
X96.23 Y55.669 Z-3.53
X96.222 Y55.697 Z-3.571
X96.212 Y55.732 Z-3.606
X96.201 Y55.775 Z-3.632
X96.188 Y55.821 Z-3.648
X96.175 Y55.87 Z-3.653
G3 X95.965 Y56.535 R8.885
G1 X95.88 Y56.772
X95.874 Y56.79
X95.7 Y57.325
X95.442 Y56.533
X95.437 Y56.5
X95.44 Y56.467
X95.452 Y56.437
X96.063 Y55.373
X96.09 Y55.34
X96.128 Y55.319
X96.17 Y55.313
X96.212 Y55.322
X96.248 Y55.345
X96.273 Y55.38
X96.284 Y55.421
X96.281 Y55.464
X96.267 Y55.512 Z-3.659
X96.254 Y55.559 Z-3.675
X96.243 Y55.601 Z-3.7
X96.233 Y55.637 Z-3.735
X96.225 Y55.665 Z-3.777
X96.217 Y55.693 Z-3.818
X96.208 Y55.729 Z-3.853
X96.196 Y55.771 Z-3.879
X96.183 Y55.817 Z-3.895
X96.17 Y55.866 Z-3.9
G3 X95.961 Y56.522 R8.766
G1 X95.871 Y56.77
X95.864 Y56.79
X95.7 Y57.297
X95.449 Y56.527
X95.44 Y56.491
X94.954 Y53.432
X94.945 Y53.38 Z-3.894
X94.937 Y53.33 Z-3.876
X94.93 Y53.286 Z-3.848
X94.924 Y53.249 Z-3.81
X94.92 Y53.221 Z-3.765
X94.917 Y53.203 Z-3.715
X94.916 Y53.197 Z-3.662
G0 Z5.
X95.057 Y65.941
Z-1.094
G1 Z-3.168 F1499.
X95.058 Y65.935 Z-3.221
X95.062 Y65.918 Z-3.272
X95.069 Y65.891 Z-3.317
X95.078 Y65.854 Z-3.354
X95.088 Y65.81 Z-3.383
X95.1 Y65.761 Z-3.4
X95.112 Y65.71 Z-3.406
G3 X95.434 Y64.563 R15.163
G1 X95.7 Y63.743
X95.965 Y64.556
X95.97 Y64.59
X95.967 Y64.623
X95.954 Y64.654
X95.312 Y65.734
X95.284 Y65.766
X95.246 Y65.786
X95.203 Y65.792
X95.162 Y65.782
X95.126 Y65.758
X95.102 Y65.723
X95.091 Y65.682
X95.095 Y65.639
X95.109 Y65.591 Z-3.412
X95.123 Y65.544 Z-3.428
X95.135 Y65.503 Z-3.454
X95.146 Y65.467 Z-3.488
X95.154 Y65.439 Z-3.53
X95.162 Y65.411 Z-3.571
X95.173 Y65.375 Z-3.606
X95.185 Y65.333 Z-3.632
X95.199 Y65.287 Z-3.648
X95.213 Y65.239 Z-3.653
G3 X95.439 Y64.569 R9.003
G1 X95.459 Y64.516
X95.469 Y64.487
X95.701 Y63.773
X95.96 Y64.566
X95.965 Y64.597
X95.963 Y64.629
X95.951 Y64.659
X95.393 Y65.704
X95.366 Y65.738
X95.329 Y65.76
X95.287 Y65.767
X95.245 Y65.76
X95.209 Y65.738
X95.182 Y65.704
X95.169 Y65.663
X95.172 Y65.621
X95.184 Y65.571 Z-3.659
X95.195 Y65.525 Z-3.675
X95.205 Y65.482 Z-3.7
X95.214 Y65.446 Z-3.735
X95.22 Y65.418 Z-3.777
X95.227 Y65.389 Z-3.818
X95.236 Y65.353 Z-3.853
X95.246 Y65.311 Z-3.879
X95.257 Y65.264 Z-3.895
X95.269 Y65.215 Z-3.9
G3 X95.448 Y64.579 R8.411
G1 X95.7 Y63.804
X95.951 Y64.575
X95.96 Y64.611
X96.447 Y67.67
X96.455 Y67.722 Z-3.894
X96.463 Y67.772 Z-3.876
X96.47 Y67.816 Z-3.848
X96.476 Y67.854 Z-3.81
X96.48 Y67.882 Z-3.765
X96.483 Y67.899 Z-3.715
X96.484 Y67.905 Z-3.662
G0 Z5.
X91.368 Y71.159
Z-1.084
G1 Z-1.094 F381.
Z-3.168 F1499.
X91.363 Y71.157 Z-3.221
X91.346 Y71.151 Z-3.272
X91.319 Y71.142 Z-3.317
X91.284 Y71.129 Z-3.354
X91.241 Y71.114 Z-3.383
X91.194 Y71.097 Z-3.4
X91.144 Y71.08 Z-3.406
G3 X90.037 Y70.64 R15.163
G1 X89.267 Y70.299
X89.369 Y70.258
X89.392 Y70.249
X90.039 Y69.959
X90.079 Y69.948
X90.121 Y69.953
X90.158 Y69.971
X91.485 Y70.936
X91.514 Y70.966
X91.531 Y71.005
X91.533 Y71.047
X91.52 Y71.087
X91.494 Y71.121
X91.458 Y71.143
X91.417 Y71.151
X91.375 Y71.144
X91.328 Y71.127 Z-3.412
X91.282 Y71.111 Z-3.428
X91.241 Y71.097 Z-3.454
X91.206 Y71.085 Z-3.488
X91.178 Y71.075 Z-3.53
X91.151 Y71.065 Z-3.571
X91.116 Y71.053 Z-3.606
X91.075 Y71.038 Z-3.632
X91.029 Y71.022 Z-3.648
X90.982 Y71.006 Z-3.653
G3 X90.048 Y70.635 R12.794
G1 X89.289 Y70.299
X89.392 Y70.259
X89.415 Y70.249
X90.048 Y69.965
X90.088 Y69.954
X90.129 Y69.959
X90.166 Y69.977
X91.507 Y70.94
X91.536 Y70.971
X91.553 Y71.01
X91.556 Y71.052
X91.543 Y71.092
X91.517 Y71.126
X91.481 Y71.148
X91.44 Y71.156
X91.398 Y71.149
X91.35 Y71.133 Z-3.659
X91.305 Y71.116 Z-3.675
X91.264 Y71.102 Z-3.7
X91.228 Y71.089 Z-3.735
X91.201 Y71.08 Z-3.777
X91.174 Y71.07 Z-3.818
X91.139 Y71.058 Z-3.853
X91.097 Y71.043 Z-3.879
X91.052 Y71.027 Z-3.895
X91.004 Y71.01 Z-3.9
G3 X90.063 Y70.635 R12.913
G1 X89.31 Y70.3
X89.413 Y70.259
X89.436 Y70.249
X90.065 Y69.969
X90.1 Y69.956
X93.091 Y69.153
X93.142 Y69.14 Z-3.894
X93.191 Y69.127 Z-3.876
X93.234 Y69.115 Z-3.848
X93.271 Y69.105 Z-3.81
X93.298 Y69.098 Z-3.765
X93.315 Y69.093 Z-3.715
X93.321 Y69.092 Z-3.662
G0 Z5.
X80.538 Y69.436
Z-1.084
G1 Z-1.094 F381.
Z-3.168 F1499.
X80.544 Y69.438 Z-3.221
X80.56 Y69.444 Z-3.272
X80.587 Y69.453 Z-3.317
X80.623 Y69.466 Z-3.354
X80.665 Y69.481 Z-3.383
X80.713 Y69.498 Z-3.4
X80.762 Y69.516 Z-3.406
G3 X81.867 Y69.96 R15.163
G1 X82.605 Y70.291
X82.628 Y70.301
X82.615 Y70.306
X82.581 Y70.32
X81.865 Y70.64
X81.825 Y70.65
X81.784 Y70.646
X81.746 Y70.628
X80.432 Y69.67
X80.402 Y69.64
X80.386 Y69.601
X80.384 Y69.559
X80.396 Y69.518
X80.422 Y69.485
X80.458 Y69.463
X80.5 Y69.455
X80.541 Y69.462
X80.589 Y69.478 Z-3.412
X80.634 Y69.495 Z-3.428
X80.676 Y69.509 Z-3.454
X80.711 Y69.521 Z-3.488
X80.738 Y69.531 Z-3.53
X80.766 Y69.541 Z-3.571
X80.801 Y69.553 Z-3.606
X80.842 Y69.568 Z-3.632
X80.887 Y69.584 Z-3.648
X80.935 Y69.601 Z-3.653
G3 X81.86 Y69.969 R12.676
G1 X82.605 Y70.301
X82.589 Y70.307
X82.559 Y70.319
X81.858 Y70.632
X81.818 Y70.642
X81.777 Y70.637
X81.74 Y70.62
X80.427 Y69.678
X80.397 Y69.647
X80.38 Y69.608
X80.378 Y69.566
X80.39 Y69.526
X80.416 Y69.492
X80.452 Y69.47
X80.494 Y69.462
X80.536 Y69.469
X80.583 Y69.485 Z-3.659
X80.629 Y69.501 Z-3.675
X80.67 Y69.516 Z-3.7
X80.705 Y69.528 Z-3.735
X80.732 Y69.538 Z-3.777
X80.76 Y69.548 Z-3.818
X80.795 Y69.56 Z-3.853
X80.836 Y69.575 Z-3.879
X80.881 Y69.591 Z-3.895
X80.929 Y69.608 Z-3.9
G3 X81.845 Y69.972 R12.557
G1 X82.582 Y70.299
X81.847 Y70.627
X81.811 Y70.64
X78.82 Y71.443
X78.769 Y71.457 Z-3.894
X78.721 Y71.47 Z-3.876
X78.677 Y71.482 Z-3.848
X78.64 Y71.492 Z-3.81
X78.613 Y71.499 Z-3.765
X78.596 Y71.504 Z-3.715
X78.59 Y71.505 Z-3.662
G0 Z5.
X76.9 Y74.679
Z-1.094
G1 Z-3.168 F1499.
X76.898 Y74.685 Z-3.221
X76.893 Y74.701 Z-3.272
X76.886 Y74.729 Z-3.317
X76.876 Y74.765 Z-3.354
X76.863 Y74.809 Z-3.383
X76.85 Y74.857 Z-3.4
X76.835 Y74.908 Z-3.406
G3 X76.467 Y76.04 R15.163
G1 X76.461 Y76.058
X76.453 Y76.081
X76.201 Y76.857
X75.935 Y76.04
X75.929 Y76.007
X75.932 Y75.974
X75.945 Y75.943
X76.571 Y74.874
X76.599 Y74.842
X76.636 Y74.821
X76.679 Y74.815
X76.72 Y74.825
X76.756 Y74.848
X76.781 Y74.883
X76.792 Y74.924
X76.788 Y74.967
X76.775 Y75.015 Z-3.412
X76.762 Y75.062 Z-3.428
X76.75 Y75.104 Z-3.454
X76.74 Y75.14 Z-3.488
X76.732 Y75.168 Z-3.53
X76.724 Y75.195 Z-3.571
X76.714 Y75.231 Z-3.606
X76.702 Y75.273 Z-3.632
X76.689 Y75.32 Z-3.648
X76.675 Y75.368 Z-3.653
G3 X76.458 Y76.041 R9.003
G1 X76.451 Y76.059
X76.444 Y76.081
X76.201 Y76.829
X75.941 Y76.032
X75.935 Y76.
X75.939 Y75.967
X75.951 Y75.937
X76.546 Y74.884
X76.573 Y74.852
X76.611 Y74.831
X76.653 Y74.824
X76.695 Y74.833
X76.731 Y74.856
X76.756 Y74.89
X76.768 Y74.931
X76.765 Y74.974
X76.752 Y75.022 Z-3.659
X76.739 Y75.069 Z-3.675
X76.728 Y75.111 Z-3.7
X76.718 Y75.147 Z-3.735
X76.711 Y75.175 Z-3.777
X76.703 Y75.203 Z-3.818
X76.694 Y75.239 Z-3.853
X76.683 Y75.282 Z-3.879
X76.67 Y75.328 Z-3.895
X76.657 Y75.377 Z-3.9
G3 X76.457 Y76.026 R8.648
G1 X76.409 Y76.16
X76.404 Y76.174
X76.201 Y76.801
X75.947 Y76.025
X75.938 Y75.989
X75.448 Y72.931
X75.44 Y72.879 Z-3.894
X75.432 Y72.829 Z-3.876
X75.425 Y72.784 Z-3.848
X75.419 Y72.747 Z-3.81
X75.414 Y72.719 Z-3.765
X75.412 Y72.702 Z-3.715
X75.411 Y72.696 Z-3.662
G0 Z5.
X71.872 Y71.167
Z-1.084
G1 Z-1.094 F381.
Z-3.168 F1499.
X71.866 Y71.165 Z-3.221
X71.85 Y71.159 Z-3.272
X71.823 Y71.15 Z-3.317
X71.787 Y71.137 Z-3.354
X71.745 Y71.122 Z-3.383
X71.698 Y71.105 Z-3.4
X71.648 Y71.088 Z-3.406
G3 X70.542 Y70.645 R15.163
G1 X69.767 Y70.299
X69.869 Y70.258
X69.892 Y70.248
X70.54 Y69.959
X70.58 Y69.949
X70.621 Y69.954
X70.659 Y69.972
X71.989 Y70.939
X72.018 Y70.969
X72.035 Y71.008
X72.037 Y71.05
X72.024 Y71.09
X71.998 Y71.124
X71.962 Y71.146
X71.921 Y71.154
X71.879 Y71.147
X71.832 Y71.13 Z-3.412
X71.786 Y71.114 Z-3.428
X71.745 Y71.1 Z-3.454
X71.71 Y71.088 Z-3.488
X71.683 Y71.078 Z-3.53
X71.655 Y71.068 Z-3.571
X71.62 Y71.056 Z-3.606
X71.579 Y71.041 Z-3.632
X71.533 Y71.025 Z-3.648
X71.486 Y71.008 Z-3.653
G3 X70.552 Y70.637 R12.794
G1 X69.789 Y70.299
X69.89 Y70.259
X69.914 Y70.249
X70.548 Y69.966
X70.588 Y69.956
X70.629 Y69.96
X70.666 Y69.978
X71.997 Y70.934
X72.026 Y70.965
X72.043 Y71.003
X72.045 Y71.046
X72.033 Y71.086
X72.007 Y71.119
X71.971 Y71.142
X71.929 Y71.15
X71.887 Y71.143
X71.84 Y71.126 Z-3.659
X71.794 Y71.11 Z-3.675
X71.753 Y71.095 Z-3.7
X71.718 Y71.083 Z-3.735
X71.691 Y71.073 Z-3.777
X71.663 Y71.063 Z-3.818
X71.628 Y71.051 Z-3.853
X71.587 Y71.036 Z-3.879
X71.542 Y71.02 Z-3.895
X71.494 Y71.003 Z-3.9
G3 X70.561 Y70.63 R12.794
G1 X69.865 Y70.319
X69.831 Y70.305
X69.813 Y70.298
X69.912 Y70.259
X69.937 Y70.249
X70.565 Y69.967
X70.6 Y69.954
X73.59 Y69.145
X73.641 Y69.131 Z-3.894
X73.689 Y69.118 Z-3.876
X73.733 Y69.106 Z-3.848
X73.769 Y69.096 Z-3.81
X73.797 Y69.089 Z-3.765
X73.814 Y69.084 Z-3.715
X73.819 Y69.082 Z-3.662
G0 Z5.
X61.041 Y69.445
Z-1.084
G1 Z-1.094 F381.
Z-3.168 F1499.
X61.047 Y69.447 Z-3.221
X61.064 Y69.453 Z-3.272
X61.09 Y69.462 Z-3.317
X61.126 Y69.475 Z-3.354
X61.168 Y69.49 Z-3.383
X61.216 Y69.506 Z-3.4
X61.266 Y69.524 Z-3.406
G3 X62.372 Y69.964 R15.163
G1 X63.133 Y70.301
X62.373 Y70.64
X62.333 Y70.65
X62.292 Y70.645
X62.254 Y70.627
X60.937 Y69.673
X60.908 Y69.643
X60.891 Y69.604
X60.889 Y69.562
X60.902 Y69.522
X60.928 Y69.488
X60.964 Y69.466
X61.005 Y69.458
X61.047 Y69.465
X61.094 Y69.482 Z-3.412
X61.14 Y69.498 Z-3.428
X61.181 Y69.512 Z-3.454
X61.216 Y69.524 Z-3.488
X61.243 Y69.534 Z-3.53
X61.271 Y69.544 Z-3.571
X61.306 Y69.556 Z-3.606
X61.347 Y69.571 Z-3.632
X61.393 Y69.587 Z-3.648
X61.44 Y69.603 Z-3.653
G3 X62.365 Y69.971 R12.676
G1 X63.106 Y70.299
X62.365 Y70.628
X62.326 Y70.638
X62.285 Y70.634
X62.248 Y70.617
X60.938 Y69.683
X60.909 Y69.652
X60.892 Y69.613
X60.889 Y69.571
X60.902 Y69.531
X60.928 Y69.497
X60.964 Y69.475
X61.005 Y69.467
X61.047 Y69.473
X61.095 Y69.49 Z-3.659
X61.14 Y69.506 Z-3.675
X61.181 Y69.521 Z-3.7
X61.216 Y69.533 Z-3.735
X61.244 Y69.543 Z-3.777
X61.271 Y69.552 Z-3.818
X61.306 Y69.565 Z-3.853
X61.347 Y69.579 Z-3.879
X61.393 Y69.595 Z-3.895
X61.441 Y69.612 Z-3.9
G3 X62.348 Y69.972 R12.439
G1 X63.085 Y70.299
X62.35 Y70.627
X62.314 Y70.64
X59.324 Y71.446
X59.273 Y71.459 Z-3.894
X59.224 Y71.472 Z-3.876
X59.181 Y71.484 Z-3.848
X59.144 Y71.494 Z-3.81
X59.117 Y71.501 Z-3.765
X59.1 Y71.506 Z-3.715
X59.094 Y71.508 Z-3.662
G0 Z5.
X57.4 Y74.679
Z-1.094
G1 Z-3.168 F1499.
X57.398 Y74.685 Z-3.221
X57.393 Y74.701 Z-3.272
X57.386 Y74.729 Z-3.317
X57.376 Y74.765 Z-3.354
X57.363 Y74.809 Z-3.383
X57.35 Y74.857 Z-3.4
X57.335 Y74.908 Z-3.406
G3 X56.967 Y76.04 R15.163
G1 X56.961 Y76.058
X56.953 Y76.081
X56.7 Y76.864
X56.434 Y76.044
X56.428 Y76.011
X56.432 Y75.978
X56.444 Y75.947
X57.07 Y74.877
X57.098 Y74.845
X57.136 Y74.824
X57.178 Y74.818
X57.22 Y74.828
X57.255 Y74.851
X57.28 Y74.886
X57.292 Y74.927
X57.288 Y74.969
X57.274 Y75.018 Z-3.412
X57.261 Y75.064 Z-3.428
X57.249 Y75.106 Z-3.454
X57.239 Y75.142 Z-3.488
X57.231 Y75.17 Z-3.53
X57.223 Y75.198 Z-3.571
X57.213 Y75.234 Z-3.606
X57.201 Y75.276 Z-3.632
X57.188 Y75.323 Z-3.648
X57.175 Y75.371 Z-3.653
G3 X56.96 Y76.035 R8.885
G1 X56.951 Y76.059
X56.943 Y76.082
X56.701 Y76.834
X56.439 Y76.034
X56.433 Y76.001
X56.436 Y75.968
X56.449 Y75.937
X57.061 Y74.875
X57.089 Y74.842
X57.126 Y74.822
X57.169 Y74.815
X57.21 Y74.825
X57.246 Y74.848
X57.271 Y74.883
X57.283 Y74.924
X57.279 Y74.966
X57.265 Y75.015 Z-3.659
X57.252 Y75.062 Z-3.675
X57.241 Y75.104 Z-3.7
X57.231 Y75.139 Z-3.735
X57.223 Y75.167 Z-3.777
X57.215 Y75.195 Z-3.818
X57.205 Y75.231 Z-3.853
X57.193 Y75.273 Z-3.879
X57.18 Y75.32 Z-3.895
X57.167 Y75.368 Z-3.9
G3 X56.955 Y76.024 R8.766
G1 X56.942 Y76.06
X56.934 Y76.082
X56.702 Y76.801
X56.45 Y76.026
X56.441 Y75.989
X55.956 Y72.931
X55.948 Y72.878 Z-3.894
X55.94 Y72.829 Z-3.876
X55.933 Y72.784 Z-3.848
X55.927 Y72.747 Z-3.81
X55.923 Y72.719 Z-3.765
X55.92 Y72.701 Z-3.715
X55.919 Y72.695 Z-3.662
G0 Z5.
X36.549 Y65.937
Z-1.094
G1 Z-3.168 F1499.
X36.55 Y65.931 Z-3.221
X36.555 Y65.914 Z-3.272
X36.561 Y65.886 Z-3.317
X36.57 Y65.85 Z-3.354
X36.581 Y65.806 Z-3.383
X36.593 Y65.757 Z-3.4
X36.605 Y65.705 Z-3.406
G3 X36.93 Y64.56 R15.163
G1 X37.199 Y63.738
X37.466 Y64.557
X37.472 Y64.589
X37.469 Y64.621
X37.457 Y64.651
X36.885 Y65.693
X36.858 Y65.726
X36.821 Y65.748
X36.779 Y65.755
X36.737 Y65.747
X36.701 Y65.725
X36.675 Y65.691
X36.662 Y65.651
X36.665 Y65.608
X36.676 Y65.559 Z-3.412
X36.688 Y65.512 Z-3.428
X36.698 Y65.47 Z-3.454
X36.707 Y65.433 Z-3.488
X36.713 Y65.405 Z-3.53
X36.72 Y65.377 Z-3.571
X36.729 Y65.341 Z-3.606
X36.739 Y65.298 Z-3.632
X36.75 Y65.251 Z-3.648
X36.762 Y65.202 Z-3.653
G3 X36.942 Y64.567 R8.411
G1 X37.2 Y63.772
X37.463 Y64.568
X37.469 Y64.6
X37.466 Y64.632
X37.454 Y64.662
X36.891 Y65.703
X36.864 Y65.736
X36.827 Y65.758
X36.785 Y65.765
X36.744 Y65.757
X36.707 Y65.735
X36.681 Y65.702
X36.668 Y65.661
X36.67 Y65.618
X36.682 Y65.569 Z-3.659
X36.693 Y65.522 Z-3.675
X36.704 Y65.48 Z-3.7
X36.712 Y65.444 Z-3.735
X36.719 Y65.415 Z-3.777
X36.726 Y65.387 Z-3.818
X36.735 Y65.351 Z-3.853
X36.745 Y65.308 Z-3.879
X36.756 Y65.262 Z-3.895
X36.768 Y65.212 Z-3.9
G3 X36.947 Y64.577 R8.411
G1 X37.201 Y63.798
X37.455 Y64.575
X37.464 Y64.611
X37.957 Y67.669
X37.966 Y67.721 Z-3.894
X37.974 Y67.771 Z-3.876
X37.981 Y67.815 Z-3.848
X37.987 Y67.853 Z-3.81
X37.992 Y67.881 Z-3.765
X37.994 Y67.898 Z-3.715
X37.995 Y67.904 Z-3.662
G0 Z5.
X37.852 Y55.163
Z-1.094
G1 Z-3.168 F1499.
X37.851 Y55.168 Z-3.221
X37.847 Y55.186 Z-3.272
X37.84 Y55.213 Z-3.317
X37.831 Y55.25 Z-3.354
X37.821 Y55.294 Z-3.383
X37.809 Y55.343 Z-3.4
X37.796 Y55.394 Z-3.406
G3 X37.472 Y56.54 R15.163
G1 X37.201 Y57.369
X36.929 Y56.541
X36.923 Y56.509
X36.926 Y56.477
X36.938 Y56.446
X37.518 Y55.401
X37.545 Y55.369
X37.582 Y55.347
X37.624 Y55.34
X37.665 Y55.348
X37.702 Y55.37
X37.728 Y55.404
X37.74 Y55.445
X37.738 Y55.487
X37.726 Y55.536 Z-3.412
X37.715 Y55.583 Z-3.428
X37.705 Y55.625 Z-3.454
X37.696 Y55.662 Z-3.488
X37.689 Y55.69 Z-3.53
X37.683 Y55.718 Z-3.571
X37.674 Y55.754 Z-3.606
X37.664 Y55.797 Z-3.632
X37.653 Y55.844 Z-3.648
X37.641 Y55.893 Z-3.653
G3 X37.459 Y56.538 R8.529
G1 X37.2 Y57.338
X36.937 Y56.537
X36.931 Y56.505
X36.934 Y56.473
X36.946 Y56.442
X37.516 Y55.397
X37.543 Y55.364
X37.58 Y55.343
X37.621 Y55.335
X37.663 Y55.343
X37.7 Y55.365
X37.726 Y55.399
X37.739 Y55.44
X37.736 Y55.482
X37.724 Y55.531 Z-3.659
X37.713 Y55.578 Z-3.675
X37.703 Y55.621 Z-3.7
X37.694 Y55.657 Z-3.735
X37.687 Y55.685 Z-3.777
X37.681 Y55.713 Z-3.818
X37.672 Y55.75 Z-3.853
X37.662 Y55.792 Z-3.879
X37.65 Y55.839 Z-3.895
X37.639 Y55.888 Z-3.9
G3 X37.461 Y56.515 R8.292
G1 X37.201 Y57.314
X36.94 Y56.517
X36.931 Y56.481
X36.439 Y53.423
X36.43 Y53.371 Z-3.894
X36.422 Y53.321 Z-3.876
X36.415 Y53.276 Z-3.848
X36.409 Y53.239 Z-3.81
X36.404 Y53.211 Z-3.765
X36.402 Y53.194 Z-3.715
X36.401 Y53.188 Z-3.662
G0 Z5.
X41.529 Y49.94
Z-1.084
G1 Z-1.094 F381.
Z-3.168 F1499.
X41.535 Y49.942 Z-3.221
X41.551 Y49.947 Z-3.272
X41.578 Y49.957 Z-3.317
X41.614 Y49.969 Z-3.354
X41.656 Y49.984 Z-3.383
X41.704 Y50.001 Z-3.4
X41.754 Y50.019 Z-3.406
G3 X42.86 Y50.458 R15.163
G1 X43.631 Y50.8
X43.62 Y50.804
X43.59 Y50.816
X42.86 Y51.143
X42.82 Y51.153
X42.778 Y51.148
X42.741 Y51.13
X41.417 Y50.165
X41.388 Y50.135
X41.371 Y50.096
X41.369 Y50.054
X41.382 Y50.014
X41.408 Y49.981
X41.444 Y49.958
X41.485 Y49.95
X41.527 Y49.957
X41.574 Y49.974 Z-3.412
X41.62 Y49.99 Z-3.428
X41.661 Y50.004 Z-3.454
X41.696 Y50.016 Z-3.488
X41.724 Y50.026 Z-3.53
X41.751 Y50.036 Z-3.571
X41.786 Y50.048 Z-3.606
X41.827 Y50.063 Z-3.632
X41.873 Y50.079 Z-3.648
X41.921 Y50.095 Z-3.653
G3 X42.855 Y50.465 R12.794
G1 X43.608 Y50.799
X43.59 Y50.806
X42.86 Y51.133
X42.82 Y51.143
X42.779 Y51.139
X42.742 Y51.121
X41.41 Y50.172
X41.381 Y50.142
X41.364 Y50.103
X41.361 Y50.061
X41.374 Y50.021
X41.4 Y49.987
X41.436 Y49.965
X41.477 Y49.956
X41.519 Y49.963
X41.567 Y49.98 Z-3.659
X41.612 Y49.996 Z-3.675
X41.653 Y50.01 Z-3.7
X41.688 Y50.023 Z-3.735
X41.716 Y50.032 Z-3.777
X41.743 Y50.042 Z-3.818
X41.778 Y50.054 Z-3.853
X41.82 Y50.069 Z-3.879
X41.865 Y50.085 Z-3.895
X41.913 Y50.101 Z-3.9
G3 X42.838 Y50.467 R12.676
G1 X43.588 Y50.798
X42.838 Y51.134
X42.803 Y51.146
X39.812 Y51.952
X39.761 Y51.966 Z-3.894
X39.713 Y51.979 Z-3.876
X39.669 Y51.991 Z-3.848
X39.633 Y52.001 Z-3.81
X39.605 Y52.008 Z-3.765
X39.588 Y52.013 Z-3.715
X39.583 Y52.014 Z-3.662
G0 Z5.
X52.373 Y51.661
Z-1.084
G1 Z-1.094 F381.
Z-3.168 F1499.
X52.367 Y51.659 Z-3.221
X52.351 Y51.653 Z-3.272
X52.324 Y51.644 Z-3.317
X52.288 Y51.631 Z-3.354
X52.246 Y51.616 Z-3.383
X52.198 Y51.6 Z-3.4
X52.148 Y51.582 Z-3.406
G3 X51.041 Y51.144 R15.163
G1 X50.267 Y50.801
X51.037 Y50.459
X51.077 Y50.449
X51.118 Y50.453
X51.155 Y50.471
X52.505 Y51.444
X52.534 Y51.474
X52.551 Y51.513
X52.553 Y51.555
X52.541 Y51.595
X52.515 Y51.629
X52.479 Y51.651
X52.438 Y51.659
X52.396 Y51.653
X52.348 Y51.636 Z-3.412
X52.303 Y51.62 Z-3.428
X52.262 Y51.606 Z-3.454
X52.226 Y51.593 Z-3.488
X52.199 Y51.584 Z-3.53
X52.172 Y51.574 Z-3.571
X52.136 Y51.562 Z-3.606
X52.095 Y51.547 Z-3.632
X52.05 Y51.531 Z-3.648
X52.002 Y51.515 Z-3.653
G3 X51.051 Y51.138 R13.031
G1 X50.286 Y50.801
X51.051 Y50.461
X51.091 Y50.451
X51.132 Y50.455
X51.169 Y50.473
X52.511 Y51.438
X52.54 Y51.468
X52.557 Y51.507
X52.56 Y51.549
X52.547 Y51.589
X52.521 Y51.623
X52.485 Y51.645
X52.444 Y51.653
X52.402 Y51.647
X52.354 Y51.63 Z-3.659
X52.309 Y51.614 Z-3.675
X52.268 Y51.599 Z-3.7
X52.233 Y51.587 Z-3.735
X52.205 Y51.577 Z-3.777
X52.178 Y51.568 Z-3.818
X52.143 Y51.555 Z-3.853
X52.101 Y51.541 Z-3.879
X52.056 Y51.525 Z-3.895
X52.008 Y51.508 Z-3.9
G3 X51.066 Y51.135 R12.913
G1 X50.308 Y50.8
X51.064 Y50.466
X51.099 Y50.453
X54.093 Y49.661
X54.145 Y49.648 Z-3.894
X54.193 Y49.635 Z-3.876
X54.237 Y49.623 Z-3.848
X54.273 Y49.614 Z-3.81
X54.301 Y49.606 Z-3.765
X54.318 Y49.602 Z-3.715
X54.324 Y49.6 Z-3.662
G0 Z5.
X56.057 Y46.437
Z-1.094
G1 Z-3.168 F1499.
X56.059 Y46.431 Z-3.221
X56.063 Y46.414 Z-3.272
X56.069 Y46.386 Z-3.317
X56.078 Y46.35 Z-3.354
X56.089 Y46.306 Z-3.383
X56.1 Y46.257 Z-3.4
X56.113 Y46.205 Z-3.406
G3 X56.435 Y45.059 R15.163
G1 X56.702 Y44.237
X56.966 Y45.058
X56.972 Y45.089
X56.969 Y45.121
X56.958 Y45.151
X56.385 Y46.2
X56.358 Y46.233
X56.322 Y46.254
X56.28 Y46.262
X56.238 Y46.254
X56.202 Y46.231
X56.175 Y46.198
X56.163 Y46.157
X56.165 Y46.115
X56.177 Y46.066 Z-3.412
X56.188 Y46.019 Z-3.428
X56.198 Y45.976 Z-3.454
X56.207 Y45.94 Z-3.488
X56.213 Y45.912 Z-3.53
X56.22 Y45.884 Z-3.571
X56.229 Y45.847 Z-3.606
X56.239 Y45.805 Z-3.632
X56.25 Y45.758 Z-3.648
X56.262 Y45.709 Z-3.653
G3 X56.443 Y45.064 R8.529
G1 X56.701 Y44.268
X56.958 Y45.061
X56.964 Y45.094
X56.96 Y45.128
X56.947 Y45.159
X56.301 Y46.248
X56.272 Y46.281
X56.234 Y46.301
X56.192 Y46.307
X56.15 Y46.297
X56.114 Y46.272
X56.09 Y46.237
X56.079 Y46.195
X56.084 Y46.153
X56.099 Y46.104 Z-3.659
X56.113 Y46.058 Z-3.675
X56.126 Y46.017 Z-3.7
X56.137 Y45.981 Z-3.735
X56.146 Y45.953 Z-3.777
X56.154 Y45.925 Z-3.818
X56.165 Y45.89 Z-3.853
X56.178 Y45.848 Z-3.879
X56.192 Y45.802 Z-3.895
X56.207 Y45.754 Z-3.9
G3 X56.445 Y45.078 R9.122
G1 X56.461 Y45.039
X56.473 Y45.004
X56.704 Y44.294
X56.959 Y45.078
X56.968 Y45.115
X57.455 Y48.173
X57.463 Y48.225 Z-3.894
X57.471 Y48.275 Z-3.876
X57.478 Y48.32 Z-3.848
X57.484 Y48.357 Z-3.81
X57.489 Y48.385 Z-3.765
X57.492 Y48.402 Z-3.715
Y48.408 Z-3.662
G0 Z5.
X57.348 Y35.664
Z-1.094
G1 Z-3.168 F1499.
X57.347 Y35.669 Z-3.221
X57.343 Y35.686 Z-3.272
X57.336 Y35.714 Z-3.317
X57.327 Y35.751 Z-3.354
X57.317 Y35.795 Z-3.383
X57.305 Y35.844 Z-3.4
X57.292 Y35.895 Z-3.406
G3 X56.969 Y37.041 R15.163
G1 X56.702 Y37.864
X56.436 Y37.046
X56.43 Y37.014
X56.433 Y36.982
X56.444 Y36.952
X57.02 Y35.901
X57.046 Y35.868
X57.083 Y35.846
X57.125 Y35.839
X57.167 Y35.847
X57.203 Y35.869
X57.229 Y35.903
X57.242 Y35.943
X57.24 Y35.986
X57.228 Y36.035 Z-3.412
X57.217 Y36.082 Z-3.428
X57.207 Y36.124 Z-3.454
X57.198 Y36.16 Z-3.488
X57.191 Y36.189 Z-3.53
X57.185 Y36.217 Z-3.571
X57.176 Y36.253 Z-3.606
X57.166 Y36.296 Z-3.632
X57.155 Y36.343 Z-3.648
X57.143 Y36.392 Z-3.653
G3 X56.962 Y37.036 R8.529
G1 X56.702 Y37.837
X56.441 Y37.038
X56.435 Y37.006
X56.438 Y36.974
X56.449 Y36.945
X57.006 Y35.901
X57.033 Y35.868
X57.069 Y35.846
X57.111 Y35.838
X57.153 Y35.846
X57.19 Y35.868
X57.216 Y35.902
X57.229 Y35.942
X57.227 Y35.985
X57.215 Y36.034 Z-3.659
X57.204 Y36.081 Z-3.675
X57.194 Y36.123 Z-3.7
X57.185 Y36.16 Z-3.735
X57.179 Y36.188 Z-3.777
X57.172 Y36.216 Z-3.818
X57.163 Y36.252 Z-3.853
X57.153 Y36.295 Z-3.879
X57.142 Y36.342 Z-3.895
X57.13 Y36.391 Z-3.9
G3 X56.952 Y37.027 R8.411
G1 X56.702 Y37.802
X56.452 Y37.032
X55.497 Y34.086
X55.48 Y34.036 Z-3.894
X55.465 Y33.988 Z-3.876
X55.451 Y33.945 Z-3.848
X55.439 Y33.909 Z-3.81
X55.43 Y33.882 Z-3.765
X55.425 Y33.865 Z-3.715
X55.423 Y33.859 Z-3.662
G0 Z5.
X52.374 Y32.162
Z-1.084
G1 Z-1.094 F381.
Z-3.168 F1499.
X52.369 Y32.16 Z-3.221
X52.352 Y32.154 Z-3.272
X52.325 Y32.144 Z-3.317
X52.29 Y32.132 Z-3.354
X52.247 Y32.117 Z-3.383
X52.2 Y32.1 Z-3.4
X52.15 Y32.082 Z-3.406
G3 X51.043 Y31.643 R15.163
G1 X50.271 Y31.3
X50.284 Y31.295
X50.32 Y31.281
X51.041 Y30.959
X51.081 Y30.949
X51.123 Y30.953
X51.16 Y30.971
X52.478 Y31.933
X52.508 Y31.963
X52.524 Y32.002
X52.526 Y32.044
X52.514 Y32.085
X52.488 Y32.118
X52.452 Y32.14
X52.41 Y32.148
X52.369 Y32.141
X52.321 Y32.125 Z-3.412
X52.276 Y32.109 Z-3.428
X52.234 Y32.094 Z-3.454
X52.199 Y32.082 Z-3.488
X52.172 Y32.072 Z-3.53
X52.144 Y32.063 Z-3.571
X52.109 Y32.05 Z-3.606
X52.068 Y32.036 Z-3.632
X52.023 Y32.02 Z-3.648
X51.975 Y32.003 Z-3.653
G3 X51.05 Y31.637 R12.676
G1 X50.292 Y31.301
X50.308 Y31.295
X50.343 Y31.281
X51.05 Y30.966
X51.09 Y30.956
X51.131 Y30.96
X51.168 Y30.978
X52.483 Y31.926
X52.512 Y31.957
X52.529 Y31.996
X52.531 Y32.038
X52.518 Y32.078
X52.492 Y32.111
X52.456 Y32.134
X52.415 Y32.142
X52.373 Y32.135
X52.326 Y32.118 Z-3.659
X52.28 Y32.102 Z-3.675
X52.239 Y32.088 Z-3.7
X52.204 Y32.075 Z-3.735
X52.176 Y32.065 Z-3.777
X52.149 Y32.056 Z-3.818
X52.114 Y32.043 Z-3.853
X52.073 Y32.029 Z-3.879
X52.027 Y32.013 Z-3.895
X51.98 Y31.996 Z-3.9
G3 X51.064 Y31.63 R12.557
G1 X50.436 Y31.351
X50.411 Y31.34
X50.313 Y31.302
X50.331 Y31.295
X50.366 Y31.281
X51.063 Y30.97
X51.098 Y30.957
X54.088 Y30.152
X54.139 Y30.138 Z-3.894
X54.188 Y30.125 Z-3.876
X54.232 Y30.113 Z-3.848
X54.268 Y30.103 Z-3.81
X54.295 Y30.096 Z-3.765
X54.312 Y30.091 Z-3.715
X54.318 Y30.09 Z-3.662
G0 Z5.
X41.529 Y30.44
Z-1.084
G1 Z-1.094 F381.
Z-3.168 F1499.
X41.535 Y30.442 Z-3.221
X41.552 Y30.448 Z-3.272
X41.578 Y30.457 Z-3.317
X41.614 Y30.47 Z-3.354
X41.656 Y30.485 Z-3.383
X41.704 Y30.501 Z-3.4
X41.754 Y30.519 Z-3.406
G3 X42.861 Y30.958 R15.163
G1 X43.628 Y31.299
X42.859 Y31.643
X42.818 Y31.653
X42.777 Y31.648
X42.74 Y31.63
X41.452 Y30.683
X41.423 Y30.652
X41.406 Y30.613
X41.404 Y30.571
X41.417 Y30.531
X41.443 Y30.498
X41.479 Y30.476
X41.52 Y30.468
X41.562 Y30.474
X41.609 Y30.491 Z-3.412
X41.655 Y30.507 Z-3.428
X41.696 Y30.521 Z-3.454
X41.731 Y30.534 Z-3.488
X41.758 Y30.543 Z-3.53
X41.786 Y30.553 Z-3.571
X41.821 Y30.565 Z-3.606
X41.862 Y30.579 Z-3.632
X41.908 Y30.595 Z-3.648
X41.955 Y30.612 Z-3.653
G3 X42.855 Y30.967 R12.32
G1 X43.607 Y31.298
X42.852 Y31.636
X42.812 Y31.646
X42.771 Y31.642
X42.733 Y31.624
X41.456 Y30.689
X41.427 Y30.659
X41.41 Y30.62
X41.408 Y30.578
X41.421 Y30.537
X41.447 Y30.504
X41.483 Y30.482
X41.525 Y30.474
X41.566 Y30.481
X41.614 Y30.498 Z-3.659
X41.659 Y30.514 Z-3.675
X41.7 Y30.528 Z-3.7
X41.735 Y30.541 Z-3.735
X41.763 Y30.55 Z-3.777
X41.79 Y30.56 Z-3.818
X41.825 Y30.572 Z-3.853
X41.867 Y30.587 Z-3.879
X41.912 Y30.603 Z-3.895
X41.96 Y30.62 Z-3.9
G3 X42.85 Y30.975 R12.202
G1 X43.582 Y31.3
X42.846 Y31.629
X42.811 Y31.641
X39.821 Y32.448
X39.77 Y32.461 Z-3.894
X39.721 Y32.474 Z-3.876
X39.678 Y32.486 Z-3.848
X39.641 Y32.496 Z-3.81
X39.614 Y32.503 Z-3.765
X39.597 Y32.508 Z-3.715
X39.591 Y32.51 Z-3.662
G0 Z5.
X37.85 Y35.662
Z-1.094
G1 Z-3.168 F1499.
X37.848 Y35.667 Z-3.221
X37.844 Y35.685 Z-3.272
X37.838 Y35.712 Z-3.317
X37.829 Y35.749 Z-3.354
X37.818 Y35.793 Z-3.383
X37.807 Y35.842 Z-3.4
X37.794 Y35.893 Z-3.406
G3 X37.471 Y37.039 R15.163
G1 X37.202 Y37.865
X36.932 Y37.037
X36.927 Y37.005
X36.93 Y36.972
X36.942 Y36.942
X37.52 Y35.902
X37.547 Y35.869
X37.583 Y35.847
X37.625 Y35.84
X37.667 Y35.848
X37.703 Y35.871
X37.729 Y35.904
X37.742 Y35.945
X37.739 Y35.987
X37.728 Y36.036 Z-3.412
X37.716 Y36.083 Z-3.428
X37.706 Y36.126 Z-3.454
X37.698 Y36.162 Z-3.488
X37.691 Y36.19 Z-3.53
X37.684 Y36.218 Z-3.571
X37.675 Y36.254 Z-3.606
X37.665 Y36.297 Z-3.632
X37.654 Y36.344 Z-3.648
X37.642 Y36.393 Z-3.653
G3 X37.461 Y37.038 R8.529
G1 X37.203 Y37.833
X36.944 Y37.037
X36.939 Y37.006
X36.941 Y36.974
X36.952 Y36.944
X37.506 Y35.9
X37.532 Y35.867
X37.569 Y35.845
X37.611 Y35.837
X37.653 Y35.845
X37.69 Y35.867
X37.716 Y35.9
X37.729 Y35.941
X37.727 Y35.983
X37.715 Y36.033 Z-3.659
X37.704 Y36.079 Z-3.675
X37.694 Y36.122 Z-3.7
X37.685 Y36.158 Z-3.735
X37.679 Y36.186 Z-3.777
X37.672 Y36.215 Z-3.818
X37.663 Y36.251 Z-3.853
X37.653 Y36.294 Z-3.879
X37.642 Y36.34 Z-3.895
X37.63 Y36.39 Z-3.9
G3 X37.453 Y37.026 R8.411
G1 X37.202 Y37.803
X36.949 Y37.024
X36.941 Y36.988
X36.457 Y33.929
X36.448 Y33.877 Z-3.894
X36.441 Y33.827 Z-3.876
X36.433 Y33.782 Z-3.848
X36.428 Y33.745 Z-3.81
X36.423 Y33.717 Z-3.765
X36.42 Y33.7 Z-3.715
X36.419 Y33.694 Z-3.662
G0 Z5.
X36.558 Y46.437
Z-1.094
G1 Z-3.168 F1499.
X36.559 Y46.431 Z-3.221
X36.563 Y46.414 Z-3.272
X36.57 Y46.386 Z-3.317
X36.578 Y46.35 Z-3.354
X36.589 Y46.306 Z-3.383
X36.601 Y46.257 Z-3.4
X36.613 Y46.205 Z-3.406
G3 X36.935 Y45.059 R15.163
G1 X37.201 Y44.241
X37.468 Y45.06
X37.473 Y45.092
X37.47 Y45.124
X37.459 Y45.154
X36.885 Y46.2
X36.858 Y46.233
X36.821 Y46.254
X36.78 Y46.262
X36.738 Y46.254
X36.701 Y46.231
X36.675 Y46.198
X36.662 Y46.157
X36.665 Y46.115
X36.677 Y46.066 Z-3.412
X36.688 Y46.019 Z-3.428
X36.698 Y45.976 Z-3.454
X36.707 Y45.94 Z-3.488
X36.713 Y45.912 Z-3.53
X36.72 Y45.884 Z-3.571
X36.729 Y45.847 Z-3.606
X36.739 Y45.805 Z-3.632
X36.75 Y45.758 Z-3.648
X36.762 Y45.709 Z-3.653
G3 X36.943 Y45.064 R8.529
G1 X37.202 Y44.267
X37.464 Y45.066
X37.47 Y45.099
X37.466 Y45.133
X37.453 Y45.164
X36.801 Y46.253
X36.772 Y46.285
X36.734 Y46.305
X36.692 Y46.311
X36.65 Y46.301
X36.615 Y46.276
X36.59 Y46.241
X36.58 Y46.2
X36.585 Y46.157
X36.599 Y46.109 Z-3.659
X36.614 Y46.063 Z-3.675
X36.626 Y46.021 Z-3.7
X36.637 Y45.985 Z-3.735
X36.646 Y45.957 Z-3.777
X36.654 Y45.93 Z-3.818
X36.665 Y45.894 Z-3.853
X36.678 Y45.852 Z-3.879
X36.692 Y45.806 Z-3.895
X36.707 Y45.758 Z-3.9
G3 X36.94 Y45.091 R9.003
G1 X36.961 Y45.038
X36.974 Y45.003
X37.203 Y44.293
X37.461 Y45.085
X37.47 Y45.122
X37.957 Y48.18
X37.966 Y48.232 Z-3.894
X37.974 Y48.282 Z-3.876
X37.981 Y48.327 Z-3.848
X37.987 Y48.364 Z-3.81
X37.991 Y48.392 Z-3.765
X37.994 Y48.409 Z-3.715
X37.995 Y48.415 Z-3.662
G0 Z5.
X32.871 Y51.663
Z-1.084
G1 Z-1.094 F381.
Z-3.168 F1499.
X32.865 Y51.661 Z-3.221
X32.849 Y51.655 Z-3.272
X32.822 Y51.646 Z-3.317
X32.786 Y51.633 Z-3.354
X32.744 Y51.618 Z-3.383
X32.696 Y51.601 Z-3.4
X32.646 Y51.584 Z-3.406
G3 X31.54 Y51.145 R15.163
G1 X30.763 Y50.801
X30.963 Y50.717
X30.975 Y50.711
X31.54 Y50.459
X31.581 Y50.449
X31.622 Y50.453
X31.659 Y50.471
X33.005 Y51.448
X33.034 Y51.479
X33.051 Y51.518
X33.053 Y51.56
X33.04 Y51.6
X33.014 Y51.633
X32.978 Y51.656
X32.937 Y51.664
X32.895 Y51.657
X32.847 Y51.64 Z-3.412
X32.802 Y51.624 Z-3.428
X32.761 Y51.609 Z-3.454
X32.726 Y51.597 Z-3.488
X32.698 Y51.587 Z-3.53
X32.671 Y51.577 Z-3.571
X32.636 Y51.565 Z-3.606
X32.595 Y51.55 Z-3.632
X32.549 Y51.534 Z-3.648
X32.502 Y51.517 Z-3.653
G3 X31.551 Y51.138 R13.031
G1 X30.794 Y50.8
X31.55 Y50.464
X31.59 Y50.454
X31.631 Y50.458
X31.668 Y50.476
X33.015 Y51.447
X33.044 Y51.478
X33.061 Y51.517
X33.063 Y51.559
X33.051 Y51.599
X33.025 Y51.633
X32.989 Y51.655
X32.947 Y51.663
X32.905 Y51.656
X32.858 Y51.639 Z-3.659
X32.812 Y51.623 Z-3.675
X32.771 Y51.608 Z-3.7
X32.736 Y51.596 Z-3.735
X32.709 Y51.586 Z-3.777
X32.681 Y51.576 Z-3.818
X32.646 Y51.564 Z-3.853
X32.605 Y51.549 Z-3.879
X32.56 Y51.533 Z-3.895
X32.512 Y51.516 Z-3.9
G3 X31.563 Y51.135 R13.031
G1 X30.813 Y50.8
X31.564 Y50.466
X31.599 Y50.453
X34.591 Y49.652
X34.642 Y49.638 Z-3.894
X34.69 Y49.625 Z-3.876
X34.734 Y49.614 Z-3.848
X34.77 Y49.604 Z-3.81
X34.798 Y49.596 Z-3.765
X34.815 Y49.592 Z-3.715
X34.821 Y49.59 Z-3.662
G0 Z5.
X22.029 Y49.936
Z-1.084
G1 Z-1.094 F381.
Z-3.168 F1499.
X22.034 Y49.938 Z-3.221
X22.051 Y49.944 Z-3.272
X22.078 Y49.953 Z-3.317
X22.113 Y49.966 Z-3.354
X22.156 Y49.981 Z-3.383
X22.203 Y49.998 Z-3.4
X22.253 Y50.015 Z-3.406
G3 X23.359 Y50.457 R15.163
G1 X24.135 Y50.802
X23.619 Y51.025
X23.611 Y51.029
X23.358 Y51.142
X23.318 Y51.152
X23.277 Y51.148
X23.239 Y51.13
X21.921 Y50.166
X21.892 Y50.136
X21.875 Y50.097
X21.873 Y50.055
X21.886 Y50.015
X21.912 Y49.981
X21.947 Y49.959
X21.989 Y49.951
X22.03 Y49.958
X22.078 Y49.975 Z-3.412
X22.124 Y49.991 Z-3.428
X22.165 Y50.005 Z-3.454
X22.2 Y50.017 Z-3.488
X22.227 Y50.027 Z-3.53
X22.255 Y50.037 Z-3.571
X22.29 Y50.049 Z-3.606
X22.331 Y50.064 Z-3.632
X22.377 Y50.08 Z-3.648
X22.424 Y50.096 Z-3.653
G3 X23.349 Y50.463 R12.676
G1 X24.114 Y50.802
X23.561 Y51.041
X23.553 Y51.045
X23.348 Y51.136
X23.308 Y51.147
X23.267 Y51.142
X23.23 Y51.124
X21.926 Y50.178
X21.896 Y50.148
X21.88 Y50.109
X21.878 Y50.067
X21.89 Y50.026
X21.916 Y49.993
X21.952 Y49.971
X21.993 Y49.963
X22.035 Y49.969
X22.083 Y49.986 Z-3.659
X22.128 Y50.002 Z-3.675
X22.169 Y50.017 Z-3.7
X22.205 Y50.029 Z-3.735
X22.232 Y50.039 Z-3.777
X22.259 Y50.048 Z-3.818
X22.295 Y50.061 Z-3.853
X22.336 Y50.075 Z-3.879
X22.381 Y50.091 Z-3.895
X22.429 Y50.108 Z-3.9
G3 X23.337 Y50.467 R12.439
G1 X24.091 Y50.8
X23.956 Y50.855
X23.938 Y50.863
X23.34 Y51.132
X23.305 Y51.145
X20.316 Y51.956
X20.265 Y51.969 Z-3.894
X20.216 Y51.983 Z-3.876
X20.172 Y51.994 Z-3.848
X20.136 Y52.004 Z-3.81
X20.109 Y52.012 Z-3.765
X20.092 Y52.016 Z-3.715
X20.086 Y52.018 Z-3.662
G0 Z5.
X18.153 Y36.266
Z-1.089
G1 Z-1.094 F381.
Z-3.168 F1499.
X18.152 Y36.272 Z-3.221
X18.148 Y36.289 Z-3.272
X18.141 Y36.317 Z-3.317
X18.132 Y36.354 Z-3.354
X18.122 Y36.398 Z-3.383
X18.11 Y36.446 Z-3.4
X18.097 Y36.498 Z-3.406
G3 X17.772 Y37.643 R15.163
G1 X17.451 Y38.624
X17.448 Y38.635
X17.38 Y38.858
X17.366 Y38.914
X17.357 Y38.97
X17.145 Y40.996
X17.142 Y41.058
X17.145 Y41.12
X17.351 Y43.097
X17.359 Y43.153
X17.373 Y43.209
X17.506 Y43.643
X17.509 Y43.654
X17.773 Y44.465
X17.779 Y44.505
X17.771 Y44.545
X17.751 Y44.579
X17.72 Y44.605
X17.682 Y44.619
X16.669 Y44.807
X16.628 Y44.808
X16.588 Y44.794
X16.556 Y44.767
X16.536 Y44.731
X16.528 Y44.69
Y37.419
X16.534 Y37.384
X16.549 Y37.352
X16.573 Y37.326
X17.918 Y36.248
X17.955 Y36.228
X17.996 Y36.222
X18.038 Y36.23
X18.073 Y36.253
X18.098 Y36.286
X18.111 Y36.327
X18.108 Y36.369
X18.096 Y36.418 Z-3.412
X18.085 Y36.464 Z-3.428
X18.075 Y36.507 Z-3.454
X18.066 Y36.543 Z-3.488
X18.059 Y36.571 Z-3.53
X18.052 Y36.6 Z-3.571
X18.044 Y36.636 Z-3.606
X18.033 Y36.678 Z-3.632
X18.022 Y36.725 Z-3.648
X18.01 Y36.774 Z-3.653
G3 X17.766 Y37.633 R11.373
G1 X17.451 Y38.596
X17.448 Y38.606
X17.371 Y38.858
X17.357 Y38.914
X17.348 Y38.97
X17.136 Y40.996
X17.133 Y41.058
X17.136 Y41.12
X17.342 Y43.097
X17.351 Y43.153
X17.365 Y43.208
X17.496 Y43.642
X17.5 Y43.655
X17.77 Y44.476
X17.776 Y44.517
X17.768 Y44.557
X17.747 Y44.591
X17.715 Y44.617
X17.677 Y44.631
X16.676 Y44.799
X16.635 Y44.798
X16.596 Y44.784
X16.565 Y44.757
X16.544 Y44.722
X16.537 Y44.681
Y37.41
X16.542 Y37.375
X16.557 Y37.343
X16.581 Y37.317
X17.903 Y36.255
X17.94 Y36.235
X17.982 Y36.229
X18.023 Y36.238
X18.058 Y36.26
X18.084 Y36.294
X18.096 Y36.334
X18.094 Y36.376
X18.082 Y36.425 Z-3.659
X18.071 Y36.472 Z-3.675
X18.06 Y36.514 Z-3.7
X18.052 Y36.551 Z-3.735
X18.045 Y36.579 Z-3.777
X18.038 Y36.607 Z-3.818
X18.029 Y36.643 Z-3.853
X18.019 Y36.686 Z-3.879
X18.008 Y36.733 Z-3.895
X17.996 Y36.782 Z-3.9
G3 X17.761 Y37.614 R11.017
G1 X17.451 Y38.57
X17.448 Y38.579
X17.363 Y38.858
X17.348 Y38.914
X17.34 Y38.971
X17.128 Y40.996
X17.125 Y41.058
X17.128 Y41.121
X17.343 Y43.146
X17.353 Y43.208
X17.369 Y43.268
X17.769 Y44.495
X17.775 Y44.535
X17.767 Y44.574
X17.747 Y44.609
X17.717 Y44.635
X17.679 Y44.649
X16.688 Y44.848
X16.646 Y44.849
X16.606 Y44.835
X16.574 Y44.808
X16.553 Y44.772
X16.545 Y44.731
Y37.391
X16.548 Y37.353
X17.033 Y34.294
X17.041 Y34.242 Z-3.894
X17.049 Y34.192 Z-3.876
X17.056 Y34.148 Z-3.848
X17.062 Y34.111 Z-3.81
X17.066 Y34.083 Z-3.765
X17.069 Y34.065 Z-3.715
X17.07 Y34.059 Z-3.662
G0 Z5.
X22.028 Y30.437
Z-1.084
G1 Z-1.094 F381.
Z-3.168 F1499.
X22.034 Y30.439 Z-3.221
X22.051 Y30.445 Z-3.272
X22.077 Y30.455 Z-3.317
X22.113 Y30.467 Z-3.354
X22.155 Y30.482 Z-3.383
X22.203 Y30.499 Z-3.4
X22.253 Y30.517 Z-3.406
G3 X23.358 Y30.959 R15.163
G1 X24.08 Y31.281
X24.118 Y31.296
X24.133 Y31.302
X23.358 Y31.646
X23.317 Y31.656
X23.276 Y31.651
X23.239 Y31.633
X21.908 Y30.658
X21.879 Y30.628
X21.863 Y30.589
X21.861 Y30.547
X21.873 Y30.507
X21.899 Y30.473
X21.935 Y30.451
X21.977 Y30.443
X22.018 Y30.45
X22.066 Y30.467 Z-3.412
X22.111 Y30.483 Z-3.428
X22.153 Y30.498 Z-3.454
X22.188 Y30.51 Z-3.488
X22.215 Y30.52 Z-3.53
X22.242 Y30.53 Z-3.571
X22.278 Y30.542 Z-3.606
X22.319 Y30.557 Z-3.632
X22.364 Y30.573 Z-3.648
X22.412 Y30.59 Z-3.653
G3 X23.353 Y30.967 R12.913
G1 X24.056 Y31.281
X24.092 Y31.295
X24.105 Y31.3
X23.35 Y31.638
X23.31 Y31.648
X23.269 Y31.644
X23.232 Y31.626
X21.92 Y30.675
X21.891 Y30.645
X21.874 Y30.606
X21.872 Y30.564
X21.885 Y30.523
X21.911 Y30.49
X21.947 Y30.468
X21.988 Y30.46
X22.03 Y30.467
X22.077 Y30.483 Z-3.659
X22.123 Y30.499 Z-3.675
X22.164 Y30.514 Z-3.7
X22.199 Y30.526 Z-3.735
X22.226 Y30.536 Z-3.777
X22.254 Y30.546 Z-3.818
X22.289 Y30.558 Z-3.853
X22.33 Y30.573 Z-3.879
X22.375 Y30.589 Z-3.895
X22.423 Y30.606 Z-3.9
G3 X23.339 Y30.971 R12.557
G1 X24.034 Y31.281
X24.075 Y31.297
X24.083 Y31.3
X23.338 Y31.633
X23.303 Y31.646
X20.312 Y32.452
X20.261 Y32.466 Z-3.894
X20.213 Y32.479 Z-3.876
X20.169 Y32.491 Z-3.848
X20.133 Y32.501 Z-3.81
X20.105 Y32.508 Z-3.765
X20.088 Y32.513 Z-3.715
X20.082 Y32.514 Z-3.662
G0 Z5.
X32.872 Y32.163
Z-1.084
G1 Z-1.094 F381.
Z-3.168 F1499.
X32.866 Y32.161 Z-3.221
X32.849 Y32.155 Z-3.272
X32.823 Y32.146 Z-3.317
X32.787 Y32.133 Z-3.354
X32.744 Y32.118 Z-3.383
X32.697 Y32.102 Z-3.4
X32.647 Y32.084 Z-3.406
G3 X31.541 Y31.643 R15.163
G1 X30.773 Y31.301
X31.542 Y30.957
X31.582 Y30.947
X31.623 Y30.951
X31.661 Y30.969
X32.987 Y31.937
X33.016 Y31.967
X33.033 Y32.006
X33.035 Y32.048
X33.022 Y32.088
X32.996 Y32.121
X32.96 Y32.144
X32.919 Y32.152
X32.877 Y32.145
X32.83 Y32.128 Z-3.412
X32.784 Y32.112 Z-3.428
X32.743 Y32.098 Z-3.454
X32.708 Y32.085 Z-3.488
X32.68 Y32.076 Z-3.53
X32.653 Y32.066 Z-3.571
X32.618 Y32.054 Z-3.606
X32.577 Y32.039 Z-3.632
X32.531 Y32.023 Z-3.648
X32.484 Y32.007 Z-3.653
G3 X31.55 Y31.636 R12.794
G1 X30.795 Y31.302
X31.549 Y30.964
X31.589 Y30.954
X31.63 Y30.958
X31.667 Y30.976
X32.992 Y31.929
X33.021 Y31.959
X33.038 Y31.998
X33.041 Y32.04
X33.028 Y32.081
X33.002 Y32.114
X32.966 Y32.136
X32.925 Y32.145
X32.883 Y32.138
X32.835 Y32.121 Z-3.659
X32.79 Y32.105 Z-3.675
X32.749 Y32.091 Z-3.7
X32.714 Y32.078 Z-3.735
X32.686 Y32.069 Z-3.777
X32.659 Y32.059 Z-3.818
X32.624 Y32.047 Z-3.853
X32.582 Y32.032 Z-3.879
X32.537 Y32.016 Z-3.895
X32.489 Y32. Z-3.9
G3 X31.564 Y31.633 R12.676
G1 X30.816 Y31.302
X31.565 Y30.966
X31.6 Y30.953
X34.589 Y30.143
X34.641 Y30.129 Z-3.894
X34.689 Y30.116 Z-3.876
X34.733 Y30.104 Z-3.848
X34.769 Y30.094 Z-3.81
X34.796 Y30.087 Z-3.765
X34.813 Y30.082 Z-3.715
X34.819 Y30.08 Z-3.662
G0 Z5.
X36.488 Y26.916
Z-1.094
G1 Z-3.168 F1499.
X36.489 Y26.911 Z-3.221
X36.494 Y26.894 Z-3.272
X36.502 Y26.866 Z-3.317
X36.513 Y26.83 Z-3.354
X36.526 Y26.787 Z-3.383
X36.54 Y26.739 Z-3.4
X36.555 Y26.688 Z-3.406
G3 X36.934 Y25.559 R15.163
G1 X36.938 Y25.547
X36.948 Y25.518
X37.199 Y24.74
X37.468 Y25.561
X37.474 Y25.593
X37.471 Y25.625
X37.459 Y25.655
X36.88 Y26.703
X36.854 Y26.736
X36.817 Y26.757
X36.775 Y26.765
X36.733 Y26.757
X36.697 Y26.734
X36.671 Y26.701
X36.658 Y26.66
X36.66 Y26.618
X36.672 Y26.569 Z-3.412
X36.683 Y26.522 Z-3.428
X36.693 Y26.479 Z-3.454
X36.702 Y26.443 Z-3.488
X36.709 Y26.415 Z-3.53
X36.716 Y26.387 Z-3.571
X36.724 Y26.35 Z-3.606
X36.734 Y26.308 Z-3.632
X36.746 Y26.261 Z-3.648
X36.757 Y26.212 Z-3.653
G3 X36.939 Y25.567 R8.529
G1 X37.198 Y24.766
X37.459 Y25.563
X37.464 Y25.595
X37.462 Y25.626
X37.45 Y25.656
X36.893 Y26.701
X36.866 Y26.734
X36.829 Y26.756
X36.787 Y26.764
X36.745 Y26.756
X36.709 Y26.734
X36.682 Y26.7
X36.67 Y26.659
X36.672 Y26.617
X36.684 Y26.568 Z-3.659
X36.695 Y26.521 Z-3.675
X36.705 Y26.478 Z-3.7
X36.714 Y26.442 Z-3.735
X36.721 Y26.414 Z-3.777
X36.727 Y26.386 Z-3.818
X36.736 Y26.349 Z-3.853
X36.746 Y26.307 Z-3.879
X36.758 Y26.26 Z-3.895
X36.769 Y26.211 Z-3.9
G3 X36.949 Y25.575 R8.411
G1 X37.2 Y24.802
X37.452 Y25.576
X37.461 Y25.613
X37.948 Y28.671
X37.956 Y28.724 Z-3.894
X37.964 Y28.773 Z-3.876
X37.971 Y28.818 Z-3.848
X37.977 Y28.855 Z-3.81
X37.982 Y28.883 Z-3.765
X37.984 Y28.901 Z-3.715
X37.985 Y28.906 Z-3.662
G0 Z5.
X37.874 Y16.169
Z-1.094
G1 Z-3.168 F1499.
X37.873 Y16.175 Z-3.221
X37.868 Y16.192 Z-3.272
X37.861 Y16.219 Z-3.317
X37.852 Y16.256 Z-3.354
X37.84 Y16.3 Z-3.383
X37.828 Y16.348 Z-3.4
X37.815 Y16.4 Z-3.406
G3 X37.471 Y17.54 R15.163
G1 X37.378 Y17.811
X37.374 Y17.821
X37.2 Y18.36
X36.931 Y17.538
X36.925 Y17.506
X36.929 Y17.473
X36.941 Y17.443
X37.538 Y16.389
X37.565 Y16.356
X37.602 Y16.335
X37.644 Y16.329
X37.685 Y16.337
X37.721 Y16.36
X37.747 Y16.394
X37.759 Y16.434
X37.757 Y16.477
X37.744 Y16.526 Z-3.412
X37.733 Y16.572 Z-3.428
X37.722 Y16.615 Z-3.454
X37.713 Y16.651 Z-3.488
X37.706 Y16.679 Z-3.53
X37.699 Y16.707 Z-3.571
X37.69 Y16.743 Z-3.606
X37.679 Y16.786 Z-3.632
X37.668 Y16.833 Z-3.648
X37.655 Y16.882 Z-3.653
G3 X37.465 Y17.533 R8.648
G1 X37.241 Y18.201
X37.239 Y18.208
X37.198 Y18.334
X36.939 Y17.537
X36.934 Y17.505
X36.937 Y17.473
X36.948 Y17.442
X37.53 Y16.389
X37.557 Y16.356
X37.594 Y16.334
X37.636 Y16.327
X37.678 Y16.336
X37.714 Y16.358
X37.74 Y16.392
X37.752 Y16.433
X37.75 Y16.475
X37.737 Y16.524 Z-3.659
X37.726 Y16.571 Z-3.675
X37.715 Y16.613 Z-3.7
X37.706 Y16.65 Z-3.735
X37.699 Y16.678 Z-3.777
X37.692 Y16.706 Z-3.818
X37.683 Y16.742 Z-3.853
X37.672 Y16.784 Z-3.879
X37.66 Y16.831 Z-3.895
X37.648 Y16.88 Z-3.9
G3 X37.46 Y17.523 R8.529
G1 X37.232 Y18.201
X37.23 Y18.208
X37.199 Y18.304
X36.942 Y17.517
X36.933 Y17.48
X36.442 Y14.422
X36.434 Y14.37 Z-3.894
X36.426 Y14.32 Z-3.876
X36.419 Y14.276 Z-3.848
X36.413 Y14.239 Z-3.81
X36.408 Y14.211 Z-3.765
X36.406 Y14.193 Z-3.715
X36.405 Y14.187 Z-3.662
G0 Z5.
X39.33 Y12.334
Z-1.083
G1 Z-1.094 F381.
Z-3.168 F1499.
X39.336 Y12.333 Z-3.221
X39.354 Y12.332 Z-3.272
X39.382 Y12.33 Z-3.317
X39.42 Y12.327 Z-3.354
X39.465 Y12.323 Z-3.383
X39.515 Y12.319 Z-3.4
X39.568 Y12.315 Z-3.406
G3 X40.757 Y12.268 R15.163
G1 X42.579
X41.857 Y12.591
X41.802 Y12.62
X41.75 Y12.653
X41.055 Y13.158
X41.02 Y13.175
X40.982 Y13.181
X40.944 Y13.173
X39.308 Y12.579
X39.273 Y12.559
X39.247 Y12.529
X39.232 Y12.492
X39.231 Y12.451
X39.243 Y12.413
X39.267 Y12.381
X39.301 Y12.359
X39.34 Y12.349
X39.39 Y12.345 Z-3.412
X39.438 Y12.341 Z-3.428
X39.482 Y12.338 Z-3.454
X39.519 Y12.335 Z-3.488
X39.548 Y12.332 Z-3.53
X39.577 Y12.33 Z-3.571
X39.614 Y12.327 Z-3.606
X39.657 Y12.324 Z-3.632
X39.705 Y12.32 Z-3.648
X39.756 Y12.316 Z-3.653
G3 X40.75 Y12.277 R12.676
G1 X42.538
X41.857 Y12.581
X41.802 Y12.61
X41.75 Y12.643
X41.042 Y13.157
X41.007 Y13.174
X40.97 Y13.18
X40.932 Y13.173
X39.295 Y12.588
X39.26 Y12.568
X39.233 Y12.538
X39.218 Y12.5
X39.217 Y12.46
X39.229 Y12.422
X39.253 Y12.389
X39.286 Y12.367
X39.326 Y12.357
X39.376 Y12.353 Z-3.659
X39.424 Y12.349 Z-3.675
X39.467 Y12.346 Z-3.7
X39.505 Y12.343 Z-3.735
X39.534 Y12.341 Z-3.777
X39.563 Y12.338 Z-3.818
X39.6 Y12.335 Z-3.853
X39.643 Y12.332 Z-3.879
X39.691 Y12.328 Z-3.895
X39.742 Y12.324 Z-3.9
G3 X40.736 Y12.285 R12.676
G1 X42.501
X41.857 Y12.572
X41.803 Y12.6
X41.751 Y12.633
X41.029 Y13.154
X40.997 Y13.173
X38.232 Y14.57
X38.185 Y14.594 Z-3.894
X38.14 Y14.616 Z-3.876
X38.1 Y14.637 Z-3.848
X38.066 Y14.654 Z-3.81
X38.041 Y14.666 Z-3.765
X38.025 Y14.674 Z-3.715
X38.02 Y14.677 Z-3.662
G0 Z5.
X34.533 Y13.935
Z-1.084
G1 Z-1.094 F381.
Z-3.168 F1499.
X34.528 Y13.932 Z-3.221
X34.513 Y13.922 Z-3.272
X34.489 Y13.908 Z-3.317
X34.457 Y13.888 Z-3.354
X34.418 Y13.864 Z-3.383
X34.376 Y13.838 Z-3.4
X34.33 Y13.811 Z-3.406
G3 X33.34 Y13.15 R15.163
G1 X32.669 Y12.664
X32.617 Y12.631
X32.563 Y12.603
X31.817 Y12.268
X33.636
X33.675 Y12.275
X33.709 Y12.294
X33.736 Y12.323
X34.633 Y13.708
X34.648 Y13.744
X34.651 Y13.784
X34.641 Y13.823
X34.618 Y13.856
X34.586 Y13.879
X34.547 Y13.891
X34.508 Y13.889
X34.471 Y13.874
X34.427 Y13.848 Z-3.412
X34.386 Y13.823 Z-3.428
X34.349 Y13.8 Z-3.454
X34.317 Y13.78 Z-3.488
X34.292 Y13.765 Z-3.53
X34.268 Y13.75 Z-3.571
X34.236 Y13.731 Z-3.606
X34.199 Y13.708 Z-3.632
X34.157 Y13.683 Z-3.648
X34.114 Y13.656 Z-3.653
G3 X33.348 Y13.146 R11.728
G1 X32.671 Y12.655
X32.619 Y12.622
X32.565 Y12.594
X31.857 Y12.277
X33.645
X33.683 Y12.283
X33.718 Y12.302
X33.744 Y12.331
X34.642 Y13.704
X34.658 Y13.741
X34.661 Y13.781
X34.65 Y13.819
X34.627 Y13.852
X34.595 Y13.876
X34.557 Y13.888
X34.517 Y13.886
X34.48 Y13.871
X34.437 Y13.845 Z-3.659
X34.396 Y13.82 Z-3.675
X34.358 Y13.797 Z-3.7
X34.327 Y13.777 Z-3.735
X34.302 Y13.762 Z-3.777
X34.277 Y13.747 Z-3.818
X34.245 Y13.728 Z-3.853
X34.208 Y13.705 Z-3.879
X34.167 Y13.68 Z-3.895
X34.124 Y13.654 Z-3.9
G3 X33.365 Y13.148 R11.609
G1 X32.671 Y12.646
X32.62 Y12.612
X32.565 Y12.584
X31.897 Y12.285
X33.657
X33.694 Y12.288
X36.753 Y12.773
X36.806 Y12.781 Z-3.894
X36.855 Y12.789 Z-3.876
X36.9 Y12.796 Z-3.848
X36.937 Y12.802 Z-3.81
X36.965 Y12.806 Z-3.765
X36.983 Y12.809 Z-3.715
X36.988 Y12.81 Z-3.662
G0 Z5.
X16.594 Y26.619
Z-1.083
G1 Z-1.094 F381.
Z-3.168 F1499.
X16.593 Y26.613 Z-3.221
X16.592 Y26.596 Z-3.272
X16.59 Y26.568 Z-3.317
X16.587 Y26.53 Z-3.354
X16.583 Y26.485 Z-3.383
X16.579 Y26.435 Z-3.4
X16.575 Y26.382 Z-3.406
G3 X16.528 Y25.192 R15.163
G1 Y16.303
X20.563 Y12.268
X23.08
X22.35 Y12.596
X22.295 Y12.624
X22.244 Y12.657
X20.625 Y13.83
X20.581 Y13.865
X20.54 Y13.904
X20.281 Y14.179
X20.272 Y14.189
X19.188 Y15.393
X19.144 Y15.448
X19.072 Y15.55
X19.043 Y15.596
X18.075 Y17.273
X18.048 Y17.326
X18.026 Y17.381
X17.75 Y18.201
X17.748 Y18.207
X17.451 Y19.121
X17.392 Y19.308
X17.378 Y19.359
X17.369 Y19.411
X17.311 Y19.857
X17.31 Y19.873
X17.146 Y21.465
X17.143 Y21.552
X17.15 Y21.696
X17.152 Y21.733
X17.346 Y23.565
X17.359 Y23.644
X17.407 Y23.837
X17.419 Y23.88
X17.772 Y24.966
X17.777 Y24.998
X17.774 Y25.031
X17.761 Y25.062
X16.83 Y26.661
X16.802 Y26.693
X16.765 Y26.714
X16.722 Y26.72
X16.68 Y26.71
X16.645 Y26.686
X16.62 Y26.651
X16.609 Y26.61
X16.605 Y26.56 Z-3.412
X16.601 Y26.512 Z-3.428
X16.598 Y26.468 Z-3.454
X16.595 Y26.431 Z-3.488
X16.592 Y26.402 Z-3.53
X16.59 Y26.373 Z-3.571
X16.587 Y26.336 Z-3.606
X16.584 Y26.292 Z-3.632
X16.58 Y26.244 Z-3.648
X16.576 Y26.194 Z-3.653
G3 X16.537 Y25.199 R12.676
G1 Y16.307
X20.567 Y12.277
X23.036
X22.348 Y12.587
X22.298 Y12.612
X22.25 Y12.643
X21.902 Y12.888
X21.893 Y12.894
X20.618 Y13.824
X20.576 Y13.857
X20.537 Y13.895
X20.282 Y14.164
X20.272 Y14.175
X19.182 Y15.386
X19.137 Y15.443
X19.071 Y15.537
X19.043 Y15.581
X18.066 Y17.273
X18.039 Y17.326
X18.017 Y17.38
X17.74 Y18.2
X17.738 Y18.207
X17.451 Y19.091
X17.449 Y19.096
X17.385 Y19.301
X17.372 Y19.351
X17.363 Y19.401
X17.302 Y19.855
X17.3 Y19.872
X17.139 Y21.415
X17.136 Y21.49
X17.14 Y21.683
X17.143 Y21.733
X17.337 Y23.565
X17.35 Y23.641
X17.396 Y23.834
X17.409 Y23.88
X17.767 Y24.981
X17.773 Y25.013
X17.769 Y25.047
X17.757 Y25.077
X16.838 Y26.665
X16.81 Y26.697
X16.773 Y26.718
X16.73 Y26.724
X16.688 Y26.715
X16.652 Y26.691
X16.627 Y26.656
X16.616 Y26.614
X16.612 Y26.564 Z-3.659
X16.609 Y26.516 Z-3.675
X16.605 Y26.472 Z-3.7
X16.602 Y26.435 Z-3.735
X16.6 Y26.406 Z-3.777
X16.598 Y26.377 Z-3.818
X16.595 Y26.34 Z-3.853
X16.591 Y26.297 Z-3.879
X16.588 Y26.249 Z-3.895
X16.584 Y26.198 Z-3.9
G3 X16.545 Y25.222 R12.439
G1 Y16.31
X20.575 Y12.285
X22.999
X22.349 Y12.577
X22.299 Y12.603
X22.251 Y12.633
X21.888 Y12.887
X21.878 Y12.894
X20.614 Y13.817
X20.572 Y13.85
X20.534 Y13.887
X20.284 Y14.149
X20.272 Y14.162
X19.177 Y15.379
X19.145 Y15.417
X19.117 Y15.458
X18.927 Y15.756
X18.914 Y15.778
X18.079 Y17.225
X18.048 Y17.287
X18.007 Y17.384
X17.988 Y17.432
X17.605 Y18.589
X17.451 Y19.061
X17.449 Y19.068
X17.378 Y19.295
X17.365 Y19.343
X17.356 Y19.392
X17.293 Y19.853
X17.291 Y19.872
X17.13 Y21.416
X17.127 Y21.489
X17.131 Y21.682
X17.134 Y21.733
X17.329 Y23.566
X17.341 Y23.638
X17.386 Y23.831
X17.399 Y23.88
X17.765 Y25.001
X17.773 Y25.037
X18.261 Y28.096
X18.269 Y28.148 Z-3.894
X18.277 Y28.198 Z-3.876
X18.284 Y28.243 Z-3.848
X18.29 Y28.28 Z-3.81
X18.294 Y28.308 Z-3.765
X18.297 Y28.325 Z-3.715
X18.298 Y28.331 Z-3.662
G0 Z5.
X54.044 Y13.94
Z-1.084
G1 Z-1.094 F381.
Z-3.168 F1499.
X54.039 Y13.937 Z-3.221
X54.024 Y13.928 Z-3.272
X53.999 Y13.913 Z-3.317
X53.967 Y13.894 Z-3.354
X53.929 Y13.87 Z-3.383
X53.886 Y13.844 Z-3.4
X53.84 Y13.816 Z-3.406
G3 X52.849 Y13.157 R15.163
G1 X52.178 Y12.671
X52.114 Y12.631
X52.018 Y12.578
X51.973 Y12.556
X51.323 Y12.268
X53.142
X53.18 Y12.275
X53.215 Y12.293
X53.242 Y12.322
X54.16 Y13.729
X54.176 Y13.765
X54.179 Y13.805
X54.168 Y13.844
X54.146 Y13.877
X54.114 Y13.9
X54.075 Y13.912
X54.035 Y13.91
X53.998 Y13.895
X53.955 Y13.869 Z-3.412
X53.914 Y13.844 Z-3.428
X53.877 Y13.821 Z-3.454
X53.845 Y13.802 Z-3.488
X53.82 Y13.786 Z-3.53
X53.795 Y13.771 Z-3.571
X53.764 Y13.752 Z-3.606
X53.726 Y13.729 Z-3.632
X53.685 Y13.704 Z-3.648
X53.642 Y13.678 Z-3.653
G3 X52.861 Y13.156 R11.965
G1 X52.178 Y12.662
X52.116 Y12.622
X52.02 Y12.569
X51.973 Y12.546
X51.364 Y12.277
X53.135
X53.173 Y12.283
X53.208 Y12.302
X53.234 Y12.33
X54.153 Y13.711
X54.17 Y13.748
X54.173 Y13.788
X54.163 Y13.826
X54.14 Y13.86
X54.108 Y13.883
X54.069 Y13.895
X54.029 Y13.893
X53.992 Y13.879
X53.949 Y13.852 Z-3.659
X53.908 Y13.827 Z-3.675
X53.871 Y13.804 Z-3.7
X53.839 Y13.785 Z-3.735
X53.814 Y13.77 Z-3.777
X53.789 Y13.754 Z-3.818
X53.758 Y13.735 Z-3.853
X53.72 Y13.712 Z-3.879
X53.679 Y13.687 Z-3.895
X53.636 Y13.661 Z-3.9
G3 X52.886 Y13.16 R11.491
G1 X52.275 Y12.716
X52.234 Y12.689
X52.042 Y12.572
X51.973 Y12.536
X51.406 Y12.285
X53.177
X53.214 Y12.288
X56.273 Y12.773
X56.325 Y12.781 Z-3.894
X56.375 Y12.789 Z-3.876
X56.419 Y12.796 Z-3.848
X56.457 Y12.802 Z-3.81
X56.485 Y12.806 Z-3.765
X56.502 Y12.809 Z-3.715
X56.508 Y12.81 Z-3.662
G0 Z5.
X57.353 Y16.163
Z-1.094
G1 Z-3.168 F1499.
X57.352 Y16.169 Z-3.221
X57.348 Y16.186 Z-3.272
X57.341 Y16.213 Z-3.317
X57.332 Y16.25 Z-3.354
X57.321 Y16.294 Z-3.383
X57.309 Y16.343 Z-3.4
X57.297 Y16.394 Z-3.406
G3 X56.972 Y17.54 R15.163
G1 X56.701 Y18.366
X56.43 Y17.54
X56.425 Y17.508
X56.428 Y17.475
X56.44 Y17.445
X57.026 Y16.396
X57.053 Y16.364
X57.09 Y16.342
X57.132 Y16.336
X57.174 Y16.344
X57.21 Y16.366
X57.236 Y16.4
X57.248 Y16.44
X57.246 Y16.483
X57.234 Y16.532 Z-3.412
X57.223 Y16.578 Z-3.428
X57.213 Y16.621 Z-3.454
X57.204 Y16.657 Z-3.488
X57.197 Y16.685 Z-3.53
X57.19 Y16.714 Z-3.571
X57.181 Y16.75 Z-3.606
X57.171 Y16.792 Z-3.632
X57.16 Y16.839 Z-3.648
X57.148 Y16.888 Z-3.653
G3 X56.965 Y17.532 R8.529
G1 X56.702 Y18.336
X56.537 Y17.822
X56.532 Y17.807
X56.435 Y17.533
X56.429 Y17.501
X56.431 Y17.467
X56.443 Y17.436
X57.021 Y16.389
X57.048 Y16.356
X57.085 Y16.335
X57.127 Y16.328
X57.169 Y16.336
X57.205 Y16.358
X57.231 Y16.392
X57.244 Y16.432
X57.241 Y16.475
X57.229 Y16.524 Z-3.659
X57.218 Y16.571 Z-3.675
X57.208 Y16.613 Z-3.7
X57.199 Y16.649 Z-3.735
X57.192 Y16.678 Z-3.777
X57.185 Y16.706 Z-3.818
X57.176 Y16.742 Z-3.853
X57.166 Y16.784 Z-3.879
X57.154 Y16.831 Z-3.895
X57.143 Y16.88 Z-3.9
G3 X56.959 Y17.524 R8.529
G1 X56.702 Y18.304
X56.546 Y17.821
X56.541 Y17.805
X56.441 Y17.526
X56.432 Y17.49
X55.862 Y14.446
X55.853 Y14.394 Z-3.894
X55.843 Y14.344 Z-3.876
X55.835 Y14.3 Z-3.848
X55.828 Y14.263 Z-3.81
X55.823 Y14.235 Z-3.765
X55.82 Y14.218 Z-3.715
X55.819 Y14.212 Z-3.662
G0 Z5.
X58.831 Y12.334
Z-1.083
G1 Z-1.094 F381.
Z-3.168 F1499.
X58.837 Y12.333 Z-3.221
X58.855 Y12.332 Z-3.272
X58.883 Y12.33 Z-3.317
X58.92 Y12.327 Z-3.354
X58.965 Y12.323 Z-3.383
X59.016 Y12.319 Z-3.4
X59.068 Y12.315 Z-3.406
G3 X60.258 Y12.268 R15.163
G1 X62.082
X61.361 Y12.59
X61.306 Y12.618
X61.255 Y12.651
X60.554 Y13.156
X60.519 Y13.173
X60.481 Y13.179
X60.444 Y13.172
X58.807 Y12.58
X58.772 Y12.56
X58.746 Y12.53
X58.731 Y12.492
X58.73 Y12.452
X58.742 Y12.414
X58.766 Y12.382
X58.799 Y12.359
X58.838 Y12.349
X58.889 Y12.346 Z-3.412
X58.937 Y12.342 Z-3.428
X58.98 Y12.338 Z-3.454
X59.017 Y12.335 Z-3.488
X59.046 Y12.333 Z-3.53
X59.075 Y12.331 Z-3.571
X59.112 Y12.328 Z-3.606
X59.156 Y12.324 Z-3.632
X59.204 Y12.321 Z-3.648
X59.254 Y12.317 Z-3.653
G3 X60.267 Y12.277 R12.913
G1 X62.039
X61.357 Y12.582
X61.305 Y12.609
X61.257 Y12.639
X60.829 Y12.941
X60.821 Y12.947
X60.541 Y13.152
X60.507 Y13.169
X60.469 Y13.175
X60.431 Y13.168
X58.801 Y12.587
X58.766 Y12.567
X58.739 Y12.537
X58.724 Y12.5
X58.723 Y12.459
X58.735 Y12.421
X58.759 Y12.389
X58.793 Y12.366
X58.832 Y12.356
X58.882 Y12.352 Z-3.659
X58.93 Y12.349 Z-3.675
X58.974 Y12.345 Z-3.7
X59.011 Y12.342 Z-3.735
X59.04 Y12.34 Z-3.777
X59.069 Y12.338 Z-3.818
X59.106 Y12.335 Z-3.853
X59.149 Y12.331 Z-3.879
X59.197 Y12.328 Z-3.895
X59.248 Y12.324 Z-3.9
G3 X60.224 Y12.285 R12.439
G1 X61.993
X61.474 Y12.516
X61.435 Y12.535
X61.236 Y12.642
X61.166 Y12.686
X60.515 Y13.161
X60.484 Y13.181
X57.728 Y14.594
X57.681 Y14.618 Z-3.894
X57.636 Y14.641 Z-3.876
X57.596 Y14.662 Z-3.848
X57.562 Y14.679 Z-3.81
X57.537 Y14.692 Z-3.765
X57.521 Y14.7 Z-3.715
X57.516 Y14.703 Z-3.662
G0 Z5.
X73.538 Y13.937
Z-1.084
G1 Z-1.094 F381.
Z-3.168 F1499.
X73.533 Y13.934 Z-3.221
X73.518 Y13.924 Z-3.272
X73.494 Y13.91 Z-3.317
X73.462 Y13.89 Z-3.354
X73.423 Y13.866 Z-3.383
X73.381 Y13.84 Z-3.4
X73.335 Y13.812 Z-3.406
G3 X72.345 Y13.151 R15.163
G1 X71.733 Y12.707
X71.687 Y12.676
X71.542 Y12.591
X71.481 Y12.559
X70.828 Y12.268
X72.642
X72.681 Y12.275
X72.715 Y12.294
X72.742 Y12.323
X73.638 Y13.709
X73.654 Y13.746
X73.656 Y13.785
X73.646 Y13.824
X73.623 Y13.857
X73.591 Y13.88
X73.553 Y13.892
X73.513 Y13.89
X73.476 Y13.875
X73.433 Y13.849 Z-3.412
X73.392 Y13.824 Z-3.428
X73.354 Y13.801 Z-3.454
X73.323 Y13.782 Z-3.488
X73.298 Y13.766 Z-3.53
X73.273 Y13.751 Z-3.571
X73.241 Y13.732 Z-3.606
X73.204 Y13.709 Z-3.632
X73.163 Y13.684 Z-3.648
X73.12 Y13.657 Z-3.653
G3 X72.354 Y13.147 R11.728
G1 X71.733 Y12.697
X71.688 Y12.667
X71.543 Y12.581
X71.481 Y12.549
X70.87 Y12.277
X72.647
X72.685 Y12.283
X72.72 Y12.302
X72.746 Y12.331
X73.648 Y13.705
X73.664 Y13.742
X73.667 Y13.781
X73.657 Y13.82
X73.634 Y13.853
X73.602 Y13.877
X73.564 Y13.888
X73.524 Y13.887
X73.486 Y13.872
X73.443 Y13.846 Z-3.659
X73.402 Y13.82 Z-3.675
X73.365 Y13.798 Z-3.7
X73.333 Y13.778 Z-3.735
X73.308 Y13.763 Z-3.777
X73.284 Y13.748 Z-3.818
X73.252 Y13.729 Z-3.853
X73.214 Y13.706 Z-3.879
X73.173 Y13.681 Z-3.895
X73.13 Y13.654 Z-3.9
G3 X72.371 Y13.15 R11.609
G1 X71.732 Y12.687
X71.676 Y12.651
X71.483 Y12.543
X71.433 Y12.517
X70.912 Y12.285
X72.661
X72.699 Y12.288
X75.757 Y12.773
X75.81 Y12.781 Z-3.894
X75.86 Y12.789 Z-3.876
X75.904 Y12.796 Z-3.848
X75.941 Y12.802 Z-3.81
X75.969 Y12.806 Z-3.765
X75.987 Y12.809 Z-3.715
X75.993 Y12.81 Z-3.662
G0 Z5.
X76.848 Y16.164
Z-1.094
G1 Z-3.168 F1499.
X76.846 Y16.17 Z-3.221
X76.842 Y16.187 Z-3.272
X76.836 Y16.214 Z-3.317
X76.827 Y16.251 Z-3.354
X76.816 Y16.295 Z-3.383
X76.804 Y16.344 Z-3.4
X76.792 Y16.395 Z-3.406
G3 X76.468 Y17.541 R15.163
G1 X76.2 Y18.362
X75.93 Y17.538
X75.924 Y17.506
X75.927 Y17.474
X75.939 Y17.443
X76.52 Y16.4
X76.547 Y16.367
X76.584 Y16.346
X76.626 Y16.339
X76.668 Y16.347
X76.704 Y16.369
X76.73 Y16.403
X76.743 Y16.443
X76.74 Y16.486
X76.728 Y16.535 Z-3.412
X76.717 Y16.582 Z-3.428
X76.707 Y16.624 Z-3.454
X76.698 Y16.66 Z-3.488
X76.691 Y16.689 Z-3.53
