(NMJPLATE0PT0PT3_TOP_STEP3_132IN_SIDE1)
(T4  D=0.787 CR=0. - ZMIN=-19. - FLAT END MILL)
G0 G90 G94 G17
G21
G53 G0 Z0.

(MUSCLE INTERFACE PORTS)
M5
T4
M3 S16400
G55
G0 X86.47 Y60.364
Z15.
Z-16.449
G1 Z-17.368 F127.
X86.475 Y60.373 Z-17.407 F356.
X86.488 Y60.398 Z-17.436
X86.502 Y60.434 Z-17.447
X86.518 Y60.509 Z-17.448
Y60.585 Z-17.45
X86.503 Y60.66 Z-17.452
X86.473 Y60.73 Z-17.453
X86.43 Y60.793 Z-17.455
X86.375 Y60.845 Z-17.457
X86.31 Y60.886 Z-17.458
X86.238 Y60.912 Z-17.46
X86.163 Y60.923 Z-17.462
X86.086 Y60.919 Z-17.463
X86.013 Y60.899 Z-17.465
X85.944 Y60.865 Z-17.466
X85.885 Y60.817 Z-17.468
X85.836 Y60.759 Z-17.47
X85.8 Y60.691 Z-17.471
X85.778 Y60.618 Z-17.473
X85.772 Y60.542 Z-17.475
X85.781 Y60.466 Z-17.476
X85.806 Y60.394 Z-17.478
X85.844 Y60.328 Z-17.48
X85.896 Y60.272 Z-17.481
X85.957 Y60.227 Z-17.483
X86.027 Y60.195 Z-17.485
X86.101 Y60.178 Z-17.486
X86.177 Y60.177 Z-17.488
X86.252 Y60.191 Z-17.49
X86.323 Y60.22 Z-17.491
X86.386 Y60.263 Z-17.493
X86.439 Y60.318 Z-17.495
X86.48 Y60.382 Z-17.496
X86.507 Y60.454 Z-17.498
X86.519 Y60.529 Z-17.5
X86.516 Y60.605 Z-17.501
X86.497 Y60.679 Z-17.503
X86.463 Y60.748 Z-17.505
X86.416 Y60.808 Z-17.506
X86.358 Y60.858 Z-17.508
X86.291 Y60.894 Z-17.509
X86.218 Y60.917 Z-17.511
X86.142 Y60.924 Z-17.513
X86.066 Y60.915 Z-17.514
X85.994 Y60.891 Z-17.516
X85.928 Y60.853 Z-17.518
X85.87 Y60.803 Z-17.519
X85.825 Y60.741 Z-17.521
X85.793 Y60.672 Z-17.523
X85.775 Y60.598 Z-17.524
X85.773 Y60.522 Z-17.526
X85.786 Y60.446 Z-17.528
X85.815 Y60.376 Z-17.529
X85.857 Y60.312 Z-17.531
X85.911 Y60.258 Z-17.533
X85.975 Y60.217 Z-17.534
X86.046 Y60.189 Z-17.536
X86.122 Y60.176 Z-17.538
X86.198 Y60.179 Z-17.539
X86.272 Y60.197 Z-17.541
X86.341 Y60.23 Z-17.543
X86.402 Y60.277 Z-17.544
X86.452 Y60.334 Z-17.546
X86.489 Y60.401 Z-17.547
X86.512 Y60.474 Z-17.549
X86.52 Y60.55 Z-17.551
G3 X86.301 Y60.769 R0.219 F1499.
X86.081 Y60.55 R0.219
X86.301 Y60.33 R0.219
X86.52 Y60.55 R0.219
G2 X86.646 Y60.831 R0.376
G3 X86.715 Y60.985 R0.205
X86.644 Y61.139 R0.205
G1 X86.594 Y61.183
X86.515 Y61.197
X86.202 Y61.242
X85.846 Y61.08
X85.84 Y61.073
X85.633 Y60.742
Y60.35
X85.85 Y60.018
X86.197 Y59.859
X86.589 Y59.914
X86.886 Y60.172
X86.997 Y60.549
X86.885 Y60.93
X86.644 Y61.139
X86.611 Y61.158
X86.573 Y61.163
X86.536 Y61.153
X85.85 Y60.823
X85.82 Y60.801
X85.774 Y60.74 Z-17.553 F356.
X85.742 Y60.671 Z-17.556
X85.724 Y60.596 Z-17.559
X85.721 Y60.52 Z-17.561
X85.735 Y60.445 Z-17.564
X85.763 Y60.374 Z-17.567
X85.805 Y60.31 Z-17.57
X85.859 Y60.256 Z-17.572
X85.923 Y60.214 Z-17.575
X85.994 Y60.186 Z-17.578
X86.069 Y60.173 Z-17.58
X86.146 Y60.176 Z-17.583
X86.22 Y60.194 Z-17.586
X86.289 Y60.227 Z-17.588
X86.35 Y60.273 Z-17.591
X86.4 Y60.331 Z-17.594
X86.438 Y60.397 Z-17.596
X86.461 Y60.47 Z-17.599
X86.468 Y60.546 Z-17.602
G3 X86.301 Y60.714 R0.168 F1499.
X86.133 Y60.546 R0.168
X86.301 Y60.379 R0.168
X86.468 Y60.546 R0.168
G2 X86.589 Y60.824 R0.38
G3 X86.653 Y60.976 R0.203
X86.582 Y61.126 R0.203
G1 X86.566 Y61.139
X86.513 Y61.149
X86.214 Y61.192
X86.187 Y61.183
X85.884 Y61.044
X85.684 Y60.739
Y60.361
X85.844 Y60.111
X85.881 Y60.057
X86.211 Y59.907
X86.565 Y59.958
X86.57 Y59.961
X86.84 Y60.195
X86.944 Y60.549
X86.835 Y60.909
X86.582 Y61.126
X86.565 Y61.132
X86.549 Y61.126
X86.54 Y61.111
X86.515 Y60.991
X86.467 Y60.764
X86.456 Y60.766
X86.379 Z-17.604 F356.
X86.305 Y60.751 Z-17.607
X86.234 Y60.72 Z-17.61
X86.172 Y60.676 Z-17.612
X86.119 Y60.621 Z-17.615
X86.08 Y60.555 Z-17.618
X86.054 Y60.484 Z-17.62
X86.043 Y60.408 Z-17.623
X86.048 Y60.332 Z-17.626
X86.068 Y60.258 Z-17.628
X86.103 Y60.19 Z-17.631
X86.151 Y60.13 Z-17.634
X86.21 Y60.082 Z-17.636
X86.278 Y60.046 Z-17.639
X86.352 Y60.026 Z-17.642
X86.428 Y60.02 Z-17.644
X86.504 Y60.03 Z-17.647
X86.576 Y60.055 Z-17.65
X86.641 Y60.095 Z-17.652
G3 X86.71 Y60.573 R0.342
X86.231 Y60.641 R0.342
X86.208 Y60.479 R0.116 F1499.
X86.37 Y60.456 R0.116
X86.393 Y60.618 R0.116
X86.231 Y60.641 R0.116
G2 X85.953 Y60.569 R0.378
G3 X85.801 Y60.524 R0.191
X85.736 Y60.38 R0.191
G1 Y60.377
X85.845 Y60.202
X85.913 Y60.1
X85.924 Y60.09
X86.201 Y59.963
X86.227 Y59.958
X86.528 Y60.001
X86.576 Y60.031
X86.789 Y60.215
X86.891 Y60.55
X86.787 Y60.886
X86.558 Y61.084
X86.528 Y61.099
X86.227 Y61.142
X86.201 Y61.137
X85.925 Y61.011
X85.844 Y60.896
X85.736 Y60.725
Y60.38
X85.762 Y60.379
X86.369 Y60.335
X86.46 Y60.296
X86.505 Y60.357 Z-17.655 F356.
X86.538 Y60.426 Z-17.658
X86.556 Y60.5 Z-17.66
X86.558 Y60.576 Z-17.663
X86.545 Y60.652 Z-17.666
X86.517 Y60.723 Z-17.668
X86.475 Y60.787 Z-17.671
X86.421 Y60.841 Z-17.674
X86.357 Y60.882 Z-17.676
X86.286 Y60.91 Z-17.679
X86.21 Y60.923 Z-17.682
X86.134 Y60.92 Z-17.684
X86.06 Y60.902 Z-17.687
X85.991 Y60.869 Z-17.69
X85.93 Y60.823 Z-17.693
X85.88 Y60.765 Z-17.695
X85.842 Y60.699 Z-17.698
X85.819 Y60.626 Z-17.701
X85.811 Y60.55 Z-17.703
G3 X86.088 Y60.273 R0.277
X86.365 Y60.55 R0.277
X86.302 Y60.613 R0.063 F1499.
X86.239 Y60.55 R0.063
X86.302 Y60.487 R0.063
X86.365 Y60.55 R0.063
G2 X86.492 Y60.796 R0.302
G3 X86.526 Y61.004 R0.149
X86.426 Y61.065 R0.149
G1 X86.256 Y61.089
X86.175 Y61.072
X85.97 Y60.978
X85.894 Y60.884
X85.791 Y60.723
X85.788 Y60.383
X85.845 Y60.294
X85.939 Y60.153
X85.961 Y60.127
X86.199 Y60.02
X86.251 Y60.011
X86.506 Y60.051
X86.572 Y60.091
X86.742 Y60.242
X86.838 Y60.55
X86.742 Y60.858
X86.539 Y61.032
X86.499 Y61.055
X86.426 Y61.065
X86.395 Y61.064
X86.366 Y61.055
X86.341 Y61.037
X86.11 Y60.805
X86.065 Y60.744 Z-17.706 F356.
X86.032 Y60.674 Z-17.709
X86.015 Y60.6 Z-17.711
X86.013 Y60.524 Z-17.714
X86.027 Y60.448 Z-17.717
X86.056 Y60.378 Z-17.719
X86.099 Y60.314 Z-17.722
X86.153 Y60.261 Z-17.725
X86.217 Y60.219 Z-17.727
X86.289 Y60.192 Z-17.73
X86.364 Y60.18 Z-17.733
X86.441 Y60.183 Z-17.735
X86.515 Y60.202 Z-17.738
X86.583 Y60.235 Z-17.741
X86.644 Y60.282 Z-17.743
X86.694 Y60.34 Z-17.746
X86.731 Y60.407 Z-17.749
X86.753 Y60.48 Z-17.751
X86.76 Y60.556 Z-17.754
G3 X86.454 Y60.858 R0.304
X86.152 Y60.551 R0.304
G1 Y60.547 F1499.
G3 X86.303 Y60.399 R0.149
X86.443 Y60.502 R0.149
G1 X86.452 Y60.55
X86.445 Y60.597
X86.443 Y60.602
G3 X86.257 Y60.699 R0.149
X86.152 Y60.556 R0.149
G1 Y60.551
X86.147 Y60.493
X86.129 Y60.437
X86.101 Y60.385
X86.062 Y60.341
X86.035 Y60.306
X86.021 Y60.263
Y60.218
X86.035 Y60.176
X86.062 Y60.14
X86.099 Y60.115
X86.172 Y60.082
X86.28 Y60.063
X86.455 Y60.087
X86.568 Y60.153
X86.695 Y60.268
X86.786 Y60.551
X86.699 Y60.827
X86.542 Y60.965
X86.456 Y61.012
X86.27 Y61.035
X86.172 Y61.018
X86.018 Y60.947
X85.925 Y60.838
X85.84 Y60.7
X85.843 Y60.389
X85.958 Y60.217
X86.015 Y60.154
X86.099 Y60.115
X86.127 Y60.107
X86.156 Y60.108
X86.184 Y60.116
X86.512 Y60.272
X86.543 Y60.295
X86.589 Y60.356 Z-17.757 F356.
X86.621 Y60.425 Z-17.759
X86.639 Y60.499 Z-17.762
X86.641 Y60.576 Z-17.765
X86.628 Y60.651 Z-17.767
X86.6 Y60.722 Z-17.77
X86.558 Y60.786 Z-17.773
X86.504 Y60.84 Z-17.775
X86.44 Y60.881 Z-17.778
X86.369 Y60.909 Z-17.781
X86.293 Y60.922 Z-17.783
X86.217 Y60.919 Z-17.786
X86.143 Y60.901 Z-17.789
X86.074 Y60.868 Z-17.791
X86.013 Y60.822 Z-17.794
X85.963 Y60.765 Z-17.797
X85.925 Y60.698 Z-17.799
X85.902 Y60.625 Z-17.802
X85.894 Y60.549 Z-17.805
G3 X86.154 Y60.29 R0.259
X86.413 Y60.549 R0.259
X86.301 Y60.661 R0.112 F1499.
X86.19 Y60.549 R0.112
X86.301 Y60.437 R0.112
X86.413 Y60.549 R0.112
G1 X86.419 Y60.601
X86.436 Y60.65
X86.463 Y60.695
X86.5 Y60.732
X86.527 Y60.761
X86.543 Y60.798
X86.546 Y60.837
X86.537 Y60.875
X86.515 Y60.909
X86.485 Y60.934
X86.427 Y60.967
X86.308 Y60.984
X86.149 Y60.954
X86.049 Y60.905
X85.942 Y60.774
X85.892 Y60.696
X85.891 Y60.405
X85.958 Y60.302
X86.046 Y60.197
X86.172 Y60.139
X86.306 Y60.116
X86.426 Y60.133
X86.567 Y60.216
X86.644 Y60.283
X86.733 Y60.549
X86.645 Y60.813
X86.55 Y60.896
X86.485 Y60.934
X86.462 Y60.938
X86.441 Y60.928
X86.327 Y60.817
X86.322 Y60.816
X86.306
X86.291 Y60.823
X86.223 Y60.883
X86.207 Y60.891
X86.19 Y60.89
X86.124 Y60.861 Z-17.807 F356.
X86.064 Y60.819 Z-17.81
X86.015 Y60.765 Z-17.812
X85.978 Y60.703 Z-17.815
X85.953 Y60.635 Z-17.818
X85.943 Y60.563 Z-17.82
X85.948 Y60.49 Z-17.823
X85.967 Y60.42 Z-17.825
X86.001 Y60.356 Z-17.828
X86.046 Y60.299 Z-17.83
X86.102 Y60.253 Z-17.833
X86.166 Y60.219 Z-17.835
X86.236 Y60.198 Z-17.838
X86.308 Y60.192 Z-17.84
X86.38 Y60.201 Z-17.843
X86.449 Y60.224 Z-17.845
X86.512 Y60.261 Z-17.848
X86.566 Y60.31 Z-17.851
X86.609 Y60.368 Z-17.853
X86.639 Y60.434 Z-17.856
X86.679 Y60.55 F1499.
X86.596 Y60.793
X86.544 Y60.834
X86.376 Y60.927
X86.336 Y60.932
X86.13 Y60.893
X86.106 Y60.882
X85.956 Y60.705
X85.945 Y60.688
X85.943 Y60.664
Y60.416
X85.974 Y60.369
X86.047 Y60.281
X86.09 Y60.23
X86.151 Y60.2
X86.33 Y60.169
X86.396 Y60.18
X86.579 Y60.29
X86.595 Y60.304
X86.639 Y60.434
X86.641 Y60.452
X86.635 Y60.469
X86.622 Y60.481
X86.437 Y60.593
X86.44 Y60.795
X86.433 Y60.818
X86.415 Y60.833
X86.348 Y60.852 Z-17.858 F356.
X86.279 Y60.855 Z-17.86
X86.211 Y60.842 Z-17.863
X86.148 Y60.814 Z-17.865
X86.092 Y60.773 Z-17.868
X86.047 Y60.721 Z-17.87
X86.015 Y60.66 Z-17.873
X85.998 Y60.593 Z-17.875
X85.996 Y60.524 Z-17.877
X86.01 Y60.456 Z-17.88
X86.038 Y60.393 Z-17.882
X86.08 Y60.338 Z-17.885
X86.133 Y60.294 Z-17.887
X86.195 Y60.262 Z-17.889
X86.262 Y60.246 Z-17.892
X86.331 Y60.245 Z-17.894
X86.399 Y60.259 Z-17.897
X86.461 Y60.289 Z-17.899
X86.516 Y60.331 Z-17.902
X86.559 Y60.385 Z-17.904
X86.589 Y60.447 Z-17.906
X86.626 Y60.55 F1499.
X86.549 Y60.764
X86.525 Y60.782
X86.357 Y60.877
X86.347
X86.137 Y60.839
X85.995 Y60.666
Y60.434
X86.009 Y60.412
X86.047 Y60.367
X86.138 Y60.26
X86.354 Y60.222
X86.549 Y60.334
X86.589 Y60.447
X86.59 Y60.461
X86.582 Y60.471
X86.509 Y60.527
X86.55 Y60.599
X86.53 Y60.659 Z-17.909 F356.
X86.496 Y60.712 Z-17.911
X86.45 Y60.755 Z-17.913
X86.395 Y60.785 Z-17.915
X86.334 Y60.801 Z-17.917
X86.271 Z-17.92
X86.21 Y60.786 Z-17.922
X86.154 Y60.756 Z-17.924
X86.108 Y60.713 Z-17.926
X86.073 Y60.66 Z-17.928
X86.053 Y60.601 Z-17.931
X86.048 Y60.538 Z-17.933
X86.059 Y60.476 Z-17.935
X86.085 Y60.418 Z-17.937
X86.124 Y60.369 Z-17.94
X86.174 Y60.33 Z-17.942
X86.233 Y60.306 Z-17.944
X86.295 Y60.296 Z-17.946
X86.358 Y60.303 Z-17.948
X86.417 Y60.324 Z-17.951
X86.469 Y60.36 Z-17.953
X86.511 Y60.407 Z-17.955
X86.54 Y60.463 Z-17.957
X86.571 Y60.55 F1499.
X86.509 Y60.722
X86.343 Y60.819
X86.165 Y60.787
X86.049 Y60.649
X86.047 Y60.453
X86.167 Y60.313
X86.349 Y60.282
X86.508 Y60.375
X86.54 Y60.463
X86.541 Y60.484
X86.531 Y60.503
X86.512 Y60.513
X86.331 Y60.556
X86.199 Y60.687
X86.181 Y60.697
X86.16 Y60.696
X86.142 Y60.684
X86.113 Y60.637 Z-17.959 F356.
X86.096 Y60.584 Z-17.961
X86.094 Y60.528 Z-17.963
X86.108 Y60.474 Z-17.965
X86.135 Y60.425 Z-17.967
X86.174 Y60.385 Z-17.969
X86.222 Y60.357 Z-17.971
X86.276 Y60.343 Z-17.973
X86.332 Y60.344 Z-17.975
X86.385 Y60.359 Z-17.977
X86.433 Y60.388 Z-17.979
X86.471 Y60.429 Z-17.981
X86.497 Y60.478 Z-17.983
X86.509 Y60.533 Z-17.985
X86.506 Y60.589 Z-17.987
X86.489 Y60.642 Z-17.988
X86.458 Y60.688 Z-17.99
X86.415 Y60.724 Z-17.992
X86.365 Y60.748 Z-17.994
X86.31 Y60.758 Z-17.996
X86.255 Y60.753 Z-17.998
X86.202 Y60.733 Z-18.
X86.157 Y60.7 Z-18.002
X86.123 Y60.657 Z-18.004
X86.101 Y60.605 Z-18.006
X86.093 Y60.55 Z-18.008
Y60.471 F1499.
X86.192 Y60.356
X86.339 Y60.33
X86.471 Y60.406
X86.523 Y60.55
X86.471 Y60.694
X86.339 Y60.77
X86.188 Y60.743
X86.093 Y60.63
Y60.55
Y60.555
X86.1 Y60.5 Z-18.01 F356.
X86.12 Y60.448 Z-18.012
X86.154 Y60.404 Z-18.014
X86.198 Y60.37 Z-18.016
X86.25 Y60.349 Z-18.018
X86.306 Y60.343 Z-18.02
X86.361 Y60.352 Z-18.022
X86.411 Y60.375 Z-18.024
X86.454 Y60.411 Z-18.026
X86.486 Y60.457 Z-18.028
X86.504 Y60.509 Z-18.029
X86.508 Y60.565 Z-18.031
X86.496 Y60.62 Z-18.033
X86.471 Y60.669 Z-18.035
X86.433 Y60.71 Z-18.037
X86.385 Y60.74 Z-18.039
X86.332 Y60.755 Z-18.041
X86.276 Y60.756 Z-18.043
X86.222 Y60.742 Z-18.045
X86.174 Y60.714 Z-18.047
X86.135 Y60.674 Z-18.049
X86.108 Y60.626 Z-18.051
X86.094 Y60.571 Z-18.053
X86.096 Y60.516 Z-18.055
X86.113 Y60.462 Z-18.057
X86.143 Y60.415 Z-18.059
X86.192 Y60.358 F1499.
X86.338 Y60.332
X86.47 Y60.408
X86.521 Y60.55
X86.47 Y60.692
X86.338 Y60.768
X86.19 Y60.742
X86.185 Y60.736
X86.093 Y60.627
Y60.474
X86.143 Y60.415
X86.161 Y60.406
X86.181 Y60.411
X86.192 Y60.429
X86.212 Y60.554
X86.206 Y60.68
X86.201 Y60.695
X86.189 Y60.705
X86.173 Y60.706
X86.159 Y60.699
X86.124 Y60.655 Z-18.061 F356.
X86.103 Y60.604 Z-18.063
X86.096 Y60.549 Z-18.065
X86.104 Y60.493 Z-18.067
X86.126 Y60.442 Z-18.069
X86.162 Y60.399 Z-18.071
X86.208 Y60.368 Z-18.072
X86.261 Y60.349 Z-18.074
X86.316 Y60.346 Z-18.076
X86.371 Y60.358 Z-18.078
X86.42 Y60.384 Z-18.08
X86.461 Y60.422 Z-18.082
X86.49 Y60.47 Z-18.084
X86.504 Y60.523 Z-18.086
Y60.579 Z-18.088
X86.489 Y60.633 Z-18.09
X86.46 Y60.68 Z-18.092
X86.419 Y60.719 Z-18.094
X86.37 Y60.744 Z-18.096
X86.315 Y60.756 Z-18.098
X86.259 Y60.752 Z-18.1
X86.207 Y60.733 Z-18.102
X86.161 Y60.701 Z-18.104
X86.126 Y60.658 Z-18.106
X86.103 Y60.607 Z-18.108
X86.096 Y60.552 Z-18.11
X86.095 Y60.473 F1499.
X86.189 Y60.361
X86.342 Y60.336
X86.468 Y60.409
X86.52 Y60.55
X86.468 Y60.691
X86.338 Y60.766
X86.191 Y60.74
X86.186 Y60.735
X86.096 Y60.628
Y60.552
X86.102 Y60.537
X86.117 Y60.532
X86.132 Y60.539
X86.182 Y60.605
X86.202 Y60.685
X86.199 Y60.701
X86.186 Y60.71
X86.17 Y60.705
X86.133 Y60.664 Z-18.112 F356.
X86.108 Y60.614 Z-18.114
X86.098 Y60.559 Z-18.115
X86.103 Y60.504 Z-18.117
X86.123 Y60.451 Z-18.119
X86.157 Y60.407 Z-18.121
X86.201 Y60.373 Z-18.123
X86.253 Y60.352 Z-18.125
X86.308 Y60.347 Z-18.127
X86.363 Y60.356 Z-18.129
X86.414 Y60.38 Z-18.131
X86.455 Y60.417 Z-18.133
X86.486 Y60.464 Z-18.135
X86.502 Y60.517 Z-18.137
X86.504 Y60.573 Z-18.139
X86.49 Y60.627 Z-18.141
X86.462 Y60.675 Z-18.143
X86.422 Y60.714 Z-18.145
X86.373 Y60.741 Z-18.147
X86.318 Y60.753 Z-18.149
X86.263 Y60.75 Z-18.151
X86.21 Y60.732 Z-18.153
X86.164 Y60.7 Z-18.155
X86.128 Y60.657 Z-18.156
X86.106 Y60.606 Z-18.158
X86.098 Y60.551 Z-18.16
X86.097 Y60.473 F1499.
X86.191 Y60.362
X86.34 Y60.336
X86.467 Y60.41
X86.518 Y60.55
X86.467 Y60.69
X86.338 Y60.765
X86.196 Y60.74
X86.098 Y60.626
Y60.551
X86.104 Y60.536
X86.12 Y60.53
X86.135 Y60.538
X86.19 Y60.606
X86.215 Y60.69
X86.212 Y60.706
X86.199 Y60.716
X86.182 Y60.712
X86.142 Y60.674 Z-18.162 F356.
X86.114 Y60.625 Z-18.164
X86.101 Y60.571 Z-18.166
X86.103 Y60.515 Z-18.168
X86.12 Y60.462 Z-18.17
X86.151 Y60.416 Z-18.172
X86.194 Y60.38 Z-18.174
X86.244 Y60.357 Z-18.176
X86.3 Y60.348 Z-18.178
X86.355 Y60.356 Z-18.18
X86.406 Y60.378 Z-18.182
X86.449 Y60.413 Z-18.184
X86.481 Y60.459 Z-18.186
X86.499 Y60.511 Z-18.188
X86.502 Y60.567 Z-18.19
X86.49 Y60.621 Z-18.192
X86.463 Y60.67 Z-18.194
X86.424 Y60.71 Z-18.196
X86.376 Y60.737 Z-18.198
X86.322 Y60.751 Z-18.199
X86.266 Y60.748 Z-18.201
X86.213 Y60.731 Z-18.203
X86.167 Y60.7 Z-18.205
X86.131 Y60.657 Z-18.207
X86.108 Y60.606 Z-18.209
X86.1 Y60.551 Z-18.211
Y60.473 F1499.
X86.192 Y60.363
X86.338 Y60.337
X86.466 Y60.411
X86.516 Y60.55
X86.466 Y60.689
X86.338 Y60.763
X86.196 Y60.738
X86.1 Y60.627
Y60.551
X86.104 Y60.534
X86.117 Y60.522
X86.133 Y60.518
X86.29 Y60.519
X86.414 Y60.423
X86.43 Y60.416
X86.447 Y60.418
X86.461 Y60.429
X86.488 Y60.477 Z-18.213 F356.
X86.501 Y60.532 Z-18.215
X86.498 Y60.587 Z-18.217
X86.48 Y60.64 Z-18.219
X86.448 Y60.686 Z-18.221
X86.405 Y60.721 Z-18.223
X86.354 Y60.743 Z-18.225
X86.298 Y60.75 Z-18.227
X86.243 Y60.741 Z-18.229
X86.193 Y60.717 Z-18.231
X86.151 Y60.68 Z-18.233
X86.12 Y60.634 Z-18.235
X86.104 Y60.58 Z-18.237
Y60.524 Z-18.239
X86.119 Y60.471 Z-18.241
X86.148 Y60.423 Z-18.242
X86.189 Y60.385 Z-18.244
X86.239 Y60.361 Z-18.246
X86.294 Y60.35 Z-18.248
X86.349 Y60.356 Z-18.25
X86.401 Y60.377 Z-18.252
X86.445 Y60.411 Z-18.254
X86.478 Y60.456 Z-18.256
X86.497 Y60.508 Z-18.258
X86.501 Y60.564 Z-18.26
X86.489 Y60.618 Z-18.262
X86.464 Y60.688 F1499.
X86.337 Y60.761
X86.197 Y60.736
X86.102 Y60.627
Y60.473
X86.193 Y60.364
X86.337 Y60.339
X86.464 Y60.412
X86.514 Y60.55
X86.489 Y60.618
X86.476 Y60.634
X86.455 Y60.636
X86.438 Y60.625
X86.363 Y60.514
X86.302 Y60.396
X86.299 Y60.376
X86.311 Y60.359
X86.332 Y60.354
X86.385 Y60.37 Z-18.264 F356.
X86.432 Y60.401 Z-18.266
X86.468 Y60.443 Z-18.268
X86.492 Y60.494 Z-18.27
X86.5 Y60.549 Z-18.272
X86.492 Y60.604 Z-18.274
X86.47 Y60.655 Z-18.276
X86.434 Y60.698 Z-18.278
X86.387 Y60.728 Z-18.28
X86.334 Y60.745 Z-18.282
X86.278 Y60.746 Z-18.283
X86.225 Y60.732 Z-18.285
X86.177 Y60.703 Z-18.287
X86.139 Y60.662 Z-18.289
X86.114 Y60.612 Z-18.291
X86.104 Y60.557 Z-18.293
X86.11 Y60.502 Z-18.295
X86.131 Y60.45 Z-18.297
X86.166 Y60.406 Z-18.299
X86.212 Y60.374 Z-18.301
X86.264 Y60.356 Z-18.303
X86.32 Y60.353 Z-18.305
X86.374 Y60.366 Z-18.307
X86.423 Y60.393 Z-18.309
X86.462 Y60.433 Z-18.311
X86.488 Y60.482 Z-18.313
X86.513 Y60.55 F1499.
X86.463 Y60.687
X86.337 Y60.759
X86.197 Y60.735
X86.105 Y60.627
X86.104 Y60.473
X86.194 Y60.366
X86.337 Y60.341
X86.463 Y60.413
X86.488 Y60.482
X86.489 Y60.499
X86.483 Y60.513
X86.469 Y60.523
X86.328 Y60.578
X86.258 Y60.713
X86.248 Y60.725
X86.232 Y60.731
X86.216 Y60.728
X86.17 Y60.697 Z-18.315 F356.
X86.134 Y60.654 Z-18.317
X86.112 Y60.603 Z-18.319
X86.104 Y60.548 Z-18.321
X86.113 Y60.492 Z-18.323
X86.137 Y60.442 Z-18.325
X86.174 Y60.4 Z-18.326
X86.221 Y60.37 Z-18.328
X86.274 Y60.355 Z-18.33
X86.33 Z-18.332
X86.383 Y60.371 Z-18.334
X86.43 Y60.401 Z-18.336
X86.467 Y60.443 Z-18.338
X86.49 Y60.494 Z-18.34
X86.498 Y60.549 Z-18.342
X86.49 Y60.605 Z-18.344
X86.468 Y60.655 Z-18.346
X86.431 Y60.698 Z-18.348
X86.385 Y60.728 Z-18.35
X86.331 Y60.745 Z-18.352
X86.276 Z-18.354
X86.222 Y60.73 Z-18.356
X86.175 Y60.701 Z-18.358
X86.137 Y60.659 Z-18.36
X86.113 Y60.609 Z-18.362
X86.104 Y60.554 Z-18.364
X86.103 Y60.477 F1499.
X86.195 Y60.367
X86.337 Y60.342
X86.461 Y60.415
X86.511 Y60.55
X86.461 Y60.685
X86.337 Y60.758
X86.198 Y60.733
X86.106 Y60.626
X86.104 Y60.554
X86.111 Y60.525
X86.131 Y60.503
X86.159 Y60.494
X86.188 Y60.499
X86.211 Y60.518
X86.306 Y60.647
X86.317 Y60.673
X86.315 Y60.701
X86.3 Y60.724
X86.277 Y60.739
X86.249 Y60.74
X86.198 Y60.731 Z-18.365 F356.
X86.106 Y60.624 Z-18.37
X86.104 Y60.563 Z-18.372
X86.106 Y60.476 Z-18.376
X86.195 Y60.369 Z-18.38
X86.336 Y60.344 Z-18.385
X86.46 Y60.416 Z-18.39
X86.509 Y60.55 Z-18.395
X86.46 Y60.684 Z-18.4
X86.336 Y60.756 Z-18.405
X86.198 Y60.731 Z-18.41
X86.121 Y60.641 Z-18.414
X86.106 Y60.624 F1499.
X86.104 Y60.563
X86.106 Y60.476
X86.195 Y60.369
X86.336 Y60.344
X86.46 Y60.416
X86.509 Y60.55
X86.46 Y60.684
X86.336 Y60.756
X86.198 Y60.731
X86.121 Y60.641
X86.146 Y60.642
X86.145 Y60.667
X86.106 Y60.621 Z-18.416 F356.
X86.109 Y60.475 Z-18.422
X86.196 Y60.371 Z-18.426
X86.336 Y60.346 Z-18.431
X86.459 Y60.417 Z-18.436
X86.507 Y60.55 Z-18.441
X86.46 Y60.681 Z-18.446
X86.442 Y60.693 Z-18.447
X86.336 Y60.754 Z-18.451
X86.199 Y60.73 Z-18.456
X86.106 Y60.621 Z-18.461
X86.108 Y60.499 Z-18.465
X86.109 Y60.475 F1499.
X86.196 Y60.371
X86.336 Y60.346
X86.459 Y60.417
X86.507 Y60.55
X86.46 Y60.681
X86.442 Y60.693
X86.336 Y60.754
X86.199 Y60.73
X86.106 Y60.621
X86.108 Y60.499
X86.115 Y60.486
X86.129 Y60.483
X86.141 Y60.492
Y60.507
X86.129 Y60.517
X86.114 Y60.513
X86.108 Y60.499
X86.116 Y60.485
X86.132 Y60.484
X86.441 Y60.457
X86.458 Y60.459
X86.472 Y60.468
X86.481 Y60.482
X86.506 Y60.55 Z-18.468 F356.
X86.459 Y60.68 Z-18.473
X86.442 Y60.691
X86.336 Y60.753 Z-18.478
X86.199 Y60.729 Z-18.482
X86.107 Y60.621 Z-18.487
X86.11 Y60.475 Z-18.492
X86.197 Y60.372 Z-18.497
X86.336 Y60.347 Z-18.502
X86.458 Y60.418 Z-18.507
X86.506 Y60.55 Z-18.512
X86.466 Y60.66 Z-18.516
X86.459 Y60.68 F1499.
X86.442 Y60.691
X86.336 Y60.753
X86.199 Y60.729
X86.107 Y60.621
X86.11 Y60.475
X86.197 Y60.372
X86.336 Y60.347
X86.458 Y60.418
X86.506 Y60.55
X86.466 Y60.66
X86.457 Y60.671
X86.443 Y60.675
X86.43 Y60.669
X86.423 Y60.656
X86.411 Y60.571
X86.439 Y60.483
X86.451 Y60.47
X86.469
X86.481 Y60.482
X86.506 Y60.55 Z-18.519 F356.
X86.459 Y60.68 Z-18.523
X86.442 Y60.691 Z-18.524
X86.336 Y60.753 Z-18.528
X86.199 Y60.729 Z-18.533
X86.107 Y60.621 Z-18.538
X86.11 Y60.475 Z-18.543
X86.197 Y60.372 Z-18.548
X86.336 Y60.347 Z-18.553
X86.458 Y60.418 Z-18.558
X86.506 Y60.55 Z-18.563
X86.466 Y60.66 Z-18.567
X86.459 Y60.68 F1499.
X86.442 Y60.691
X86.336 Y60.753
X86.199 Y60.729
X86.107 Y60.621
X86.11 Y60.475
X86.197 Y60.372
X86.336 Y60.347
X86.458 Y60.418
X86.506 Y60.55
X86.466 Y60.66
X86.457 Y60.671
X86.443 Y60.675
X86.43 Y60.669
X86.423 Y60.656
X86.411 Y60.571
X86.439 Y60.483
X86.451 Y60.47
X86.469
X86.481 Y60.482
X86.506 Y60.55 Z-18.569 F356.
X86.459 Y60.68 Z-18.574
X86.442 Y60.691 Z-18.575
X86.336 Y60.753 Z-18.579
X86.199 Y60.729 Z-18.584
X86.107 Y60.621 Z-18.589
X86.11 Y60.475 Z-18.594
X86.197 Y60.372 Z-18.599
X86.336 Y60.347 Z-18.604
X86.458 Y60.418 Z-18.609
X86.506 Y60.55 Z-18.614
X86.466 Y60.66 Z-18.618
X86.459 Y60.68 F1499.
X86.442 Y60.691
X86.336 Y60.753
X86.199 Y60.729
X86.107 Y60.621
X86.11 Y60.475
X86.197 Y60.372
X86.336 Y60.347
X86.458 Y60.418
X86.506 Y60.55
X86.466 Y60.66
X86.457 Y60.671
X86.443 Y60.675
X86.43 Y60.669
X86.423 Y60.656
X86.411 Y60.571
X86.439 Y60.483
X86.451 Y60.47
X86.469
X86.481 Y60.482
X86.506 Y60.55 Z-18.62 F356.
X86.459 Y60.68 Z-18.625
X86.442 Y60.691 Z-18.626
X86.336 Y60.753 Z-18.63
X86.199 Y60.729 Z-18.635
X86.107 Y60.621 Z-18.64
X86.11 Y60.475 Z-18.645
X86.197 Y60.372 Z-18.65
X86.336 Y60.347 Z-18.654
X86.458 Y60.418 Z-18.659
X86.506 Y60.55 Z-18.664
X86.466 Y60.66 Z-18.668
X86.459 Y60.68 F1499.
X86.442 Y60.691
X86.336 Y60.753
X86.199 Y60.729
X86.107 Y60.621
X86.11 Y60.475
X86.197 Y60.372
X86.336 Y60.347
X86.458 Y60.418
X86.506 Y60.55
X86.466 Y60.66
X86.457 Y60.671
X86.443 Y60.675
X86.43 Y60.669
X86.423 Y60.656
X86.411 Y60.571
X86.439 Y60.483
X86.451 Y60.47
X86.469
X86.481 Y60.482
X86.506 Y60.55 Z-18.671 F356.
X86.459 Y60.68 Z-18.676
X86.442 Y60.691
X86.336 Y60.753 Z-18.681
X86.199 Y60.729 Z-18.686
X86.107 Y60.621 Z-18.691
X86.11 Y60.475 Z-18.696
X86.197 Y60.372 Z-18.7
X86.336 Y60.347 Z-18.705
X86.458 Y60.418 Z-18.71
X86.506 Y60.55 Z-18.715
X86.466 Y60.66 Z-18.719
X86.459 Y60.68 F1499.
X86.442 Y60.691
X86.336 Y60.753
X86.199 Y60.729
X86.107 Y60.621
X86.11 Y60.475
X86.197 Y60.372
X86.336 Y60.347
X86.458 Y60.418
X86.506 Y60.55
X86.466 Y60.66
X86.457 Y60.671
X86.443 Y60.675
X86.43 Y60.669
X86.423 Y60.656
X86.411 Y60.571
X86.439 Y60.483
X86.451 Y60.47
X86.469
X86.481 Y60.482
X86.506 Y60.55 Z-18.722 F356.
X86.459 Y60.68 Z-18.727
X86.442 Y60.691
X86.336 Y60.753 Z-18.732
X86.199 Y60.729 Z-18.736
X86.107 Y60.621 Z-18.741
X86.11 Y60.475 Z-18.746
X86.197 Y60.372 Z-18.751
X86.336 Y60.347 Z-18.756
X86.458 Y60.418 Z-18.761
X86.506 Y60.55 Z-18.766
X86.466 Y60.66 Z-18.77
X86.459 Y60.68 F1499.
X86.442 Y60.691
X86.336 Y60.753
X86.199 Y60.729
X86.107 Y60.621
X86.11 Y60.475
X86.197 Y60.372
X86.336 Y60.347
X86.458 Y60.418
X86.506 Y60.55
X86.466 Y60.66
X86.457 Y60.671
X86.443 Y60.675
X86.43 Y60.669
X86.423 Y60.656
X86.411 Y60.571
X86.439 Y60.483
X86.451 Y60.47
X86.469
X86.481 Y60.482
X86.506 Y60.55 Z-18.773 F356.
X86.459 Y60.68 Z-18.777
X86.442 Y60.691 Z-18.778
X86.336 Y60.753 Z-18.782
X86.199 Y60.729 Z-18.787
X86.107 Y60.621 Z-18.792
X86.11 Y60.475 Z-18.797
X86.197 Y60.372 Z-18.802
X86.336 Y60.347 Z-18.807
X86.458 Y60.418 Z-18.812
X86.506 Y60.55 Z-18.817
X86.466 Y60.66 Z-18.821
X86.459 Y60.68 F1499.
X86.442 Y60.691
X86.336 Y60.753
X86.199 Y60.729
X86.107 Y60.621
X86.11 Y60.475
X86.197 Y60.372
X86.336 Y60.347
X86.458 Y60.418
X86.506 Y60.55
X86.466 Y60.66
X86.457 Y60.671
X86.443 Y60.675
X86.43 Y60.669
X86.423 Y60.656
X86.411 Y60.571
X86.439 Y60.483
X86.451 Y60.47
X86.469
X86.481 Y60.482
X86.506 Y60.55 Z-18.823 F356.
X86.459 Y60.68 Z-18.828
X86.442 Y60.691 Z-18.829
X86.336 Y60.753 Z-18.833
X86.199 Y60.729 Z-18.838
X86.107 Y60.621 Z-18.843
X86.11 Y60.475 Z-18.848
X86.197 Y60.372 Z-18.853
X86.336 Y60.347 Z-18.858
X86.458 Y60.418 Z-18.863
X86.506 Y60.55 Z-18.868
X86.466 Y60.66 Z-18.872
X86.459 Y60.68 F1499.
X86.442 Y60.691
X86.336 Y60.753
X86.199 Y60.729
X86.107 Y60.621
X86.11 Y60.475
X86.197 Y60.372
X86.336 Y60.347
X86.458 Y60.418
X86.506 Y60.55
X86.466 Y60.66
X86.457 Y60.671
X86.443 Y60.675
X86.43 Y60.669
X86.423 Y60.656
X86.411 Y60.571
X86.439 Y60.483
X86.451 Y60.47
X86.469
X86.481 Y60.482
X86.506 Y60.55 Z-18.874 F356.
X86.459 Y60.68 Z-18.879
X86.442 Y60.691 Z-18.88
X86.336 Y60.753 Z-18.884
X86.199 Y60.729 Z-18.889
X86.107 Y60.621 Z-18.894
X86.11 Y60.475 Z-18.899
X86.197 Y60.372 Z-18.904
X86.336 Y60.347 Z-18.908
X86.458 Y60.418 Z-18.913
X86.506 Y60.55 Z-18.918
X86.466 Y60.66 Z-18.922
X86.459 Y60.68 F1499.
X86.442 Y60.691
X86.336 Y60.753
X86.199 Y60.729
X86.107 Y60.621
X86.11 Y60.475
X86.197 Y60.372
X86.336 Y60.347
X86.458 Y60.418
X86.506 Y60.55
X86.466 Y60.66
X86.457 Y60.671
X86.443 Y60.675
X86.43 Y60.669
X86.423 Y60.656
X86.411 Y60.571
X86.439 Y60.483
X86.451 Y60.47
X86.469
X86.481 Y60.482
X86.506 Y60.55 Z-18.925 F356.
X86.459 Y60.68 Z-18.93
X86.442 Y60.691
X86.336 Y60.753 Z-18.935
X86.199 Y60.729 Z-18.94
X86.107 Y60.621 Z-18.945
X86.11 Y60.475 Z-18.95
X86.197 Y60.372 Z-18.954
X86.336 Y60.347 Z-18.959
X86.458 Y60.418 Z-18.964
X86.506 Y60.55 Z-18.969
X86.466 Y60.66 Z-18.973
X86.459 Y60.68 F1499.
X86.442 Y60.691
X86.336 Y60.753
X86.199 Y60.729
X86.107 Y60.621
X86.11 Y60.475
X86.197 Y60.372
X86.336 Y60.347
X86.458 Y60.418
X86.506 Y60.55
X86.466 Y60.66
X86.458 Y60.671
X86.445 Y60.674
X86.432 Y60.67
X86.37 Y60.623
X86.146 Y60.608
X86.127 Y60.601
X86.113 Y60.587
X86.108 Y60.567
X86.11 Y60.475 Z-18.976 F356.
X86.197 Y60.372 Z-18.981
X86.336 Y60.347 Z-18.986
X86.458 Y60.418 Z-18.991
X86.506 Y60.55 Z-18.996
X86.466 Y60.66 Z-19.
X86.459 Y60.68 F1499.
X86.442 Y60.691
X86.336 Y60.753
X86.199 Y60.729
X86.107 Y60.621
X86.11 Y60.475
X86.197 Y60.372
X86.336 Y60.347
X86.458 Y60.418
X86.506 Y60.55
X86.466 Y60.66
X86.459 Y60.68 Z-18.997
X86.442 Y60.691 Z-18.988
X86.425 Y60.701 Z-18.971
X86.414 Y60.708 Z-18.948
X86.41 Y60.71 Z-18.921
G0 Z5.
X86.47 Y40.865
Z-17.368
G1 X86.475 Y40.874 Z-17.407 F356.
X86.488 Y40.899 Z-17.436
X86.502 Y40.935 Z-17.447
X86.518 Y41.009 Z-17.448
Y41.086 Z-17.45
X86.503 Y41.161 Z-17.452
X86.473 Y41.231 Z-17.453
X86.43 Y41.294 Z-17.455
X86.375 Y41.346 Z-17.457
X86.31 Y41.387 Z-17.458
X86.238 Y41.413 Z-17.46
X86.163 Y41.424 Z-17.462
X86.086 Y41.42 Z-17.463
X86.013 Y41.4 Z-17.465
X85.945 Y41.366 Z-17.466
X85.885 Y41.318 Z-17.468
X85.836 Y41.26 Z-17.47
X85.8 Y41.192 Z-17.471
X85.778 Y41.119 Z-17.473
X85.772 Y41.043 Z-17.475
X85.781 Y40.967 Z-17.476
X85.806 Y40.895 Z-17.478
X85.844 Y40.829 Z-17.48
X85.896 Y40.772 Z-17.481
X85.957 Y40.727 Z-17.483
X86.027 Y40.696 Z-17.485
X86.101 Y40.679 Z-17.486
X86.178 Y40.678 Z-17.488
X86.253 Y40.692 Z-17.49
X86.323 Y40.721 Z-17.491
X86.386 Y40.764 Z-17.493
X86.439 Y40.819 Z-17.495
X86.48 Y40.883 Z-17.496
X86.507 Y40.955 Z-17.498
X86.519 Y41.03 Z-17.5
X86.516 Y41.106 Z-17.501
X86.497 Y41.18 Z-17.503
X86.463 Y41.249 Z-17.505
X86.416 Y41.309 Z-17.506
X86.358 Y41.358 Z-17.508
X86.291 Y41.395 Z-17.509
X86.218 Y41.417 Z-17.511
X86.142 Y41.424 Z-17.513
X86.066 Y41.416 Z-17.514
X85.994 Y41.392 Z-17.516
X85.928 Y41.354 Z-17.518
X85.87 Y41.303 Z-17.519
X85.825 Y41.242 Z-17.521
X85.793 Y41.173 Z-17.523
X85.775 Y41.099 Z-17.524
X85.773 Y41.022 Z-17.526
X85.786 Y40.947 Z-17.528
X85.815 Y40.876 Z-17.529
X85.857 Y40.813 Z-17.531
X85.911 Y40.759 Z-17.533
X85.975 Y40.718 Z-17.534
X86.046 Y40.69 Z-17.536
X86.122 Y40.677 Z-17.538
X86.198 Y40.68 Z-17.539
X86.272 Y40.698 Z-17.541
X86.341 Y40.731 Z-17.543
X86.402 Y40.778 Z-17.544
X86.452 Y40.835 Z-17.546
X86.489 Y40.902 Z-17.547
X86.512 Y40.974 Z-17.549
X86.52 Y41.05 Z-17.551
G3 X86.302 Y41.268 R0.218 F1499.
X86.084 Y41.05 R0.218
X86.302 Y40.832 R0.218
X86.52 Y41.05 R0.218
G2 X86.646 Y41.331 R0.377
G3 X86.714 Y41.486 R0.205
X86.644 Y41.639 R0.205
G1 X86.595 Y41.682
X86.435 Y41.709
X86.198 Y41.741
X85.85 Y41.582
X85.633 Y41.245
X85.637 Y40.843
X85.844 Y40.52
X86.202 Y40.358
X86.589 Y40.413
X86.884 Y40.669
X86.997 Y41.051
X86.886 Y41.428
X86.644 Y41.639
X86.625 Y41.648
X86.605 Y41.647
X86.588 Y41.636
X86.579 Y41.618
X86.536 Y41.415
X86.43 Y40.828
X86.352 Y40.566
Y40.543
X86.365 Y40.524
X86.386 Y40.515
X86.462 Z-17.553 F356.
X86.537 Y40.531 Z-17.556
X86.607 Y40.561 Z-17.559
X86.67 Y40.605 Z-17.561
X86.722 Y40.661 Z-17.564
X86.762 Y40.726 Z-17.567
X86.788 Y40.798 Z-17.57
X86.798 Y40.873 Z-17.572
X86.793 Y40.95 Z-17.575
X86.773 Y41.023 Z-17.578
X86.738 Y41.091 Z-17.58
X86.69 Y41.151 Z-17.583
X86.631 Y41.199 Z-17.586
X86.563 Y41.235 Z-17.588
X86.49 Y41.256 Z-17.591
X86.414 Y41.261 Z-17.594
X86.338 Y41.251 Z-17.596
X86.266 Y41.226 Z-17.599
X86.2 Y41.187 Z-17.602
G3 X86.167 Y40.952 R0.168 F1499.
X86.401 Y40.919 R0.168
X86.435 Y41.153 R0.168
X86.2 Y41.187 R0.168
G2 X85.913 Y41.125 R0.351
G3 X85.689 Y40.982 R0.188
X85.684 Y40.941 R0.188
G1 Y40.861
X85.844 Y40.613
X85.882 Y40.557
X86.211 Y40.407
X86.565 Y40.458
X86.57 Y40.461
X86.835 Y40.691
X86.944 Y41.051
X86.839 Y41.406
X86.566 Y41.639
X86.513 Y41.649
X86.214 Y41.692
X86.186 Y41.683
X85.883 Y41.545
X85.869 Y41.526
X85.684 Y41.239
Y40.941
X85.691 Y40.906
X85.709 Y40.876
X85.737 Y40.853
X85.771 Y40.842
X86.327 Y40.766
X86.358 Y40.767
X86.388 Y40.778
X86.413 Y40.797
X86.459 Y40.858 Z-17.604 F356.
X86.492 Y40.927 Z-17.607
X86.51 Y41.002 Z-17.61
X86.512 Y41.078 Z-17.612
X86.499 Y41.153 Z-17.615
X86.471 Y41.224 Z-17.618
X86.429 Y41.288 Z-17.62
X86.375 Y41.342 Z-17.623
X86.311 Y41.384 Z-17.626
X86.24 Y41.412 Z-17.628
X86.164 Y41.425 Z-17.631
X86.088 Y41.422 Z-17.634
X86.014 Y41.404 Z-17.636
X85.945 Y41.371 Z-17.639
X85.884 Y41.325 Z-17.642
X85.834 Y41.267 Z-17.644
X85.796 Y41.2 Z-17.647
X85.773 Y41.128 Z-17.65
X85.765 Y41.051 Z-17.652
G3 X86.091 Y40.726 R0.326
X86.416 Y41.051 R0.326
X86.301 Y41.167 R0.116 F1499.
X86.185 Y41.051 R0.116
X86.301 Y40.936 R0.116
X86.416 Y41.051 R0.116
G2 X86.507 Y41.341 R0.508
G3 X86.462 Y41.589 R0.178
X86.386 Y41.619 R0.178
G1 X86.227 Y41.642
X86.201 Y41.637
X85.926 Y41.511
X85.903 Y41.488
X85.736 Y41.223
Y40.875
X85.844 Y40.704
X85.921 Y40.595
X85.983 Y40.563
X86.225 Y40.458
X86.537 Y40.504
X86.57 Y40.525
X86.787 Y40.714
X86.891 Y41.051
X86.789 Y41.383
X86.535 Y41.598
X86.386 Y41.619
X86.352 Y41.616
X86.323 Y41.598
X86.306 Y41.569
X86.304 Y41.535
X86.317 Y41.504
X86.342 Y41.482
X86.375 Y41.474
X86.418
X86.451 Y41.467
X86.477 Y41.445
X86.49 Y41.415
X86.488 Y41.381
X86.472 Y41.352
X86.444 Y41.334
X86.411 Y41.329
X86.334 Z-17.655 F356.
X86.259 Y41.314 Z-17.658
X86.189 Y41.284 Z-17.66
X86.127 Y41.24 Z-17.663
X86.074 Y41.184 Z-17.666
X86.035 Y41.119 Z-17.668
X86.009 Y41.047 Z-17.671
X85.998 Y40.971 Z-17.674
X86.003 Y40.895 Z-17.676
X86.023 Y40.821 Z-17.679
X86.058 Y40.753 Z-17.682
X86.106 Y40.694 Z-17.684
X86.165 Y40.645 Z-17.687
X86.233 Y40.61 Z-17.69
X86.307 Y40.589 Z-17.693
X86.383 Y40.583 Z-17.695
X86.459 Y40.593 Z-17.698
X86.531 Y40.619 Z-17.701
X86.596 Y40.658 Z-17.703
G3 X86.652 Y41.046 R0.277
X86.264 Y41.101 R0.277
X86.251 Y41.012 R0.063 F1499.
X86.34 Y41. R0.063
X86.353 Y41.088 R0.063
X86.264 Y41.101 R0.063
G2 X85.988 Y41.059 R0.296
G3 X85.8 Y40.968 R0.148
X85.815 Y40.839 R0.148
G1 X85.844 Y40.795
X85.949 Y40.642
X85.964 Y40.625
X86.199 Y40.52
X86.252 Y40.51
X86.496 Y40.545
X86.572 Y40.592
X86.741 Y40.74
X86.839 Y41.051
X86.742 Y41.358
X86.55 Y41.526
X86.51 Y41.549
X86.254 Y41.589
X86.176 Y41.572
X85.964 Y41.475
X85.907 Y41.403
X85.788 Y41.216
X85.791 Y40.877
X85.815 Y40.839
X85.833 Y40.825
X85.857 Y40.823
X85.877 Y40.835
X86.002 Y40.977
X86.108 Y41.065
X86.181 Y41.259
X86.182 Y41.28
X86.172 Y41.299
X86.154 Y41.31
X86.133
X86.115 Y41.299
X86.068 Y41.238 Z-17.706 F356.
X86.035 Y41.169 Z-17.709
X86.017 Y41.095 Z-17.711
X86.014 Y41.019 Z-17.714
X86.026 Y40.943 Z-17.717
X86.054 Y40.872 Z-17.719
X86.096 Y40.808 Z-17.722
X86.149 Y40.753 Z-17.725
X86.213 Y40.711 Z-17.727
X86.284 Y40.683 Z-17.73
X86.359 Y40.669 Z-17.733
X86.435 Y40.671 Z-17.735
X86.51 Y40.689 Z-17.738
X86.579 Y40.721 Z-17.741
X86.64 Y40.767 Z-17.743
X86.691 Y40.824 Z-17.746
X86.729 Y40.89 Z-17.749
X86.753 Y40.963 Z-17.751
X86.761 Y41.039 Z-17.754
G3 X86.46 Y41.345 R0.304
X86.153 Y41.044 R0.304
G1 Y41.036 F1499.
G3 X86.301 Y40.886 R0.149
X86.445 Y40.993 R0.149
G1 X86.447 Y41.001
X86.453 Y41.045
X86.446 Y41.088
X86.444 Y41.095
G3 X86.256 Y41.191 R0.149
X86.153 Y41.05 R0.149
G1 Y41.044
X86.147 Y40.987
X86.129 Y40.932
X86.101 Y40.882
X86.064 Y40.838
X86.037 Y40.803
X86.024 Y40.761
Y40.717
X86.039 Y40.675
X86.066 Y40.641
X86.103 Y40.617
X86.191 Y40.579
X86.288 Y40.563
X86.452 Y40.587
X86.567 Y40.652
X86.697 Y40.769
X86.737 Y40.879
X86.786 Y41.049
X86.695 Y41.332
X86.568 Y41.447
X86.455 Y41.513
X86.28 Y41.537
X86.174 Y41.518
X86.002 Y41.436
X85.934 Y41.353
X85.843 Y41.211
X85.84 Y40.895
X85.848 Y40.88
X85.953 Y40.723
X86.014 Y40.655
X86.103 Y40.617
X86.131 Y40.609
X86.159 Y40.61
X86.186 Y40.618
X86.512 Y40.774
X86.543 Y40.797
X86.589 Y40.858 Z-17.757 F356.
X86.621 Y40.927 Z-17.759
X86.639 Y41.001 Z-17.762
X86.641 Y41.078 Z-17.765
X86.628 Y41.153 Z-17.767
X86.6 Y41.224 Z-17.77
X86.558 Y41.288 Z-17.773
X86.504 Y41.342 Z-17.775
X86.44 Y41.383 Z-17.778
X86.369 Y41.411 Z-17.781
X86.293 Y41.424 Z-17.783
X86.217 Y41.421 Z-17.786
X86.143 Y41.403 Z-17.789
X86.074 Y41.37 Z-17.791
X86.013 Y41.324 Z-17.794
X85.963 Y41.267 Z-17.797
X85.925 Y41.2 Z-17.799
X85.902 Y41.127 Z-17.802
X85.894 Y41.051 Z-17.805
G3 X86.154 Y40.792 R0.259
X86.413 Y41.051 R0.259
X86.301 Y41.163 R0.112 F1499.
X86.19 Y41.051 R0.112
X86.301 Y40.939 R0.112
X86.413 Y41.051 R0.112
G1 X86.418 Y41.103
X86.435 Y41.152
X86.463 Y41.196
X86.499 Y41.233
X86.526 Y41.263
X86.541 Y41.299
X86.544 Y41.338
X86.535 Y41.377
X86.514 Y41.41
X86.483 Y41.435
X86.427 Y41.467
X86.308 Y41.484
X86.149 Y41.454
X86.049 Y41.405
X85.941 Y41.273
X85.891 Y41.195
X85.892 Y40.906
X85.981 Y40.775
X86.046 Y40.697
X86.172 Y40.639
X86.306 Y40.616
X86.426 Y40.633
X86.571 Y40.72
X86.645 Y40.786
X86.733 Y41.051
X86.646 Y41.312
X86.629 Y41.33
X86.543 Y41.4
X86.483 Y41.435
X86.464 Y41.44
X86.444 Y41.435
X86.43 Y41.421
X86.424 Y41.401
X86.423 Y41.172
X86.437 Y40.978
X86.454 Y40.793
X86.461 Y40.774
X86.477 Y40.761
X86.498 Y40.758
X86.517 Y40.766
X86.57 Y40.815 Z-17.807 F356.
X86.612 Y40.874 Z-17.81
X86.642 Y40.941 Z-17.812
X86.657 Y41.012 Z-17.815
Y41.084 Z-17.818
X86.643 Y41.156 Z-17.82
X86.615 Y41.223 Z-17.823
X86.574 Y41.282 Z-17.825
X86.522 Y41.333 Z-17.828
X86.46 Y41.372 Z-17.83
X86.392 Y41.397 Z-17.833
X86.321 Y41.408 Z-17.835
X86.248 Y41.405 Z-17.838
X86.178 Y41.387 Z-17.84
X86.113 Y41.355 Z-17.843
X86.055 Y41.311 Z-17.845
X86.008 Y41.256 Z-17.848
X85.972 Y41.193 Z-17.851
X85.951 Y41.123 Z-17.853
X85.943 Y41.051 Z-17.856
Y40.916 F1499.
X85.984 Y40.856
X86.045 Y40.784
X86.102 Y40.721
X86.149 Y40.701
X86.33 Y40.669
X86.397 Y40.68
X86.567 Y40.78
X86.595 Y40.804
X86.68 Y41.052
X86.596 Y41.293
X86.547 Y41.333
X86.376 Y41.427
X86.337 Y41.432
X86.13 Y41.391
X86.093 Y41.372
X85.958 Y41.209
X85.946 Y41.19
X85.943 Y41.138
Y41.051
X85.948 Y41.032
X85.961 Y41.018
X85.98 Y41.012
X85.999 Y41.015
X86.227 Y41.124
X86.424 Y41.268
X86.437 Y41.284
X86.439 Y41.305
X86.432 Y41.324
X86.415 Y41.336
X86.348 Y41.354 Z-17.858 F356.
X86.279 Y41.357 Z-17.86
X86.211 Y41.345 Z-17.863
X86.148 Y41.317 Z-17.865
X86.092 Y41.276 Z-17.868
X86.047 Y41.223 Z-17.87
X86.015 Y41.162 Z-17.873
X85.998 Y41.095 Z-17.875
X85.996 Y41.026 Z-17.877
X86.01 Y40.958 Z-17.88
X86.038 Y40.895 Z-17.882
X86.08 Y40.84 Z-17.885
X86.133 Y40.796 Z-17.887
X86.194 Y40.765 Z-17.889
X86.262 Y40.748 Z-17.892
X86.331 Y40.747 Z-17.894
X86.398 Y40.761 Z-17.897
X86.461 Y40.791 Z-17.899
X86.515 Y40.833 Z-17.902
X86.559 Y40.887 Z-17.904
X86.59 Y40.949 Z-17.906
X86.627 Y41.052 F1499.
X86.55 Y41.265
X86.543 Y41.271
X86.356 Y41.378
X86.135 Y41.336
X85.995 Y41.166
Y40.93
X86.136 Y40.761
X86.353 Y40.722
X86.55 Y40.837
X86.59 Y40.949
X86.591 Y40.964
X86.586 Y40.979
X86.575 Y40.99
X86.443 Y41.075
X86.44 Y41.088
X86.441 Y41.101
X86.471 Y41.212
Y41.232
X86.46 Y41.248
X86.406 Y41.281 Z-17.909 F356.
X86.346 Y41.3 Z-17.911
X86.283 Y41.303 Z-17.913
X86.221 Y41.291 Z-17.915
X86.164 Y41.263 Z-17.917
X86.116 Y41.223 Z-17.92
X86.079 Y41.172 Z-17.922
X86.056 Y41.113 Z-17.924
X86.048 Y41.05 Z-17.926
X86.055 Y40.988 Z-17.928
X86.078 Y40.929 Z-17.931
X86.115 Y40.878 Z-17.933
X86.164 Y40.837 Z-17.935
X86.22 Y40.81 Z-17.937
X86.282 Y40.797 Z-17.94
X86.345 Y40.8 Z-17.942
X86.406 Y40.819 Z-17.944
X86.459 Y40.852 Z-17.946
X86.503 Y40.897 Z-17.948
X86.535 Y40.952 Z-17.951
X86.552 Y41.012 Z-17.953
X86.554 Y41.075 Z-17.955
X86.54 Y41.137 Z-17.957
X86.508 Y41.225 F1499.
X86.349 Y41.318
X86.167 Y41.287
X86.047 Y41.147
Y41.138
X86.049 Y40.951
X86.165 Y40.813
X86.343 Y40.781
X86.509 Y40.878
X86.571 Y41.05
X86.54 Y41.137
X86.53 Y41.15
X86.515 Y41.157
X86.498 Y41.154
X86.486 Y41.144
X86.407 Y41.027
X86.361 Y40.906
Y40.888
X86.37 Y40.872
X86.387 Y40.865
X86.405 Y40.869
X86.449 Y40.903 Z-17.959 F356.
X86.483 Y40.948 Z-17.961
X86.504 Y41. Z-17.963
X86.51 Y41.055 Z-17.965
X86.501 Y41.11 Z-17.967
X86.478 Y41.161 Z-17.969
X86.442 Y41.204 Z-17.971
X86.396 Y41.235 Z-17.973
X86.344 Y41.254 Z-17.975
X86.288 Y41.258 Z-17.977
X86.233 Y41.247 Z-17.979
X86.184 Y41.222 Z-17.981
X86.142 Y41.184 Z-17.983
X86.112 Y41.137 Z-17.985
X86.096 Y41.084 Z-17.987
X86.095 Y41.028 Z-17.988
X86.108 Y40.974 Z-17.99
X86.135 Y40.925 Z-17.992
X86.174 Y40.885 Z-17.994
X86.222 Y40.857 Z-17.996
X86.276 Y40.843 Z-17.998
X86.332 Y40.844 Z-18.
X86.386 Y40.859 Z-18.002
X86.433 Y40.889 Z-18.004
X86.471 Y40.929 Z-18.006
X86.497 Y40.979 Z-18.008
X86.523 Y41.05 F1499.
X86.471 Y41.194
X86.339 Y41.27
X86.192 Y41.244
X86.093 Y41.129
Y40.97
X86.188 Y40.857
X86.339 Y40.83
X86.471 Y40.906
X86.497 Y40.979
X86.496 Y40.994
X86.484 Y41.003
X86.469 Y41.
X86.409 Y40.957
X86.373 Y40.892
X86.372 Y40.877
X86.383 Y40.866
X86.398 Y40.867
X86.443 Y40.899 Z-18.01 F356.
X86.478 Y40.943 Z-18.012
X86.5 Y40.994 Z-18.014
X86.508 Y41.049 Z-18.016
X86.501 Y41.105 Z-18.018
X86.479 Y41.156 Z-18.02
X86.444 Y41.2 Z-18.022
X86.399 Y41.232 Z-18.024
X86.347 Y41.252 Z-18.026
X86.291 Y41.257 Z-18.028
X86.236 Y41.247 Z-18.029
X86.186 Y41.223 Z-18.031
X86.144 Y41.186 Z-18.033
X86.114 Y41.139 Z-18.035
X86.097 Y41.086 Z-18.037
X86.094 Y41.03 Z-18.039
X86.107 Y40.976 Z-18.041
X86.134 Y40.927 Z-18.043
X86.172 Y40.887 Z-18.045
X86.22 Y40.859 Z-18.047
X86.274 Y40.844 Z-18.049
X86.33 Y40.845 Z-18.051
X86.384 Y40.86 Z-18.053
X86.431 Y40.889 Z-18.055
X86.47 Y40.93 Z-18.057
X86.496 Y40.979 Z-18.059
X86.521 Y41.05 F1499.
X86.47 Y41.192
X86.338 Y41.268
X86.192 Y41.242
X86.093 Y41.126
Y40.973
X86.189 Y40.858
X86.338 Y40.832
X86.47 Y40.908
X86.496 Y40.979
Y40.995
X86.487 Y41.008
X86.4 Y41.079
X86.433 Y41.185
Y41.201
X86.424 Y41.214
X86.375 Y41.241 Z-18.061 F356.
X86.321 Y41.254 Z-18.063
X86.265 Y41.251 Z-18.065
X86.212 Y41.234 Z-18.067
X86.165 Y41.203 Z-18.069
X86.129 Y41.161 Z-18.071
X86.105 Y41.111 Z-18.072
X86.096 Y41.056 Z-18.074
X86.102 Y41. Z-18.076
X86.122 Y40.948 Z-18.078
X86.156 Y40.904 Z-18.08
X86.2 Y40.87 Z-18.082
X86.252 Y40.85 Z-18.084
X86.308 Y40.844 Z-18.086
X86.363 Y40.853 Z-18.088
X86.413 Y40.877 Z-18.09
X86.455 Y40.914 Z-18.092
X86.486 Y40.96 Z-18.094
X86.503 Y41.013 Z-18.096
X86.505 Y41.069 Z-18.098
X86.492 Y41.123 Z-18.1
X86.465 Y41.172 Z-18.102
X86.426 Y41.212 Z-18.104
X86.378 Y41.24 Z-18.106
X86.324 Y41.253 Z-18.108
X86.268 Y41.252 Z-18.11
X86.192 Y41.24 F1499.
X86.095 Y41.126
X86.096 Y40.972
X86.186 Y40.865
X86.191 Y40.86
X86.338 Y40.834
X86.468 Y40.909
X86.52 Y41.05
X86.468 Y41.191
X86.342 Y41.264
X86.268 Y41.252
X86.237 Y41.239
X86.216 Y41.214
X86.208 Y41.181
X86.216 Y41.149
X86.238 Y41.124
X86.389 Y41.016
X86.415 Y41.005
X86.443 Y41.004
X86.469 Y41.014
X86.489 Y41.034
X86.5 Y41.059
X86.501 Y41.088
X86.482 Y41.14 Z-18.112 F356.
X86.451 Y41.186 Z-18.114
X86.408 Y41.222 Z-18.115
X86.357 Y41.244 Z-18.117
X86.302 Y41.252 Z-18.119
X86.246 Y41.245 Z-18.121
X86.195 Y41.222 Z-18.123
X86.152 Y41.187 Z-18.125
X86.12 Y41.141 Z-18.127
X86.102 Y41.089 Z-18.129
X86.098 Y41.033 Z-18.131
X86.11 Y40.978 Z-18.133
X86.137 Y40.929 Z-18.135
X86.175 Y40.889 Z-18.137
X86.224 Y40.861 Z-18.139
X86.278 Y40.847 Z-18.141
X86.333 Y40.848 Z-18.143
X86.387 Y40.865 Z-18.145
X86.434 Y40.895 Z-18.147
X86.47 Y40.937 Z-18.149
X86.495 Y40.987 Z-18.151
X86.504 Y41.042 Z-18.153
X86.498 Y41.097 Z-18.155
X86.478 Y41.149 Z-18.156
X86.444 Y41.193 Z-18.158
X86.399 Y41.227 Z-18.16
X86.332 Y41.264 F1499.
X86.193 Y41.239
X86.097 Y41.126
X86.098 Y40.972
X86.191 Y40.861
X86.338 Y40.835
X86.467 Y40.91
X86.518 Y41.05
X86.467 Y41.189
X86.399 Y41.227
X86.363 Y41.239
X86.324 Y41.236
X86.29 Y41.219
X86.265 Y41.19
X86.252 Y41.154
X86.254 Y41.115
X86.289 Y40.97
X86.305 Y40.935
X86.333 Y40.909
X86.369 Y40.896
X86.408
X86.443 Y40.912
X86.47 Y40.939
X86.494 Y40.989 Z-18.162 F356.
X86.503 Y41.044 Z-18.164
X86.497 Y41.1 Z-18.166
X86.476 Y41.151 Z-18.168
X86.441 Y41.195 Z-18.17
X86.396 Y41.228 Z-18.172
X86.344 Y41.247 Z-18.174
X86.288 Y41.251 Z-18.176
X86.234 Y41.24 Z-18.178
X86.184 Y41.214 Z-18.18
X86.144 Y41.176 Z-18.182
X86.115 Y41.127 Z-18.184
X86.101 Y41.074 Z-18.186
X86.103 Y41.018 Z-18.188
X86.119 Y40.964 Z-18.19
X86.149 Y40.918 Z-18.192
X86.191 Y40.881 Z-18.194
X86.242 Y40.857 Z-18.196
X86.297 Y40.848 Z-18.198
X86.352 Y40.855 Z-18.199
X86.404 Y40.876 Z-18.201
X86.448 Y40.911 Z-18.203
X86.48 Y40.956 Z-18.205
X86.499 Y41.009 Z-18.207
X86.503 Y41.064 Z-18.209
X86.491 Y41.119 Z-18.211
X86.466 Y41.189 F1499.
X86.338 Y41.263
X86.194 Y41.238
X86.1 Y41.126
Y40.972
X86.192 Y40.863
X86.338 Y40.837
X86.466 Y40.911
X86.516 Y41.05
X86.491 Y41.119
X86.479 Y41.131
X86.462
X86.45 Y41.119
X86.419 Y41.032
X86.422 Y40.941
X86.429 Y40.926
X86.445 Y40.92
X86.461 Y40.929
X86.488 Y40.977 Z-18.213 F356.
X86.501 Y41.032 Z-18.215
X86.498 Y41.087 Z-18.217
X86.48 Y41.14 Z-18.219
X86.448 Y41.186 Z-18.221
X86.405 Y41.221 Z-18.223
X86.354 Y41.243 Z-18.225
X86.298 Y41.25 Z-18.227
X86.243 Y41.241 Z-18.229
X86.193 Y41.217 Z-18.231
X86.151 Y41.18 Z-18.233
X86.12 Y41.134 Z-18.235
X86.104 Y41.08 Z-18.237
Y41.024 Z-18.239
X86.119 Y40.971 Z-18.241
X86.148 Y40.923 Z-18.242
X86.189 Y40.885 Z-18.244
X86.239 Y40.861 Z-18.246
X86.294 Y40.85 Z-18.248
X86.349 Y40.856 Z-18.25
X86.401 Y40.877 Z-18.252
X86.445 Y40.911 Z-18.254
X86.478 Y40.956 Z-18.256
X86.497 Y41.008 Z-18.258
X86.501 Y41.064 Z-18.26
X86.489 Y41.118 Z-18.262
X86.464 Y41.188 F1499.
X86.337 Y41.261
X86.194 Y41.236
X86.102 Y41.127
X86.103 Y40.972
X86.193 Y40.864
X86.337 Y40.839
X86.464 Y40.912
X86.514 Y41.05
X86.489 Y41.118
X86.477 Y41.133
X86.458 Y41.137
X86.328 Y41.119
X86.242 Y41.216
X86.226 Y41.226
X86.207 Y41.223
X86.162 Y41.19 Z-18.264 F356.
X86.129 Y41.145 Z-18.266
X86.109 Y41.093 Z-18.268
X86.105 Y41.037 Z-18.27
X86.116 Y40.983 Z-18.272
X86.142 Y40.933 Z-18.274
X86.181 Y40.893 Z-18.276
X86.23 Y40.866 Z-18.278
X86.284 Y40.853 Z-18.28
X86.34 Y40.856 Z-18.282
X86.392 Y40.874 Z-18.283
X86.438 Y40.906 Z-18.285
X86.473 Y40.95 Z-18.287
X86.494 Y41.001 Z-18.289
X86.5 Y41.057 Z-18.291
X86.49 Y41.112 Z-18.293
X86.465 Y41.162 Z-18.295
X86.428 Y41.203 Z-18.297
X86.38 Y41.232 Z-18.299
X86.326 Y41.246 Z-18.301
X86.27 Y41.245 Z-18.303
X86.217 Y41.229 Z-18.305
X86.171 Y41.198 Z-18.307
X86.135 Y41.155 Z-18.309
X86.112 Y41.104 Z-18.311
X86.104 Y41.049 Z-18.313
X86.105 Y40.972 F1499.
X86.194 Y40.866
X86.337 Y40.841
X86.463 Y40.913
X86.513 Y41.05
X86.463 Y41.187
X86.337 Y41.259
X86.195 Y41.234
X86.104 Y41.127
Y41.049
X86.111 Y41.023
X86.13 Y41.004
X86.156 Y40.997
X86.181 Y41.004
X86.201 Y41.022
X86.28 Y41.153
X86.288 Y41.178
X86.282 Y41.204
X86.264 Y41.224
X86.239 Y41.232
X86.213 Y41.226
X86.167 Y41.195 Z-18.315 F356.
X86.132 Y41.151 Z-18.317
X86.11 Y41.1 Z-18.319
X86.104 Y41.045 Z-18.321
X86.113 Y40.99 Z-18.323
X86.138 Y40.939 Z-18.325
X86.175 Y40.898 Z-18.326
X86.223 Y40.869 Z-18.328
X86.276 Y40.854 Z-18.33
X86.332 Y40.855 Z-18.332
X86.385 Y40.872 Z-18.334
X86.432 Y40.903 Z-18.336
X86.468 Y40.945 Z-18.338
X86.491 Y40.996 Z-18.34
X86.498 Y41.051 Z-18.342
X86.49 Y41.106 Z-18.344
X86.467 Y41.157 Z-18.346
X86.43 Y41.199 Z-18.348
X86.383 Y41.229 Z-18.35
X86.33 Y41.245 Z-18.352
X86.274 Z-18.354
X86.22 Y41.23 Z-18.356
X86.173 Y41.2 Z-18.358
X86.136 Y41.158 Z-18.36
X86.112 Y41.108 Z-18.362
X86.104 Y41.053 Z-18.364
X86.103 Y40.977 F1499.
X86.195 Y40.867
X86.337 Y40.842
X86.461 Y40.915
X86.511 Y41.05
X86.461 Y41.185
X86.337 Y41.258
X86.195 Y41.233
X86.105 Y41.125
X86.104 Y41.053
X86.108 Y41.037
X86.118 Y41.026
X86.134 Y41.021
X86.284 Y41.012
X86.376 Y40.898
X86.388 Y40.889
X86.402 Y40.886
X86.416 Y40.89
X86.46 Y40.916 Z-18.365 F356.
X86.509 Y41.05 Z-18.37
X86.46 Y41.184 Z-18.375
X86.336 Y41.256 Z-18.38
X86.196 Y41.231 Z-18.385
X86.107 Y41.125 Z-18.39
X86.104 Y40.978 Z-18.395
X86.195 Y40.869 Z-18.4
X86.336 Y40.844 Z-18.405
X86.46 Y40.916 Z-18.41
X86.501 Y41.028 Z-18.414
X86.509 Y41.05 F1499.
X86.46 Y41.184
X86.336 Y41.256
X86.196 Y41.231
X86.107 Y41.125
X86.104 Y40.978
X86.195 Y40.869
X86.336 Y40.844
X86.46 Y40.916
X86.501 Y41.028
X86.481 Y41.056
X86.358 Y40.948
X86.347 Y40.929
X86.349 Y40.906
X86.362 Y40.888
X86.383 Y40.881
X86.405 Y40.886
X86.459 Y40.917 Z-18.417 F356.
X86.507 Y41.05 Z-18.422
X86.459 Y41.183 Z-18.426
X86.336 Y41.254 Z-18.431
X86.196 Y41.229 Z-18.436
X86.109 Y41.125 Z-18.441
X86.106 Y40.978 Z-18.446
X86.196 Y40.871 Z-18.451
X86.336 Y40.846 Z-18.456
X86.459 Y40.917 Z-18.461
X86.499 Y41.028 Z-18.465
X86.507 Y41.05 F1499.
X86.459 Y41.183
X86.336 Y41.254
X86.196 Y41.229
X86.109 Y41.125
X86.106 Y40.978
X86.196 Y40.871
X86.336 Y40.846
X86.459 Y40.917
X86.499 Y41.028
Y41.044
X86.487 Y41.055
X86.471
X86.462 Y41.048
X86.204 Y41.187
X86.187 Y41.192
X86.169 Y41.189
X86.155 Y41.178
X86.11 Y41.125 Z-18.468 F356.
X86.107 Y40.978 Z-18.473
X86.197 Y40.872 Z-18.478
X86.336 Y40.847 Z-18.483
X86.458 Y40.918 Z-18.487
X86.506 Y41.05 Z-18.492
X86.458 Y41.182 Z-18.497
X86.336 Y41.253 Z-18.502
X86.197 Y41.228 Z-18.507
X86.11 Y41.125 Z-18.512
X86.108 Y41.006 Z-18.516
X86.107 Y40.978 F1499.
X86.197 Y40.872
X86.336 Y40.847
X86.458 Y40.918
X86.506 Y41.05
X86.458 Y41.182
X86.336 Y41.253
X86.197 Y41.228
X86.11 Y41.125
X86.108 Y41.006
X86.115 Y40.982
X86.134 Y40.965
X86.159 Y40.962
X86.183 Y40.973
X86.196 Y40.995
X86.232 Y41.139
Y41.162
X86.219 Y41.182
X86.198 Y41.193
X86.174 Y41.192
X86.155 Y41.178
X86.11 Y41.125 Z-18.518 F356.
X86.107 Y40.978 Z-18.524
X86.197 Y40.872 Z-18.528
X86.336 Y40.847 Z-18.533
X86.458 Y40.918 Z-18.538
X86.506 Y41.05 Z-18.543
X86.458 Y41.182 Z-18.548
X86.336 Y41.253 Z-18.553
X86.197 Y41.228 Z-18.558
X86.11 Y41.125 Z-18.563
X86.108 Y41.006 Z-18.567
X86.107 Y40.978 F1499.
X86.197 Y40.872
X86.336 Y40.847
X86.458 Y40.918
X86.506 Y41.05
X86.458 Y41.182
X86.336 Y41.253
X86.197 Y41.228
X86.11 Y41.125
X86.108 Y41.006
X86.115 Y40.982
X86.134 Y40.965
X86.159 Y40.962
X86.183 Y40.973
X86.196 Y40.995
X86.232 Y41.139
Y41.162
X86.219 Y41.182
X86.198 Y41.193
X86.174 Y41.192
X86.155 Y41.178
X86.11 Y41.125 Z-18.569 F356.
X86.107 Y40.978 Z-18.574
X86.197 Y40.872 Z-18.579
X86.336 Y40.847 Z-18.584
X86.458 Y40.918 Z-18.589
X86.506 Y41.05 Z-18.594
X86.458 Y41.182 Z-18.599
X86.336 Y41.253 Z-18.604
X86.197 Y41.228 Z-18.609
X86.11 Y41.125 Z-18.613
X86.108 Y41.006 Z-18.618
X86.107 Y40.978 F1499.
X86.197 Y40.872
X86.336 Y40.847
X86.458 Y40.918
X86.506 Y41.05
X86.458 Y41.182
X86.336 Y41.253
X86.197 Y41.228
X86.11 Y41.125
X86.108 Y41.006
X86.115 Y40.982
X86.134 Y40.965
X86.159 Y40.962
X86.183 Y40.973
X86.196 Y40.995
X86.232 Y41.139
Y41.162
X86.219 Y41.182
X86.198 Y41.193
X86.174 Y41.192
X86.155 Y41.178
X86.11 Y41.125 Z-18.62 F356.
X86.107 Y40.978 Z-18.625
X86.197 Y40.872 Z-18.63
X86.336 Y40.847 Z-18.635
X86.458 Y40.918 Z-18.64
X86.506 Y41.05 Z-18.645
X86.458 Y41.182 Z-18.65
X86.336 Y41.253 Z-18.655
X86.197 Y41.228 Z-18.66
X86.11 Y41.125 Z-18.664
X86.108 Y41.006 Z-18.668
X86.107 Y40.978 F1499.
X86.197 Y40.872
X86.336 Y40.847
X86.458 Y40.918
X86.506 Y41.05
X86.458 Y41.182
X86.336 Y41.253
X86.197 Y41.228
X86.11 Y41.125
X86.108 Y41.006
X86.115 Y40.982
X86.134 Y40.965
X86.159 Y40.962
X86.183 Y40.973
X86.196 Y40.995
X86.232 Y41.139
Y41.162
X86.219 Y41.182
X86.198 Y41.193
X86.174 Y41.192
X86.155 Y41.178
X86.11 Y41.125 Z-18.671 F356.
X86.107 Y40.978 Z-18.676
X86.197 Y40.872 Z-18.681
X86.336 Y40.847 Z-18.686
X86.458 Y40.918 Z-18.691
X86.506 Y41.05 Z-18.696
X86.458 Y41.182 Z-18.701
X86.336 Y41.253 Z-18.705
X86.197 Y41.228 Z-18.71
X86.11 Y41.125 Z-18.715
X86.108 Y41.006 Z-18.719
X86.107 Y40.978 F1499.
X86.197 Y40.872
X86.336 Y40.847
X86.458 Y40.918
X86.506 Y41.05
X86.458 Y41.182
X86.336 Y41.253
X86.197 Y41.228
X86.11 Y41.125
X86.108 Y41.006
X86.115 Y40.982
X86.134 Y40.965
X86.159 Y40.962
X86.183 Y40.973
X86.196 Y40.995
X86.232 Y41.139
Y41.162
X86.219 Y41.182
X86.198 Y41.193
X86.174 Y41.192
X86.155 Y41.178
X86.11 Y41.125 Z-18.722 F356.
X86.107 Y40.978 Z-18.727
X86.197 Y40.872 Z-18.732
X86.336 Y40.847 Z-18.737
X86.458 Y40.918 Z-18.741
X86.506 Y41.05 Z-18.746
X86.458 Y41.182 Z-18.751
X86.336 Y41.253 Z-18.756
X86.197 Y41.228 Z-18.761
X86.11 Y41.125 Z-18.766
X86.108 Y41.006 Z-18.77
X86.107 Y40.978 F1499.
X86.197 Y40.872
X86.336 Y40.847
X86.458 Y40.918
X86.506 Y41.05
X86.458 Y41.182
X86.336 Y41.253
X86.197 Y41.228
X86.11 Y41.125
X86.108 Y41.006
X86.115 Y40.982
X86.134 Y40.965
X86.159 Y40.962
X86.183 Y40.973
X86.196 Y40.995
X86.232 Y41.139
Y41.162
X86.219 Y41.182
X86.198 Y41.193
X86.174 Y41.192
X86.155 Y41.178
X86.11 Y41.125 Z-18.772 F356.
X86.107 Y40.978 Z-18.778
X86.197 Y40.872 Z-18.782
X86.336 Y40.847 Z-18.787
X86.458 Y40.918 Z-18.792
X86.506 Y41.05 Z-18.797
X86.458 Y41.182 Z-18.802
X86.336 Y41.253 Z-18.807
X86.197 Y41.228 Z-18.812
X86.11 Y41.125 Z-18.817
X86.108 Y41.006 Z-18.821
X86.107 Y40.978 F1499.
X86.197 Y40.872
X86.336 Y40.847
X86.458 Y40.918
X86.506 Y41.05
X86.458 Y41.182
X86.336 Y41.253
X86.197 Y41.228
X86.11 Y41.125
X86.108 Y41.006
X86.115 Y40.982
X86.134 Y40.965
X86.159 Y40.962
X86.183 Y40.973
X86.196 Y40.995
X86.232 Y41.139
Y41.162
X86.219 Y41.182
X86.198 Y41.193
X86.174 Y41.192
X86.155 Y41.178
X86.11 Y41.125 Z-18.823 F356.
X86.107 Y40.978 Z-18.828
X86.197 Y40.872 Z-18.833
X86.336 Y40.847 Z-18.838
X86.458 Y40.918 Z-18.843
X86.506 Y41.05 Z-18.848
X86.458 Y41.182 Z-18.853
X86.336 Y41.253 Z-18.858
X86.197 Y41.228 Z-18.863
X86.11 Y41.125 Z-18.867
X86.108 Y41.006 Z-18.872
X86.107 Y40.978 F1499.
X86.197 Y40.872
X86.336 Y40.847
X86.458 Y40.918
X86.506 Y41.05
X86.458 Y41.182
X86.336 Y41.253
X86.197 Y41.228
X86.11 Y41.125
X86.108 Y41.006
X86.115 Y40.982
X86.134 Y40.965
X86.159 Y40.962
X86.183 Y40.973
X86.196 Y40.995
X86.232 Y41.139
Y41.162
X86.219 Y41.182
X86.198 Y41.193
X86.174 Y41.192
X86.155 Y41.178
X86.11 Y41.125 Z-18.874 F356.
X86.107 Y40.978 Z-18.879
X86.197 Y40.872 Z-18.884
X86.336 Y40.847 Z-18.889
X86.458 Y40.918 Z-18.894
X86.506 Y41.05 Z-18.899
X86.458 Y41.182 Z-18.904
X86.336 Y41.253 Z-18.909
X86.197 Y41.228 Z-18.914
X86.11 Y41.125 Z-18.918
X86.108 Y41.006 Z-18.922
X86.107 Y40.978 F1499.
X86.197 Y40.872
X86.336 Y40.847
X86.458 Y40.918
X86.506 Y41.05
X86.458 Y41.182
X86.336 Y41.253
X86.197 Y41.228
X86.11 Y41.125
X86.108 Y41.006
X86.115 Y40.982
X86.134 Y40.965
X86.159 Y40.962
X86.183 Y40.973
X86.196 Y40.995
X86.232 Y41.139
Y41.162
X86.219 Y41.182
X86.198 Y41.193
X86.174 Y41.192
X86.155 Y41.178
X86.11 Y41.125 Z-18.925 F356.
X86.107 Y40.978 Z-18.93
X86.197 Y40.872 Z-18.935
X86.336 Y40.847 Z-18.94
X86.458 Y40.918 Z-18.945
X86.506 Y41.05 Z-18.95
X86.458 Y41.182 Z-18.955
X86.336 Y41.253 Z-18.959
X86.197 Y41.228 Z-18.964
X86.11 Y41.125 Z-18.969
X86.108 Y41.006 Z-18.973
X86.107 Y40.978 F1499.
X86.197 Y40.872
X86.336 Y40.847
X86.458 Y40.918
X86.506 Y41.05
X86.458 Y41.182
X86.336 Y41.253
X86.197 Y41.228
X86.11 Y41.125
X86.108 Y41.006
X86.112 Y40.992
X86.125 Y40.982
X86.14
X86.225 Y41.007
X86.425 Y40.941
X86.445 Y40.939
X86.463 Y40.948
X86.475 Y40.964
X86.506 Y41.05 Z-18.976 F356.
X86.458 Y41.182 Z-18.981
X86.336 Y41.253 Z-18.986
X86.197 Y41.228 Z-18.991
X86.11 Y41.125 Z-18.996
X86.108 Y41.006 Z-19.
X86.107 Y40.978 F1499.
X86.197 Y40.872
X86.336 Y40.847
X86.458 Y40.918
X86.506 Y41.05
X86.458 Y41.182
X86.336 Y41.253
X86.197 Y41.228
X86.11 Y41.125
X86.108 Y41.006
X86.107 Y40.978 Z-18.995
X86.124 Y40.958 Z-18.978
X86.136 Y40.944 Z-18.952
X86.14 Y40.94 Z-18.921
G0 Z5.
X105.97 Y40.863
Z-17.368
G1 X105.975 Y40.872 Z-17.407 F356.
X105.987 Y40.897 Z-17.436
X106.001 Y40.933 Z-17.447
X106.017 Y41.008 Z-17.448
X106.018 Y41.084 Z-17.45
X106.003 Y41.159 Z-17.452
X105.973 Y41.229 Z-17.453
X105.929 Y41.292 Z-17.455
X105.874 Y41.345 Z-17.457
X105.809 Y41.385 Z-17.458
X105.737 Y41.411 Z-17.46
X105.662 Y41.422 Z-17.462
X105.586 Y41.418 Z-17.463
X105.512 Y41.398 Z-17.465
X105.444 Y41.364 Z-17.466
X105.384 Y41.316 Z-17.468
X105.335 Y41.258 Z-17.47
X105.299 Y41.191 Z-17.471
X105.277 Y41.117 Z-17.473
X105.271 Y41.041 Z-17.475
X105.281 Y40.965 Z-17.476
X105.305 Y40.893 Z-17.478
X105.344 Y40.827 Z-17.48
X105.395 Y40.771 Z-17.481
X105.457 Y40.726 Z-17.483
X105.526 Y40.694 Z-17.485
X105.601 Y40.677 Z-17.486
X105.677 Y40.676 Z-17.488
X105.752 Y40.69 Z-17.49
X105.822 Y40.719 Z-17.491
X105.886 Y40.762 Z-17.493
X105.939 Y40.817 Z-17.495
X105.98 Y40.881 Z-17.496
X106.007 Y40.953 Z-17.498
X106.019 Y41.028 Z-17.5
X106.015 Y41.104 Z-17.501
X105.996 Y41.178 Z-17.503
X105.962 Y41.247 Z-17.505
X105.916 Y41.307 Z-17.506
X105.857 Y41.357 Z-17.508
X105.79 Y41.393 Z-17.509
X105.717 Y41.416 Z-17.511
X105.641 Y41.423 Z-17.513
X105.566 Y41.414 Z-17.514
X105.493 Y41.39 Z-17.516
X105.427 Y41.352 Z-17.518
X105.37 Y41.302 Z-17.519
X105.324 Y41.241 Z-17.521
X105.292 Y41.171 Z-17.523
X105.274 Y41.097 Z-17.524
X105.272 Y41.021 Z-17.526
X105.286 Y40.946 Z-17.528
X105.314 Y40.875 Z-17.529
X105.356 Y40.811 Z-17.531
X105.411 Y40.757 Z-17.533
X105.475 Y40.716 Z-17.534
X105.546 Y40.688 Z-17.536
X105.621 Y40.675 Z-17.538
X105.697 Y40.678 Z-17.539
X105.771 Y40.697 Z-17.541
X105.84 Y40.73 Z-17.543
X105.901 Y40.776 Z-17.544
X105.951 Y40.833 Z-17.546
X105.988 Y40.9 Z-17.547
X106.011 Y40.973 Z-17.549
X106.019 Y41.049 Z-17.551
G3 X105.801 Y41.267 R0.218 F1499.
X105.582 Y41.049 R0.218
X105.801 Y40.83 R0.218
X106.019 Y41.049 R0.218
G2 X106.144 Y41.33 R0.378
G3 X106.212 Y41.484 R0.205
X106.141 Y41.637 R0.205
G1 X106.083 Y41.688
X105.709 Y41.741
X105.345 Y41.579
X105.34 Y41.573
X105.135 Y41.254
X105.133 Y40.85
X105.143 Y40.833
X105.344 Y40.52
X105.702 Y40.358
X106.084 Y40.413
X106.38 Y40.665
X106.446 Y40.876
X106.497 Y41.05
X106.388 Y41.422
X106.141 Y41.637
X106.108 Y41.656
X106.07 Y41.661
X106.033 Y41.652
X105.351 Y41.327
X105.32 Y41.304
X105.274 Y41.243 Z-17.553 F356.
X105.242 Y41.174 Z-17.556
X105.224 Y41.1 Z-17.559
X105.222 Y41.024 Z-17.561
X105.235 Y40.948 Z-17.564
X105.263 Y40.877 Z-17.567
X105.305 Y40.813 Z-17.57
X105.359 Y40.759 Z-17.572
X105.423 Y40.718 Z-17.575
X105.494 Y40.69 Z-17.578
X105.57 Y40.677 Z-17.58
X105.646 Y40.68 Z-17.583
X105.72 Y40.698 Z-17.586
X105.789 Y40.731 Z-17.588
X105.85 Y40.777 Z-17.591
X105.9 Y40.835 Z-17.594
X105.938 Y40.901 Z-17.596
X105.961 Y40.974 Z-17.599
X105.969 Y41.05 Z-17.602
G3 X105.801 Y41.218 R0.168 F1499.
X105.633 Y41.05 R0.168
X105.801 Y40.882 R0.168
X105.969 Y41.05 R0.168
G2 X106.087 Y41.328 R0.385
G3 X106.15 Y41.481 R0.205
X106.08 Y41.63 R0.205
G1 X106.067 Y41.641
X105.71 Y41.689
X105.382 Y41.543
X105.374 Y41.534
X105.184 Y41.239
Y40.861
X105.356 Y40.594
X105.383 Y40.556
X105.71 Y40.411
X106.06 Y40.458
X106.156 Y40.535
X106.339 Y40.695
X106.444 Y41.05
X106.338 Y41.406
X106.08 Y41.63
X106.069 Y41.635
X106.058 Y41.631
X106.051 Y41.622
X106.024 Y41.538
X105.847 Y41.085
X105.845 Y40.824
X105.852 Y40.802
X105.87 Y40.787
X105.893 Y40.786
X105.913 Y40.797
X105.959 Y40.858 Z-17.604 F356.
X105.992 Y40.927 Z-17.607
X106.01 Y41.002 Z-17.61
X106.012 Y41.078 Z-17.612
X105.999 Y41.153 Z-17.615
X105.971 Y41.224 Z-17.618
X105.929 Y41.288 Z-17.62
X105.875 Y41.342 Z-17.623
X105.811 Y41.384 Z-17.626
X105.74 Y41.412 Z-17.628
X105.664 Y41.425 Z-17.631
X105.588 Y41.422 Z-17.634
X105.514 Y41.404 Z-17.636
X105.445 Y41.371 Z-17.639
X105.384 Y41.325 Z-17.642
X105.334 Y41.267 Z-17.644
X105.296 Y41.2 Z-17.647
X105.273 Y41.128 Z-17.65
X105.265 Y41.052 Z-17.652
G3 X105.591 Y40.726 R0.326
X105.916 Y41.052 R0.326
X105.801 Y41.167 R0.116 F1499.
X105.685 Y41.052 R0.116
X105.801 Y40.936 R0.116
X105.916 Y41.052 R0.116
G2 X106.007 Y41.34 R0.505
G3 X105.963 Y41.586 R0.177
X105.885 Y41.617 R0.177
G1 X105.718 Y41.639
X105.692 Y41.633
X105.42 Y41.505
X105.356 Y41.416
X105.236 Y41.223
Y40.875
X105.357 Y40.683
X105.419 Y40.592
X105.708 Y40.462
X105.732 Y40.459
X106.049 Y40.509
X106.056 Y40.513
X106.287 Y40.714
X106.391 Y41.051
X106.29 Y41.383
X106.039 Y41.596
X105.885 Y41.617
X105.863 Y41.613
X105.846 Y41.597
X105.841 Y41.575
X105.89 Y40.845
X105.905 Y40.806
X105.919 Y40.79
X105.94 Y40.786
X105.96 Y40.796
X106.006 Y40.857 Z-17.655 F356.
X106.038 Y40.926 Z-17.658
X106.056 Y41. Z-17.66
X106.058 Y41.077 Z-17.663
X106.045 Y41.152 Z-17.666
X106.017 Y41.223 Z-17.668
X105.975 Y41.287 Z-17.671
X105.921 Y41.341 Z-17.674
X105.857 Y41.383 Z-17.676
X105.786 Y41.411 Z-17.679
X105.71 Y41.424 Z-17.682
X105.634 Y41.421 Z-17.684
X105.56 Y41.403 Z-17.687
X105.491 Y41.37 Z-17.69
X105.43 Y41.324 Z-17.693
X105.38 Y41.266 Z-17.695
X105.342 Y41.199 Z-17.698
X105.319 Y41.126 Z-17.701
X105.311 Y41.05 Z-17.703
G3 X105.588 Y40.773 R0.277
X105.865 Y41.05 R0.277
X105.802 Y41.114 R0.063 F1499.
X105.739 Y41.05 R0.063
X105.802 Y40.987 R0.063
X105.865 Y41.05 R0.063
G2 X105.992 Y41.296 R0.3
G3 X106.027 Y41.502 R0.148
X105.925 Y41.564 R0.148
G1 X105.741 Y41.587
X105.686 Y41.577
X105.47 Y41.478
X105.407 Y41.402
X105.288 Y41.218
X105.291 Y40.877
X105.358 Y40.774
X105.431 Y40.663
X105.465 Y40.624
X105.684 Y40.524
X105.763 Y40.512
X105.992 Y40.544
X106.079 Y40.598
X106.241 Y40.74
X106.339 Y41.051
X106.242 Y41.358
X106.051 Y41.524
X105.998 Y41.554
X105.925 Y41.564
X105.894 Y41.563
X105.865 Y41.552
X105.841 Y41.534
X105.612 Y41.297
X105.566 Y41.236 Z-17.706 F356.
X105.533 Y41.167 Z-17.709
X105.515 Y41.093 Z-17.711
X105.513 Y41.016 Z-17.714
X105.526 Y40.941 Z-17.717
X105.554 Y40.87 Z-17.719
X105.597 Y40.806 Z-17.722
X105.651 Y40.752 Z-17.725
X105.715 Y40.71 Z-17.727
X105.786 Y40.682 Z-17.73
X105.861 Y40.67 Z-17.733
X105.938 Y40.672 Z-17.735
X106.012 Y40.69 Z-17.738
X106.081 Y40.723 Z-17.741
X106.142 Y40.77 Z-17.743
X106.192 Y40.827 Z-17.746
X106.229 Y40.894 Z-17.749
X106.252 Y40.967 Z-17.751
X106.26 Y41.043 Z-17.754
G3 X105.956 Y41.347 R0.304
X105.652 Y41.043 R0.304
G1 Y41.034 F1499.
G3 X105.801 Y40.885 R0.149
X105.944 Y40.992 R0.149
G1 X105.947 Y41.001
X105.953 Y41.045
X105.945 Y41.088
X105.943 Y41.097
G3 X105.755 Y41.193 R0.149
X105.652 Y41.051 R0.149
G1 Y41.043
X105.646 Y40.985
X105.63 Y40.93
X105.602 Y40.879
X105.566 Y40.835
X105.54 Y40.799
X105.527 Y40.757
X105.528 Y40.714
X105.543 Y40.672
X105.57 Y40.638
X105.607 Y40.614
X105.681 Y40.581
X105.797 Y40.565
X105.959 Y40.588
X106.077 Y40.661
X106.197 Y40.769
X106.237 Y40.879
X106.286 Y41.049
X106.195 Y41.331
X106.053 Y41.459
X105.963 Y41.511
X105.77 Y41.535
X105.659 Y41.512
X105.512 Y41.445
X105.433 Y41.352
X105.34 Y41.207
Y40.898
X105.36 Y40.861
X105.454 Y40.722
X105.513 Y40.656
X105.607 Y40.614
X105.629 Y40.611
X105.649 Y40.62
X105.661 Y40.639
X105.765 Y40.996
X105.893 Y41.343
X105.894 Y41.366
X105.882 Y41.386
X105.86 Y41.395
X105.784 Y41.396 Z-17.757 F356.
X105.709 Y41.38 Z-17.759
X105.639 Y41.35 Z-17.762
X105.576 Y41.306 Z-17.765
X105.524 Y41.25 Z-17.767
X105.484 Y41.185 Z-17.77
X105.458 Y41.113 Z-17.773
X105.447 Y41.037 Z-17.775
X105.452 Y40.961 Z-17.778
X105.473 Y40.887 Z-17.781
X105.508 Y40.819 Z-17.783
X105.556 Y40.76 Z-17.786
X105.615 Y40.711 Z-17.789
X105.682 Y40.676 Z-17.791
X105.756 Y40.655 Z-17.794
X105.832 Y40.65 Z-17.797
X105.908 Y40.66 Z-17.799
X105.98 Y40.685 Z-17.802
X106.046 Y40.724 Z-17.805
G3 X106.097 Y41.087 R0.259
X105.734 Y41.139 R0.259
X105.712 Y40.983 R0.112 F1499.
X105.868 Y40.96 R0.112
X105.891 Y41.117 R0.112
X105.734 Y41.139 R0.112
G1 X105.691 Y41.113
X105.643 Y41.096
X105.593 Y41.09
X105.543 Y41.094
X105.498
X105.456 Y41.079
X105.422 Y41.05
X105.399 Y41.011
X105.392 Y40.967
Y40.906
X105.481 Y40.775
X105.552 Y40.69
X105.657 Y40.642
X105.818 Y40.616
X105.913 Y40.63
X106.077 Y40.725
X106.142 Y40.781
X106.151 Y40.8
X106.233 Y41.051
X106.145 Y41.316
X106.052 Y41.395
X105.918 Y41.468
X105.795 Y41.482
X105.658 Y41.458
X105.559 Y41.413
X105.44 Y41.271
X105.391 Y41.195
X105.392 Y40.967
X105.398 Y40.947
X105.414 Y40.933
X105.435 Y40.931
X105.454 Y40.94
X105.553 Y41.033
X105.575 Y41.225
X105.572 Y41.245
X105.558 Y41.261
X105.539 Y41.267
X105.519 Y41.263
X105.503 Y41.25
X105.469 Y41.186 Z-17.807 F356.
X105.449 Y41.116 Z-17.81
X105.443 Y41.044 Z-17.812
X105.452 Y40.972 Z-17.815
X105.475 Y40.903 Z-17.818
X105.512 Y40.84 Z-17.82
X105.56 Y40.786 Z-17.823
X105.619 Y40.743 Z-17.825
X105.685 Y40.713 Z-17.828
X105.755 Y40.696 Z-17.83
X105.828 Y40.694 Z-17.833
X105.9 Y40.707 Z-17.835
X105.967 Y40.734 Z-17.838
X106.028 Y40.774 Z-17.84
X106.079 Y40.825 Z-17.843
X106.119 Y40.886 Z-17.845
X106.146 Y40.953 Z-17.848
X106.158 Y41.025 Z-17.851
X106.156 Y41.097 Z-17.853
X106.139 Y41.168 Z-17.856
X106.098 Y41.289 F1499.
X106.059 Y41.325
X105.89 Y41.424
X105.825 Y41.43
X105.637 Y41.395
X105.595 Y41.375
X105.446 Y41.19
X105.443 Y41.138
Y40.916
X105.49 Y40.849
X105.557 Y40.77
X105.602 Y40.722
X105.657 Y40.699
X105.845 Y40.668
X105.885 Y40.674
X106.076 Y40.789
X106.096 Y40.806
X106.18 Y41.052
X106.139 Y41.168
X106.129 Y41.184
X106.111 Y41.194
X106.092 Y41.193
X106.075 Y41.183
X105.896 Y41.007
X105.759 Y40.806
X105.752 Y40.787
X105.756 Y40.766
X105.77 Y40.751
X105.79 Y40.745
X105.859 Y40.75 Z-17.858 F356.
X105.925 Y40.771 Z-17.86
X105.984 Y40.805 Z-17.863
X106.035 Y40.853 Z-17.865
X106.073 Y40.91 Z-17.868
X106.098 Y40.975 Z-17.87
X106.107 Y41.043 Z-17.873
X106.101 Y41.112 Z-17.875
X106.08 Y41.178 Z-17.877
X106.044 Y41.237 Z-17.88
X105.996 Y41.287 Z-17.882
X105.938 Y41.325 Z-17.885
X105.874 Y41.348 Z-17.887
X105.805 Y41.357 Z-17.889
X105.736 Y41.35 Z-17.892
X105.671 Y41.328 Z-17.894
X105.612 Y41.292 Z-17.897
X105.563 Y41.243 Z-17.899
X105.526 Y41.185 Z-17.902
X105.503 Y41.119 Z-17.904
X105.495 Y41.051 Z-17.906
Y40.93 F1499.
X105.637 Y40.76
X105.857 Y40.723
X106.051 Y40.839
X106.126 Y41.051
X106.05 Y41.265
X106.043 Y41.271
X105.86 Y41.377
X105.638 Y41.337
X105.495 Y41.165
Y41.051
X105.499 Y41.038
X105.51 Y41.03
X105.6 Y41.
X105.585 Y40.915
X105.624 Y40.866 Z-17.909 F356.
X105.675 Y40.828 Z-17.911
X105.733 Y40.804 Z-17.913
X105.795 Y40.795 Z-17.915
X105.858 Y40.801 Z-17.917
X105.917 Y40.823 Z-17.92
X105.969 Y40.859 Z-17.922
X106.011 Y40.906 Z-17.924
X106.039 Y40.962 Z-17.926
X106.053 Y41.024 Z-17.928
X106.052 Y41.087 Z-17.931
X106.034 Y41.148 Z-17.933
X106.003 Y41.202 Z-17.935
X105.958 Y41.247 Z-17.937
X105.905 Y41.28 Z-17.94
X105.844 Y41.299 Z-17.942
X105.781 Y41.302 Z-17.944
X105.719 Y41.289 Z-17.946
X105.663 Y41.262 Z-17.948
X105.614 Y41.221 Z-17.951
X105.578 Y41.17 Z-17.953
X105.555 Y41.111 Z-17.955
X105.547 Y41.049 Z-17.957
Y40.954 F1499.
X105.664 Y40.813
X105.85 Y40.782
X106.007 Y40.873
X106.071 Y41.05
X106.009 Y41.221
X105.841 Y41.318
X105.668 Y41.288
X105.547 Y41.147
Y41.137
Y41.049
X105.591
X105.599 Y40.994 Z-17.959 F356.
X105.621 Y40.942 Z-17.961
X105.655 Y40.899 Z-17.963
X105.701 Y40.866 Z-17.965
X105.753 Y40.846 Z-17.967
X105.808 Y40.841 Z-17.969
X105.863 Y40.851 Z-17.971
X105.914 Y40.875 Z-17.973
X105.956 Y40.912 Z-17.975
X105.987 Y40.959 Z-17.977
X106.004 Y41.012 Z-17.979
X106.007 Y41.067 Z-17.981
X105.995 Y41.122 Z-17.983
X105.969 Y41.171 Z-17.985
X105.93 Y41.212 Z-17.987
X105.883 Y41.241 Z-17.988
X105.829 Y41.256 Z-17.99
X105.773 Z-17.992
X105.719 Y41.242 Z-17.994
X105.671 Y41.214 Z-17.996
X105.632 Y41.174 Z-17.998
X105.605 Y41.125 Z-18.
X105.592 Y41.071 Z-18.002
X105.594 Y41.015 Z-18.004
X105.61 Y40.962 Z-18.006
X105.64 Y40.915 Z-18.008
X105.69 Y40.856 F1499.
X105.835 Y40.831
X105.971 Y40.907
X106.023 Y41.05
X105.971 Y41.194
X105.839 Y41.269
X105.686 Y41.24
X105.59 Y41.124
Y40.974
X105.64 Y40.915
X105.719 Y40.921
X105.749 Y40.849
X105.804 Y40.843 Z-18.01 F356.
X105.859 Y40.852 Z-18.012
X105.91 Y40.875 Z-18.014
X105.953 Y40.911 Z-18.016
X105.984 Y40.957 Z-18.018
X106.002 Y41.01 Z-18.02
X106.006 Y41.066 Z-18.022
X105.994 Y41.12 Z-18.024
X105.968 Y41.169 Z-18.026
X105.93 Y41.21 Z-18.028
X105.882 Y41.239 Z-18.029
X105.828 Y41.254 Z-18.031
X105.772 Z-18.033
X105.719 Y41.239 Z-18.035
X105.671 Y41.211 Z-18.037
X105.632 Y41.17 Z-18.039
X105.606 Y41.121 Z-18.041
X105.594 Y41.067 Z-18.043
X105.597 Y41.011 Z-18.045
X105.614 Y40.958 Z-18.047
X105.646 Y40.912 Z-18.049
X105.688 Y40.876 Z-18.051
X105.739 Y40.852 Z-18.053
X105.794 Y40.843 Z-18.055
X105.849 Y40.849 Z-18.057
X105.901 Y40.87 Z-18.059
X105.97 Y40.909 F1499.
X106.021 Y41.05
X105.97 Y41.192
X105.839 Y41.268
X105.687 Y41.238
X105.592 Y41.122
Y40.975
X105.691 Y40.858
X105.835 Y40.833
X105.901 Y40.87
X105.911 Y40.883
X105.908 Y40.899
X105.894 Y40.907
X105.811 Y40.917
X105.732 Y40.894
X105.72 Y40.883
X105.719 Y40.867
X105.731 Y40.856
X105.786 Y40.845 Z-18.061 F356.
X105.842 Y40.849 Z-18.063
X105.894 Y40.868 Z-18.065
X105.939 Y40.9 Z-18.067
X105.974 Y40.944 Z-18.069
X105.996 Y40.995 Z-18.071
X106.003 Y41.051 Z-18.072
X105.994 Y41.106 Z-18.074
X105.972 Y41.156 Z-18.076
X105.936 Y41.199 Z-18.078
X105.89 Y41.231 Z-18.08
X105.837 Y41.248 Z-18.082
X105.781 Y41.251 Z-18.084
X105.727 Y41.239 Z-18.086
X105.678 Y41.212 Z-18.088
X105.638 Y41.173 Z-18.09
X105.61 Y41.125 Z-18.092
X105.596 Y41.07 Z-18.094
X105.598 Y41.015 Z-18.096
X105.614 Y40.961 Z-18.098
X105.645 Y40.915 Z-18.1
X105.687 Y40.878 Z-18.102
X105.737 Y40.854 Z-18.104
X105.792 Y40.844 Z-18.106
X105.847 Y40.85 Z-18.108
X105.899 Y40.87 Z-18.11
X105.969 Y40.91 F1499.
X106.02 Y41.05
X105.968 Y41.191
X105.844 Y41.263
X105.687 Y41.235
X105.594 Y41.12
Y40.975
X105.691 Y40.86
X105.835 Y40.834
X105.899 Y40.87
X105.957 Y40.976
X106. Y41.085
X105.983 Y41.138 Z-18.112 F356.
X105.952 Y41.185 Z-18.114
X105.909 Y41.221 Z-18.115
X105.858 Y41.244 Z-18.117
X105.803 Y41.252 Z-18.119
X105.748 Y41.245 Z-18.121
X105.697 Y41.224 Z-18.123
X105.653 Y41.189 Z-18.125
X105.621 Y41.143 Z-18.127
X105.602 Y41.091 Z-18.129
X105.598 Y41.035 Z-18.131
X105.61 Y40.981 Z-18.133
X105.636 Y40.931 Z-18.135
X105.674 Y40.891 Z-18.137
X105.722 Y40.862 Z-18.139
X105.776 Y40.848 Z-18.141
X105.832 Y40.849 Z-18.143
X105.885 Y40.865 Z-18.145
X105.932 Y40.895 Z-18.147
X105.969 Y40.937 Z-18.149
X105.993 Y40.987 Z-18.151
X106.003 Y41.042 Z-18.153
X105.998 Y41.097 Z-18.155
X105.977 Y41.149 Z-18.156
X105.943 Y41.194 Z-18.158
X105.899 Y41.227 Z-18.16
X105.834 Y41.263 F1499.
X105.689 Y41.235
X105.595 Y41.118
Y40.976
X105.692 Y40.861
X105.835 Y40.836
X105.967 Y40.911
X106.018 Y41.05
X105.967 Y41.189
X105.899 Y41.227
X105.879 Y41.231
X105.861 Y41.223
X105.85 Y41.207
X105.804 Y41.048
X105.703 Y40.917
X105.696 Y40.898
X105.701 Y40.878
X105.716 Y40.865
X105.77 Y40.85 Z-18.162 F356.
X105.826 Y40.849 Z-18.164
X105.879 Y40.864 Z-18.166
X105.927 Y40.893 Z-18.168
X105.965 Y40.934 Z-18.17
X105.99 Y40.984 Z-18.172
X106. Y41.039 Z-18.174
X105.995 Y41.094 Z-18.176
X105.975 Y41.146 Z-18.178
X105.942 Y41.191 Z-18.18
X105.897 Y41.225 Z-18.182
X105.845 Y41.245 Z-18.184
X105.79 Y41.25 Z-18.186
X105.735 Y41.24 Z-18.188
X105.685 Y41.215 Z-18.19
X105.644 Y41.177 Z-18.192
X105.615 Y41.13 Z-18.194
X105.6 Y41.076 Z-18.196
Y41.02 Z-18.198
X105.615 Y40.967 Z-18.199
X105.645 Y40.92 Z-18.201
X105.686 Y40.882 Z-18.203
X105.736 Y40.857 Z-18.205
X105.791 Y40.848 Z-18.207
X105.846 Y40.853 Z-18.209
X105.898 Y40.873 Z-18.211
X105.966 Y40.912 F1499.
X106.016 Y41.05
X105.966 Y41.188
X105.837 Y41.261
X105.688 Y41.232
X105.597 Y41.124
Y40.976
X105.692 Y40.863
X105.835 Y40.838
X105.898 Y40.873
X105.908 Y40.887
X105.906 Y40.904
X105.891 Y40.913
X105.804 Y40.927
X105.717 Y40.909
X105.704 Y40.899
X105.702 Y40.882
X105.713 Y40.869
X105.766 Y40.852 Z-18.213 F356.
X105.822 Y40.85 Z-18.215
X105.876 Y40.864 Z-18.217
X105.924 Y40.892 Z-18.219
X105.962 Y40.933 Z-18.221
X105.988 Y40.982 Z-18.223
X106. Y41.037 Z-18.225
X105.996 Y41.092 Z-18.227
X105.976 Y41.145 Z-18.229
X105.944 Y41.19 Z-18.231
X105.9 Y41.224 Z-18.233
X105.848 Y41.245 Z-18.235
X105.792 Y41.251 Z-18.237
X105.737 Y41.241 Z-18.239
X105.687 Y41.217 Z-18.241
X105.646 Y41.179 Z-18.242
X105.616 Y41.132 Z-18.244
X105.601 Y41.079 Z-18.246
X105.6 Y41.023 Z-18.248
X105.616 Y40.969 Z-18.25
X105.645 Y40.922 Z-18.252
X105.686 Y40.884 Z-18.254
X105.736 Y40.859 Z-18.256
X105.791 Y40.849 Z-18.258
X105.847 Y40.855 Z-18.26
X105.898 Y40.875 Z-18.262
X105.964 Y40.913 F1499.
X106.014 Y41.05
X105.964 Y41.187
X105.835 Y41.261
X105.693 Y41.236
X105.599 Y41.123
Y40.977
X105.693 Y40.864
X105.835 Y40.839
X105.898 Y40.875
X105.908 Y40.885
X105.91 Y40.899
X105.897 Y40.995
X105.984 Y41.035
X105.995 Y41.044
X105.999 Y41.057
X105.989 Y41.112 Z-18.264 F356.
X105.964 Y41.162 Z-18.266
X105.927 Y41.203 Z-18.268
X105.879 Y41.232 Z-18.27
X105.826 Y41.247 Z-18.272
X105.77 Z-18.274
X105.716 Y41.231 Z-18.276
X105.669 Y41.201 Z-18.278
X105.633 Y41.159 Z-18.28
X105.609 Y41.109 Z-18.282
X105.6 Y41.053 Z-18.283
X105.607 Y40.998 Z-18.285
X105.629 Y40.947 Z-18.287
X105.664 Y40.904 Z-18.289
X105.71 Y40.872 Z-18.291
X105.763 Y40.854 Z-18.293
X105.819 Y40.852 Z-18.295
X105.873 Y40.865 Z-18.297
X105.921 Y40.893 Z-18.299
X105.96 Y40.933 Z-18.301
X105.987 Y40.982 Z-18.303
X105.998 Y41.036 Z-18.305
X105.994 Y41.092 Z-18.307
X105.975 Y41.144 Z-18.309
X105.942 Y41.189 Z-18.311
X105.898 Y41.223 Z-18.313
X105.835 Y41.259 F1499.
X105.694 Y41.234
X105.601 Y41.124
X105.6 Y41.111
Y40.977
X105.694 Y40.866
X105.835 Y40.841
X105.963 Y40.914
X106.013 Y41.05
X105.963 Y41.186
X105.898 Y41.223
X105.879 Y41.227
X105.863 Y41.218
X105.775 Y41.126
X105.662 Y41.164
X105.645 Y41.165
X105.63 Y41.156
X105.606 Y41.128 Z-18.314 F356.
Y40.972 Z-18.319
X105.694 Y40.868 Z-18.324
X105.835 Y40.843 Z-18.329
X105.962 Y40.915 Z-18.334
X106.011 Y41.05 Z-18.339
X105.962 Y41.185 Z-18.344
X105.835 Y41.257 Z-18.349
X105.695 Y41.233 Z-18.354
X105.606 Y41.128 Z-18.359
Y41.003 Z-18.364
Y40.972 F1499.
X105.694 Y40.868
X105.835 Y40.843
X105.962 Y40.915
X106.011 Y41.05
X105.962 Y41.185
X105.835 Y41.257
X105.695 Y41.233
X105.606 Y41.128
Y41.003
X105.689 Y40.92
X105.784 Y40.854
X105.835 Y40.845 Z-18.365 F356.
X105.96 Y40.916 Z-18.37
X106.009 Y41.05 Z-18.375
X105.96 Y41.184 Z-18.38
X105.835 Y41.256 Z-18.385
X105.695 Y41.231 Z-18.39
X105.606 Y41.125 Z-18.395
Y40.975 Z-18.4
X105.695 Y40.87 Z-18.405
X105.835 Y40.845 Z-18.41
X105.939 Y40.904 Z-18.414
X105.96 Y40.916 F1499.
X106.009 Y41.05
X105.96 Y41.184
X105.835 Y41.256
X105.695 Y41.231
X105.606 Y41.125
Y40.975
X105.695 Y40.87
X105.835 Y40.845
X105.939 Y40.904
X105.942 Y40.939
X105.778 Y40.936
X105.756 Y40.928
X105.743 Y40.91
X105.742 Y40.887
X105.753 Y40.868
X105.773 Y40.857
X105.835 Y40.846 Z-18.417 F356.
X105.959 Y40.917 Z-18.422
X106.007 Y41.05 Z-18.427
X105.959 Y41.183 Z-18.431
X105.835 Y41.254 Z-18.436
X105.696 Y41.229 Z-18.441
X105.606 Y41.122 Z-18.446
Y40.978 Z-18.451
X105.696 Y40.871 Z-18.456
X105.835 Y40.846 Z-18.461
X105.938 Y40.905 Z-18.465
X105.959 Y40.917 F1499.
X106.007 Y41.05
X105.959 Y41.183
X105.835 Y41.254
X105.696 Y41.229
X105.606 Y41.122
Y40.978
X105.696 Y40.871
X105.835 Y40.846
X105.938 Y40.905
X105.948 Y40.917
X105.947 Y40.933
X105.937 Y40.944
X105.921 Y40.946
X105.933 Y40.94
X105.71 Y41.176
X105.692 Y41.187
X105.67 Y41.186
X105.651 Y41.174
X105.606 Y41.121 Z-18.468 F356.
Y40.979 Z-18.473
X105.696 Y40.873 Z-18.477
X105.835 Y40.848 Z-18.482
X105.958 Y40.918 Z-18.487
X106.006 Y41.05 Z-18.492
X105.958 Y41.182 Z-18.497
X105.834 Y41.253 Z-18.502
X105.697 Y41.228 Z-18.507
X105.606 Y41.121 Z-18.512
Y41.003 Z-18.516
Y40.979 F1499.
X105.696 Y40.873
X105.835 Y40.848
X105.958 Y40.918
X106.006 Y41.05
X105.958 Y41.182
X105.834 Y41.253
X105.697 Y41.228
X105.606 Y41.121
Y41.003
X105.611 Y40.989
X105.623 Y40.982
X105.637 Y40.983
X105.648 Y40.993
X105.687 Y41.067
X105.69 Y41.159
X105.684 Y41.176
X105.667 Y41.182
X105.651 Y41.174
X105.606 Y41.121 Z-18.518 F356.
Y40.979 Z-18.523
X105.696 Y40.873 Z-18.528
X105.835 Y40.848 Z-18.533
X105.958 Y40.918 Z-18.538
X106.006 Y41.05 Z-18.543
X105.958 Y41.182 Z-18.548
X105.834 Y41.253 Z-18.553
X105.697 Y41.228 Z-18.558
X105.606 Y41.121 Z-18.563
Y41.003 Z-18.567
Y40.979 F1499.
X105.696 Y40.873
X105.835 Y40.848
X105.958 Y40.918
X106.006 Y41.05
X105.958 Y41.182
X105.834 Y41.253
X105.697 Y41.228
X105.606 Y41.121
Y41.003
X105.611 Y40.989
X105.623 Y40.982
X105.637 Y40.983
X105.648 Y40.993
X105.687 Y41.067
X105.69 Y41.159
X105.684 Y41.176
X105.667 Y41.182
X105.651 Y41.174
X105.606 Y41.121 Z-18.569 F356.
Y40.979 Z-18.574
X105.696 Y40.873 Z-18.579
X105.835 Y40.848 Z-18.584
X105.958 Y40.918 Z-18.589
X106.006 Y41.05 Z-18.594
X105.958 Y41.182 Z-18.599
X105.834 Y41.253 Z-18.604
X105.697 Y41.228 Z-18.609
X105.606 Y41.121 Z-18.613
Y41.003 Z-18.618
Y40.979 F1499.
X105.696 Y40.873
X105.835 Y40.848
X105.958 Y40.918
X106.006 Y41.05
X105.958 Y41.182
X105.834 Y41.253
X105.697 Y41.228
X105.606 Y41.121
Y41.003
X105.611 Y40.989
X105.623 Y40.982
X105.637 Y40.983
X105.648 Y40.993
X105.687 Y41.067
X105.69 Y41.159
X105.684 Y41.176
X105.667 Y41.182
X105.651 Y41.174
X105.606 Y41.121 Z-18.62 F356.
Y40.979 Z-18.625
X105.696 Y40.873 Z-18.63
X105.835 Y40.848 Z-18.635
X105.958 Y40.918 Z-18.64
X106.006 Y41.05 Z-18.645
X105.958 Y41.182 Z-18.65
X105.834 Y41.253 Z-18.655
X105.697 Y41.228 Z-18.659
X105.606 Y41.121 Z-18.664
Y41.003 Z-18.668
Y40.979 F1499.
X105.696 Y40.873
X105.835 Y40.848
X105.958 Y40.918
X106.006 Y41.05
X105.958 Y41.182
X105.834 Y41.253
X105.697 Y41.228
X105.606 Y41.121
Y41.003
X105.611 Y40.989
X105.623 Y40.982
X105.637 Y40.983
X105.648 Y40.993
X105.687 Y41.067
X105.69 Y41.159
X105.684 Y41.176
X105.667 Y41.182
X105.651 Y41.174
X105.606 Y41.121 Z-18.671 F356.
Y40.979 Z-18.676
X105.696 Y40.873 Z-18.681
X105.835 Y40.848 Z-18.686
X105.958 Y40.918 Z-18.691
X106.006 Y41.05 Z-18.695
X105.958 Y41.182 Z-18.7
X105.834 Y41.253 Z-18.705
X105.697 Y41.228 Z-18.71
X105.606 Y41.121 Z-18.715
Y41.003 Z-18.719
Y40.979 F1499.
X105.696 Y40.873
X105.835 Y40.848
X105.958 Y40.918
X106.006 Y41.05
X105.958 Y41.182
X105.834 Y41.253
X105.697 Y41.228
X105.606 Y41.121
Y41.003
X105.611 Y40.989
X105.623 Y40.982
X105.637 Y40.983
X105.648 Y40.993
X105.687 Y41.067
X105.69 Y41.159
X105.684 Y41.176
X105.667 Y41.182
X105.651 Y41.174
X105.606 Y41.121 Z-18.722 F356.
Y40.979 Z-18.727
X105.696 Y40.873 Z-18.731
X105.835 Y40.848 Z-18.736
X105.958 Y40.918 Z-18.741
X106.006 Y41.05 Z-18.746
X105.958 Y41.182 Z-18.751
X105.834 Y41.253 Z-18.756
X105.697 Y41.228 Z-18.761
X105.606 Y41.121 Z-18.766
Y41.003 Z-18.77
Y40.979 F1499.
X105.696 Y40.873
X105.835 Y40.848
X105.958 Y40.918
X106.006 Y41.05
X105.958 Y41.182
X105.834 Y41.253
X105.697 Y41.228
X105.606 Y41.121
Y41.003
X105.611 Y40.989
X105.623 Y40.982
X105.637 Y40.983
X105.648 Y40.993
X105.687 Y41.067
X105.69 Y41.159
X105.684 Y41.176
X105.667 Y41.182
X105.651 Y41.174
X105.606 Y41.121 Z-18.772 F356.
Y40.979 Z-18.777
X105.696 Y40.873 Z-18.782
X105.835 Y40.848 Z-18.787
X105.958 Y40.918 Z-18.792
X106.006 Y41.05 Z-18.797
X105.958 Y41.182 Z-18.802
X105.834 Y41.253 Z-18.807
X105.697 Y41.228 Z-18.812
X105.606 Y41.121 Z-18.817
Y41.003 Z-18.821
Y40.979 F1499.
X105.696 Y40.873
X105.835 Y40.848
X105.958 Y40.918
X106.006 Y41.05
X105.958 Y41.182
X105.834 Y41.253
X105.697 Y41.228
X105.606 Y41.121
Y41.003
X105.611 Y40.989
X105.623 Y40.982
X105.637 Y40.983
X105.648 Y40.993
X105.687 Y41.067
X105.69 Y41.159
X105.684 Y41.176
X105.667 Y41.182
X105.651 Y41.174
X105.606 Y41.121 Z-18.823 F356.
Y40.979 Z-18.828
X105.696 Y40.873 Z-18.833
X105.835 Y40.848 Z-18.838
X105.958 Y40.918 Z-18.843
X106.006 Y41.05 Z-18.848
X105.958 Y41.182 Z-18.853
X105.834 Y41.253 Z-18.858
X105.697 Y41.228 Z-18.863
X105.606 Y41.121 Z-18.867
Y41.003 Z-18.872
Y40.979 F1499.
X105.696 Y40.873
X105.835 Y40.848
X105.958 Y40.918
X106.006 Y41.05
X105.958 Y41.182
X105.834 Y41.253
X105.697 Y41.228
X105.606 Y41.121
Y41.003
X105.611 Y40.989
X105.623 Y40.982
X105.637 Y40.983
X105.648 Y40.993
X105.687 Y41.067
X105.69 Y41.159
X105.684 Y41.176
X105.667 Y41.182
X105.651 Y41.174
X105.606 Y41.121 Z-18.874 F356.
Y40.979 Z-18.879
X105.696 Y40.873 Z-18.884
X105.835 Y40.848 Z-18.889
X105.958 Y40.918 Z-18.894
X106.006 Y41.05 Z-18.899
X105.958 Y41.182 Z-18.904
X105.834 Y41.253 Z-18.909
X105.697 Y41.228 Z-18.913
X105.606 Y41.121 Z-18.918
Y41.003 Z-18.922
Y40.979 F1499.
X105.696 Y40.873
X105.835 Y40.848
X105.958 Y40.918
X106.006 Y41.05
X105.958 Y41.182
X105.834 Y41.253
X105.697 Y41.228
X105.606 Y41.121
Y41.003
X105.611 Y40.989
X105.623 Y40.982
X105.637 Y40.983
X105.648 Y40.993
X105.687 Y41.067
X105.69 Y41.159
X105.684 Y41.176
X105.667 Y41.182
X105.651 Y41.174
X105.606 Y41.121 Z-18.925 F356.
Y40.979 Z-18.93
X105.696 Y40.873 Z-18.935
X105.835 Y40.848 Z-18.94
X105.958 Y40.918 Z-18.945
X106.006 Y41.05 Z-18.949
X105.958 Y41.182 Z-18.954
X105.834 Y41.253 Z-18.959
X105.697 Y41.228 Z-18.964
X105.606 Y41.121 Z-18.969
Y41.003 Z-18.973
Y40.979 F1499.
X105.696 Y40.873
X105.835 Y40.848
X105.958 Y40.918
X106.006 Y41.05
X105.958 Y41.182
X105.834 Y41.253
X105.697 Y41.228
X105.606 Y41.121
Y41.003
X105.611 Y40.99
X105.622 Y40.982
X105.635 Y40.983
X105.703 Y41.006
X105.929 Y40.944
X105.948
X105.965 Y40.953
X105.976 Y40.969
X106.006 Y41.05 Z-18.976 F356.
X105.958 Y41.182 Z-18.981
X105.834 Y41.253 Z-18.986
X105.697 Y41.228 Z-18.991
X105.606 Y41.121 Z-18.996
Y41.003 Z-19.
Y40.979 F1499.
X105.696 Y40.873
X105.835 Y40.848
X105.958 Y40.918
X106.006 Y41.05
X105.958 Y41.182
X105.834 Y41.253
X105.697 Y41.228
X105.606 Y41.121
Y41.003
Y40.979 Z-18.996
X105.625 Y40.957 Z-18.98
X105.638 Y40.942 Z-18.954
X105.642 Y40.937 Z-18.921
G0 Z5.
X105.85 Y21.796
Z-17.368
G1 X105.84 Y21.795 Z-17.407 F356.
X105.812 Y21.789 Z-17.436
X105.775 Y21.779 Z-17.447
X105.705 Y21.747 Z-17.448
X105.644 Y21.701 Z-17.45
X105.593 Y21.645 Z-17.452
X105.555 Y21.579 Z-17.453
X105.531 Y21.506 Z-17.455
X105.522 Y21.43 Z-17.457
X105.528 Y21.354 Z-17.458
X105.55 Y21.281 Z-17.46
X105.587 Y21.214 Z-17.462
X105.636 Y21.156 Z-17.463
X105.696 Y21.109 Z-17.465
X105.764 Y21.075 Z-17.466
X105.838 Y21.055 Z-17.468
X105.914 Y21.051 Z-17.47
X105.99 Y21.063 Z-17.471
X106.061 Y21.09 Z-17.473
X106.126 Y21.13 Z-17.475
X106.181 Y21.183 Z-17.476
X106.224 Y21.246 Z-17.478
X106.254 Y21.316 Z-17.48
X106.268 Y21.391 Z-17.481
X106.267 Y21.468 Z-17.483
X106.251 Y21.542 Z-17.485
X106.22 Y21.612 Z-17.486
X106.175 Y21.674 Z-17.488
X106.119 Y21.725 Z-17.49
X106.053 Y21.764 Z-17.491
X105.981 Y21.789 Z-17.493
X105.905 Y21.799 Z-17.495
X105.829 Y21.793 Z-17.496
X105.756 Y21.772 Z-17.498
X105.688 Y21.736 Z-17.5
X105.629 Y21.687 Z-17.501
X105.582 Y21.628 Z-17.503
X105.547 Y21.56 Z-17.505
X105.527 Y21.486 Z-17.506
X105.522 Y21.41 Z-17.508
X105.533 Y21.334 Z-17.509
X105.559 Y21.263 Z-17.511
X105.599 Y21.197 Z-17.513
X105.651 Y21.142 Z-17.514
X105.714 Y21.098 Z-17.516
X105.784 Y21.068 Z-17.518
X105.859 Y21.053 Z-17.519
X105.935 Z-17.521
X106.01 Y21.069 Z-17.523
X106.08 Y21.099 Z-17.524
X106.142 Y21.143 Z-17.526
X106.194 Y21.199 Z-17.528
X106.234 Y21.264 Z-17.529
X106.259 Y21.336 Z-17.531
X106.27 Y21.412 Z-17.533
X106.264 Y21.488 Z-17.534
X106.244 Y21.562 Z-17.536
X106.209 Y21.629 Z-17.538
X106.161 Y21.689 Z-17.539
X106.102 Y21.737 Z-17.541
X106.034 Y21.772 Z-17.543
X105.961 Y21.793 Z-17.544
X105.884 Y21.799 Z-17.546
X105.809 Y21.789 Z-17.547
X105.737 Y21.763 Z-17.549
X105.671 Y21.724 Z-17.551
G3 X105.628 Y21.42 R0.217 F1499.
X105.932 Y21.377 R0.217
X105.975 Y21.681 R0.217
X105.671 Y21.724 R0.217
G2 X105.375 Y21.668 R0.343
G3 X105.142 Y21.534 R0.19
X105.135 Y21.486 R0.19
G1 X105.134 Y21.347
X105.141 Y21.336
X105.345 Y21.02
X105.709 Y20.859
X106.084 Y20.913
X106.382 Y21.167
X106.497 Y21.55
X106.386 Y21.927
X106.081 Y22.188
X105.709 Y22.241
X105.348 Y22.081
X105.323 Y22.046
X105.137 Y21.757
X105.135 Y21.486
X105.141 Y21.452
X105.159 Y21.424
X105.186 Y21.403
X105.218 Y21.393
X105.252 Y21.396
X105.282 Y21.411
X105.305 Y21.436
X105.466 Y21.692
X105.479 Y21.723
Y21.757
X105.467 Y21.788
X105.444 Y21.813
X105.414 Y21.829
X105.381 Y21.832
X105.348 Y21.823
X105.321 Y21.803
X105.275 Y21.742 Z-17.553 F356.
X105.242 Y21.673 Z-17.556
X105.225 Y21.599 Z-17.559
X105.222 Y21.522 Z-17.561
X105.235 Y21.447 Z-17.564
X105.264 Y21.376 Z-17.567
X105.306 Y21.312 Z-17.57
X105.36 Y21.258 Z-17.572
X105.424 Y21.216 Z-17.575
X105.495 Y21.188 Z-17.578
X105.57 Y21.176 Z-17.58
X105.647 Y21.178 Z-17.583
X105.721 Y21.196 Z-17.586
X105.79 Y21.229 Z-17.588
X105.851 Y21.276 Z-17.591
X105.901 Y21.333 Z-17.594
X105.938 Y21.4 Z-17.596
X105.961 Y21.473 Z-17.599
X105.969 Y21.549 Z-17.602
G3 X105.802 Y21.716 R0.167 F1499.
X105.636 Y21.549 R0.167
X105.802 Y21.382 R0.167
X105.969 Y21.549 R0.167
G2 X106.087 Y21.827 R0.386
G3 X106.15 Y21.979 R0.206
X106.081 Y22.129 R0.206
G1 X106.067 Y22.141
X105.71 Y22.189
X105.382 Y22.044
X105.375 Y22.036
X105.189 Y21.746
X105.185 Y21.36
X105.357 Y21.092
X105.377 Y21.062
X105.711 Y20.911
X106.068 Y20.959
X106.339 Y21.195
X106.444 Y21.55
X106.341 Y21.899
X106.081 Y22.129
X106.068 Y22.134
X106.055 Y22.129
X106.047 Y22.118
X106.027 Y22.023
X105.97 Y21.765
X105.956 Y21.767
X105.879 Z-17.604 F356.
X105.805 Y21.752 Z-17.607
X105.734 Y21.722 Z-17.61
X105.672 Y21.678 Z-17.612
X105.62 Y21.622 Z-17.615
X105.58 Y21.557 Z-17.618
X105.554 Y21.485 Z-17.62
X105.543 Y21.409 Z-17.623
X105.548 Y21.333 Z-17.626
X105.569 Y21.259 Z-17.628
X105.603 Y21.191 Z-17.631
X105.651 Y21.132 Z-17.634
X105.711 Y21.083 Z-17.636
X105.778 Y21.048 Z-17.639
X105.852 Y21.027 Z-17.642
X105.928 Y21.021 Z-17.644
X106.004 Y21.031 Z-17.647
X106.076 Y21.057 Z-17.65
X106.141 Y21.096 Z-17.652
G3 X106.21 Y21.574 R0.342
X105.731 Y21.643 R0.342
X105.708 Y21.48 R0.116 F1499.
X105.87 Y21.457 R0.116
X105.894 Y21.62 R0.116
X105.731 Y21.643 R0.116
G2 X105.453 Y21.571 R0.376
G3 X105.302 Y21.527 R0.19
X105.236 Y21.383 R0.19
G1 Y21.374
X105.356 Y21.184
X105.423 Y21.09
X105.708 Y20.962
X105.733 Y20.959
X106.028 Y21.001
X106.063 Y21.02
X106.289 Y21.216
X106.391 Y21.55
X106.29 Y21.883
X106.058 Y22.084
X106.029 Y22.098
X105.719 Y22.139
X105.691 Y22.132
X105.424 Y22.01
X105.357 Y21.916
X105.236 Y21.722
Y21.383
X105.297 Y21.382
X105.768 Y21.371
X105.913 Y21.287
X105.929 Y21.281
X105.945 Y21.284
X105.959 Y21.293
X106.005 Y21.354 Z-17.655 F356.
X106.038 Y21.423 Z-17.658
X106.056 Y21.498 Z-17.66
X106.058 Y21.574 Z-17.663
X106.045 Y21.649 Z-17.666
X106.017 Y21.72 Z-17.668
X105.975 Y21.784 Z-17.671
X105.92 Y21.838 Z-17.674
X105.857 Y21.88 Z-17.676
X105.785 Y21.908 Z-17.679
X105.71 Y21.921 Z-17.682
X105.634 Y21.918 Z-17.684
X105.559 Y21.9 Z-17.687
X105.49 Y21.867 Z-17.69
X105.43 Y21.821 Z-17.693
X105.379 Y21.763 Z-17.695
X105.342 Y21.696 Z-17.698
X105.319 Y21.624 Z-17.701
X105.311 Y21.547 Z-17.703
G3 X105.588 Y21.271 R0.277
X105.864 Y21.547 R0.277
X105.802 Y21.61 R0.062 F1499.
X105.739 Y21.547 R0.062
X105.802 Y21.485 R0.062
X105.864 Y21.547 R0.062
G2 X105.993 Y21.793 R0.299
G3 X106.031 Y22. R0.149
X105.928 Y22.063 R0.149
G1 X105.741 Y22.087
X105.686 Y22.077
X105.466 Y21.976
X105.393 Y21.882
X105.289 Y21.719
X105.292 Y21.376
X105.357 Y21.275
X105.444 Y21.148
X105.468 Y21.123
X105.684 Y21.024
X105.763 Y21.012
X105.998 Y21.045
X106.056 Y21.078
X106.241 Y21.239
X106.338 Y21.549
X106.237 Y21.865
X106.052 Y22.024
X105.998 Y22.054
X105.928 Y22.063
X105.905 Y22.059
X105.889 Y22.044
X105.884 Y22.021
X105.9 Y21.802
X105.868 Y21.436
X105.86 Y21.276
X105.864 Y21.259
X105.877 Y21.245
X105.894 Y21.241
X105.912 Y21.245
X105.973 Y21.291 Z-17.706 F356.
X106.024 Y21.348 Z-17.709
X106.063 Y21.414 Z-17.711
X106.087 Y21.486 Z-17.714
X106.096 Y21.562 Z-17.717
X106.089 Y21.638 Z-17.719
X106.067 Y21.712 Z-17.722
X106.03 Y21.779 Z-17.725
X105.981 Y21.837 Z-17.727
X105.92 Y21.884 Z-17.73
X105.852 Y21.918 Z-17.733
X105.778 Y21.937 Z-17.735
X105.702 Y21.941 Z-17.738
X105.626 Y21.929 Z-17.741
X105.555 Y21.902 Z-17.743
X105.49 Y21.861 Z-17.746
X105.435 Y21.808 Z-17.749
X105.392 Y21.745 Z-17.751
X105.363 Y21.674 Z-17.754
G3 X105.568 Y21.296 R0.304
X105.946 Y21.501 R0.304
G1 X105.952 Y21.545 F1499.
X105.945 Y21.589
X105.943 Y21.597
G3 X105.755 Y21.693 R0.149
X105.652 Y21.551 R0.149
G1 Y21.535
G3 X105.801 Y21.386 R0.149
X105.944 Y21.492 R0.149
G1 X105.946 Y21.501
X105.968 Y21.555
X106.001 Y21.604
X106.043 Y21.644
X106.093 Y21.676
X106.129 Y21.703
X106.155 Y21.74
X106.167 Y21.783
X106.164 Y21.828
X106.147 Y21.87
X106.117 Y21.903
X106.035 Y21.97
X105.968 Y22.008
X105.769 Y22.034
X105.658 Y22.011
X105.512 Y21.945
X105.416 Y21.825
X105.34 Y21.707
Y21.397
X105.361 Y21.361
X105.441 Y21.237
X105.508 Y21.158
X105.682 Y21.081
X105.789 Y21.064
X105.964 Y21.09
X106.077 Y21.161
X106.197 Y21.268
X106.227 Y21.352
X106.286 Y21.548
X106.195 Y21.833
X106.147 Y21.879
X106.117 Y21.903
X106.092 Y21.918
X106.063 Y21.925
X106.034 Y21.923
X105.61 Y21.837
X105.581 Y21.826
X105.557 Y21.806
X105.511 Y21.745 Z-17.757 F356.
X105.479 Y21.676 Z-17.759
X105.461 Y21.602 Z-17.762
X105.459 Y21.525 Z-17.765
X105.472 Y21.45 Z-17.767
X105.501 Y21.379 Z-17.77
X105.543 Y21.315 Z-17.773
X105.598 Y21.262 Z-17.775
X105.662 Y21.22 Z-17.778
X105.733 Y21.192 Z-17.781
X105.808 Y21.18 Z-17.783
X105.885 Y21.183 Z-17.786
X105.959 Y21.201 Z-17.789
X106.028 Y21.234 Z-17.791
X106.088 Y21.281 Z-17.794
X106.138 Y21.339 Z-17.797
X106.176 Y21.405 Z-17.799
X106.198 Y21.478 Z-17.802
X106.206 Y21.554 Z-17.805
G3 X105.936 Y21.822 R0.269
X105.669 Y21.552 R0.269
G1 Y21.521 F1499.
X105.676 Y21.484
X105.695 Y21.45
X105.701 Y21.443
X105.732 Y21.418
X105.769 Y21.405
X105.783 Y21.402
X105.821 Y21.403
X105.856 Y21.415
X105.868 Y21.422
X105.899 Y21.449
X105.919 Y21.484
X105.93 Y21.518
X105.936 Y21.552
X105.93 Y21.587
X105.92 Y21.618
X105.901 Y21.654
X105.87 Y21.68
X105.86 Y21.686
X105.824 Y21.7
X105.785
X105.774 Y21.698
X105.737 Y21.684
X105.708 Y21.659
X105.695 Y21.644
X105.675 Y21.611
X105.669 Y21.572
Y21.552
X105.664 Y21.5
X105.647 Y21.449
X105.621 Y21.404
X105.585 Y21.365
X105.559 Y21.333
X105.546 Y21.295
X105.545 Y21.255
X105.557 Y21.216
X105.582 Y21.184
X105.615 Y21.161
X105.657 Y21.142
X105.818 Y21.116
X105.914 Y21.13
X106.069 Y21.218
X106.145 Y21.287
X106.233 Y21.551
X106.163 Y21.769
X106.147 Y21.812
X106.138 Y21.822
X106.054 Y21.894
X105.927 Y21.967
X105.801 Y21.983
X105.658 Y21.958
X105.559 Y21.913
X105.439 Y21.77
X105.392 Y21.694
X105.393 Y21.403
X105.461 Y21.299
X105.552 Y21.19
X105.615 Y21.161
X105.632 Y21.158
X105.648 Y21.161
X105.662 Y21.172
X105.793 Y21.316
X105.819 Y21.324
X105.835 Y21.326
X105.849 Y21.321
X105.968 Y21.257
X105.989 Y21.252
X106.009 Y21.259
X106.064 Y21.307 Z-17.807 F356.
X106.108 Y21.365 Z-17.81
X106.139 Y21.431 Z-17.812
X106.156 Y21.502 Z-17.815
X106.158 Y21.574 Z-17.818
X106.146 Y21.646 Z-17.82
X106.119 Y21.713 Z-17.823
X106.079 Y21.774 Z-17.825
X106.028 Y21.826 Z-17.828
X105.968 Y21.866 Z-17.83
X105.9 Y21.893 Z-17.833
X105.829 Y21.905 Z-17.835
X105.756 Y21.903 Z-17.838
X105.686 Y21.887 Z-17.84
X105.62 Y21.856 Z-17.843
X105.561 Y21.813 Z-17.845
X105.513 Y21.758 Z-17.848
X105.477 Y21.696 Z-17.851
X105.454 Y21.627 Z-17.853
X105.446 Y21.555 Z-17.856
X105.444 Y21.418 F1499.
X105.502 Y21.335
X105.557 Y21.269
X105.603 Y21.22
X105.643 Y21.202
X105.845 Y21.168
X105.885 Y21.174
X106.071 Y21.285
X106.097 Y21.31
X106.179 Y21.55
X106.097 Y21.79
X106.033 Y21.842
X105.89 Y21.924
X105.825 Y21.93
X105.632 Y21.894
X105.597 Y21.878
X105.463 Y21.716
X105.448 Y21.692
X105.446 Y21.555
X105.45 Y21.535
X105.464 Y21.521
X105.482 Y21.515
X105.502 Y21.518
X105.727 Y21.624
X105.923 Y21.765
X105.936 Y21.782
X105.939 Y21.802
X105.931 Y21.821
X105.915 Y21.834
X105.848 Y21.852 Z-17.858 F356.
X105.779 Y21.855 Z-17.86
X105.711 Y21.842 Z-17.863
X105.648 Y21.815 Z-17.865
X105.592 Y21.773 Z-17.868
X105.547 Y21.721 Z-17.87
X105.515 Y21.66 Z-17.873
X105.498 Y21.593 Z-17.875
X105.496 Y21.524 Z-17.877
X105.51 Y21.456 Z-17.88
X105.538 Y21.393 Z-17.882
X105.58 Y21.338 Z-17.885
X105.633 Y21.294 Z-17.887
X105.695 Y21.262 Z-17.889
X105.762 Y21.246 Z-17.892
X105.831 Y21.245 Z-17.894
X105.899 Y21.259 Z-17.897
X105.961 Y21.289 Z-17.899
X106.016 Y21.331 Z-17.902
X106.059 Y21.385 Z-17.904
X106.09 Y21.447 Z-17.906
X106.126 Y21.549 F1499.
X106.05 Y21.764
X106.034 Y21.776
X105.859 Y21.877
X105.641 Y21.84
X105.495 Y21.663
Y21.433
X105.511 Y21.41
X105.559 Y21.353
X105.64 Y21.26
X105.645 Y21.259
X105.856 Y21.222
X106.05 Y21.336
X106.09 Y21.447
Y21.47
X106.075 Y21.488
X105.945 Y21.574
X105.941 Y21.586
X105.942 Y21.599
X105.974 Y21.709
Y21.729
X105.963 Y21.745
X105.909 Y21.779 Z-17.909 F356.
X105.849 Y21.799 Z-17.911
X105.786 Y21.803 Z-17.913
X105.724 Y21.791 Z-17.915
X105.667 Y21.764 Z-17.917
X105.618 Y21.724 Z-17.92
X105.581 Y21.673 Z-17.922
X105.557 Y21.615 Z-17.924
X105.549 Y21.552 Z-17.926
X105.556 Y21.49 Z-17.928
X105.579 Y21.431 Z-17.931
X105.615 Y21.379 Z-17.933
X105.663 Y21.338 Z-17.935
X105.72 Y21.311 Z-17.937
X105.782 Y21.298 Z-17.94
X105.845 Y21.301 Z-17.942
X105.905 Y21.319 Z-17.944
X105.959 Y21.352 Z-17.946
X106.003 Y21.397 Z-17.948
X106.035 Y21.451 Z-17.951
X106.052 Y21.512 Z-17.953
X106.054 Y21.575 Z-17.955
X106.04 Y21.637 Z-17.957
X106.008 Y21.723 F1499.
X105.851 Y21.816
X105.663 Y21.785
X105.55 Y21.651
X105.548 Y21.453
X105.561 Y21.436
X105.665 Y21.313
X105.847 Y21.28
X106.007 Y21.373
X106.071 Y21.55
X106.04 Y21.637
X106.027 Y21.654
X106.007 Y21.662
X105.986 Y21.657
X105.82 Y21.574
X105.635 Y21.589
X105.614 Y21.585
X105.599 Y21.571
X105.593 Y21.551
X105.6 Y21.496 Z-17.959 F356.
X105.622 Y21.444 Z-17.961
X105.656 Y21.401 Z-17.963
X105.701 Y21.367 Z-17.965
X105.753 Y21.347 Z-17.967
X105.809 Y21.342 Z-17.969
X105.864 Y21.352 Z-17.971
X105.914 Y21.376 Z-17.973
X105.956 Y21.412 Z-17.975
X105.987 Y21.458 Z-17.977
X106.005 Y21.511 Z-17.979
X106.007 Y21.567 Z-17.981
X105.995 Y21.622 Z-17.983
X105.969 Y21.671 Z-17.985
X105.931 Y21.711 Z-17.987
X105.883 Y21.74 Z-17.988
X105.829 Y21.755 Z-17.99
X105.773 Z-17.992
X105.72 Y21.741 Z-17.994
X105.672 Y21.712 Z-17.996
X105.633 Y21.672 Z-17.998
X105.606 Y21.623 Z-18.
X105.594 Y21.568 Z-18.002
X105.596 Y21.513 Z-18.004
X105.614 Y21.46 Z-18.006
X105.644 Y21.413 Z-18.008
X105.694 Y21.356 F1499.
X105.835 Y21.331
X105.971 Y21.407
X106.023 Y21.55
X105.973 Y21.688
X105.837 Y21.77
X105.69 Y21.744
X105.591 Y21.622
X105.593 Y21.472
X105.644 Y21.413
X105.658 Y21.407
X105.673 Y21.413
X105.678 Y21.427
X105.67 Y21.505
X105.631 Y21.572
X105.618 Y21.581
X105.603 Y21.577
X105.595 Y21.563
X105.599 Y21.507 Z-18.01 F356.
X105.618 Y21.455 Z-18.012
X105.65 Y21.409 Z-18.014
X105.693 Y21.374 Z-18.016
X105.744 Y21.351 Z-18.018
X105.799 Y21.344 Z-18.02
X105.855 Y21.351 Z-18.022
X105.906 Y21.373 Z-18.024
X105.95 Y21.407 Z-18.026
X105.982 Y21.452 Z-18.028
X106.002 Y21.505 Z-18.029
X106.006 Y21.56 Z-18.031
X105.996 Y21.615 Z-18.033
X105.971 Y21.665 Z-18.035
X105.934 Y21.707 Z-18.037
X105.887 Y21.737 Z-18.039
X105.833 Y21.753 Z-18.041
X105.777 Y21.754 Z-18.043
X105.723 Y21.74 Z-18.045
X105.675 Y21.713 Z-18.047
X105.636 Y21.673 Z-18.049
X105.609 Y21.624 Z-18.051
X105.596 Y21.57 Z-18.053
X105.598 Y21.514 Z-18.055
X105.615 Y21.461 Z-18.057
X105.645 Y21.414 Z-18.059
X105.695 Y21.357 F1499.
X105.835 Y21.333
X105.97 Y21.409
X106.021 Y21.55
X105.972 Y21.687
X105.837 Y21.768
X105.691 Y21.742
X105.592 Y21.619
Y21.476
X105.645 Y21.414
X105.66 Y21.407
X105.675 Y21.414
X105.68 Y21.429
X105.674 Y21.51
X105.635 Y21.582
X105.622 Y21.591
X105.606 Y21.588
X105.598 Y21.575
X105.599 Y21.519 Z-18.061 F356.
X105.614 Y21.465 Z-18.063
X105.644 Y21.418 Z-18.065
X105.685 Y21.381 Z-18.067
X105.735 Y21.356 Z-18.069
X105.79 Y21.345 Z-18.071
X105.846 Y21.35 Z-18.072
X105.898 Y21.37 Z-18.074
X105.943 Y21.403 Z-18.076
X105.977 Y21.447 Z-18.078
X105.998 Y21.498 Z-18.08
X106.005 Y21.554 Z-18.082
X105.996 Y21.609 Z-18.084
X105.973 Y21.659 Z-18.086
X105.936 Y21.702 Z-18.088
X105.89 Y21.733 Z-18.09
X105.837 Y21.75 Z-18.092
X105.781 Y21.753 Z-18.094
X105.727 Y21.74 Z-18.096
X105.678 Y21.713 Z-18.098
X105.639 Y21.674 Z-18.1
X105.611 Y21.625 Z-18.102
X105.598 Y21.571 Z-18.104
X105.599 Y21.515 Z-18.106
X105.616 Y21.462 Z-18.108
X105.646 Y21.415 Z-18.11
X105.696 Y21.359 F1499.
X105.835 Y21.334
X105.969 Y21.41
X106.02 Y21.55
X105.97 Y21.686
X105.837 Y21.766
X105.69 Y21.74
X105.594 Y21.625
Y21.476
X105.646 Y21.415
X105.661 Y21.408
X105.677 Y21.415
X105.682 Y21.43
X105.677 Y21.515
X105.64 Y21.591
X105.627 Y21.602
X105.611 Y21.6
X105.601 Y21.586
X105.599 Y21.53 Z-18.112 F356.
X105.612 Y21.476 Z-18.114
X105.639 Y21.427 Z-18.115
X105.678 Y21.388 Z-18.117
X105.727 Y21.361 Z-18.119
X105.781 Y21.348 Z-18.121
X105.837 Y21.35 Z-18.123
X105.89 Y21.367 Z-18.125
X105.936 Y21.399 Z-18.127
X105.972 Y21.441 Z-18.129
X105.995 Y21.492 Z-18.131
X106.003 Y21.547 Z-18.133
X105.996 Y21.603 Z-18.135
X105.974 Y21.654 Z-18.137
X105.939 Y21.697 Z-18.139
X105.894 Y21.729 Z-18.141
X105.841 Y21.748 Z-18.143
X105.785 Y21.751 Z-18.145
X105.731 Y21.739 Z-18.147
X105.682 Y21.713 Z-18.149
X105.641 Y21.674 Z-18.151
X105.613 Y21.626 Z-18.153
X105.599 Y21.572 Z-18.155
X105.601 Y21.517 Z-18.156
X105.617 Y21.463 Z-18.158
X105.648 Y21.417 Z-18.16
X105.696 Y21.36 F1499.
X105.835 Y21.336
X105.967 Y21.411
X106.018 Y21.55
X105.969 Y21.684
X105.836 Y21.764
X105.691 Y21.739
X105.595 Y21.625
Y21.477
X105.648 Y21.417
X105.662 Y21.407
X105.679 Y21.406
X105.694 Y21.414
X105.812 Y21.519
X105.97 Y21.529
X105.986 Y21.534
X105.998 Y21.547
X106.001 Y21.564
X105.989 Y21.618 Z-18.162 F356.
X105.963 Y21.668 Z-18.164
X105.924 Y21.708 Z-18.166
X105.876 Y21.736 Z-18.168
X105.822 Y21.749 Z-18.17
X105.766 Y21.747 Z-18.172
X105.713 Y21.73 Z-18.174
X105.667 Y21.699 Z-18.176
X105.631 Y21.656 Z-18.178
X105.608 Y21.605 Z-18.18
X105.6 Y21.55 Z-18.182
X105.607 Y21.495 Z-18.184
X105.629 Y21.444 Z-18.186
X105.665 Y21.401 Z-18.188
X105.711 Y21.369 Z-18.19
X105.764 Y21.352 Z-18.192
X105.82 Y21.349 Z-18.194
X105.874 Y21.362 Z-18.196
X105.922 Y21.389 Z-18.198
X105.962 Y21.429 Z-18.199
X105.989 Y21.478 Z-18.201
X106.001 Y21.532 Z-18.203
X105.998 Y21.588 Z-18.205
X105.98 Y21.641 Z-18.207
X105.948 Y21.686 Z-18.209
X105.904 Y21.721 Z-18.211
X105.836 Y21.763 F1499.
X105.692 Y21.737
X105.597 Y21.624
Y21.477
X105.697 Y21.362
X105.835 Y21.338
X105.966 Y21.412
X106.016 Y21.55
X105.968 Y21.683
X105.904 Y21.721
X105.885 Y21.726
X105.867 Y21.719
X105.855 Y21.703
X105.803 Y21.549
X105.696 Y21.425
X105.688 Y21.407
X105.692 Y21.388
X105.705 Y21.374
X105.757 Y21.355 Z-18.213 F356.
X105.813 Y21.35 Z-18.215
X105.868 Y21.361 Z-18.217
X105.917 Y21.387 Z-18.219
X105.957 Y21.426 Z-18.221
X105.985 Y21.474 Z-18.223
X105.999 Y21.528 Z-18.225
X105.997 Y21.584 Z-18.227
X105.98 Y21.637 Z-18.229
X105.948 Y21.683 Z-18.231
X105.905 Y21.719 Z-18.233
X105.854 Y21.741 Z-18.235
X105.799 Y21.748 Z-18.237
X105.744 Y21.74 Z-18.239
X105.693 Y21.717 Z-18.241
X105.651 Y21.681 Z-18.242
X105.62 Y21.634 Z-18.244
X105.604 Y21.581 Z-18.246
X105.603 Y21.525 Z-18.248
X105.617 Y21.471 Z-18.25
X105.646 Y21.423 Z-18.252
X105.687 Y21.385 Z-18.254
X105.737 Y21.36 Z-18.256
X105.792 Y21.35 Z-18.258
X105.847 Y21.355 Z-18.26
X105.899 Y21.376 Z-18.262
X105.964 Y21.413 F1499.
X106.014 Y21.55
X105.966 Y21.682
X105.835 Y21.761
X105.693 Y21.736
X105.599 Y21.623
Y21.478
X105.698 Y21.364
X105.835 Y21.339
X105.899 Y21.376
X105.91 Y21.39
X105.907 Y21.407
X105.892 Y21.417
X105.799 Y21.436
X105.704 Y21.423
X105.689 Y21.413
X105.686 Y21.396
X105.696 Y21.381
X105.747 Y21.359 Z-18.264 F356.
X105.802 Y21.351 Z-18.266
X105.857 Y21.36 Z-18.268
X105.908 Y21.383 Z-18.27
X105.95 Y21.419 Z-18.272
X105.98 Y21.466 Z-18.274
X105.996 Y21.52 Z-18.276
X105.997 Y21.576 Z-18.278
X105.981 Y21.629 Z-18.28
X105.952 Y21.676 Z-18.282
X105.91 Y21.714 Z-18.283
X105.86 Y21.738 Z-18.285
X105.805 Y21.747 Z-18.287
X105.749 Y21.74 Z-18.289
X105.698 Y21.718 Z-18.291
X105.655 Y21.683 Z-18.293
X105.623 Y21.637 Z-18.295
X105.606 Y21.584 Z-18.297
X105.604 Y21.528 Z-18.299
X105.618 Y21.474 Z-18.301
X105.646 Y21.426 Z-18.303
X105.687 Y21.388 Z-18.305
X105.736 Y21.362 Z-18.307
X105.791 Y21.352 Z-18.309
X105.846 Y21.357 Z-18.311
X105.898 Y21.377 Z-18.313
X105.963 Y21.414 F1499.
X106.013 Y21.55
X105.965 Y21.681
X105.84 Y21.756
X105.693 Y21.733
X105.602 Y21.625
X105.6 Y21.598
Y21.479
X105.698 Y21.365
X105.835 Y21.341
X105.898 Y21.377
X105.91 Y21.391
X105.911 Y21.409
X105.881 Y21.527
X105.971 Y21.602
X105.981 Y21.616
X105.98 Y21.633
X105.964 Y21.68 Z-18.315 F356.
X105.838 Y21.755 Z-18.32
X105.7 Y21.732 Z-18.325
X105.606 Y21.625 Z-18.329
Y21.474 Z-18.335
X105.699 Y21.367 Z-18.34
X105.835 Y21.343 Z-18.345
X105.962 Y21.415 Z-18.35
X106.011 Y21.55 Z-18.355
X105.964 Y21.68 Z-18.359
X105.862 Y21.741 Z-18.364
X105.838 Y21.755 F1499.
X105.7 Y21.732
X105.606 Y21.625
Y21.474
X105.699 Y21.367
X105.835 Y21.343
X105.962 Y21.415
X106.011 Y21.55
X105.964 Y21.68
X105.862 Y21.741
X105.848 Y21.744
X105.834 Y21.739
X105.825 Y21.727
X105.821 Y21.72
X105.914 Y21.587
X105.932 Y21.574
X105.954 Y21.572
X105.973 Y21.583
X105.984 Y21.602
X105.982 Y21.624
X105.962 Y21.678 Z-18.366 F356.
X105.837 Y21.754 Z-18.371
X105.7 Y21.731 Z-18.376
X105.606 Y21.623 Z-18.381
Y21.476 Z-18.386
X105.699 Y21.368 Z-18.391
X105.835 Y21.344 Z-18.395
X105.96 Y21.416 Z-18.401
X106.009 Y21.55 Z-18.405
X105.962 Y21.678 Z-18.41
X105.861 Y21.74 Z-18.414
X105.837 Y21.754 F1499.
X105.7 Y21.731
X105.606 Y21.623
Y21.476
X105.699 Y21.368
X105.835 Y21.344
X105.96 Y21.416
X106.009 Y21.55
X105.962 Y21.678
X105.861 Y21.74
X105.842 Y21.743
X105.827 Y21.731
X105.824 Y21.713
X105.827 Y21.707
X105.738 Y21.408
Y21.386
X105.75 Y21.367
X105.769 Y21.358
X105.833 Y21.347 Z-18.417 F356.
X105.961 Y21.423 Z-18.422
X106.007 Y21.55 Z-18.427
X105.961 Y21.677 Z-18.431
X105.836 Y21.753 Z-18.436
X105.701 Y21.73 Z-18.441
X105.606 Y21.621 Z-18.446
Y21.479 Z-18.451
X105.7 Y21.37 Z-18.456
X105.833 Y21.347 Z-18.461
X105.938 Y21.41 Z-18.465
X105.961 Y21.423 F1499.
X106.007 Y21.55
X105.961 Y21.677
X105.836 Y21.753
X105.701 Y21.73
X105.606 Y21.621
Y21.479
X105.7 Y21.37
X105.833 Y21.347
X105.938 Y21.41
X105.949 Y21.423
Y21.44
X105.937 Y21.453
X105.9 Y21.474
X105.82 Y21.715
X105.81 Y21.731
X105.794 Y21.74
X105.776 Y21.742
X105.702 Y21.729 Z-18.468 F356.
X105.606 Y21.619 Z-18.473
Y21.481 Z-18.478
X105.701 Y21.371 Z-18.483
X105.833 Y21.348 Z-18.487
X105.96 Y21.423 Z-18.493
X106.006 Y21.55 Z-18.497
X105.96 Y21.676 Z-18.502
X105.835 Y21.752 Z-18.507
X105.702 Y21.729 Z-18.512
X105.624 Y21.639 Z-18.516
X105.606 Y21.619 F1499.
Y21.481
X105.701 Y21.371
X105.833 Y21.348
X105.96 Y21.423
X106.006 Y21.55
X105.96 Y21.676
X105.835 Y21.752
X105.702 Y21.729
X105.624 Y21.639
X105.618 Y21.625
X105.622 Y21.61
X105.635 Y21.601
X105.658 Y21.593
X105.802 Y21.669
X105.817 Y21.684
X105.822 Y21.706
X105.814 Y21.726
X105.797 Y21.739
X105.776 Y21.742
X105.702 Y21.729 Z-18.519 F356.
X105.606 Y21.619 Z-18.524
Y21.481 Z-18.529
X105.701 Y21.371 Z-18.534
X105.833 Y21.348 Z-18.538
X105.96 Y21.423 Z-18.543
X106.006 Y21.55 Z-18.548
X105.96 Y21.676 Z-18.553
X105.835 Y21.752 Z-18.558
X105.702 Y21.729 Z-18.563
X105.624 Y21.639 Z-18.567
X105.606 Y21.619 F1499.
Y21.481
X105.701 Y21.371
X105.833 Y21.348
X105.96 Y21.423
X106.006 Y21.55
X105.96 Y21.676
X105.835 Y21.752
X105.702 Y21.729
X105.624 Y21.639
X105.618 Y21.625
X105.622 Y21.61
X105.635 Y21.601
X105.658 Y21.593
X105.802 Y21.669
X105.817 Y21.684
X105.822 Y21.706
X105.814 Y21.726
X105.797 Y21.739
X105.776 Y21.742
X105.702 Y21.729 Z-18.569 F356.
X105.606 Y21.619 Z-18.575
Y21.481 Z-18.579
X105.701 Y21.371 Z-18.584
X105.833 Y21.348 Z-18.589
X105.96 Y21.423 Z-18.594
X106.006 Y21.55 Z-18.599
X105.96 Y21.676 Z-18.604
X105.835 Y21.752 Z-18.609
X105.702 Y21.729 Z-18.613
X105.624 Y21.639 Z-18.618
X105.606 Y21.619 F1499.
Y21.481
X105.701 Y21.371
X105.833 Y21.348
X105.96 Y21.423
X106.006 Y21.55
X105.96 Y21.676
X105.835 Y21.752
X105.702 Y21.729
X105.624 Y21.639
X105.618 Y21.625
X105.622 Y21.61
X105.635 Y21.601
X105.658 Y21.593
X105.802 Y21.669
X105.817 Y21.684
X105.822 Y21.706
X105.814 Y21.726
X105.797 Y21.739
X105.776 Y21.742
X105.702 Y21.729 Z-18.62 F356.
X105.606 Y21.619 Z-18.625
Y21.481 Z-18.63
X105.701 Y21.371 Z-18.635
X105.833 Y21.348 Z-18.64
X105.96 Y21.423 Z-18.645
X106.006 Y21.55 Z-18.65
X105.96 Y21.676 Z-18.654
X105.835 Y21.752 Z-18.66
X105.702 Y21.729 Z-18.664
X105.624 Y21.639 Z-18.668
X105.606 Y21.619 F1499.
Y21.481
X105.701 Y21.371
X105.833 Y21.348
X105.96 Y21.423
X106.006 Y21.55
X105.96 Y21.676
X105.835 Y21.752
X105.702 Y21.729
X105.624 Y21.639
X105.618 Y21.625
X105.622 Y21.61
X105.635 Y21.601
X105.658 Y21.593
X105.802 Y21.669
X105.817 Y21.684
X105.822 Y21.706
X105.814 Y21.726
X105.797 Y21.739
X105.776 Y21.742
X105.702 Y21.729 Z-18.671 F356.
X105.606 Y21.619 Z-18.676
Y21.481 Z-18.681
X105.701 Y21.371 Z-18.686
X105.833 Y21.348 Z-18.691
X105.96 Y21.423 Z-18.696
X106.006 Y21.55 Z-18.701
X105.96 Y21.676 Z-18.705
X105.835 Y21.752 Z-18.71
X105.702 Y21.729 Z-18.715
X105.624 Y21.639 Z-18.719
X105.606 Y21.619 F1499.
Y21.481
X105.701 Y21.371
X105.833 Y21.348
X105.96 Y21.423
X106.006 Y21.55
X105.96 Y21.676
X105.835 Y21.752
X105.702 Y21.729
X105.624 Y21.639
X105.618 Y21.625
X105.622 Y21.61
X105.635 Y21.601
X105.658 Y21.593
X105.802 Y21.669
X105.817 Y21.684
X105.822 Y21.706
X105.814 Y21.726
X105.797 Y21.739
X105.776 Y21.742
X105.702 Y21.729 Z-18.722 F356.
X105.606 Y21.619 Z-18.727
Y21.481 Z-18.732
X105.701 Y21.371 Z-18.737
X105.833 Y21.348 Z-18.741
X105.96 Y21.423 Z-18.747
X106.006 Y21.55 Z-18.751
X105.96 Y21.676 Z-18.756
X105.835 Y21.752 Z-18.761
X105.702 Y21.729 Z-18.766
X105.624 Y21.639 Z-18.77
X105.606 Y21.619 F1499.
Y21.481
