(NMJPLATE0PT0PT3_BOTTOM_STEP1_332IN_SIDE2)
(T8  D=2.381 CR=0. - ZMIN=-3.675 - FLAT END MILL)
G0 G90 G94 G17
G21
G53 G0 Z0.

(POCKET2 5)
M5
T8
M3 S8000
G55
M8
G0 X71.41 Y58.654
Z15.
Z1.406
G1 Z0.665 F381.
X71.416 Y58.67 Z0.575 F333.
X71.431 Y58.717 Z0.499
X71.453 Y58.788 Z0.447
X71.478 Y58.873 Z0.427
X71.547 Y59.138 Z0.417
X71.602 Y59.406 Z0.408
X71.644 Y59.676 Z0.398
X71.671 Y59.949 Z0.388
X71.684 Y60.222 Z0.379
X71.683 Y60.503 Z0.369
X71.669 Y60.783 Z0.359
X71.64 Y61.062 Z0.35
X71.597 Y61.339 Z0.34
X71.541 Y61.614 Z0.33
X71.471 Y61.886 Z0.32
X71.429 Y62.021 Z0.315
X71.383 Y62.155 Z0.31
X71.353 Y62.218 Z0.308
X71.311 Y62.273 Z0.305
X71.258 Y62.318 Z0.303
X71.197 Y62.352 Z0.301
X71.131 Y62.372 Z0.298
X71.062 Y62.379 Z0.296
X70.993 Y62.371 Z0.293
X70.927 Y62.349 Z0.291
X70.867 Y62.314 Z0.288
X70.801 Y62.268 Z0.286
X70.733 Y62.225 Z0.283
X70.681 Y62.186 Z0.28
X70.637 Y62.137 Z0.278
X70.603 Y62.081 Z0.276
X70.581 Y62.02 Z0.274
X70.571 Y61.956 Z0.271
X70.574 Y61.89 Z0.269
X70.589 Y61.827 Z0.267
X70.671 Y61.577 Z0.258
X70.744 Y61.324 Z0.248
X70.807 Y61.069 Z0.239
X70.845 Y60.875 Z0.232
X70.873 Y60.679 Z0.225
X70.889 Y60.482 Z0.219
X70.894 Y60.285 Z0.212
X70.887 Y60.107 Z0.205
X70.869 Y59.929 Z0.199
X70.839 Y59.753 Z0.193
X70.797 Y59.579 Z0.187
X70.698 Y59.237 Z0.174
X70.589 Y58.898 Z0.162
X70.574 Y58.835 Z0.16
X70.572 Y58.771 Z0.157
X70.582 Y58.707 Z0.155
X70.604 Y58.646 Z0.153
X70.637 Y58.591 Z0.151
X70.68 Y58.543 Z0.148
X70.732 Y58.504 Z0.146
X70.816 Y58.453 Z0.143
X70.883 Y58.409 Z0.14
X70.942 Y58.377 Z0.137
X71.006 Y58.357 Z0.135
X71.073 Y58.351 Z0.133
X71.14 Y58.358 Z0.13
X71.204 Y58.379 Z0.128
X71.262 Y58.413 Z0.126
X71.313 Y58.457 Z0.123
X71.353 Y58.511 Z0.121
X71.382 Y58.572 Z0.119
X71.469 Y58.839 Z0.109
X71.541 Y59.11 Z0.099
X71.599 Y59.385 Z0.089
X71.642 Y59.662 Z0.079
X71.67 Y59.941 Z0.07
X71.684 Y60.222 Z0.06
X71.683 Y60.503 Z0.05
X71.669 Y60.783 Z0.04
X71.64 Y61.062 Z0.03
X71.597 Y61.339 Z0.021
X71.541 Y61.614 Z0.011
X71.471 Y61.886 Z0.001
X71.429 Y62.021 Z-0.004
X71.383 Y62.155 Z-0.009
X71.353 Y62.218 Z-0.011
X71.311 Y62.273 Z-0.014
X71.258 Y62.318 Z-0.016
X71.197 Y62.352 Z-0.019
X71.131 Y62.372 Z-0.021
X71.062 Y62.379 Z-0.024
X70.993 Y62.371 Z-0.026
X70.927 Y62.349 Z-0.028
X70.867 Y62.314 Z-0.031
X70.801 Y62.268 Z-0.034
X70.733 Y62.225 Z-0.036
X70.681 Y62.186 Z-0.039
X70.637 Y62.137 Z-0.041
X70.603 Y62.081 Z-0.043
X70.581 Y62.02 Z-0.046
X70.571 Y61.956 Z-0.048
X70.574 Y61.89 Z-0.05
X70.589 Y61.827 Z-0.052
X70.671 Y61.577 Z-0.062
X70.744 Y61.324 Z-0.071
X70.807 Y61.069 Z-0.08
X70.845 Y60.875 Z-0.087
X70.873 Y60.679 Z-0.094
X70.889 Y60.482 Z-0.101
X70.894 Y60.285 Z-0.108
X70.887 Y60.107 Z-0.114
X70.869 Y59.929 Z-0.12
X70.839 Y59.753 Z-0.126
X70.797 Y59.579 Z-0.133
X70.698 Y59.237 Z-0.145
X70.589 Y58.898 Z-0.157
X70.574 Y58.835 Z-0.16
X70.572 Y58.771 Z-0.162
X70.582 Y58.707 Z-0.164
X70.604 Y58.646 Z-0.166
X70.637 Y58.591 Z-0.169
X70.68 Y58.543 Z-0.171
X70.732 Y58.504 Z-0.173
X70.816 Y58.453 Z-0.177
X70.883 Y58.409 Z-0.179
X70.942 Y58.377 Z-0.182
X71.006 Y58.357 Z-0.184
X71.073 Y58.351 Z-0.186
X71.14 Y58.358 Z-0.189
X71.204 Y58.379 Z-0.191
X71.262 Y58.413 Z-0.194
X71.313 Y58.457 Z-0.196
X71.353 Y58.511 Z-0.198
X71.382 Y58.572 Z-0.201
X71.469 Y58.839 Z-0.21
X71.541 Y59.11 Z-0.22
X71.599 Y59.385 Z-0.23
X71.642 Y59.662 Z-0.24
X71.67 Y59.941 Z-0.25
X71.684 Y60.222 Z-0.259
X71.683 Y60.503 Z-0.269
X71.669 Y60.783 Z-0.279
X71.64 Y61.062 Z-0.289
X71.597 Y61.339 Z-0.299
X71.541 Y61.614 Z-0.308
X71.471 Y61.886 Z-0.318
X71.429 Y62.021 Z-0.323
X71.383 Y62.155 Z-0.328
X71.353 Y62.218 Z-0.331
X71.311 Y62.273 Z-0.333
X71.258 Y62.318 Z-0.335
X71.197 Y62.352 Z-0.338
X71.131 Y62.372 Z-0.34
X71.062 Y62.379 Z-0.343
X70.993 Y62.371 Z-0.345
X70.927 Y62.349 Z-0.348
X70.867 Y62.314 Z-0.35
X70.801 Y62.268 Z-0.353
X70.733 Y62.225 Z-0.356
X70.681 Y62.186 Z-0.358
X70.637 Y62.137 Z-0.36
X70.603 Y62.081 Z-0.362
X70.581 Y62.02 Z-0.365
X70.571 Y61.956 Z-0.367
X70.574 Y61.89 Z-0.369
X70.589 Y61.827 Z-0.372
X70.671 Y61.577 Z-0.381
X70.744 Y61.324 Z-0.39
X70.807 Y61.069 Z-0.399
X70.847 Y60.864 Z-0.406
G2 X70.894 Y60.285 R3.464 F1499.
X70.797 Y59.579 R2.692
X70.589 Y58.898 R12.942
G3 X70.732 Y58.504 R0.336
G1 X70.816 Y58.453
X70.883 Y58.409
G3 X71.343 Y58.494 R0.331
X71.382 Y58.572 R0.331
X71.684 Y60.222 R5.318
X71.471 Y61.886 R5.611
G1 X71.429 Y62.021
X71.383 Y62.155
G3 X70.951 Y62.359 R0.338
X70.867 Y62.314 R0.338
G1 X70.801 Y62.268
X70.733 Y62.225
G3 X70.589 Y61.827 R0.336
G2 X70.807 Y61.069 R7.193
G1 X70.847 Y60.864
G2 X70.373 Y60.029 R0.763
G3 X69.756 Y59.292 R1.002
G1 X69.749 Y59.259
X69.732 Y59.193
X69.708 Y59.13
X69.641 Y58.984
X69.595 Y58.9
X69.323 Y58.491
Y58.255
X69.602 Y58.129
X69.667 Y58.094
X70.343 Y57.68
X70.389 Y57.649
X70.431 Y57.614
X70.538 Y57.517
X70.584 Y57.471
X71.091 Y56.898
X71.131 Y56.848
X71.165 Y56.794
X71.238 Y56.663
X71.258 Y56.623
X71.297 Y56.539
X71.567 Y56.918
X71.844 Y57.348
X72.194 Y58.15
X72.363 Y58.629
X72.535 Y59.468
X72.59 Y59.985
Y60.786
X72.53 Y61.302
X72.353 Y62.137
X72.178 Y62.621
X71.849 Y63.375
X71.47 Y63.948
X71.296 Y64.19
X71.223 Y64.034
X71.198 Y63.987
X71.17 Y63.943
X71.097 Y63.84
X71.053 Y63.785
X70.538 Y63.212
X70.494 Y63.167
X70.445 Y63.127
X70.315 Y63.034
X70.274 Y63.007
X69.638 Y62.621
X69.574 Y62.588
X69.323 Y62.475
Y62.238
X69.618 Y61.791
X69.649 Y61.737
X69.675 Y61.681
X69.725 Y61.552
X69.742 Y61.502
X69.755 Y61.45
X69.933 Y60.55
X69.941 Y60.492
X69.944 Y60.433
Y60.288
X69.941 Y60.231
X69.932 Y60.174
X69.756 Y59.292
X69.755 Y59.251
X69.768 Y59.213
X69.793 Y59.181
X69.827 Y59.159
X69.867 Y59.15
X70.497 Y59.119
X70.532 Y59.112
X70.564 Y59.094
X70.589 Y59.068
X70.605 Y59.035
X70.61 Y58.999
X70.604 Y58.963
X70.582 Y58.897 Z-0.409 F333.
X70.567 Y58.834 Z-0.411
X70.564 Y58.769 Z-0.413
X70.574 Y58.705 Z-0.416
X70.596 Y58.644 Z-0.418
X70.63 Y58.589 Z-0.42
X70.673 Y58.54 Z-0.422
X70.725 Y58.501 Z-0.425
X70.807 Y58.451 Z-0.428
X70.893 Y58.394 Z-0.432
X70.949 Y58.363 Z-0.434
X71.01 Y58.343 Z-0.436
X71.074 Y58.336 Z-0.438
X71.138 Y58.343 Z-0.441
X71.2 Y58.362 Z-0.443
X71.256 Y58.393 Z-0.445
X71.304 Y58.436 Z-0.447
X71.344 Y58.487 Z-0.45
X71.371 Y58.545 Z-0.452
X71.446 Y58.769 Z-0.46
X71.51 Y58.997 Z-0.468
X71.563 Y59.228 Z-0.477
X71.604 Y59.461 Z-0.485
X71.635 Y59.696 Z-0.493
X71.655 Y59.931 Z-0.502
X71.665 Y60.215 Z-0.511
X71.663 Y60.498 Z-0.521
X71.649 Y60.782 Z-0.531
X71.621 Y61.064 Z-0.541
X71.582 Y61.345 Z-0.551
X71.543 Y61.556 Z-0.559
X71.496 Y61.766 Z-0.566
X71.44 Y61.974 Z-0.574
X71.373 Y62.178 Z-0.581
X71.345 Y62.237 Z-0.583
X71.306 Y62.288 Z-0.586
X71.258 Y62.331 Z-0.588
X71.202 Y62.363 Z-0.59
X71.14 Y62.384 Z-0.592
X71.076 Y62.391 Z-0.595
X71.012 Y62.386 Z-0.597
X70.949 Y62.368 Z-0.599
X70.892 Y62.338 Z-0.601
X70.805 Y62.281 Z-0.605
X70.717 Y62.225 Z-0.609
X70.667 Y62.186 Z-0.611
X70.625 Y62.137 Z-0.613
X70.593 Y62.082 Z-0.615
X70.572 Y62.021 Z-0.618
X70.563 Y61.958 Z-0.62
X70.566 Y61.894 Z-0.622
X70.582 Y61.831 Z-0.624
X70.668 Y61.57 Z-0.634
X70.745 Y61.306 Z-0.644
X70.814 Y61.039 Z-0.653
X70.839 Y60.93 F1499.
G2 X70.849 Y59.993 R2.27
X70.734 Y59.441 R29.057
X70.582 Y58.897 R5.034
G3 X70.725 Y58.501 R0.336
G1 X70.807 Y58.451
X70.893 Y58.394
G3 X71.332 Y58.469 R0.315
X71.371 Y58.545 R0.315
X71.655 Y59.931 R4.983
X71.582 Y61.345 R6.39
X71.496 Y61.766 R5.852
X71.373 Y62.178 R3.937
X70.961 Y62.372 R0.322
X70.892 Y62.338 R0.322
G1 X70.805 Y62.281
X70.717 Y62.225
G3 X70.582 Y61.831 R0.336
G2 X70.814 Y61.039 R7.962
X70.389 Y60.171 R0.76
G3 X69.789 Y59.414 R1.059
G1 X69.759 Y59.26
X69.744 Y59.2
X69.723 Y59.143
X69.669 Y59.018
X69.646 Y58.97
X69.619 Y58.923
X69.332 Y58.489
Y58.26
X69.601 Y58.138
X69.667 Y58.104
X70.342 Y57.691
X70.42 Y57.634
X70.517 Y57.551
X70.573 Y57.495
X71.093 Y56.91
X71.132 Y56.861
X71.166 Y56.809
X71.242 Y56.673
X71.265 Y56.629
X71.299 Y56.557
X71.546 Y56.914
X71.884 Y57.442
X72.108 Y57.958
X72.38 Y58.719
X72.495 Y59.276
X72.589 Y60.131
Y60.436
Y60.641
X72.489 Y61.494
X72.377 Y62.019
X72.092 Y62.812
X71.862 Y63.327
X71.457 Y63.953
X71.298 Y64.179
X71.214 Y64.002
X71.186 Y63.949
X71.151 Y63.898
X71.086 Y63.811
X71.051 Y63.77
X70.514 Y63.178
X70.458 Y63.124
X70.395 Y63.078
X70.16 Y62.927
X70.148 Y62.919
X69.659 Y62.622
X69.595 Y62.588
X69.332 Y62.47
Y62.248
X69.623 Y61.799
X69.652 Y61.75
X69.675 Y61.699
X69.73 Y61.564
X69.749 Y61.511
X69.763 Y61.455
X69.941 Y60.55
X69.95 Y60.492
X69.953 Y60.433
X69.952 Y60.288
X69.949 Y60.231
X69.941 Y60.174
X69.789 Y59.414
X69.788 Y59.375
X69.8 Y59.337
X69.823 Y59.305
X69.856 Y59.283
X69.894 Y59.272
X70.641 Y59.195
X71.319 Y58.871
X71.359 Y58.86
X71.4 Y58.863
X71.438 Y58.88
X71.468 Y58.91
X71.485 Y58.947
X71.54 Y59.168 Z-0.661 F333.
X71.584 Y59.392 Z-0.669
X71.618 Y59.617 Z-0.677
X71.641 Y59.834 Z-0.685
X71.653 Y60.051 Z-0.692
X71.654 Y60.269 Z-0.7
X71.644 Y60.487 Z-0.708
X71.624 Y60.705 Z-0.715
X71.536 Y61.442 Z-0.741
X71.509 Y61.625 Z-0.748
X71.471 Y61.807 Z-0.754
X71.423 Y61.986 Z-0.761
X71.365 Y62.162 Z-0.767
X71.336 Y62.221 Z-0.769
X71.297 Y62.273 Z-0.772
X71.248 Y62.316 Z-0.774
X71.191 Y62.349 Z-0.776
X71.129 Y62.37 Z-0.778
X71.065 Y62.378 Z-0.781
X71. Y62.373 Z-0.783
X70.937 Y62.355 Z-0.785
X70.878 Y62.325 Z-0.788
X70.718 Y62.222 Z-0.794
X70.669 Y62.183 Z-0.796
X70.627 Y62.136 Z-0.799
X70.596 Y62.081 Z-0.801
X70.575 Y62.022 Z-0.803
X70.565 Y61.96 Z-0.805
X70.567 Y61.897 Z-0.807
X70.581 Y61.836 Z-0.81
X70.673 Y61.537 Z-0.821
X70.758 Y61.236 Z-0.832
X70.835 Y60.933 Z-0.842
X70.866 Y60.778 Z-0.848
X70.886 Y60.622 Z-0.853
X70.895 Y60.465 Z-0.859
X70.892 Y60.307 Z-0.864
X70.879 Y60.15 Z-0.87
X70.853 Y59.995 Z-0.875
X70.738 Y59.442 Z-0.895
X70.706 Y59.303 Z-0.9
G2 X70.586 Y58.898 R5.016 F1499.
G3 X70.73 Y58.503 R0.336
G1 X70.804 Y58.458
X70.883 Y58.406
G3 X71.325 Y58.484 R0.317
X71.364 Y58.559 R0.317
X71.618 Y59.617 R5.072
X71.624 Y60.705 R4.405
G1 X71.536 Y61.442
G3 X71.365 Y62.162 R3.233
X70.944 Y62.358 R0.328
X70.878 Y62.325 R0.328
G1 X70.718 Y62.222
G3 X70.581 Y61.836 R0.336
G2 X70.835 Y60.933 R12.001
X70.853 Y59.995 R2.191
X70.738 Y59.442 R29.203
G1 X70.706 Y59.303
G2 X69.991 Y58.831 R0.633
G3 X69.347 Y58.363 R0.563
X69.34 Y58.275 R0.563
G1 Y58.266
X69.601 Y58.148
X69.666 Y58.113
X70.342 Y57.701
X70.415 Y57.648
X70.511 Y57.567
X70.573 Y57.508
X71.095 Y56.921
X71.133 Y56.874
X71.166 Y56.823
X71.246 Y56.683
X71.271 Y56.636
X71.303 Y56.566
X71.901 Y57.49
X72.041 Y57.819
X72.4 Y58.824
X72.462 Y59.131
X72.587 Y60.225
X72.583 Y60.54
X72.447 Y61.684
X72.395 Y61.923
X71.988 Y63.044
X71.905 Y63.233
X71.301 Y64.166
X71.222 Y63.999
X71.192 Y63.944
X71.157 Y63.892
X71.084 Y63.796
X71.052 Y63.758
X70.524 Y63.176
X70.468 Y63.122
X70.406 Y63.076
X70.162 Y62.918
X70.149 Y62.91
X69.678 Y62.623
X69.613 Y62.588
X69.34 Y62.465
Y62.246
X69.652 Y61.76
X69.689 Y61.693
X69.718 Y61.622
X69.763 Y61.482
X69.781 Y61.413
X69.95 Y60.549
X69.958 Y60.491
X69.961 Y60.433
Y60.288
X69.958 Y60.231
X69.949 Y60.175
X69.767 Y59.26
X69.752 Y59.2
X69.731 Y59.143
X69.676 Y59.014
X69.653 Y58.966
X69.626 Y58.92
X69.34 Y58.486
Y58.275
X69.368 Y58.276
X71.122 Y58.444
X71.204 Y58.4
X71.254 Y58.433 Z-0.902 F333.
X71.296 Y58.474 Z-0.904
X71.331 Y58.522 Z-0.906
X71.356 Y58.576 Z-0.908
X71.44 Y58.832 Z-0.918
X71.509 Y59.091 Z-0.927
X71.565 Y59.354 Z-0.937
X71.606 Y59.62 Z-0.946
X71.628 Y59.834 Z-0.954
X71.639 Y60.048 Z-0.961
X71.64 Y60.263 Z-0.969
X71.631 Y60.478 Z-0.976
X71.612 Y60.692 Z-0.984
X71.524 Y61.431 Z-1.01
X71.497 Y61.615 Z-1.016
X71.459 Y61.797 Z-1.023
X71.411 Y61.977 Z-1.029
X71.353 Y62.154 Z-1.036
X71.324 Y62.213 Z-1.038
X71.285 Y62.266 Z-1.04
X71.235 Y62.309 Z-1.042
X71.178 Y62.341 Z-1.045
X71.115 Y62.361 Z-1.047
X71.05 Y62.368 Z-1.049
X70.984 Y62.361 Z-1.052
X70.921 Y62.342 Z-1.054
X70.864 Y62.31 Z-1.056
X70.797 Y62.266 Z-1.059
X70.728 Y62.224 Z-1.062
X70.677 Y62.185 Z-1.064
X70.634 Y62.137 Z-1.066
X70.6 Y62.082 Z-1.069
X70.578 Y62.022 Z-1.071
X70.568 Y61.958 Z-1.073
X70.57 Y61.894 Z-1.075
X70.584 Y61.831 Z-1.078
X70.677 Y61.534 Z-1.088
X70.762 Y61.234 Z-1.099
X70.838 Y60.932 Z-1.11
X70.869 Y60.778 Z-1.116
X70.889 Y60.623 Z-1.121
X70.897 Y60.466 Z-1.127
X70.895 Y60.309 Z-1.132
X70.881 Y60.153 Z-1.138
X70.856 Y59.998 Z-1.143
X70.741 Y59.443 Z-1.163
X70.697 Y59.259 Z-1.17
X70.646 Y59.077 Z-1.176
X70.588 Y58.897 Z-1.183
X70.573 Y58.834 Z-1.185
X70.57 Y58.769 Z-1.187
X70.58 Y58.705 Z-1.19
X70.601 Y58.644 Z-1.192
X70.634 Y58.589 Z-1.194
X70.677 Y58.54 Z-1.196
X70.729 Y58.501 Z-1.199
X70.801 Y58.457 Z-1.202
X70.873 Y58.412 Z-1.205
X70.931 Y58.382 Z-1.207
X70.994 Y58.365 Z-1.209
X71.059 Y58.36 Z-1.211
X71.123 Y58.369 Z-1.214
X71.185 Y58.39 Z-1.216
X71.241 Y58.423 Z-1.218
X71.289 Y58.466 Z-1.22
X71.328 Y58.518 Z-1.223
X71.356 Y58.576 Z-1.225
X71.431 Y58.803 Z-1.233
X71.495 Y59.033 Z-1.242
X71.548 Y59.267 Z-1.25
G3 X71.606 Y59.62 R4.924 F1499.
X71.612 Y60.692 R4.47
X71.524 Y61.431 R120.799
X71.353 Y62.154 R3.326
X70.94 Y62.349 R0.323
X70.864 Y62.31 R0.323
G1 X70.797 Y62.266
X70.728 Y62.224
G3 X70.584 Y61.831 R0.336
G2 X70.838 Y60.932 R10.895
X70.856 Y59.998 R2.199
X70.741 Y59.443 R30.824
X70.588 Y58.897 R4.81
G3 X70.729 Y58.501 R0.336
G1 X70.801 Y58.457
X70.873 Y58.412
G3 X71.324 Y58.511 R0.326
X71.356 Y58.576 R0.326
X71.548 Y59.267 R4.924
G2 X72.101 Y59.92 R0.887
G3 X72.546 Y60.652 R0.698
G1 X72.414 Y61.791
X71.918 Y63.174
X71.299 Y64.132
X71.234 Y63.995
X71.203 Y63.938
X71.166 Y63.885
X71.081 Y63.775
X71.054 Y63.742
X70.566 Y63.198
X70.53 Y63.161
X70.49 Y63.127
X70.388 Y63.047
X70.33 Y63.007
X69.661 Y62.6
X69.596 Y62.566
X69.352 Y62.456
Y62.247
X69.661 Y61.769
X69.698 Y61.703
X69.727 Y61.632
X69.774 Y61.488
X69.793 Y61.415
X69.962 Y60.549
X69.971 Y60.491
X69.973 Y60.433
Y60.288
X69.97 Y60.231
X69.961 Y60.175
X69.78 Y59.26
X69.765 Y59.2
X69.744 Y59.142
X69.687 Y59.009
X69.665 Y58.962
X69.639 Y58.918
X69.352 Y58.478
Y58.274
X69.607 Y58.159
X69.675 Y58.122
X70.393 Y57.679
X70.453 Y57.636
X70.508 Y57.586
X70.653 Y57.436
X70.669 Y57.418
X71.102 Y56.932
X71.16 Y56.855
X71.221 Y56.759
X71.259 Y56.689
X71.298 Y56.605
X71.927 Y57.572
X72.41 Y58.919
X72.576 Y60.386
X72.546 Y60.652
X72.536 Y60.696 Z-1.241
X72.518 Y60.738 Z-1.232
X72.497 Y60.77 Z-1.206
X72.471 Y60.799 Z-1.18
X72.43 Y60.83 Z-1.103
X72.414 Y60.838 Z-1.012
G0 Z5.
X61.307 Y60.394
Z0.665
G1 Y60.377 Z0.575 F333.
Y60.327 Z0.499
X61.308 Y60.253 Z0.447
X61.31 Y60.164 Z0.427
X61.323 Y59.889 Z0.417
X61.348 Y59.614 Z0.407
X61.384 Y59.34 Z0.398
X61.43 Y59.068 Z0.388
X61.487 Y58.799 Z0.379
X61.511 Y58.732 Z0.376
X61.548 Y58.673 Z0.374
X61.598 Y58.623 Z0.371
X61.657 Y58.585 Z0.369
X61.723 Y58.561 Z0.366
X61.793 Y58.552 Z0.364
X61.863 Y58.559 Z0.361
X61.93 Y58.58 Z0.359
X61.991 Y58.616 Z0.356
X62.068 Y58.672 Z0.353
X62.119 Y58.714 Z0.351
X62.16 Y58.765 Z0.348
X62.191 Y58.824 Z0.346
X62.209 Y58.887 Z0.344
X62.215 Y58.953 Z0.342
X62.208 Y59.018 Z0.339
X62.114 Y59.462 Z0.323
X62.014 Y59.905 Z0.308
X61.981 Y60.084 Z0.301
X61.963 Y60.266 Z0.295
X61.96 Y60.449 Z0.288
X61.973 Y60.631 Z0.282
X62.001 Y60.812 Z0.276
X62.05 Y61.039 Z0.267
X62.107 Y61.264 Z0.259
X62.163 Y61.489 Z0.251
X62.212 Y61.716 Z0.243
X62.218 Y61.782 Z0.241
X62.212 Y61.848 Z0.239
X62.192 Y61.912 Z0.236
X62.16 Y61.971 Z0.234
X62.117 Y62.022 Z0.232
X62.065 Y62.064 Z0.229
X62.026 Y62.089 Z0.228
X61.988 Y62.116 Z0.226
X61.927 Y62.15 Z0.223
X61.86 Y62.17 Z0.221
X61.79 Y62.176 Z0.219
X61.72 Y62.165 Z0.216
X61.654 Y62.141 Z0.214
X61.596 Y62.102 Z0.211
X61.547 Y62.052 Z0.209
X61.51 Y61.992 Z0.206
X61.486 Y61.926 Z0.204
X61.422 Y61.617 Z0.193
X61.372 Y61.306 Z0.182
X61.336 Y60.992 Z0.171
X61.314 Y60.678 Z0.16
X61.307 Y60.362 Z0.149
X61.314 Y60.047 Z0.138
X61.336 Y59.732 Z0.127
X61.372 Y59.419 Z0.116
X61.423 Y59.107 Z0.105
X61.487 Y58.799 Z0.094
X61.511 Y58.732 Z0.091
X61.548 Y58.673 Z0.089
X61.598 Y58.623 Z0.086
X61.657 Y58.585 Z0.084
X61.723 Y58.561 Z0.081
X61.793 Y58.552 Z0.079
X61.863 Y58.559 Z0.076
X61.93 Y58.58 Z0.074
X61.991 Y58.616 Z0.071
X62.068 Y58.672 Z0.068
X62.119 Y58.714 Z0.066
X62.16 Y58.765 Z0.064
X62.191 Y58.824 Z0.061
X62.209 Y58.887 Z0.059
X62.215 Y58.953 Z0.057
X62.208 Y59.018 Z0.054
X62.114 Y59.462 Z0.038
X62.014 Y59.905 Z0.023
X61.981 Y60.084 Z0.016
X61.963 Y60.266 Z0.01
X61.96 Y60.449 Z0.003
X61.973 Y60.631 Z-0.003
X62.001 Y60.812 Z-0.009
X62.05 Y61.039 Z-0.017
X62.107 Y61.264 Z-0.026
X62.163 Y61.489 Z-0.034
X62.212 Y61.716 Z-0.042
X62.218 Y61.782 Z-0.044
X62.212 Y61.848 Z-0.046
X62.192 Y61.912 Z-0.049
X62.16 Y61.971 Z-0.051
X62.117 Y62.022 Z-0.053
X62.065 Y62.064 Z-0.056
X62.026 Y62.089 Z-0.057
X61.988 Y62.116 Z-0.059
X61.927 Y62.15 Z-0.061
X61.86 Y62.17 Z-0.064
X61.79 Y62.176 Z-0.066
X61.72 Y62.165 Z-0.069
X61.654 Y62.141 Z-0.071
X61.596 Y62.102 Z-0.074
X61.547 Y62.052 Z-0.076
X61.51 Y61.992 Z-0.079
X61.486 Y61.926 Z-0.081
X61.422 Y61.617 Z-0.092
X61.372 Y61.306 Z-0.103
X61.336 Y60.992 Z-0.114
X61.314 Y60.678 Z-0.125
X61.307 Y60.362 Z-0.136
X61.314 Y60.047 Z-0.147
X61.336 Y59.732 Z-0.158
X61.372 Y59.419 Z-0.169
X61.423 Y59.107 Z-0.18
X61.487 Y58.799 Z-0.191
X61.511 Y58.732 Z-0.194
X61.548 Y58.673 Z-0.196
X61.598 Y58.623 Z-0.199
X61.657 Y58.585 Z-0.201
X61.723 Y58.561 Z-0.204
X61.793 Y58.552 Z-0.206
X61.863 Y58.559 Z-0.208
X61.93 Y58.58 Z-0.211
X61.991 Y58.616 Z-0.213
X62.068 Y58.672 Z-0.217
X62.119 Y58.714 Z-0.219
X62.16 Y58.765 Z-0.221
X62.191 Y58.824 Z-0.224
X62.209 Y58.887 Z-0.226
X62.215 Y58.953 Z-0.228
X62.208 Y59.018 Z-0.231
X62.114 Y59.462 Z-0.246
X62.014 Y59.905 Z-0.262
X61.981 Y60.084 Z-0.269
X61.963 Y60.266 Z-0.275
X61.96 Y60.449 Z-0.281
X61.973 Y60.631 Z-0.288
X62.001 Y60.812 Z-0.294
X62.05 Y61.039 Z-0.302
X62.107 Y61.264 Z-0.31
X62.163 Y61.489 Z-0.319
X62.212 Y61.716 Z-0.327
X62.218 Y61.782 Z-0.329
X62.212 Y61.848 Z-0.331
X62.192 Y61.912 Z-0.334
X62.16 Y61.971 Z-0.336
X62.117 Y62.022 Z-0.338
X62.065 Y62.064 Z-0.341
X62.026 Y62.089 Z-0.342
X61.988 Y62.116 Z-0.344
X61.927 Y62.15 Z-0.346
X61.86 Y62.17 Z-0.349
X61.79 Y62.176 Z-0.351
X61.72 Y62.165 Z-0.354
X61.654 Y62.141 Z-0.356
X61.596 Y62.102 Z-0.359
X61.547 Y62.052 Z-0.361
X61.51 Y61.992 Z-0.364
X61.486 Y61.926 Z-0.366
X61.427 Y61.643 Z-0.376
X61.379 Y61.357 Z-0.386
X61.343 Y61.07 Z-0.396
X61.32 Y60.782 Z-0.406
G3 X61.487 Y58.799 R6.887 F1499.
X61.871 Y58.56 R0.319
X61.991 Y58.616 R0.319
G1 X62.068 Y58.672
G3 X62.208 Y59.018 R0.336
X62.014 Y59.905 R42.14
G2 X62.001 Y60.812 R2.155
X62.107 Y61.264 R7.428
G3 X62.212 Y61.716 R7.428
X62.065 Y62.064 R0.336
G1 X62.026 Y62.089
X61.988 Y62.116
G3 X61.538 Y62.04 R0.323
X61.486 Y61.926 R0.323
X61.32 Y60.782 R6.887
G2 X60.664 Y59.858 R1.073
G3 X60.148 Y58.849 R0.878
G1 X60.292 Y58.233
X60.923 Y56.949
X61.039 Y56.799
X61.708 Y55.986
X61.862 Y56.433
X61.891 Y56.503
X61.929 Y56.568
X62.008 Y56.687
X62.036 Y56.725
X62.547 Y57.377
X62.583 Y57.42
X62.623 Y57.458
X62.737 Y57.558
X62.81 Y57.612
X63.585 Y58.104
X63.655 Y58.142
X63.906 Y58.257
X63.905 Y58.495
X63.605 Y58.953
X63.571 Y59.011
X63.544 Y59.073
X63.499 Y59.196
X63.473 Y59.287
X63.298 Y60.175
X63.289 Y60.232
X63.286 Y60.288
Y60.433
X63.289 Y60.493
X63.297 Y60.552
X63.483 Y61.48
X63.499 Y61.541
X63.521 Y61.6
X63.571 Y61.714
X63.593 Y61.761
X63.62 Y61.805
X63.907 Y62.238
Y62.475
X63.589 Y62.623
X63.516 Y62.663
X62.759 Y63.155
X62.702 Y63.197
X62.65 Y63.245
X62.545 Y63.357
X62.507 Y63.401
X61.98 Y64.082
X61.95 Y64.124
X61.923 Y64.169
X61.884 Y64.244
X61.847 Y64.329
X61.706 Y64.743
X60.945 Y63.815
X60.721 Y63.372
X60.291 Y62.496
X59.964 Y61.09
X59.968 Y59.622
X59.996 Y59.502
X60.148 Y58.849
X60.162 Y58.814
X60.185 Y58.786
X60.216 Y58.766
X60.252 Y58.757
X60.289 Y58.759
X60.323 Y58.772
X61.462 Y59.421
X61.493 Y59.451
X61.511 Y59.491
X61.575 Y59.745
X61.578 Y59.786
X61.567 Y59.826
X61.543 Y59.859
X61.509 Y59.882
X61.469 Y59.893
X61.428 Y59.889
X61.391 Y59.871
X61.362 Y59.842
X61.344 Y59.805
X61.341 Y59.764
X61.377 Y59.444 Z-0.418 F333.
X61.427 Y59.126 Z-0.429
X61.493 Y58.811 Z-0.44
X61.516 Y58.745 Z-0.443
X61.553 Y58.686 Z-0.445
X61.603 Y58.636 Z-0.447
X61.661 Y58.598 Z-0.45
X61.727 Y58.574 Z-0.452
X61.796 Y58.565 Z-0.455
X61.866 Y58.572 Z-0.457
X61.932 Y58.593 Z-0.46
X61.993 Y58.628 Z-0.462
X62.059 Y58.676 Z-0.465
X62.109 Y58.718 Z-0.467
X62.151 Y58.769 Z-0.47
X62.181 Y58.827 Z-0.472
X62.2 Y58.89 Z-0.474
X62.206 Y58.956 Z-0.476
X62.199 Y59.021 Z-0.479
X62.105 Y59.464 Z-0.495
X62.006 Y59.906 Z-0.51
X61.972 Y60.085 Z-0.517
X61.954 Y60.266 Z-0.523
X61.952 Y60.448 Z-0.529
X61.964 Y60.63 Z-0.536
X61.992 Y60.81 Z-0.542
X62.041 Y61.037 Z-0.55
X62.097 Y61.261 Z-0.558
X62.153 Y61.485 Z-0.566
X62.202 Y61.712 Z-0.575
X62.208 Y61.778 Z-0.577
X62.202 Y61.844 Z-0.579
X62.182 Y61.908 Z-0.582
X62.15 Y61.967 Z-0.584
X62.107 Y62.018 Z-0.586
X62.055 Y62.059 Z-0.589
X61.99 Y62.103 Z-0.591
X61.929 Y62.137 Z-0.594
X61.863 Y62.157 Z-0.596
X61.793 Y62.162 Z-0.599
X61.724 Y62.152 Z-0.601
X61.659 Y62.128 Z-0.603
X61.601 Y62.089 Z-0.606
X61.553 Y62.04 Z-0.608
X61.516 Y61.981 Z-0.611
X61.493 Y61.915 Z-0.613
X61.434 Y61.634 Z-0.623
X61.386 Y61.351 Z-0.633
X61.351 Y61.066 Z-0.643
X61.327 Y60.78 Z-0.653
G3 X61.493 Y58.811 R6.837 F1499.
X61.874 Y58.573 R0.317
X61.993 Y58.628 R0.317
G1 X62.059 Y58.676
G3 X62.199 Y59.021 R0.336
X62.006 Y59.906 R37.879
G2 X61.992 Y60.81 R2.152
X62.097 Y61.261 R7.404
G3 X62.202 Y61.712 R7.404
X62.055 Y62.059 R0.336
G1 X61.99 Y62.103
G3 X61.544 Y62.028 R0.32
X61.493 Y61.915 R0.32
X61.327 Y60.78 R6.837
G2 X60.672 Y59.856 R1.072
G3 X60.157 Y58.848 R0.878
G1 X60.298 Y58.241
X60.929 Y56.955
X61.704 Y56.003
X61.855 Y56.438
X61.884 Y56.508
X61.923 Y56.574
X62.01 Y56.704
X62.035 Y56.739
X62.537 Y57.379
X62.573 Y57.421
X62.612 Y57.459
X62.73 Y57.563
X62.802 Y57.617
X63.534 Y58.087
X63.609 Y58.128
X63.898 Y58.259
Y58.487
X63.594 Y58.955
X63.561 Y59.013
X63.534 Y59.074
X63.49 Y59.196
X63.464 Y59.286
X63.289 Y60.175
X63.281 Y60.232
X63.278 Y60.288
X63.277 Y60.433
X63.28 Y60.493
X63.289 Y60.552
X63.474 Y61.478
X63.49 Y61.542
X63.514 Y61.605
X63.573 Y61.736
X63.617 Y61.817
X63.898 Y62.248
Y62.47
X63.635 Y62.588
X63.558 Y62.63
X62.761 Y63.143
X62.705 Y63.183
X62.654 Y63.23
X62.548 Y63.34
X62.506 Y63.389
X61.976 Y64.071
X61.942 Y64.121
X61.912 Y64.173
X61.855 Y64.291
X61.825 Y64.362
X61.702 Y64.725
X60.927 Y63.77
X60.301 Y62.496
X59.973 Y61.089
X59.974 Y59.636
X59.996 Y59.54
X60.157 Y58.848
X60.171 Y58.814
X60.195 Y58.785
X60.227 Y58.765
X60.263 Y58.757
X60.301 Y58.759
X61.446 Y59.031
X61.485 Y59.04
X61.52 Y59.063
X61.545 Y59.095
X61.557 Y59.134
X61.556 Y59.175
X61.541 Y59.212
X61.514 Y59.243
X61.478 Y59.263
X61.438 Y59.269
X61.398 Y59.262
X61.362 Y59.241
X61.336 Y59.21
X61.322 Y59.172
Y59.131
X61.335 Y59.092
X61.531 Y58.741
X61.57 Y58.687 Z-0.656 F333.
X61.619 Y58.643 Z-0.658
X61.677 Y58.609 Z-0.66
X61.74 Y58.588 Z-0.663
X61.805 Y58.58 Z-0.665
X61.872 Y58.587 Z-0.667
X61.935 Y58.606 Z-0.67
X61.993 Y58.639 Z-0.672
X62.044 Y58.674 Z-0.674
X62.096 Y58.716 Z-0.676
X62.139 Y58.767 Z-0.679
X62.171 Y58.826 Z-0.681
X62.19 Y58.89 Z-0.683
X62.196 Y58.957 Z-0.686
X62.189 Y59.023 Z-0.688
X62.095 Y59.465 Z-0.704
X61.997 Y59.906 Z-0.72
X61.964 Y60.085 Z-0.726
X61.946 Y60.266 Z-0.732
X61.943 Y60.448 Z-0.739
X61.956 Y60.629 Z-0.745
X61.984 Y60.809 Z-0.751
X62.032 Y61.035 Z-0.759
X62.088 Y61.259 Z-0.768
X62.144 Y61.483 Z-0.776
X62.192 Y61.708 Z-0.784
X62.199 Y61.775 Z-0.786
X62.192 Y61.841 Z-0.788
X62.172 Y61.905 Z-0.791
X62.141 Y61.963 Z-0.793
X62.098 Y62.014 Z-0.795
X62.046 Y62.056 Z-0.798
X61.992 Y62.092 Z-0.8
X61.932 Y62.125 Z-0.802
X61.866 Y62.145 Z-0.805
X61.797 Y62.149 Z-0.807
X61.729 Y62.139 Z-0.81
X61.664 Y62.114 Z-0.812
X61.607 Y62.076 Z-0.814
X61.559 Y62.027 Z-0.817
X61.522 Y61.968 Z-0.819
X61.499 Y61.903 Z-0.822
X61.434 Y61.589 Z-0.833
X61.383 Y61.271 Z-0.844
X61.347 Y60.952 Z-0.855
X61.327 Y60.631 Z-0.866
X61.322 Y60.31 Z-0.878
X61.332 Y59.988 Z-0.889
X61.357 Y59.668 Z-0.9
G3 X61.497 Y58.828 R6.779 F1499.
X61.881 Y58.589 R0.32
X61.993 Y58.639 R0.32
G1 X62.044 Y58.674
G3 X62.189 Y59.023 R0.336
X61.997 Y59.906 R44.357
G2 X61.984 Y60.809 R2.16
X62.088 Y61.259 R7.388
G3 X62.192 Y61.708 R7.388
X62.046 Y62.056 R0.336
G1 X61.992 Y62.092
G3 X61.549 Y62.014 R0.319
X61.499 Y61.903 R0.319
X61.357 Y59.668 R6.779
G2 X60.897 Y58.667 R1.084
G3 X60.621 Y57.6 R0.845
G1 X60.937 Y56.955
X61.7 Y56.018
X61.847 Y56.441
X61.877 Y56.512
X61.917 Y56.579
X62.011 Y56.719
X62.035 Y56.752
X62.528 Y57.381
X62.583 Y57.442
X62.665 Y57.522
X62.709 Y57.56
X62.756 Y57.594
X63.532 Y58.095
X63.609 Y58.138
X63.89 Y58.265
Y58.481
X63.831 Y58.574
X63.584 Y58.957
X63.55 Y59.016
X63.524 Y59.078
X63.478 Y59.205
X63.454 Y59.292
X63.281 Y60.176
X63.272 Y60.232
X63.269 Y60.288
Y60.433
X63.272 Y60.492
X63.28 Y60.551
X63.464 Y61.476
X63.479 Y61.535
X63.5 Y61.592
X63.549 Y61.707
X63.572 Y61.756
X63.599 Y61.802
X63.89 Y62.244
Y62.465
X63.617 Y62.588
X63.539 Y62.631
X62.752 Y63.139
X62.697 Y63.179
X62.647 Y63.226
X62.545 Y63.331
X62.503 Y63.379
X61.973 Y64.061
X61.94 Y64.109
X61.911 Y64.16
X61.849 Y64.282
X61.818 Y64.358
X61.699 Y64.709
X60.932 Y63.764
X60.31 Y62.496
X59.981 Y61.088
X59.98 Y59.647
X59.996 Y59.575
X60.301 Y58.261
X60.342 Y58.168
X60.621 Y57.6
X60.643 Y57.569
X60.675 Y57.546
X60.712 Y57.535
X60.75 Y57.536
X60.787 Y57.549
X60.817 Y57.574
X60.837 Y57.606
X61.114 Y58.259
X61.122 Y58.288
X61.604 Y61.592
X61.578 Y61.765
X61.567 Y61.789
X61.545 Y61.804
X61.518
X61.495 Y61.791
X61.483 Y61.768
X61.427 Y61.478 Z-0.91 F333.
X61.384 Y61.187 Z-0.921
X61.354 Y60.893 Z-0.931
X61.337 Y60.599 Z-0.941
X61.333 Y60.305 Z-0.952
X61.342 Y60.01 Z-0.962
X61.365 Y59.716 Z-0.972
X61.4 Y59.423 Z-0.982
X61.448 Y59.133 Z-0.993
X61.509 Y58.844 Z-1.003
X61.531 Y58.78 Z-1.005
X61.567 Y58.722 Z-1.008
X61.615 Y58.673 Z-1.01
X61.672 Y58.635 Z-1.013
X61.735 Y58.611 Z-1.015
X61.803 Y58.6 Z-1.017
X61.871 Y58.605 Z-1.02
X61.937 Y58.623 Z-1.022
X61.997 Y58.656 Z-1.025
X62.031 Y58.679 Z-1.026
X62.083 Y58.721 Z-1.028
X62.126 Y58.773 Z-1.031
X62.157 Y58.832 Z-1.033
X62.176 Y58.896 Z-1.035
X62.182 Y58.962 Z-1.038
X62.175 Y59.029 Z-1.04
X61.984 Y59.907 Z-1.071
X61.951 Y60.085 Z-1.078
X61.934 Y60.265 Z-1.084
X61.931 Y60.446 Z-1.09
X61.943 Y60.627 Z-1.097
X61.971 Y60.806 Z-1.103
X62.019 Y61.031 Z-1.111
X62.074 Y61.255 Z-1.119
X62.13 Y61.479 Z-1.127
X62.178 Y61.705 Z-1.135
X62.184 Y61.771 Z-1.138
X62.177 Y61.837 Z-1.14
X62.158 Y61.9 Z-1.142
X62.126 Y61.959 Z-1.145
X62.083 Y62.01 Z-1.147
X62.032 Y62.051 Z-1.149
X61.996 Y62.075 Z-1.151
X61.936 Y62.107 Z-1.153
X61.871 Y62.126 Z-1.155
X61.803 Y62.13 Z-1.158
X61.735 Y62.12 Z-1.16
X61.672 Y62.095 Z-1.163
X61.615 Y62.057 Z-1.165
X61.568 Y62.009 Z-1.167
X61.532 Y61.951 Z-1.17
X61.509 Y61.886 Z-1.172
X61.444 Y61.575 Z-1.183
X61.394 Y61.26 Z-1.194
X61.358 Y60.944 Z-1.206
X61.338 Y60.626 Z-1.217
X61.333 Y60.307 Z-1.228
X61.344 Y59.989 Z-1.239
X61.369 Y59.672 Z-1.25
G3 X61.509 Y58.844 R6.666 F1499.
X61.889 Y58.608 R0.317
X61.997 Y58.656 R0.317
G1 X62.031 Y58.679
G3 X62.175 Y59.029 R0.336
X61.984 Y59.907 R52.331
G2 X61.971 Y60.806 R2.167
X62.074 Y61.255 R7.381
G3 X62.178 Y61.705 R7.381
X62.032 Y62.051 R0.336
G1 X61.996 Y62.075
G3 X61.556 Y61.993 R0.316
X61.509 Y61.886 R0.316
X61.369 Y59.672 R6.666
G2 X60.91 Y58.67 R1.083
G3 X60.634 Y57.603 R0.845
G1 X60.953 Y56.955
X61.696 Y56.042
X61.836 Y56.446
X61.862 Y56.51
X61.896 Y56.57
X61.962 Y56.673
X61.995 Y56.72
X62.514 Y57.384
X62.566 Y57.442
X62.652 Y57.527
X62.697 Y57.567
X62.746 Y57.602
X63.532 Y58.109
X63.61 Y58.152
X63.876 Y58.272
X63.875 Y58.489
X63.572 Y58.955
X63.536 Y59.018
X63.508 Y59.084
X63.461 Y59.22
X63.439 Y59.301
X63.268 Y60.176
X63.26 Y60.232
X63.257 Y60.288
Y60.433
X63.259 Y60.492
X63.268 Y60.55
X63.448 Y61.465
X63.464 Y61.526
X63.486 Y61.585
X63.548 Y61.73
X63.571 Y61.777
X63.597 Y61.822
X63.878 Y62.247
Y62.458
X63.59 Y62.589
X63.513 Y62.631
X62.74 Y63.133
X62.686 Y63.173
X62.636 Y63.219
X62.54 Y63.318
X62.498 Y63.366
X61.969 Y64.046
X61.936 Y64.091
X61.909 Y64.14
X61.842 Y64.27
X61.808 Y64.35
X61.695 Y64.683
X60.94 Y63.754
X60.324 Y62.496
X59.994 Y61.088
X59.992 Y59.648
X59.996 Y59.632
X60.323 Y58.237
X60.634 Y57.603
X60.658 Y57.564 Z-1.241
X60.689 Y57.531 Z-1.232
X60.72 Y57.508 Z-1.206
X60.754 Y57.49 Z-1.18
X60.803 Y57.474 Z-1.103
X60.821 Y57.472 Z-1.012
G0 Z5.
X51.907 Y58.643
Z0.665
G1 X51.913 Y58.66 Z0.575 F333.
X51.928 Y58.707 Z0.499
X51.951 Y58.778 Z0.447
X51.976 Y58.863 Z0.427
X52.041 Y59.12 Z0.417
X52.092 Y59.381 Z0.408
X52.129 Y59.644 Z0.399
X52.151 Y59.909 Z0.39
X52.158 Y60.175 Z0.38
X52.151 Y60.501 Z0.369
X52.13 Y60.827 Z0.357
X52.096 Y61.152 Z0.346
X52.048 Y61.475 Z0.335
X51.986 Y61.796 Z0.323
X51.939 Y61.98 Z0.317
X51.879 Y62.16 Z0.31
X51.849 Y62.221 Z0.308
X51.808 Y62.275 Z0.305
X51.756 Y62.319 Z0.303
X51.697 Y62.352 Z0.301
X51.632 Y62.372 Z0.298
X51.565 Y62.379 Z0.296
X51.497 Y62.372 Z0.293
X51.433 Y62.352 Z0.291
X51.373 Y62.319 Z0.289
X51.302 Y62.27 Z0.286
X51.229 Y62.223 Z0.283
X51.177 Y62.184 Z0.28
X51.134 Y62.136 Z0.278
X51.1 Y62.081 Z0.276
X51.078 Y62.02 Z0.274
X51.068 Y61.955 Z0.271
X51.07 Y61.89 Z0.269
X51.085 Y61.827 Z0.267
X51.181 Y61.53 Z0.256
X51.266 Y61.229 Z0.245
X51.342 Y60.926 Z0.234
X51.376 Y60.741 Z0.227
X51.394 Y60.553 Z0.221
X51.397 Y60.364 Z0.214
X51.384 Y60.176 Z0.208
X51.355 Y59.99 Z0.201
X51.239 Y59.439 Z0.181
X51.171 Y59.166 Z0.172
X51.088 Y58.897 Z0.162
X51.074 Y58.835 Z0.159
X51.071 Y58.77 Z0.157
X51.081 Y58.707 Z0.155
X51.103 Y58.646 Z0.153
X51.137 Y58.591 Z0.15
X51.18 Y58.543 Z0.148
X51.231 Y58.504 Z0.146
X51.323 Y58.447 Z0.142
X51.385 Y58.407 Z0.14
X51.444 Y58.375 Z0.137
X51.508 Y58.356 Z0.135
X51.574 Y58.35 Z0.133
X51.641 Y58.357 Z0.13
X51.704 Y58.378 Z0.128
X51.763 Y58.411 Z0.126
X51.813 Y58.455 Z0.123
X51.853 Y58.508 Z0.121
X51.882 Y58.569 Z0.119
X51.966 Y58.828 Z0.109
X52.035 Y59.092 Z0.099
X52.089 Y59.36 Z0.09
X52.127 Y59.63 Z0.08
X52.15 Y59.902 Z0.071
X52.158 Y60.175 Z0.061
X52.151 Y60.501 Z0.05
X52.13 Y60.827 Z0.039
X52.096 Y61.152 Z0.027
X52.048 Y61.475 Z0.016
X51.986 Y61.796 Z0.004
X51.939 Y61.98 Z-0.002
X51.879 Y62.16 Z-0.009
X51.849 Y62.221 Z-0.011
X51.808 Y62.275 Z-0.014
X51.756 Y62.319 Z-0.016
X51.697 Y62.352 Z-0.018
X51.632 Y62.372 Z-0.021
X51.565 Y62.379 Z-0.023
X51.497 Y62.372 Z-0.026
X51.433 Y62.352 Z-0.028
X51.373 Y62.319 Z-0.03
X51.302 Y62.27 Z-0.033
X51.229 Y62.223 Z-0.036
X51.177 Y62.184 Z-0.039
X51.134 Y62.136 Z-0.041
X51.1 Y62.081 Z-0.043
X51.078 Y62.02 Z-0.045
X51.068 Y61.955 Z-0.048
X51.07 Y61.89 Z-0.05
X51.085 Y61.827 Z-0.052
X51.181 Y61.53 Z-0.063
X51.266 Y61.229 Z-0.074
X51.342 Y60.926 Z-0.085
X51.376 Y60.741 Z-0.092
X51.394 Y60.553 Z-0.098
X51.397 Y60.364 Z-0.105
X51.384 Y60.176 Z-0.111
X51.355 Y59.99 Z-0.118
X51.239 Y59.439 Z-0.138
X51.171 Y59.166 Z-0.147
X51.088 Y58.897 Z-0.157
X51.074 Y58.835 Z-0.159
X51.071 Y58.77 Z-0.162
X51.081 Y58.707 Z-0.164
X51.103 Y58.646 Z-0.166
X51.137 Y58.591 Z-0.168
X51.18 Y58.543 Z-0.171
X51.231 Y58.504 Z-0.173
X51.323 Y58.447 Z-0.177
X51.385 Y58.407 Z-0.179
X51.444 Y58.375 Z-0.182
X51.508 Y58.356 Z-0.184
X51.574 Y58.35 Z-0.186
X51.641 Y58.357 Z-0.189
X51.704 Y58.378 Z-0.191
X51.763 Y58.411 Z-0.193
X51.813 Y58.455 Z-0.196
X51.853 Y58.508 Z-0.198
X51.882 Y58.569 Z-0.2
X51.966 Y58.828 Z-0.21
X52.035 Y59.092 Z-0.219
X52.089 Y59.36 Z-0.229
X52.127 Y59.63 Z-0.239
X52.15 Y59.902 Z-0.248
X52.158 Y60.175 Z-0.258
X52.151 Y60.501 Z-0.269
X52.13 Y60.827 Z-0.28
X52.096 Y61.152 Z-0.292
X52.048 Y61.475 Z-0.303
X51.986 Y61.796 Z-0.315
X51.939 Y61.98 Z-0.321
X51.879 Y62.16 Z-0.328
X51.849 Y62.221 Z-0.33
X51.808 Y62.275 Z-0.333
X51.756 Y62.319 Z-0.335
X51.697 Y62.352 Z-0.337
X51.632 Y62.372 Z-0.34
X51.565 Y62.379 Z-0.342
X51.497 Y62.372 Z-0.344
X51.433 Y62.352 Z-0.347
X51.373 Y62.319 Z-0.349
X51.302 Y62.27 Z-0.352
X51.229 Y62.223 Z-0.355
X51.177 Y62.184 Z-0.358
X51.134 Y62.136 Z-0.36
X51.1 Y62.081 Z-0.362
X51.078 Y62.02 Z-0.364
X51.068 Y61.955 Z-0.367
X51.07 Y61.89 Z-0.369
X51.085 Y61.827 Z-0.371
X51.181 Y61.53 Z-0.382
X51.266 Y61.229 Z-0.393
X51.342 Y60.926 Z-0.404
X51.356 Y60.856 Z-0.406
G2 X51.355 Y59.99 R2.233 F1499.
X51.239 Y59.439 R27.509
X51.088 Y58.897 R5.268
G3 X51.231 Y58.504 R0.336
G1 X51.323 Y58.447
X51.385 Y58.407
G3 X51.843 Y58.493 R0.329
X51.882 Y58.569 R0.329
X52.158 Y60.175 R4.788
X51.986 Y61.796 R7.761
G1 X51.939 Y61.98
X51.879 Y62.16
G3 X51.45 Y62.359 R0.334
X51.373 Y62.319 R0.334
G1 X51.302 Y62.27
X51.229 Y62.223
G3 X51.085 Y61.827 R0.336
G2 X51.342 Y60.926 R9.094
G1 X51.356 Y60.856
G2 X50.885 Y59.993 R0.77
G3 X50.246 Y59.245 R1.054
G1 X50.23 Y59.187
X50.208 Y59.131
X50.143 Y58.987
X50.096 Y58.902
X49.823 Y58.491
Y58.254
X50.108 Y58.125
X50.174 Y58.09
X50.849 Y57.675
X50.898 Y57.642
X50.943 Y57.604
X51.05 Y57.505
X51.091 Y57.462
X51.603 Y56.881
X51.651 Y56.82
X51.69 Y56.752
X51.796 Y56.537
X52.067 Y56.918
X52.352 Y57.36
X52.686 Y58.126
X52.862 Y58.621
X53.037 Y59.484
X53.09 Y59.985
Y60.786
X53.03 Y61.304
X52.849 Y62.146
X52.654 Y62.678
X52.355 Y63.362
X51.969 Y63.95
X51.794 Y64.195
X51.697 Y63.992
X51.657 Y63.92
X51.607 Y63.854
X51.155 Y63.339
X51.141 Y63.324
X51.014 Y63.188
X50.97 Y63.146
X50.921 Y63.108
X50.807 Y63.028
X50.774 Y63.007
X50.138 Y62.621
X50.074 Y62.588
X49.823 Y62.475
Y62.238
X50.128 Y61.771
X50.165 Y61.707
X50.193 Y61.638
X50.242 Y61.494
X50.263 Y61.416
X50.433 Y60.55
X50.441 Y60.492
X50.444 Y60.433
Y60.288
X50.441 Y60.231
X50.432 Y60.174
X50.249 Y59.259
X50.246 Y59.245
X50.245 Y59.202
X50.258 Y59.161
X50.285 Y59.128
X50.323 Y59.107
X50.365 Y59.1
X50.986 Y59.113
X51.024 Y59.108
X51.058 Y59.091
X51.085 Y59.065
X51.102 Y59.031
X51.108 Y58.994
X51.102 Y58.957
X51.081 Y58.894 Z-0.409 F333.
X51.066 Y58.831 Z-0.411
X51.063 Y58.767 Z-0.413
X51.073 Y58.703 Z-0.415
X51.095 Y58.642 Z-0.418
X51.128 Y58.587 Z-0.42
X51.171 Y58.538 Z-0.422
X51.222 Y58.499 Z-0.425
X51.309 Y58.446 Z-0.428
X51.394 Y58.392 Z-0.432
X51.451 Y58.361 Z-0.434
X51.513 Y58.343 Z-0.436
X51.577 Y58.338 Z-0.438
X51.641 Y58.345 Z-0.441
X51.702 Y58.365 Z-0.443
X51.758 Y58.397 Z-0.445
X51.806 Y58.44 Z-0.447
X51.845 Y58.491 Z-0.45
X51.873 Y58.549 Z-0.452
X51.962 Y58.82 Z-0.462
X52.036 Y59.094 Z-0.472
X52.096 Y59.373 Z-0.482
X52.141 Y59.654 Z-0.492
X52.171 Y59.937 Z-0.502
X52.186 Y60.221 Z-0.512
Y60.506 Z-0.521
X52.171 Y60.79 Z-0.531
X52.141 Y61.073 Z-0.541
X52.096 Y61.354 Z-0.551
X52.036 Y61.632 Z-0.561
X51.962 Y61.907 Z-0.571
X51.873 Y62.177 Z-0.581
X51.844 Y62.237 Z-0.583
X51.804 Y62.289 Z-0.586
X51.755 Y62.332 Z-0.588
X51.697 Y62.364 Z-0.59
X51.634 Y62.384 Z-0.593
X51.569 Y62.391 Z-0.595
X51.503 Y62.384 Z-0.597
X51.441 Y62.364 Z-0.6
X51.383 Y62.332 Z-0.602
X51.303 Y62.277 Z-0.605
X51.221 Y62.226 Z-0.609
X51.17 Y62.187 Z-0.611
X51.126 Y62.139 Z-0.613
X51.093 Y62.083 Z-0.615
X51.071 Y62.023 Z-0.618
X51.061 Y61.959 Z-0.62
X51.063 Y61.894 Z-0.622
X51.078 Y61.831 Z-0.624
X51.162 Y61.569 Z-0.634
X51.239 Y61.305 Z-0.644
X51.308 Y61.038 Z-0.653
X51.319 Y60.994 F1499.
G2 X51.374 Y60.124 R2.541
X51.261 Y59.501 R4.587
X51.081 Y58.894 R7.671
G3 X51.222 Y58.499 R0.336
G1 X51.309 Y58.446
X51.394 Y58.392
G3 X51.837 Y58.479 R0.32
X51.873 Y58.549 R0.32
Y62.177 R5.376
X51.459 Y62.372 R0.323
X51.383 Y62.332 R0.323
G1 X51.303 Y62.277
X51.221 Y62.226
G3 X51.078 Y61.831 R0.336
G2 X51.308 Y61.038 R9.642
X50.888 Y60.172 R0.755
G3 X50.29 Y59.417 R1.056
G1 X50.259 Y59.26
X50.242 Y59.195
X50.218 Y59.133
X50.153 Y58.988
X50.106 Y58.903
X49.832 Y58.488
Y58.26
X50.107 Y58.135
X50.175 Y58.099
X50.879 Y57.664
X50.933 Y57.626
X50.982 Y57.583
X51.067 Y57.5
X51.096 Y57.47
X51.576 Y56.932
X51.626 Y56.866
X51.691 Y56.77
X51.735 Y56.69
X51.8 Y56.551
X52.044 Y56.911
X52.39 Y57.455
X52.608 Y57.958
X52.88 Y58.719
X52.995 Y59.276
X53.089 Y60.131
Y60.641
X52.988 Y61.494
X52.882 Y62.006
X52.588 Y62.821
X52.375 Y63.306
X51.957 Y63.953
X51.797 Y64.18
X51.706 Y63.989
X51.667 Y63.919
X51.619 Y63.855
X51.32 Y63.511
X51.309 Y63.499
X51.021 Y63.184
X50.975 Y63.139
X50.924 Y63.099
X50.825 Y63.029
X50.792 Y63.007
X50.159 Y62.622
X50.095 Y62.588
X49.832 Y62.47
Y62.247
X50.14 Y61.768
X50.175 Y61.704
X50.203 Y61.636
X50.252 Y61.492
X50.272 Y61.416
X50.442 Y60.549
X50.45 Y60.491
X50.453 Y60.433
X50.452 Y60.288
X50.449 Y60.231
X50.441 Y60.174
X50.29 Y59.417
X50.289 Y59.376
X50.302 Y59.337
X50.328 Y59.304
X50.364 Y59.283
X50.404 Y59.275
X50.445 Y59.281
X50.481 Y59.301
X50.509 Y59.332
X50.524 Y59.371
X50.945 Y61.523
X50.959 Y61.56
X50.984 Y61.59
X51.018 Y61.611
X51.056 Y61.619
X51.095 Y61.615
X51.131 Y61.598
X51.159 Y61.57
X51.176 Y61.535
X51.261 Y61.234 Z-0.664 F333.
X51.338 Y60.93 Z-0.675
X51.368 Y60.776 Z-0.681
X51.387 Y60.62 Z-0.686
X51.396 Y60.463 Z-0.692
X51.393 Y60.306 Z-0.697
X51.379 Y60.15 Z-0.703
X51.353 Y59.995 Z-0.708
X51.238 Y59.441 Z-0.728
X51.194 Y59.257 Z-0.734
X51.143 Y59.076 Z-0.741
X51.086 Y58.896 Z-0.748
X51.071 Y58.833 Z-0.75
X51.068 Y58.769 Z-0.752
X51.078 Y58.705 Z-0.754
X51.1 Y58.644 Z-0.757
X51.133 Y58.588 Z-0.759
X51.176 Y58.54 Z-0.761
X51.227 Y58.501 Z-0.763
X51.307 Y58.453 Z-0.767
X51.385 Y58.403 Z-0.77
X51.442 Y58.373 Z-0.772
X51.504 Y58.355 Z-0.774
X51.569 Y58.349 Z-0.777
X51.633 Y58.357 Z-0.779
X51.694 Y58.378 Z-0.781
X51.75 Y58.41 Z-0.783
X51.798 Y58.453 Z-0.786
X51.837 Y58.504 Z-0.788
X51.865 Y58.562 Z-0.79
X51.95 Y58.821 Z-0.8
X52.021 Y59.084 Z-0.809
X52.077 Y59.35 Z-0.819
X52.119 Y59.618 Z-0.828
X52.141 Y59.835 Z-0.836
X52.153 Y60.052 Z-0.843
X52.154 Y60.27 Z-0.851
X52.144 Y60.488 Z-0.859
X52.124 Y60.705 Z-0.866
X52.035 Y61.445 Z-0.892
X52.001 Y61.667 Z-0.9
G3 X51.865 Y62.164 R3.263 F1499.
X51.45 Y62.36 R0.324
X51.373 Y62.319 R0.324
G1 X51.3 Y62.27
X51.226 Y62.224
G3 X51.082 Y61.83 R0.336
G2 X51.338 Y60.93 R10.115
X51.353 Y59.995 R2.211
X51.238 Y59.441 R29.741
X51.086 Y58.896 R4.94
G3 X51.227 Y58.501 R0.336
G1 X51.307 Y58.453
X51.385 Y58.403
G3 X51.831 Y58.494 R0.322
X51.865 Y58.562 R0.322
X52.119 Y59.618 R5.024
X52.124 Y60.705 R4.42
G1 X52.035 Y61.445
X52.001 Y61.667
G2 X52.263 Y62.397 R0.764
G3 X52.441 Y63.151 R0.645
G1 X52.405 Y63.233
X51.937 Y63.957
X51.798 Y64.162
X51.715 Y63.988
X51.676 Y63.918
X51.628 Y63.854
X51.331 Y63.511
X51.32 Y63.498
X51.022 Y63.174
X50.977 Y63.129
X50.927 Y63.09
X50.842 Y63.03
X50.808 Y63.008
X50.178 Y62.623
X50.113 Y62.588
X49.84 Y62.465
Y62.247
X50.148 Y61.768
X50.185 Y61.704
X50.213 Y61.635
X50.261 Y61.49
X50.281 Y61.416
X50.45 Y60.549
X50.458 Y60.491
X50.461 Y60.433
Y60.288
X50.458 Y60.231
X50.449 Y60.175
X50.267 Y59.26
X50.251 Y59.196
X50.227 Y59.134
X50.163 Y58.99
X50.141 Y58.946
X50.116 Y58.904
X49.84 Y58.485
Y58.265
X50.107 Y58.145
X50.175 Y58.109
X50.88 Y57.673
X50.933 Y57.636
X50.982 Y57.594
X51.072 Y57.506
X51.102 Y57.475
X51.584 Y56.934
X51.618 Y56.892
X51.649 Y56.848
X51.732 Y56.71
X51.764 Y56.651
X51.803 Y56.566
X52.409 Y57.506
X52.522 Y57.766
X52.897 Y58.814
X52.962 Y59.132
X53.087 Y60.225
X53.083 Y60.54
X52.947 Y61.686
X52.9 Y61.909
X52.504 Y63.007
X52.441 Y63.151
X52.42 Y63.182
X52.391 Y63.204
X52.355 Y63.214
X52.319 Y63.212
X52.285 Y63.197
X52.258 Y63.172
X52.242 Y63.139
X52.114 Y62.707
X51.671 Y58.638
X51.662 Y58.449
X51.666 Y58.427
X51.682 Y58.411
X51.703 Y58.405
X51.725 Y58.412
X51.779 Y58.456 Z-0.903 F333.
X51.823 Y58.511 Z-0.905
X51.854 Y58.575 Z-0.908
X51.942 Y58.842 Z-0.917
X52.015 Y59.113 Z-0.927
X52.074 Y59.388 Z-0.937
X52.119 Y59.665 Z-0.947
X52.148 Y59.945 Z-0.957
X52.163 Y60.226 Z-0.966
Y60.507 Z-0.976
X52.148 Y60.788 Z-0.986
X52.118 Y61.067 Z-0.996
X52.074 Y61.345 Z-1.006
X52.015 Y61.62 Z-1.016
X51.941 Y61.891 Z-1.025
X51.853 Y62.158 Z-1.035
X51.825 Y62.217 Z-1.037
X51.785 Y62.269 Z-1.04
X51.736 Y62.312 Z-1.042
X51.679 Y62.344 Z-1.044
X51.617 Y62.364 Z-1.047
X51.552 Y62.37 Z-1.049
X51.487 Y62.364 Z-1.051
X51.425 Y62.344 Z-1.053
X51.368 Y62.312 Z-1.056
X51.299 Y62.267 Z-1.059
X51.228 Y62.223 Z-1.062
X51.177 Y62.185 Z-1.064
X51.134 Y62.137 Z-1.066
X51.1 Y62.082 Z-1.068
X51.078 Y62.022 Z-1.071
X51.068 Y61.958 Z-1.073
X51.07 Y61.894 Z-1.075
X51.084 Y61.831 Z-1.077
X51.177 Y61.534 Z-1.088
X51.262 Y61.234 Z-1.099
X51.338 Y60.932 Z-1.11
X51.369 Y60.778 Z-1.115
X51.389 Y60.623 Z-1.121
X51.397 Y60.466 Z-1.126
X51.395 Y60.309 Z-1.132
X51.381 Y60.153 Z-1.137
X51.356 Y59.998 Z-1.143
X51.241 Y59.443 Z-1.163
X51.197 Y59.26 Z-1.169
X51.146 Y59.078 Z-1.176
X51.088 Y58.898 Z-1.182
X51.073 Y58.835 Z-1.185
X51.07 Y58.77 Z-1.187
X51.08 Y58.706 Z-1.189
X51.102 Y58.645 Z-1.191
X51.135 Y58.59 Z-1.194
X51.178 Y58.541 Z-1.196
X51.23 Y58.502 Z-1.198
X51.302 Y58.458 Z-1.201
X51.373 Y58.413 Z-1.204
X51.431 Y58.384 Z-1.206
X51.493 Y58.366 Z-1.209
X51.557 Y58.361 Z-1.211
X51.622 Y58.369 Z-1.213
X51.683 Y58.389 Z-1.215
X51.739 Y58.422 Z-1.218
X51.787 Y58.464 Z-1.22
X51.826 Y58.516 Z-1.222
X51.854 Y58.575 Z-1.224
X51.931 Y58.806 Z-1.233
X51.997 Y59.04 Z-1.241
X52.053 Y59.278 Z-1.25
G3 X51.853 Y62.158 R5.308 F1499.
X51.444 Y62.352 R0.32
X51.368 Y62.312 R0.32
G1 X51.299 Y62.267
X51.228 Y62.223
G3 X51.084 Y61.831 R0.336
G2 X51.338 Y60.932 R10.886
X51.356 Y59.998 R2.199
X51.241 Y59.443 R30.521
X51.088 Y58.898 R4.848
G3 X51.23 Y58.502 R0.336
G1 X51.302 Y58.458
X51.373 Y58.413
G3 X51.82 Y58.506 R0.323
X51.854 Y58.575 R0.323
X52.053 Y59.278 R5.308
G2 X52.604 Y59.927 R0.891
G3 X53.045 Y60.655 R0.696
G1 X52.914 Y61.791
X52.428 Y63.155
X51.798 Y64.132
X51.729 Y63.986
X51.694 Y63.924
X51.653 Y63.866
X51.545 Y63.733
X51.526 Y63.711
X51.077 Y63.21
X51.007 Y63.143
X50.895 Y63.052
X50.831 Y63.008
X50.171 Y62.605
X50.106 Y62.571
X49.852 Y62.456
Y62.247
X50.161 Y61.769
X50.198 Y61.703
X50.227 Y61.632
X50.274 Y61.488
X50.293 Y61.415
X50.462 Y60.549
X50.471 Y60.491
X50.473 Y60.433
Y60.288
X50.47 Y60.231
X50.461 Y60.175
X50.28 Y59.26
X50.264 Y59.197
X50.241 Y59.137
X50.178 Y58.992
X50.156 Y58.947
X50.13 Y58.904
X49.852 Y58.483
Y58.274
X50.107 Y58.159
X50.174 Y58.123
X50.879 Y57.69
X50.928 Y57.656
X50.973 Y57.618
X51.061 Y57.536
X51.099 Y57.497
X51.597 Y56.938
X51.631 Y56.897
X51.66 Y56.853
X51.738 Y56.726
X51.771 Y56.664
X51.8 Y56.601
X52.423 Y57.565
X52.914 Y58.934
X53.026 Y59.938
X53.076 Y60.386
X53.045 Y60.655
X53.036 Y60.7 Z-1.241
X53.018 Y60.742 Z-1.232
X52.997 Y60.774 Z-1.206
X52.971 Y60.803 Z-1.18
X52.93 Y60.833 Z-1.103
X52.914 Y60.842 Z-1.012
G0 Z5.
X41.807 Y60.402
Z0.665
G1 Y60.385 Z0.575 F333.
Y60.335 Z0.499
X41.808 Y60.261 Z0.447
X41.81 Y60.172 Z0.427
X41.823 Y59.896 Z0.417
X41.847 Y59.62 Z0.407
X41.883 Y59.345 Z0.398
X41.929 Y59.072 Z0.388
X41.987 Y58.801 Z0.378
X42.01 Y58.734 Z0.376
X42.048 Y58.674 Z0.373
X42.098 Y58.624 Z0.371
X42.158 Y58.586 Z0.368
X42.225 Y58.562 Z0.366
X42.295 Y58.553 Z0.363
X42.366 Y58.56 Z0.361
X42.434 Y58.582 Z0.358
X42.494 Y58.618 Z0.356
X42.569 Y58.672 Z0.353
X42.62 Y58.715 Z0.35
X42.661 Y58.767 Z0.348
X42.691 Y58.826 Z0.346
X42.71 Y58.889 Z0.344
X42.715 Y58.955 Z0.341
X42.707 Y59.021 Z0.339
X42.512 Y59.905 Z0.307
X42.479 Y60.084 Z0.301
X42.462 Y60.265 Z0.295
X42.46 Y60.447 Z0.288
X42.472 Y60.629 Z0.282
X42.501 Y60.809 Z0.275
X42.55 Y61.037 Z0.267
X42.606 Y61.263 Z0.259
X42.662 Y61.489 Z0.251
X42.711 Y61.716 Z0.243
X42.717 Y61.782 Z0.241
X42.71 Y61.849 Z0.238
X42.691 Y61.913 Z0.236
X42.659 Y61.971 Z0.234
X42.616 Y62.022 Z0.231
X42.564 Y62.064 Z0.229
X42.489 Y62.115 Z0.226
X42.428 Y62.149 Z0.223
X42.36 Y62.17 Z0.221
X42.29 Y62.175 Z0.218
X42.221 Y62.165 Z0.216
X42.155 Y62.14 Z0.213
X42.096 Y62.102 Z0.211
X42.047 Y62.051 Z0.209
X42.009 Y61.992 Z0.206
X41.986 Y61.925 Z0.204
X41.922 Y61.617 Z0.193
X41.872 Y61.306 Z0.182
X41.836 Y60.993 Z0.171
X41.814 Y60.678 Z0.16
X41.807 Y60.363 Z0.149
X41.814 Y60.048 Z0.138
X41.836 Y59.734 Z0.127
X41.872 Y59.421 Z0.116
X41.922 Y59.11 Z0.105
X41.987 Y58.801 Z0.094
X42.01 Y58.734 Z0.091
X42.048 Y58.674 Z0.089
X42.098 Y58.624 Z0.086
X42.158 Y58.586 Z0.084
X42.225 Y58.562 Z0.081
X42.295 Y58.553 Z0.079
X42.366 Y58.56 Z0.076
X42.434 Y58.582 Z0.074
X42.494 Y58.618 Z0.071
X42.569 Y58.672 Z0.068
X42.62 Y58.715 Z0.066
X42.661 Y58.767 Z0.063
X42.691 Y58.826 Z0.061
X42.71 Y58.889 Z0.059
X42.715 Y58.955 Z0.056
X42.707 Y59.021 Z0.054
X42.512 Y59.905 Z0.023
X42.479 Y60.084 Z0.016
X42.462 Y60.265 Z0.01
X42.46 Y60.447 Z0.003
X42.472 Y60.629 Z-0.003
X42.501 Y60.809 Z-0.009
X42.55 Y61.037 Z-0.017
X42.606 Y61.263 Z-0.026
X42.662 Y61.489 Z-0.034
X42.711 Y61.716 Z-0.042
X42.717 Y61.782 Z-0.044
X42.71 Y61.849 Z-0.046
X42.691 Y61.913 Z-0.049
X42.659 Y61.971 Z-0.051
X42.616 Y62.022 Z-0.053
X42.564 Y62.064 Z-0.056
X42.489 Y62.115 Z-0.059
X42.428 Y62.149 Z-0.061
X42.36 Y62.17 Z-0.064
X42.29 Y62.175 Z-0.066
X42.221 Y62.165 Z-0.069
X42.155 Y62.14 Z-0.071
X42.096 Y62.102 Z-0.074
X42.047 Y62.051 Z-0.076
X42.009 Y61.992 Z-0.079
X41.986 Y61.925 Z-0.081
X41.922 Y61.617 Z-0.092
X41.872 Y61.306 Z-0.103
X41.836 Y60.993 Z-0.114
X41.814 Y60.678 Z-0.125
X41.807 Y60.363 Z-0.136
X41.814 Y60.048 Z-0.147
X41.836 Y59.734 Z-0.158
X41.872 Y59.421 Z-0.169
X41.922 Y59.11 Z-0.18
X41.987 Y58.801 Z-0.191
X42.01 Y58.734 Z-0.194
X42.048 Y58.674 Z-0.196
X42.098 Y58.624 Z-0.199
X42.158 Y58.586 Z-0.201
X42.225 Y58.562 Z-0.204
X42.295 Y58.553 Z-0.206
X42.366 Y58.56 Z-0.209
X42.434 Y58.582 Z-0.211
X42.494 Y58.618 Z-0.214
X42.569 Y58.672 Z-0.217
X42.62 Y58.715 Z-0.219
X42.661 Y58.767 Z-0.221
X42.691 Y58.826 Z-0.224
X42.71 Y58.889 Z-0.226
X42.715 Y58.955 Z-0.228
X42.707 Y59.021 Z-0.231
X42.512 Y59.905 Z-0.262
X42.479 Y60.084 Z-0.269
X42.462 Y60.265 Z-0.275
X42.46 Y60.447 Z-0.281
X42.472 Y60.629 Z-0.288
X42.501 Y60.809 Z-0.294
X42.55 Y61.037 Z-0.302
X42.606 Y61.263 Z-0.31
X42.662 Y61.489 Z-0.318
X42.711 Y61.716 Z-0.327
X42.717 Y61.782 Z-0.329
X42.71 Y61.849 Z-0.331
X42.691 Y61.913 Z-0.334
X42.659 Y61.971 Z-0.336
X42.616 Y62.022 Z-0.338
X42.564 Y62.064 Z-0.341
X42.489 Y62.115 Z-0.344
X42.428 Y62.149 Z-0.346
X42.36 Y62.17 Z-0.349
X42.29 Y62.175 Z-0.351
X42.221 Y62.165 Z-0.354
X42.155 Y62.14 Z-0.356
X42.096 Y62.102 Z-0.359
X42.047 Y62.051 Z-0.361
X42.009 Y61.992 Z-0.363
X41.986 Y61.925 Z-0.366
X41.926 Y61.642 Z-0.376
X41.879 Y61.356 Z-0.386
X41.843 Y61.068 Z-0.396
X41.819 Y60.779 Z-0.406
G3 X41.987 Y58.801 R6.884 F1499.
X42.373 Y58.561 R0.322
X42.494 Y58.618 R0.322
G1 X42.569 Y58.672
G3 X42.707 Y59.021 R0.336
X42.512 Y59.905 R153.921
G2 X42.501 Y60.809 R2.184
X42.606 Y61.263 R7.45
G3 X42.711 Y61.716 R7.45
X42.564 Y62.064 R0.336
G1 X42.489 Y62.115
G3 X42.038 Y62.04 R0.323
X41.986 Y61.925 R0.323
X41.819 Y60.779 R6.884
G2 X41.164 Y59.855 R1.073
G3 X40.649 Y58.845 R0.879
G1 X40.695 Y58.648
X40.792 Y58.23
X41.432 Y56.932
X42.205 Y55.987
X42.343 Y56.391
X42.381 Y56.478
X42.432 Y56.574
X42.458 Y56.619
X42.489 Y56.662
X43.06 Y57.392
X43.101 Y57.439
X43.148 Y57.483
X43.257 Y57.573
X43.316 Y57.616
X44.04 Y58.081
X44.115 Y58.122
X44.407 Y58.254
Y58.493
X44.105 Y58.953
X44.069 Y59.016
X44.041 Y59.083
X43.99 Y59.228
X43.968 Y59.309
X43.798 Y60.176
X43.789 Y60.232
X43.786 Y60.288
Y60.433
X43.789 Y60.492
X43.797 Y60.551
X43.979 Y61.466
X43.996 Y61.529
X44.019 Y61.59
X44.082 Y61.735
X44.105 Y61.78
X44.131 Y61.823
X44.407 Y62.238
Y62.476
X44.115 Y62.608
X44.038 Y62.65
X43.266 Y63.15
X43.223 Y63.18
X43.183 Y63.215
X43.115 Y63.278
X43.053 Y63.346
X42.492 Y64.064
X42.456 Y64.115
X42.425 Y64.17
X42.355 Y64.314
X42.326 Y64.385
X42.205 Y64.743
X41.439 Y63.807
X40.791 Y62.496
X40.464 Y61.089
X40.465 Y59.637
X40.649 Y58.845
X40.663 Y58.811
X40.686 Y58.783
X40.717 Y58.763
X40.753 Y58.754
X40.789 Y58.756
X40.824 Y58.769
X41.964 Y59.42
X41.986 Y59.44
X42.002 Y59.464
X42.013 Y59.491
X42.075 Y59.749
X42.078 Y59.79
X42.066 Y59.829
X42.042 Y59.862
X42.008 Y59.885
X41.968 Y59.895
X41.927 Y59.891
X41.89 Y59.874
X41.861 Y59.844
X41.844 Y59.807
X41.841 Y59.766
X41.876 Y59.446 Z-0.418 F333.
X41.927 Y59.128 Z-0.429
X41.993 Y58.812 Z-0.44
X42.017 Y58.746 Z-0.443
X42.054 Y58.686 Z-0.445
X42.104 Y58.637 Z-0.448
X42.164 Y58.599 Z-0.45
X42.23 Y58.575 Z-0.452
X42.3 Y58.566 Z-0.455
X42.37 Y58.573 Z-0.457
X42.437 Y58.595 Z-0.46
X42.498 Y58.631 Z-0.462
X42.561 Y58.677 Z-0.465
X42.611 Y58.719 Z-0.467
X42.652 Y58.771 Z-0.47
X42.682 Y58.83 Z-0.472
X42.7 Y58.893 Z-0.474
X42.705 Y58.959 Z-0.477
X42.698 Y59.024 Z-0.479
X42.503 Y59.906 Z-0.51
X42.471 Y60.084 Z-0.517
X42.453 Y60.265 Z-0.523
X42.451 Y60.447 Z-0.529
X42.464 Y60.629 Z-0.536
X42.492 Y60.808 Z-0.542
X42.541 Y61.035 Z-0.55
X42.596 Y61.26 Z-0.558
X42.652 Y61.485 Z-0.566
X42.701 Y61.712 Z-0.575
X42.707 Y61.778 Z-0.577
X42.7 Y61.844 Z-0.579
X42.681 Y61.907 Z-0.582
X42.649 Y61.966 Z-0.584
X42.607 Y62.017 Z-0.586
X42.555 Y62.058 Z-0.589
X42.491 Y62.103 Z-0.591
X42.43 Y62.137 Z-0.594
X42.363 Y62.157 Z-0.596
X42.294 Y62.162 Z-0.599
X42.225 Y62.152 Z-0.601
X42.16 Y62.128 Z-0.603
X42.101 Y62.09 Z-0.606
X42.053 Y62.04 Z-0.608
X42.016 Y61.981 Z-0.611
X41.993 Y61.915 Z-0.613
X41.934 Y61.634 Z-0.623
X41.886 Y61.351 Z-0.633
X41.851 Y61.066 Z-0.643
X41.827 Y60.78 Z-0.653
G3 X41.993 Y58.812 R6.835 F1499.
X42.378 Y58.575 R0.32
X42.498 Y58.631 R0.32
G1 X42.561 Y58.677
G3 X42.698 Y59.024 R0.336
X42.503 Y59.906 R121.012
G2 X42.492 Y60.808 R2.181
X42.596 Y61.26 R7.423
G3 X42.701 Y61.712 R7.423
X42.555 Y62.058 R0.336
G1 X42.491 Y62.103
G3 X42.044 Y62.029 R0.32
X41.993 Y61.915 R0.32
X41.827 Y60.78 R6.835
G2 X41.172 Y59.856 R1.073
G3 X40.657 Y58.848 R0.878
G1 X40.694 Y58.684
X40.802 Y58.231
X41.438 Y56.939
X42.202 Y56.006
X42.334 Y56.391
X42.369 Y56.473
X42.419 Y56.57
X42.447 Y56.617
X42.478 Y56.662
X43.053 Y57.397
X43.096 Y57.446
X43.143 Y57.49
X43.259 Y57.585
X43.316 Y57.627
X44.04 Y58.09
X44.115 Y58.131
X44.398 Y58.26
Y58.49
X44.095 Y58.954
X44.059 Y59.018
X44.031 Y59.085
X43.981 Y59.229
X43.959 Y59.309
X43.789 Y60.176
X43.781 Y60.232
X43.778 Y60.288
X43.777 Y60.433
X43.78 Y60.492
X43.789 Y60.551
X43.97 Y61.466
X43.986 Y61.528
X44.009 Y61.589
X44.072 Y61.733
X44.118 Y61.819
X44.398 Y62.248
Y62.47
X44.115 Y62.598
X44.039 Y62.64
X43.266 Y63.138
X43.225 Y63.168
X43.186 Y63.2
X43.115 Y63.266
X43.049 Y63.338
X42.481 Y64.064
X42.444 Y64.117
X42.413 Y64.174
X42.344 Y64.319
X42.318 Y64.383
X42.203 Y64.721
X41.442 Y63.796
X40.8 Y62.496
X40.473 Y61.089
X40.474 Y59.637
X40.657 Y58.848
X40.671 Y58.813
X40.695 Y58.785
X40.727 Y58.765
X40.763 Y58.756
X40.8 Y58.759
X41.944 Y59.032
X41.984 Y59.042
X42.018 Y59.064
X42.043 Y59.096
X42.056 Y59.135
X42.054 Y59.176
X42.039 Y59.214
X42.012 Y59.244
X41.976 Y59.264
X41.936 Y59.27
X41.896 Y59.263
X41.86 Y59.242
X41.834 Y59.211
X41.82 Y59.172
Y59.131
X41.834 Y59.093
X42.035 Y58.736
X42.074 Y58.683 Z-0.656 F333.
X42.123 Y58.64 Z-0.658
X42.18 Y58.607 Z-0.66
X42.243 Y58.587 Z-0.662
X42.308 Y58.58 Z-0.665
X42.373 Y58.587 Z-0.667
X42.436 Y58.607 Z-0.669
X42.493 Y58.639 Z-0.672
X42.546 Y58.676 Z-0.674
X42.597 Y58.718 Z-0.676
X42.64 Y58.77 Z-0.679
X42.671 Y58.829 Z-0.681
X42.69 Y58.893 Z-0.683
X42.696 Y58.96 Z-0.686
X42.689 Y59.027 Z-0.688
X42.495 Y59.906 Z-0.719
X42.463 Y60.085 Z-0.726
X42.445 Y60.266 Z-0.732
X42.443 Y60.447 Z-0.738
X42.456 Y60.628 Z-0.745
X42.483 Y60.807 Z-0.751
X42.532 Y61.033 Z-0.759
X42.587 Y61.258 Z-0.767
X42.643 Y61.482 Z-0.775
X42.691 Y61.708 Z-0.783
X42.698 Y61.774 Z-0.786
X42.691 Y61.839 Z-0.788
X42.672 Y61.903 Z-0.79
X42.64 Y61.961 Z-0.793
X42.598 Y62.012 Z-0.795
X42.547 Y62.053 Z-0.797
X42.493 Y62.091 Z-0.8
X42.432 Y62.124 Z-0.802
X42.366 Y62.144 Z-0.804
X42.298 Y62.15 Z-0.807
X42.229 Y62.14 Z-0.809
X42.165 Y62.115 Z-0.812
X42.107 Y62.078 Z-0.814
X42.059 Y62.028 Z-0.816
X42.023 Y61.97 Z-0.819
X42. Y61.905 Z-0.821
X41.936 Y61.601 Z-0.832
X41.886 Y61.294 Z-0.843
X41.85 Y60.985 Z-0.854
X41.828 Y60.675 Z-0.865
X41.82 Y60.365 Z-0.876
X41.823 Y60.129 Z-0.884
X41.835 Y59.894 Z-0.892
X41.856 Y59.66 Z-0.9
G3 X41.999 Y58.824 R6.526 F1499.
X42.382 Y58.589 R0.318
X42.493 Y58.639 R0.318
G1 X42.546 Y58.676
G3 X42.689 Y59.027 R0.336
X42.495 Y59.906 R102.547
G2 X42.483 Y60.807 R2.18
X42.587 Y61.258 R7.397
G3 X42.691 Y61.708 R7.397
X42.547 Y62.053 R0.336
G1 X42.493 Y62.091
G3 X42.05 Y62.017 R0.317
X42. Y61.905 R0.317
X41.82 Y60.365 R6.866
X41.856 Y59.66 R6.526
G2 X41.399 Y58.66 R1.081
G3 X41.124 Y57.596 R0.843
G1 X41.446 Y56.944
X42.202 Y56.022
X42.348 Y56.443
X42.379 Y56.515
X42.419 Y56.583
X42.518 Y56.727
X42.541 Y56.759
X43.048 Y57.403
X43.081 Y57.442
X43.117 Y57.478
X43.19 Y57.544
X43.267 Y57.602
X44.039 Y58.099
X44.116 Y58.141
X44.39 Y58.265
Y58.479
X44.246 Y58.703
X44.082 Y58.959
X44.048 Y59.021
X44.021 Y59.087
X43.971 Y59.231
X43.95 Y59.312
X43.776 Y60.217
X43.768 Y60.282
X43.766 Y60.347
X43.769 Y60.452
X43.773 Y60.502
X43.78 Y60.551
X43.961 Y61.465
X43.977 Y61.527
X43.999 Y61.587
X44.062 Y61.732
X44.084 Y61.776
X44.11 Y61.819
X44.39 Y62.249
Y62.465
X44.116 Y62.589
X44.039 Y62.631
X43.267 Y63.127
X43.227 Y63.156
X43.19 Y63.187
X43.114 Y63.255
X43.078 Y63.291
X43.045 Y63.33
X42.471 Y64.064
X42.433 Y64.119
X42.401 Y64.178
X42.334 Y64.322
X42.309 Y64.383
X42.198 Y64.709
X42.118 Y64.613
X41.446 Y63.787
X40.81 Y62.496
X40.481 Y61.089
X40.482 Y59.637
X40.694 Y58.72
X40.811 Y58.231
X41.124 Y57.596
X41.147 Y57.564
X41.178 Y57.542
X41.215 Y57.53
X41.254 Y57.532
X41.29 Y57.545
X41.32 Y57.569
X41.341 Y57.602
X41.616 Y58.254
X41.624 Y58.284
X42.1 Y61.574
X42.074 Y61.746
X42.063 Y61.77
X42.041 Y61.785
X42.014
X41.991 Y61.772
X41.979 Y61.748
X41.919 Y61.429 Z-0.912 F333.
X41.875 Y61.107 Z-0.923
X41.846 Y60.783 Z-0.934
X41.834 Y60.458 Z-0.946
X41.837 Y60.133 Z-0.957
X41.855 Y59.808 Z-0.968
X41.89 Y59.485 Z-0.98
X41.94 Y59.163 Z-0.991
X42.006 Y58.845 Z-1.002
X42.028 Y58.78 Z-1.005
X42.064 Y58.721 Z-1.007
X42.112 Y58.672 Z-1.01
X42.17 Y58.634 Z-1.012
X42.234 Y58.61 Z-1.014
X42.302 Y58.6 Z-1.017
X42.371 Y58.605 Z-1.019
X42.437 Y58.624 Z-1.022
X42.497 Y58.658 Z-1.024
X42.535 Y58.684 Z-1.026
X42.586 Y58.726 Z-1.028
X42.627 Y58.777 Z-1.03
X42.658 Y58.835 Z-1.033
X42.677 Y58.897 Z-1.035
X42.684 Y58.963 Z-1.037
X42.677 Y59.028 Z-1.039
X42.602 Y59.378 Z-1.052
X42.516 Y59.725 Z-1.064
X42.476 Y59.899 Z-1.071
X42.447 Y60.076 Z-1.077
X42.429 Y60.255 Z-1.083
X42.423 Y60.434 Z-1.089
X42.429 Y60.596 Z-1.095
X42.447 Y60.758 Z-1.101
X42.477 Y60.917 Z-1.106
X42.519 Y61.074 Z-1.112
X42.579 Y61.282 Z-1.12
X42.632 Y61.491 Z-1.127
X42.677 Y61.702 Z-1.135
X42.684 Y61.768 Z-1.137
X42.677 Y61.833 Z-1.139
X42.658 Y61.896 Z-1.142
X42.627 Y61.954 Z-1.144
X42.586 Y62.004 Z-1.146
X42.535 Y62.046 Z-1.149
X42.495 Y62.074 Z-1.15
X42.436 Y62.107 Z-1.153
X42.371 Y62.126 Z-1.155
X42.304 Y62.131 Z-1.157
X42.236 Y62.121 Z-1.16
X42.173 Y62.097 Z-1.162
X42.116 Y62.06 Z-1.164
X42.069 Y62.012 Z-1.167
X42.033 Y61.954 Z-1.169
X42.01 Y61.89 Z-1.172
X41.944 Y61.576 Z-1.183
X41.894 Y61.26 Z-1.194
X41.858 Y60.941 Z-1.205
X41.838 Y60.621 Z-1.216
X41.833 Y60.3 Z-1.228
X41.843 Y59.979 Z-1.239
X41.869 Y59.66 Z-1.25
G3 X42.006 Y58.845 R6.711 F1499.
X42.386 Y58.608 R0.317
X42.497 Y58.658 R0.317
G1 X42.535 Y58.684
G3 X42.677 Y59.028 R0.336
X42.516 Y59.725 R11.207
G2 X42.423 Y60.434 R2.771
X42.519 Y61.074 R2.178
G3 X42.677 Y61.702 R6.283
X42.535 Y62.046 R0.336
G1 X42.495 Y62.074
G3 X42.06 Y62. R0.312
X42.01 Y61.89 R0.312
X41.869 Y59.66 R6.711
G2 X41.412 Y58.66 R1.082
G3 X41.139 Y57.596 R0.843
G1 X41.458 Y56.949
X42.195 Y56.042
X42.334 Y56.442
X42.364 Y56.513
X42.403 Y56.579
X42.5 Y56.723
X42.526 Y56.759
X43.038 Y57.411
X43.072 Y57.451
X43.11 Y57.488
X43.194 Y57.562
X43.268 Y57.618
X44.04 Y58.113
X44.116 Y58.155
X44.378 Y58.273
Y58.479
X44.07 Y58.958
X44.04 Y59.01
X44.015 Y59.066
X43.978 Y59.162
X43.962 Y59.21
X43.95 Y59.26
X43.769 Y60.173
X43.761 Y60.229
X43.758 Y60.285
X43.757 Y60.432
X43.759 Y60.491
X43.768 Y60.55
X43.948 Y61.465
X43.964 Y61.526
X43.985 Y61.585
X44.047 Y61.729
X44.07 Y61.776
X44.096 Y61.82
X44.378 Y62.249
Y62.458
X44.09 Y62.589
X44.015 Y62.63
X43.267 Y63.113
X43.22 Y63.146
X43.177 Y63.183
X43.064 Y63.291
X43.006 Y63.356
X42.456 Y64.065
X42.417 Y64.122
X42.384 Y64.183
X42.318 Y64.328
X42.297 Y64.383
X42.194 Y64.686
X41.45 Y63.771
X40.824 Y62.496
X40.494 Y61.088
X40.495 Y59.637
X40.695 Y58.773
X40.812 Y58.266
X40.848 Y58.184
X41.139 Y57.596
X41.163 Y57.557 Z-1.241
X41.193 Y57.524 Z-1.232
X41.224 Y57.5 Z-1.206
X41.258 Y57.482 Z-1.18
X41.308 Y57.467 Z-1.103
X41.326 Y57.465 Z-1.012
G0 Z5.
X32.416 Y58.671
Z0.665
G1 X32.422 Y58.687 Z0.575 F333.
X32.437 Y58.734 Z0.499
X32.459 Y58.805 Z0.447
X32.484 Y58.89 Z0.427
X32.551 Y59.153 Z0.417
X32.605 Y59.419 Z0.408
X32.645 Y59.687 Z0.398
X32.671 Y59.956 Z0.389
X32.684 Y60.227 Z0.379
X32.683 Y60.508 Z0.37
X32.668 Y60.789 Z0.36
X32.639 Y61.069 Z0.35
X32.596 Y61.347 Z0.34
X32.539 Y61.622 Z0.33
X32.468 Y61.894 Z0.32
X32.428 Y62.026 Z0.316
X32.383 Y62.156 Z0.311
X32.354 Y62.217 Z0.308
X32.314 Y62.271 Z0.306
X32.263 Y62.315 Z0.304
X32.205 Y62.349 Z0.301
X32.142 Y62.37 Z0.299
X32.075 Y62.379 Z0.297
X32.008 Y62.374 Z0.294
X31.943 Y62.356 Z0.292
X31.883 Y62.325 Z0.29
X31.805 Y62.275 Z0.286
X31.726 Y62.227 Z0.283
X31.675 Y62.187 Z0.281
X31.632 Y62.139 Z0.279
X31.599 Y62.083 Z0.276
X31.578 Y62.021 Z0.274
X31.569 Y61.957 Z0.272
X31.572 Y61.892 Z0.27
X31.588 Y61.829 Z0.267
X31.671 Y61.579 Z0.258
X31.744 Y61.326 Z0.249
X31.807 Y61.07 Z0.24
X31.845 Y60.876 Z0.233
X31.873 Y60.68 Z0.226
X31.889 Y60.483 Z0.219
X31.894 Y60.285 Z0.212
X31.887 Y60.106 Z0.206
X31.869 Y59.929 Z0.2
X31.838 Y59.753 Z0.193
X31.797 Y59.579 Z0.187
X31.697 Y59.237 Z0.175
X31.588 Y58.897 Z0.162
X31.574 Y58.834 Z0.16
X31.571 Y58.77 Z0.158
X31.581 Y58.706 Z0.155
X31.603 Y58.646 Z0.153
X31.636 Y58.591 Z0.151
X31.679 Y58.543 Z0.149
X31.731 Y58.504 Z0.146
X31.807 Y58.457 Z0.143
X31.883 Y58.408 Z0.14
X31.942 Y58.376 Z0.138
X32.007 Y58.357 Z0.135
X32.074 Y58.351 Z0.133
X32.141 Y58.359 Z0.131
X32.205 Y58.38 Z0.128
X32.263 Y58.414 Z0.126
X32.314 Y58.458 Z0.124
X32.354 Y58.512 Z0.121
X32.383 Y58.573 Z0.119
X32.47 Y58.841 Z0.109
X32.542 Y59.113 Z0.099
X32.599 Y59.388 Z0.089
X32.642 Y59.666 Z0.08
X32.671 Y59.946 Z0.07
X32.684 Y60.227 Z0.06
X32.683 Y60.508 Z0.05
X32.668 Y60.789 Z0.04
X32.639 Y61.069 Z0.031
X32.596 Y61.347 Z0.021
X32.539 Y61.622 Z0.011
X32.468 Y61.894 Z0.001
X32.428 Y62.026 Z-0.004
X32.383 Y62.156 Z-0.009
X32.354 Y62.217 Z-0.011
X32.314 Y62.271 Z-0.013
X32.263 Y62.315 Z-0.016
X32.205 Y62.349 Z-0.018
X32.142 Y62.37 Z-0.02
X32.075 Y62.379 Z-0.023
X32.008 Y62.374 Z-0.025
X31.943 Y62.356 Z-0.027
X31.883 Y62.325 Z-0.03
X31.805 Y62.275 Z-0.033
X31.726 Y62.227 Z-0.036
X31.675 Y62.187 Z-0.038
X31.632 Y62.139 Z-0.041
X31.599 Y62.083 Z-0.043
X31.578 Y62.021 Z-0.045
X31.569 Y61.957 Z-0.048
X31.572 Y61.892 Z-0.05
X31.588 Y61.829 Z-0.052
X31.671 Y61.579 Z-0.061
X31.744 Y61.326 Z-0.07
X31.807 Y61.07 Z-0.08
X31.845 Y60.876 Z-0.087
X31.873 Y60.68 Z-0.093
X31.889 Y60.483 Z-0.1
X31.894 Y60.285 Z-0.107
X31.887 Y60.106 Z-0.114
X31.869 Y59.929 Z-0.12
X31.838 Y59.753 Z-0.126
X31.797 Y59.579 Z-0.132
X31.697 Y59.237 Z-0.145
X31.588 Y58.897 Z-0.157
X31.574 Y58.834 Z-0.159
X31.571 Y58.77 Z-0.162
X31.581 Y58.706 Z-0.164
X31.603 Y58.646 Z-0.166
X31.636 Y58.591 Z-0.168
X31.679 Y58.543 Z-0.171
X31.731 Y58.504 Z-0.173
X31.807 Y58.457 Z-0.176
X31.883 Y58.408 Z-0.179
X31.942 Y58.376 Z-0.182
X32.007 Y58.357 Z-0.184
X32.074 Y58.351 Z-0.186
X32.141 Y58.359 Z-0.189
X32.205 Y58.38 Z-0.191
X32.263 Y58.414 Z-0.193
X32.314 Y58.458 Z-0.196
X32.354 Y58.512 Z-0.198
X32.383 Y58.573 Z-0.2
X32.47 Y58.841 Z-0.21
X32.542 Y59.113 Z-0.22
X32.599 Y59.388 Z-0.23
X32.642 Y59.666 Z-0.24
X32.671 Y59.946 Z-0.25
X32.684 Y60.227 Z-0.259
X32.683 Y60.508 Z-0.269
X32.668 Y60.789 Z-0.279
X32.639 Y61.069 Z-0.289
X32.596 Y61.347 Z-0.299
X32.539 Y61.622 Z-0.308
X32.468 Y61.894 Z-0.318
X32.428 Y62.026 Z-0.323
X32.383 Y62.156 Z-0.328
X32.354 Y62.217 Z-0.33
X32.314 Y62.271 Z-0.333
X32.263 Y62.315 Z-0.335
X32.205 Y62.349 Z-0.337
X32.142 Y62.37 Z-0.34
X32.075 Y62.379 Z-0.342
X32.008 Y62.374 Z-0.344
X31.943 Y62.356 Z-0.347
X31.883 Y62.325 Z-0.349
X31.805 Y62.275 Z-0.352
X31.726 Y62.227 Z-0.356
X31.675 Y62.187 Z-0.358
X31.632 Y62.139 Z-0.36
X31.599 Y62.083 Z-0.362
X31.578 Y62.021 Z-0.365
X31.569 Y61.957 Z-0.367
X31.572 Y61.892 Z-0.369
X31.588 Y61.829 Z-0.371
X31.671 Y61.579 Z-0.381
X31.744 Y61.326 Z-0.39
X31.807 Y61.07 Z-0.399
X31.847 Y60.864 Z-0.406
G2 X31.894 Y60.285 R3.499 F1499.
X31.797 Y59.579 R2.695
X31.588 Y58.897 R12.791
G3 X31.731 Y58.504 R0.336
G1 X31.807 Y58.457
X31.883 Y58.408
G3 X32.345 Y58.498 R0.333
X32.383 Y58.573 R0.333
X32.684 Y60.227 R5.308
X32.468 Y61.894 R5.638
X32.383 Y62.156 R3.805
X31.952 Y62.359 R0.337
X31.883 Y62.325 R0.337
G1 X31.805 Y62.275
X31.726 Y62.227
G3 X31.588 Y61.829 R0.336
G2 X31.807 Y61.07 R6.699
G1 X31.847 Y60.864
G2 X31.373 Y60.029 R0.764
G3 X30.756 Y59.293 R1.002
G1 X30.749 Y59.259
X30.733 Y59.196
X30.71 Y59.135
X30.649 Y58.998
X30.627 Y58.953
X30.601 Y58.91
X30.323 Y58.492
Y58.254
X30.614 Y58.122
X30.68 Y58.087
X31.354 Y57.672
X31.404 Y57.638
X31.45 Y57.599
X31.554 Y57.501
X31.593 Y57.461
X32.1 Y56.885
X32.148 Y56.824
X32.187 Y56.757
X32.296 Y56.537
X32.567 Y56.918
X32.844 Y57.348
X33.194 Y58.15
X33.364 Y58.63
X33.535 Y59.468
X33.59 Y59.985
Y60.786
X33.53 Y61.301
X33.35 Y62.146
X33.178 Y62.621
X32.849 Y63.375
X32.469 Y63.949
X32.297 Y64.191
X32.222 Y64.033
X32.175 Y63.95
X32.114 Y63.861
X32.063 Y63.797
X31.508 Y63.185
X31.449 Y63.128
X31.383 Y63.08
X30.78 Y62.703
X30.762 Y62.693
X30.628 Y62.615
X30.574 Y62.588
X30.323 Y62.475
Y62.238
X30.625 Y61.776
X30.659 Y61.719
X30.685 Y61.657
X30.731 Y61.535
X30.757 Y61.443
X30.933 Y60.55
X30.941 Y60.492
X30.944 Y60.433
Y60.288
X30.941 Y60.231
X30.932 Y60.174
X30.756 Y59.293
X30.755 Y59.253
X30.767 Y59.214
X30.792 Y59.182
X30.826 Y59.16
X30.865 Y59.151
X31.495 Y59.11
X31.537 Y59.099
X31.573 Y59.074
X31.597 Y59.039
X31.607 Y58.997
X31.601 Y58.954
X31.582 Y58.896 Z-0.409 F333.
X31.567 Y58.833 Z-0.411
X31.564 Y58.769 Z-0.413
X31.574 Y58.705 Z-0.415
X31.596 Y58.644 Z-0.418
X31.629 Y58.588 Z-0.42
X31.672 Y58.54 Z-0.422
X31.724 Y58.501 Z-0.424
X31.822 Y58.441 Z-0.428
X31.896 Y58.392 Z-0.431
X31.951 Y58.361 Z-0.434
X32.012 Y58.342 Z-0.436
X32.076 Y58.336 Z-0.438
X32.14 Y58.342 Z-0.44
X32.201 Y58.362 Z-0.443
X32.256 Y58.393 Z-0.445
X32.305 Y58.435 Z-0.447
X32.343 Y58.486 Z-0.449
X32.371 Y58.544 Z-0.452
X32.46 Y58.815 Z-0.462
X32.534 Y59.09 Z-0.472
X32.594 Y59.368 Z-0.481
X32.639 Y59.65 Z-0.491
X32.67 Y59.933 Z-0.501
X32.685 Y60.218 Z-0.511
Y60.503 Z-0.521
X32.67 Y60.788 Z-0.531
X32.64 Y61.071 Z-0.541
X32.596 Y61.353 Z-0.551
X32.536 Y61.631 Z-0.561
X32.462 Y61.907 Z-0.571
X32.373 Y62.178 Z-0.581
X32.345 Y62.236 Z-0.583
X32.306 Y62.288 Z-0.586
X32.258 Y62.331 Z-0.588
X32.202 Y62.363 Z-0.59
X32.14 Y62.383 Z-0.592
X32.076 Y62.391 Z-0.595
X32.011 Y62.386 Z-0.597
X31.949 Y62.368 Z-0.599
X31.892 Y62.339 Z-0.601
X31.715 Y62.224 Z-0.609
X31.665 Y62.184 Z-0.611
X31.624 Y62.136 Z-0.613
X31.592 Y62.08 Z-0.615
X31.571 Y62.02 Z-0.618
X31.562 Y61.956 Z-0.62
X31.566 Y61.892 Z-0.622
X31.581 Y61.83 Z-0.624
X31.669 Y61.569 Z-0.634
X31.747 Y61.305 Z-0.644
X31.815 Y61.038 Z-0.653
X31.839 Y60.93 F1499.
G2 X31.849 Y59.993 R2.277
X31.734 Y59.44 R29.183
X31.582 Y58.896 R5.015
G3 X31.724 Y58.501 R0.336
G1 X31.822 Y58.441
X31.896 Y58.392
G3 X32.333 Y58.47 R0.314
X32.371 Y58.544 R0.314
X32.373 Y62.178 R5.399
X31.959 Y62.372 R0.323
X31.892 Y62.339 R0.323
G1 X31.715 Y62.224
G3 X31.581 Y61.83 R0.336
G2 X31.815 Y61.038 R7.619
X31.389 Y60.17 R0.761
G3 X30.789 Y59.413 R1.059
G1 X30.759 Y59.26
X30.742 Y59.195
X30.718 Y59.132
X30.653 Y58.988
X30.606 Y58.903
X30.332 Y58.488
Y58.26
X30.614 Y58.132
X30.68 Y58.097
X31.355 Y57.682
X31.403 Y57.649
X31.448 Y57.611
X31.554 Y57.513
X31.595 Y57.471
X32.102 Y56.897
X32.143 Y56.845
X32.178 Y56.789
X32.25 Y56.659
X32.268 Y56.623
X32.299 Y56.557
X32.546 Y56.914
X32.884 Y57.442
X33.108 Y57.958
X33.381 Y58.721
X33.495 Y59.276
X33.589 Y60.131
Y60.641
X33.489 Y61.493
X33.376 Y62.024
X33.092 Y62.812
X32.862 Y63.327
X32.457 Y63.953
X32.3 Y64.177
X32.232 Y64.033
X32.209 Y63.989
X32.183 Y63.948
X32.112 Y63.845
X32.064 Y63.784
X31.519 Y63.182
X31.463 Y63.129
X31.401 Y63.083
X31.174 Y62.935
X31.16 Y62.926
X30.659 Y62.622
X30.595 Y62.588
X30.332 Y62.47
Y62.247
X30.631 Y61.785
X30.662 Y61.731
X30.687 Y61.675
X30.736 Y61.547
X30.752 Y61.498
X30.764 Y61.448
X30.942 Y60.55
X30.95 Y60.492
X30.953 Y60.433
X30.952 Y60.288
X30.949 Y60.231
X30.941 Y60.174
X30.789 Y59.413
X30.788 Y59.372
X30.801 Y59.332
X30.827 Y59.3
X30.863 Y59.279
X30.903 Y59.271
X30.944 Y59.277
X30.98 Y59.297
X31.008 Y59.328
X31.023 Y59.366
X31.452 Y61.525
X31.465 Y61.562
X31.491 Y61.592
X31.524 Y61.612
X31.562 Y61.621
X31.601 Y61.616
X31.637 Y61.599
X31.665 Y61.572
X31.682 Y61.536
X31.76 Y61.264 Z-0.663 F333.
X31.828 Y60.989 Z-0.673
X31.862 Y60.816 Z-0.679
X31.883 Y60.642 Z-0.685
X31.893 Y60.467 Z-0.691
X31.89 Y60.292 Z-0.698
X31.876 Y60.117 Z-0.704
X31.848 Y59.91 Z-0.711
X31.81 Y59.704 Z-0.718
X31.764 Y59.5 Z-0.726
X31.681 Y59.197 Z-0.737
X31.586 Y58.898 Z-0.748
X31.571 Y58.835 Z-0.75
X31.569 Y58.77 Z-0.752
X31.579 Y58.706 Z-0.754
X31.601 Y58.646 Z-0.757
X31.634 Y58.59 Z-0.759
X31.677 Y58.542 Z-0.761
X31.729 Y58.503 Z-0.763
X31.818 Y58.448 Z-0.767
X31.886 Y58.404 Z-0.77
X31.942 Y58.373 Z-0.772
X32.004 Y58.354 Z-0.774
X32.067 Y58.348 Z-0.777
X32.131 Y58.355 Z-0.779
X32.192 Y58.375 Z-0.781
X32.248 Y58.406 Z-0.783
X32.296 Y58.448 Z-0.786
X32.334 Y58.499 Z-0.788
X32.362 Y58.557 Z-0.79
X32.446 Y58.817 Z-0.8
X32.517 Y59.08 Z-0.809
X32.574 Y59.347 Z-0.819
X32.617 Y59.616 Z-0.828
X32.64 Y59.833 Z-0.836
X32.652 Y60.051 Z-0.843
X32.654 Y60.269 Z-0.851
X32.644 Y60.487 Z-0.859
X32.624 Y60.705 Z-0.866
X32.536 Y61.444 Z-0.892
X32.501 Y61.667 Z-0.9
G3 X32.365 Y62.164 R3.256 F1499.
X31.949 Y62.359 R0.325
X31.871 Y62.318 R0.325
G1 X31.8 Y62.27
X31.729 Y62.226
G3 X31.587 Y61.828 R0.336
G2 X31.828 Y60.989 R7.802
X31.876 Y60.117 R2.589
X31.764 Y59.5 R4.785
X31.586 Y58.898 R7.587
G3 X31.729 Y58.503 R0.336
G1 X31.818 Y58.448
X31.886 Y58.404
G3 X32.324 Y58.484 R0.315
X32.362 Y58.557 R0.315
X32.617 Y59.616 R5.202
X32.624 Y60.705 R4.361
G1 X32.536 Y61.444
X32.501 Y61.667
G2 X32.763 Y62.397 R0.764
G3 X32.941 Y63.151 R0.645
G1 X32.905 Y63.233
X32.302 Y64.167
X32.225 Y64.004
X32.197 Y63.952
X32.165 Y63.903
X32.101 Y63.817
X32.064 Y63.772
X31.529 Y63.18
X31.483 Y63.135
X31.433 Y63.095
X31.344 Y63.031
X31.308 Y63.008
X30.678 Y62.623
X30.613 Y62.588
X30.34 Y62.465
Y62.248
X30.634 Y61.796
X30.663 Y61.746
X30.688 Y61.692
X30.741 Y61.559
X30.759 Y61.507
X30.772 Y61.454
X30.95 Y60.55
X30.958 Y60.492
X30.961 Y60.433
Y60.288
X30.958 Y60.231
X30.949 Y60.175
X30.767 Y59.26
X30.753 Y59.202
X30.732 Y59.145
X30.68 Y59.021
X30.658 Y58.974
X30.631 Y58.929
X30.34 Y58.478
Y58.265
X30.614 Y58.141
X30.679 Y58.107
X31.355 Y57.692
X31.401 Y57.661
X31.444 Y57.625
X31.55 Y57.528
X31.595 Y57.483
X32.104 Y56.909
X32.144 Y56.858
X32.179 Y56.804
X32.254 Y56.669
X32.274 Y56.629
X32.303 Y56.566
X32.9 Y57.489
X33.045 Y57.831
X33.405 Y58.844
X33.462 Y59.131
X33.587 Y60.225
X33.583 Y60.54
X33.447 Y61.686
X33.4 Y61.909
X32.999 Y63.018
X32.941 Y63.151
X32.92 Y63.182
X32.891 Y63.204
X32.855 Y63.214
X32.819 Y63.212
X32.785 Y63.197
X32.758 Y63.172
X32.742 Y63.139
X32.614 Y62.706
X32.171 Y58.635
X32.161 Y58.445
X32.165 Y58.424
X32.181 Y58.408
X32.202 Y58.402
X32.223 Y58.408
X32.278 Y58.452 Z-0.903 F333.
X32.323 Y58.507 Z-0.905
X32.353 Y58.57 Z-0.908
X32.441 Y58.838 Z-0.917
X32.515 Y59.109 Z-0.927
X32.574 Y59.384 Z-0.937
X32.618 Y59.662 Z-0.947
X32.648 Y59.942 Z-0.957
X32.663 Y60.223 Z-0.966
Y60.504 Z-0.976
X32.648 Y60.785 Z-0.986
X32.618 Y61.065 Z-0.996
X32.574 Y61.342 Z-1.006
X32.515 Y61.617 Z-1.016
X32.441 Y61.889 Z-1.025
X32.353 Y62.156 Z-1.035
X32.325 Y62.215 Z-1.038
X32.285 Y62.268 Z-1.04
X32.236 Y62.311 Z-1.042
X32.179 Y62.343 Z-1.044
X32.116 Y62.363 Z-1.047
X32.051 Y62.369 Z-1.049
X31.986 Y62.363 Z-1.051
X31.923 Y62.343 Z-1.054
X31.866 Y62.311 Z-1.056
X31.798 Y62.266 Z-1.059
X31.729 Y62.224 Z-1.062
X31.677 Y62.185 Z-1.064
X31.634 Y62.138 Z-1.066
X31.601 Y62.083 Z-1.068
X31.579 Y62.023 Z-1.071
X31.568 Y61.96 Z-1.073
X31.57 Y61.896 Z-1.075
X31.583 Y61.833 Z-1.077
X31.675 Y61.535 Z-1.088
X31.76 Y61.235 Z-1.099
X31.837 Y60.933 Z-1.11
X31.868 Y60.779 Z-1.115
X31.888 Y60.623 Z-1.121
X31.897 Y60.467 Z-1.126
X31.894 Y60.31 Z-1.132
X31.881 Y60.153 Z-1.137
X31.856 Y59.998 Z-1.143
X31.741 Y59.444 Z-1.163
X31.697 Y59.261 Z-1.169
X31.646 Y59.079 Z-1.176
X31.589 Y58.899 Z-1.182
X31.574 Y58.836 Z-1.185
X31.571 Y58.772 Z-1.187
X31.581 Y58.708 Z-1.189
X31.603 Y58.647 Z-1.191
X31.636 Y58.591 Z-1.194
X31.68 Y58.543 Z-1.196
X31.731 Y58.504 Z-1.198
X31.812 Y58.455 Z-1.202
X31.874 Y58.415 Z-1.204
X31.93 Y58.384 Z-1.206
X31.992 Y58.365 Z-1.209
X32.056 Y58.359 Z-1.211
X32.121 Y58.366 Z-1.213
X32.182 Y58.386 Z-1.215
X32.238 Y58.418 Z-1.218
X32.287 Y58.461 Z-1.22
X32.326 Y58.512 Z-1.222
X32.353 Y58.57 Z-1.224
X32.43 Y58.802 Z-1.233
X32.497 Y59.037 Z-1.241
X32.552 Y59.275 Z-1.25
G3 X32.353 Y62.156 R5.318 F1499.
X31.943 Y62.351 R0.321
X31.866 Y62.311 R0.321
G1 X31.798 Y62.266
X31.729 Y62.224
G3 X31.583 Y61.833 R0.336
G2 X31.837 Y60.933 R12.348
X31.856 Y59.998 R2.184
X31.741 Y59.444 R30.15
X31.589 Y58.899 R4.896
G3 X31.731 Y58.504 R0.336
G1 X31.812 Y58.455
X31.874 Y58.415
G3 X32.317 Y58.498 R0.319
X32.353 Y58.57 R0.319
X32.552 Y59.275 R5.318
G2 X33.104 Y59.924 R0.891
G3 X33.546 Y60.653 R0.696
G1 X33.414 Y61.791
X32.923 Y63.166
X32.299 Y64.132
X32.236 Y63.999
X32.207 Y63.945
X32.173 Y63.894
X32.098 Y63.794
X32.066 Y63.756
X31.572 Y63.204
X31.537 Y63.168
X31.499 Y63.136
X31.392 Y63.05
X31.33 Y63.007
X30.663 Y62.601
X30.598 Y62.567
X30.352 Y62.456
Y62.247
X30.664 Y61.763
X30.702 Y61.695
X30.73 Y61.623
X30.776 Y61.482
X30.794 Y61.413
X30.962 Y60.549
X30.971 Y60.491
X30.973 Y60.433
Y60.288
X30.97 Y60.231
X30.961 Y60.175
X30.78 Y59.26
X30.766 Y59.202
X30.745 Y59.145
X30.69 Y59.015
X30.668 Y58.968
X30.641 Y58.923
X30.352 Y58.478
Y58.273
X30.616 Y58.154
X30.682 Y58.119
X31.354 Y57.707
X31.43 Y57.652
X31.527 Y57.569
X31.585 Y57.513
X32.107 Y56.925
X32.146 Y56.877
X32.179 Y56.825
X32.26 Y56.683
X32.284 Y56.637
X32.298 Y56.605
X32.927 Y57.572
X33.413 Y58.931
X33.576 Y60.386
X33.546 Y60.653
X33.536 Y60.697 Z-1.241
X33.518 Y60.739 Z-1.232
X33.497 Y60.771 Z-1.206
X33.471 Y60.8 Z-1.18
X33.43 Y60.831 Z-1.103
X33.414 Y60.839 Z-1.012
G0 Z5.
X22.261 Y60.371
Z0.665
G1 Y60.354 Z0.575 F333.
Y60.304 Z0.499
Y60.23 Z0.447
X22.263 Y60.141 Z0.427
X22.273 Y59.967 Z0.421
X22.289 Y59.793 Z0.415
X22.312 Y59.613 Z0.408
X22.343 Y59.435 Z0.402
X22.381 Y59.257 Z0.396
X22.489 Y58.797 Z0.379
X22.513 Y58.731 Z0.377
X22.55 Y58.671 Z0.374
X22.599 Y58.621 Z0.372
X22.659 Y58.584 Z0.369
X22.725 Y58.56 Z0.367
X22.794 Y58.551 Z0.364
X22.864 Y58.558 Z0.362
X22.931 Y58.58 Z0.359
X22.991 Y58.616 Z0.357
X23.069 Y58.673 Z0.354
X23.12 Y58.715 Z0.351
X23.161 Y58.766 Z0.349
X23.191 Y58.824 Z0.347
X23.21 Y58.886 Z0.344
X23.216 Y58.952 Z0.342
X23.209 Y59.017 Z0.34
X23.116 Y59.462 Z0.324
X23.016 Y59.905 Z0.308
X22.982 Y60.085 Z0.302
X22.963 Y60.267 Z0.295
X22.96 Y60.45 Z0.289
X22.973 Y60.633 Z0.282
X23.002 Y60.814 Z0.276
X23.051 Y61.039 Z0.268
X23.107 Y61.263 Z0.26
X23.163 Y61.488 Z0.252
X23.212 Y61.713 Z0.244
X23.219 Y61.78 Z0.241
X23.212 Y61.846 Z0.239
X23.193 Y61.91 Z0.237
X23.161 Y61.969 Z0.234
X23.118 Y62.02 Z0.232
X23.066 Y62.061 Z0.23
X22.988 Y62.115 Z0.226
X22.927 Y62.15 Z0.224
X22.86 Y62.171 Z0.222
X22.79 Y62.176 Z0.219
X22.72 Y62.166 Z0.217
X22.655 Y62.142 Z0.214
X22.596 Y62.104 Z0.212
X22.547 Y62.054 Z0.209
X22.51 Y61.994 Z0.207
X22.487 Y61.928 Z0.204
X22.411 Y61.577 Z0.192
X22.348 Y61.224 Z0.179
X22.297 Y60.869 Z0.167
X22.275 Y60.654 Z0.159
X22.263 Y60.439 Z0.152
X22.261 Y60.223 Z0.144
X22.27 Y60.008 Z0.137
X22.289 Y59.793 Z0.129
X22.312 Y59.613 Z0.123
X22.343 Y59.435 Z0.116
X22.381 Y59.257 Z0.11
X22.489 Y58.797 Z0.094
X22.513 Y58.731 Z0.091
X22.55 Y58.671 Z0.089
X22.599 Y58.621 Z0.086
X22.659 Y58.584 Z0.084
X22.725 Y58.56 Z0.081
X22.794 Y58.551 Z0.079
X22.864 Y58.558 Z0.076
X22.931 Y58.58 Z0.074
X22.991 Y58.616 Z0.072
X23.069 Y58.673 Z0.068
X23.12 Y58.715 Z0.066
X23.161 Y58.766 Z0.064
X23.191 Y58.824 Z0.061
X23.21 Y58.886 Z0.059
X23.216 Y58.952 Z0.057
X23.209 Y59.017 Z0.054
X23.116 Y59.462 Z0.039
X23.016 Y59.905 Z0.023
X22.982 Y60.085 Z0.016
X22.963 Y60.267 Z0.01
X22.96 Y60.45 Z0.003
X22.973 Y60.633 Z-0.003
X23.002 Y60.814 Z-0.009
X23.051 Y61.039 Z-0.017
X23.107 Y61.263 Z-0.025
X23.163 Y61.488 Z-0.034
X23.212 Y61.713 Z-0.042
X23.219 Y61.78 Z-0.044
X23.212 Y61.846 Z-0.046
X23.193 Y61.91 Z-0.049
X23.161 Y61.969 Z-0.051
X23.118 Y62.02 Z-0.053
X23.066 Y62.061 Z-0.056
X22.988 Y62.115 Z-0.059
X22.927 Y62.15 Z-0.061
X22.86 Y62.171 Z-0.064
X22.79 Y62.176 Z-0.066
X22.72 Y62.166 Z-0.069
X22.655 Y62.142 Z-0.071
X22.596 Y62.104 Z-0.074
X22.547 Y62.054 Z-0.076
X22.51 Y61.994 Z-0.079
X22.487 Y61.928 Z-0.081
X22.411 Y61.577 Z-0.094
X22.348 Y61.224 Z-0.106
X22.297 Y60.869 Z-0.119
X22.275 Y60.654 Z-0.126
X22.263 Y60.439 Z-0.134
X22.261 Y60.223 Z-0.141
X22.27 Y60.008 Z-0.149
X22.289 Y59.793 Z-0.156
X22.312 Y59.613 Z-0.163
X22.343 Y59.435 Z-0.169
X22.381 Y59.257 Z-0.175
X22.489 Y58.797 Z-0.192
X22.513 Y58.731 Z-0.194
X22.55 Y58.671 Z-0.197
X22.599 Y58.621 Z-0.199
X22.659 Y58.584 Z-0.202
X22.725 Y58.56 Z-0.204
X22.794 Y58.551 Z-0.206
X22.864 Y58.558 Z-0.209
X22.931 Y58.58 Z-0.211
X22.991 Y58.616 Z-0.214
X23.069 Y58.673 Z-0.217
X23.12 Y58.715 Z-0.22
X23.161 Y58.766 Z-0.222
X23.191 Y58.824 Z-0.224
X23.21 Y58.886 Z-0.226
X23.216 Y58.952 Z-0.229
X23.209 Y59.017 Z-0.231
X23.116 Y59.462 Z-0.247
X23.016 Y59.905 Z-0.263
X22.982 Y60.085 Z-0.269
X22.963 Y60.267 Z-0.276
X22.96 Y60.45 Z-0.282
X22.973 Y60.633 Z-0.288
X23.002 Y60.814 Z-0.295
X23.051 Y61.039 Z-0.303
X23.107 Y61.263 Z-0.311
X23.163 Y61.488 Z-0.319
X23.212 Y61.713 Z-0.327
X23.219 Y61.78 Z-0.329
X23.212 Y61.846 Z-0.332
X23.193 Y61.91 Z-0.334
X23.161 Y61.969 Z-0.336
X23.118 Y62.02 Z-0.339
X23.066 Y62.061 Z-0.341
X22.988 Y62.115 Z-0.344
X22.927 Y62.15 Z-0.347
X22.86 Y62.171 Z-0.349
X22.79 Y62.176 Z-0.352
X22.72 Y62.166 Z-0.354
X22.655 Y62.142 Z-0.357
X22.596 Y62.104 Z-0.359
X22.547 Y62.054 Z-0.361
X22.51 Y61.994 Z-0.364
X22.487 Y61.928 Z-0.366
X22.411 Y61.577 Z-0.379
X22.348 Y61.224 Z-0.391
X22.297 Y60.869 Z-0.404
X22.288 Y60.799 Z-0.406
G3 X22.289 Y59.793 R4.533 F1499.
X22.381 Y59.257 R4.581
G1 X22.489 Y58.797
G3 X22.871 Y58.56 R0.318
X22.991 Y58.616 R0.318
G1 X23.069 Y58.673
G3 X23.209 Y59.017 R0.336
X23.016 Y59.905 R30.291
G2 X23.002 Y60.814 R2.138
X23.107 Y61.263 R7.395
G3 X23.212 Y61.713 R7.395
X23.066 Y62.061 R0.336
G1 X22.988 Y62.115
G3 X22.539 Y62.044 R0.321
X22.487 Y61.928 R0.321
X22.297 Y60.869 R10.527
G1 X22.288 Y60.799
G2 X21.627 Y59.932 R1.059
G3 X21.121 Y58.966 R0.835
G1 X21.295 Y58.225
X21.923 Y56.95
X22.051 Y56.785
X22.707 Y55.986
X22.865 Y56.438
X22.895 Y56.51
X22.935 Y56.578
X23.024 Y56.708
X23.047 Y56.74
X23.548 Y57.379
X23.586 Y57.423
X23.628 Y57.463
X23.746 Y57.565
X23.814 Y57.615
X24.546 Y58.084
X24.621 Y58.125
X24.907 Y58.254
Y58.487
X24.603 Y58.956
X24.572 Y59.01
X24.546 Y59.067
X24.504 Y59.179
X24.488 Y59.227
X24.476 Y59.275
X24.298 Y60.175
X24.289 Y60.231
X24.286 Y60.288
Y60.433
X24.289 Y60.493
X24.298 Y60.553
X24.486 Y61.488
X24.504 Y61.556
X24.53 Y61.622
X24.589 Y61.748
X24.632 Y61.825
X24.907 Y62.238
Y62.477
X24.596 Y62.619
X24.52 Y62.661
X23.772 Y63.145
X23.72 Y63.183
X23.672 Y63.226
X23.564 Y63.335
X23.517 Y63.388
X22.987 Y64.07
X22.954 Y64.117
X22.926 Y64.167
X22.866 Y64.285
X22.834 Y64.363
X22.705 Y64.743
X21.945 Y63.815
X21.733 Y63.395
X21.291 Y62.496
X20.964 Y61.089
Y59.644
X21.008 Y59.45
X21.121 Y58.966
X21.136 Y58.93
X21.162 Y58.901
X21.196 Y58.881
X21.234 Y58.874
X21.273 Y58.879
X21.307 Y58.897
X22.178 Y59.531
X22.34 Y59.683
X22.391 Y59.745
X22.401 Y59.768
X22.4 Y59.793
X22.387 Y59.815
X22.365 Y59.827
X22.34 Y59.828
X22.317 Y59.817
X22.303 Y59.797
X22.299 Y59.772
X22.334 Y59.526 Z-0.415 F333.
X22.384 Y59.282 Z-0.424
X22.493 Y58.813 Z-0.441
X22.517 Y58.748 Z-0.443
X22.553 Y58.689 Z-0.445
X22.602 Y58.639 Z-0.448
X22.66 Y58.601 Z-0.45
X22.725 Y58.577 Z-0.453
X22.794 Y58.567 Z-0.455
X22.863 Y58.573 Z-0.458
X22.929 Y58.593 Z-0.46
X22.99 Y58.627 Z-0.462
X23.054 Y58.671 Z-0.465
X23.106 Y58.713 Z-0.468
X23.149 Y58.764 Z-0.47
X23.18 Y58.823 Z-0.472
X23.2 Y58.887 Z-0.475
X23.206 Y58.953 Z-0.477
X23.199 Y59.02 Z-0.479
X23.105 Y59.463 Z-0.495
X23.006 Y59.906 Z-0.511
X22.972 Y60.085 Z-0.517
X22.954 Y60.267 Z-0.524
X22.952 Y60.45 Z-0.53
X22.965 Y60.632 Z-0.536
X22.993 Y60.812 Z-0.543
X23.042 Y61.038 Z-0.551
X23.098 Y61.261 Z-0.559
X23.154 Y61.485 Z-0.567
X23.202 Y61.71 Z-0.575
X23.209 Y61.776 Z-0.577
X23.202 Y61.842 Z-0.58
X23.183 Y61.906 Z-0.582
X23.151 Y61.965 Z-0.584
X23.108 Y62.016 Z-0.587
X23.057 Y62.058 Z-0.589
X22.99 Y62.103 Z-0.592
X22.929 Y62.137 Z-0.594
X22.863 Y62.157 Z-0.597
X22.793 Y62.163 Z-0.599
X22.725 Y62.153 Z-0.601
X22.66 Y62.128 Z-0.604
X22.601 Y62.09 Z-0.606
X22.553 Y62.041 Z-0.609
X22.516 Y61.982 Z-0.611
X22.493 Y61.916 Z-0.614
X22.418 Y61.567 Z-0.626
X22.356 Y61.217 Z-0.639
X22.305 Y60.864 Z-0.651
X22.298 Y60.798 Z-0.653
G3 X22.297 Y59.795 R4.626 F1499.
X22.384 Y59.282 R4.267
G1 X22.493 Y58.813
G3 X22.876 Y58.575 R0.319
X22.99 Y58.627 R0.319
G1 X23.054 Y58.671
G3 X23.199 Y59.02 R0.336
X23.006 Y59.906 R36.251
G2 X22.993 Y60.812 R2.149
X23.098 Y61.261 R7.377
G3 X23.202 Y61.71 R7.377
X23.057 Y62.058 R0.336
G1 X22.99 Y62.103
G3 X22.544 Y62.029 R0.319
X22.493 Y61.916 R0.319
X22.305 Y60.864 R10.19
G1 X22.298 Y60.798
G2 X21.636 Y59.93 R1.059
G3 X21.131 Y58.962 R0.836
G1 X21.301 Y58.232
X21.929 Y56.955
X22.704 Y56.002
X22.857 Y56.442
X22.888 Y56.515
X22.928 Y56.583
X23.025 Y56.724
X23.047 Y56.754
X23.538 Y57.381
X23.598 Y57.447
X23.681 Y57.525
X23.723 Y57.561
X23.768 Y57.592
X24.545 Y58.093
X24.622 Y58.135
X24.898 Y58.26
Y58.49
X24.595 Y58.954
X24.562 Y59.012
X24.535 Y59.073
X24.491 Y59.191
X24.465 Y59.283
X24.289 Y60.175
X24.281 Y60.232
X24.278 Y60.288
X24.277 Y60.433
X24.28 Y60.493
X24.289 Y60.552
X24.476 Y61.487
X24.493 Y61.55
X24.516 Y61.61
X24.565 Y61.721
X24.587 Y61.765
X24.612 Y61.808
X24.898 Y62.241
Y62.472
X24.579 Y62.619
X24.505 Y62.66
X23.765 Y63.139
X23.714 Y63.176
X23.667 Y63.219
X23.562 Y63.324
X23.514 Y63.378
X22.984 Y64.059
X22.952 Y64.105
X22.924 Y64.153
X22.861 Y64.276
X22.827 Y64.357
X22.702 Y64.724
X21.927 Y63.77
X21.301 Y62.496
X20.973 Y61.089
X20.972 Y59.652
X21.008 Y59.486
X21.131 Y58.962
X21.144 Y58.928
X21.168 Y58.9
X21.198 Y58.881
X21.233 Y58.871
X21.27 Y58.872
X21.304 Y58.885
X22.45 Y59.51
X22.481 Y59.538
X22.5 Y59.575
X22.575 Y59.81
X22.58 Y59.852
X22.571 Y59.892
X22.548 Y59.927
X22.515 Y59.952
X22.475 Y59.964
X22.433 Y59.962
X22.395 Y59.945
X22.365 Y59.916
X22.347 Y59.878
X22.342 Y59.837
X22.367 Y59.582 Z-0.662 F333.
X22.401 Y59.329 Z-0.671
X22.445 Y59.077 Z-0.68
X22.498 Y58.826 Z-0.689
X22.521 Y58.761 Z-0.691
X22.558 Y58.702 Z-0.694
X22.606 Y58.653 Z-0.696
X22.664 Y58.615 Z-0.699
X22.728 Y58.59 Z-0.701
X22.797 Y58.58 Z-0.704
X22.866 Y58.585 Z-0.706
X22.932 Y58.605 Z-0.708
X22.992 Y58.639 Z-0.711
X23.045 Y58.675 Z-0.713
X23.097 Y58.717 Z-0.715
X23.139 Y58.768 Z-0.718
X23.171 Y58.828 Z-0.72
X23.19 Y58.892 Z-0.722
X23.196 Y58.959 Z-0.725
X23.189 Y59.025 Z-0.727
X22.996 Y59.906 Z-0.759
X22.963 Y60.084 Z-0.765
X22.945 Y60.265 Z-0.771
X22.943 Y60.446 Z-0.778
X22.956 Y60.627 Z-0.784
X22.983 Y60.807 Z-0.79
X23.032 Y61.033 Z-0.798
X23.087 Y61.258 Z-0.806
X23.143 Y61.483 Z-0.814
X23.191 Y61.709 Z-0.823
X23.198 Y61.775 Z-0.825
X23.191 Y61.841 Z-0.827
X23.171 Y61.904 Z-0.83
X23.14 Y61.963 Z-0.832
X23.097 Y62.013 Z-0.834
X23.046 Y62.055 Z-0.836
X22.992 Y62.092 Z-0.839
X22.932 Y62.125 Z-0.841
X22.866 Y62.145 Z-0.844
X22.797 Y62.149 Z-0.846
X22.729 Y62.139 Z-0.848
X22.665 Y62.115 Z-0.851
X22.607 Y62.077 Z-0.853
X22.559 Y62.028 Z-0.856
X22.523 Y61.969 Z-0.858
X22.5 Y61.904 Z-0.86
X22.441 Y61.626 Z-0.87
X22.394 Y61.346 Z-0.88
X22.358 Y61.064 Z-0.89
X22.335 Y60.781 Z-0.9
G3 X22.498 Y58.826 R6.776 F1499.
X22.881 Y58.589 R0.318
X22.992 Y58.639 R0.318
G1 X23.045 Y58.675
G3 X23.189 Y59.025 R0.336
X22.996 Y59.906 R68.781
G2 X22.983 Y60.807 R2.174
X23.087 Y61.258 R7.408
G3 X23.191 Y61.709 R7.408
X23.046 Y62.055 R0.336
G1 X22.992 Y62.092
G3 X22.55 Y62.015 R0.318
X22.5 Y61.904 R0.318
X22.335 Y60.781 R6.776
G2 X21.68 Y59.859 R1.071
G3 X21.165 Y58.851 R0.877
G1 X21.308 Y58.239
X21.937 Y56.955
X22.699 Y56.02
X22.825 Y56.391
X22.859 Y56.472
X22.911 Y56.572
X22.939 Y56.62
X22.971 Y56.665
X23.528 Y57.381
X23.587 Y57.446
X23.672 Y57.528
X23.715 Y57.565
X23.761 Y57.598
X24.545 Y58.102
X24.622 Y58.144
X24.888 Y58.265
X24.887 Y58.492
X24.585 Y58.955
X24.55 Y59.017
X24.522 Y59.083
X24.474 Y59.221
X24.452 Y59.303
X24.281 Y60.176
X24.272 Y60.232
X24.269 Y60.288
Y60.433
X24.272 Y60.492
X24.28 Y60.55
X24.461 Y61.463
X24.476 Y61.524
X24.498 Y61.583
X24.56 Y61.728
X24.583 Y61.775
X24.61 Y61.82
X24.89 Y62.244
Y62.465
X24.617 Y62.588
X24.54 Y62.63
X23.759 Y63.134
X23.707 Y63.171
X23.659 Y63.214
X23.559 Y63.315
X23.511 Y63.369
X22.981 Y64.049
X22.95 Y64.093
X22.923 Y64.14
X22.856 Y64.268
X22.82 Y64.351
X22.699 Y64.707
X21.935 Y63.77
X21.31 Y62.496
X20.981 Y61.089
X20.984 Y59.631
X21.008 Y59.527
X21.165 Y58.851
X21.18 Y58.816
X21.205 Y58.787
X21.238 Y58.767
X21.276 Y58.759
X21.314 Y58.764
X21.349 Y58.781
X21.376 Y58.807
X21.896 Y59.505
X21.914 Y59.539
X22.58 Y61.596
X22.578 Y61.757
X22.572 Y61.779
X22.556 Y61.796
X22.534 Y61.804
X22.511 Y61.8
X22.492 Y61.787
X22.482 Y61.766
X22.421 Y61.445 Z-0.912 F333.
X22.376 Y61.122 Z-0.923
X22.347 Y60.796 Z-0.934
X22.333 Y60.47 Z-0.946
X22.336 Y60.144 Z-0.957
X22.354 Y59.818 Z-0.969
X22.388 Y59.493 Z-0.98
X22.438 Y59.17 Z-0.991
X22.504 Y58.851 Z-1.003
X22.527 Y58.785 Z-1.005
X22.563 Y58.726 Z-1.008
X22.612 Y58.676 Z-1.01
X22.67 Y58.638 Z-1.012
X22.734 Y58.613 Z-1.015
X22.803 Y58.602 Z-1.017
X22.872 Y58.606 Z-1.02
X22.939 Y58.626 Z-1.022
X23. Y58.659 Z-1.025
X23.032 Y58.68 Z-1.026
X23.084 Y58.722 Z-1.028
X23.126 Y58.773 Z-1.031
X23.157 Y58.831 Z-1.033
X23.176 Y58.895 Z-1.035
X23.183 Y58.96 Z-1.038
X23.177 Y59.026 Z-1.04
X23.085 Y59.468 Z-1.056
X22.987 Y59.908 Z-1.071
X22.953 Y60.087 Z-1.078
X22.935 Y60.268 Z-1.084
X22.932 Y60.449 Z-1.09
X22.944 Y60.631 Z-1.097
X22.972 Y60.81 Z-1.103
X23.02 Y61.034 Z-1.111
X23.076 Y61.256 Z-1.119
X23.131 Y61.478 Z-1.127
X23.179 Y61.702 Z-1.135
X23.186 Y61.768 Z-1.137
X23.179 Y61.834 Z-1.14
X23.16 Y61.898 Z-1.142
X23.128 Y61.956 Z-1.144
X23.086 Y62.007 Z-1.147
X23.034 Y62.049 Z-1.149
X22.996 Y62.075 Z-1.151
X22.936 Y62.107 Z-1.153
X22.871 Y62.126 Z-1.155
X22.803 Y62.13 Z-1.158
X22.736 Y62.12 Z-1.16
X22.672 Y62.096 Z-1.163
X22.615 Y62.058 Z-1.165
X22.568 Y62.009 Z-1.167
X22.532 Y61.951 Z-1.17
X22.51 Y61.887 Z-1.172
X22.444 Y61.575 Z-1.183
X22.394 Y61.26 Z-1.194
X22.358 Y60.944 Z-1.205
X22.338 Y60.625 Z-1.217
X22.333 Y60.307 Z-1.228
X22.343 Y59.988 Z-1.239
X22.368 Y59.67 Z-1.25
G3 X22.504 Y58.851 R6.697 F1499.
X22.89 Y58.61 R0.321
X23. Y58.659 R0.321
G1 X23.032 Y58.68
G3 X23.177 Y59.026 R0.336
X22.987 Y59.908 R27.14
G2 X22.972 Y60.81 R2.135
X23.076 Y61.256 R7.326
G3 X23.179 Y61.702 R7.326
X23.034 Y62.049 R0.336
G1 X22.996 Y62.075
G3 X22.557 Y61.995 R0.315
X22.51 Y61.887 R0.315
X22.368 Y59.67 R6.697
G2 X21.908 Y58.67 R1.082
G3 X21.632 Y57.604 R0.843
G1 X21.952 Y56.956
X22.695 Y56.043
X22.824 Y56.42
X22.842 Y56.467
X22.864 Y56.512
X22.91 Y56.595
X22.963 Y56.675
X23.515 Y57.384
X23.57 Y57.446
X23.659 Y57.533
X23.704 Y57.572
X23.752 Y57.606
X24.545 Y58.116
X24.622 Y58.158
X24.878 Y58.273
Y58.479
X24.57 Y58.958
X24.538 Y59.014
X24.512 Y59.074
X24.47 Y59.187
X24.445 Y59.278
X24.268 Y60.176
X24.26 Y60.232
X24.257 Y60.288
Y60.433
X24.259 Y60.492
X24.268 Y60.552
X24.455 Y61.488
X24.474 Y61.558
X24.5 Y61.625
X24.565 Y61.762
X24.606 Y61.836
X24.878 Y62.248
Y62.458
X24.59 Y62.589
X24.514 Y62.631
X23.746 Y63.128
X23.695 Y63.165
X23.649 Y63.207
X23.555 Y63.301
X23.505 Y63.358
X22.946 Y64.081
X22.904 Y64.143
X22.871 Y64.208
X22.812 Y64.344
X22.794 Y64.389
X22.695 Y64.682
X21.943 Y63.761
X21.324 Y62.496
X20.994 Y61.088
X20.992 Y59.666
X21.011 Y59.569
X21.311 Y58.273
X21.627 Y57.615
X21.632 Y57.604
X21.656 Y57.566 Z-1.241
X21.687 Y57.532 Z-1.232
X21.718 Y57.509 Z-1.206
X21.752 Y57.491 Z-1.18
X21.801 Y57.476 Z-1.103
X21.819 Y57.473 Z-1.012
G0 Z5.
X37.382 Y69.391
Z0.665
G1 X37.393 Y69.377 Z0.575 F333.
X37.427 Y69.341 Z0.499
X37.479 Y69.288 Z0.447
X37.546 Y69.23 Z0.427
X37.656 Y69.153 Z0.422
X37.774 Y69.09 Z0.417
X37.899 Y69.041 Z0.413
X38.028 Y69.007 Z0.408
X38.161 Y68.988 Z0.403
X38.295 Y68.985 Z0.399
X38.428 Y68.998 Z0.394
X38.559 Y69.027 Z0.389
X38.685 Y69.071 Z0.385
X38.806 Y69.13 Z0.38
X38.918 Y69.203 Z0.375
X39.022 Y69.288 Z0.371
X39.114 Y69.385 Z0.366
X39.194 Y69.492 Z0.361
X39.261 Y69.608 Z0.357
X39.314 Y69.731 Z0.352
X39.352 Y69.86 Z0.347
X39.375 Y69.992 Z0.342
X39.382 Y70.125 Z0.338
X39.373 Y70.259 Z0.333
X39.348 Y70.391 Z0.328
X39.307 Y70.518 Z0.324
X39.252 Y70.641 Z0.319
X39.183 Y70.755 Z0.314
X39.101 Y70.861 Z0.31
X39.007 Y70.956 Z0.305
X38.902 Y71.04 Z0.3
X38.789 Y71.111 Z0.296
X38.667 Y71.167 Z0.291
X38.54 Y71.209 Z0.286
X38.409 Y71.236 Z0.282
X38.275 Y71.246 Z0.277
X38.141 Y71.241 Z0.272
X38.009 Y71.221 Z0.268
X37.88 Y71.184 Z0.263
X37.756 Y71.133 Z0.258
X37.639 Y71.067 Z0.254
X37.531 Y70.988 Z0.249
X37.433 Y70.897 Z0.244
X37.346 Y70.795 Z0.24
X37.272 Y70.683 Z0.235
X37.212 Y70.564 Z0.23
X37.166 Y70.438 Z0.225
X37.136 Y70.308 Z0.221
X37.121 Y70.174 Z0.216
X37.122 Y70.04 Z0.211
X37.139 Y69.908 Z0.207
X37.171 Y69.778 Z0.202
X37.219 Y69.652 Z0.197
X37.281 Y69.534 Z0.193
X37.356 Y69.423 Z0.188
X37.444 Y69.322 Z0.183
X37.544 Y69.232 Z0.179
X37.653 Y69.155 Z0.174
X37.771 Y69.091 Z0.169
X37.895 Y69.042 Z0.165
X38.025 Y69.007 Z0.16
X38.157 Y68.988 Z0.155
X38.291 Y68.985 Z0.151
X38.425 Y68.998 Z0.146
X38.556 Y69.026 Z0.141
X38.682 Y69.07 Z0.137
X38.803 Y69.128 Z0.132
X38.916 Y69.201 Z0.127
X39.019 Y69.286 Z0.122
X39.112 Y69.382 Z0.118
X39.193 Y69.489 Z0.113
X39.26 Y69.605 Z0.108
X39.313 Y69.728 Z0.104
X39.352 Y69.856 Z0.099
X39.374 Y69.988 Z0.094
X39.382 Y70.122 Z0.09
X39.373 Y70.256 Z0.085
X39.348 Y70.387 Z0.08
X39.309 Y70.515 Z0.076
X39.254 Y70.638 Z0.071
X39.185 Y70.753 Z0.066
X39.103 Y70.859 Z0.062
X39.01 Y70.954 Z0.057
X38.905 Y71.038 Z0.052
X38.791 Y71.109 Z0.048
X38.67 Y71.166 Z0.043
X38.543 Y71.208 Z0.038
X38.412 Y71.235 Z0.034
X38.278 Y71.246 Z0.029
X38.144 Y71.242 Z0.024
X38.012 Y71.221 Z0.02
X37.883 Y71.185 Z0.015
X37.759 Y71.134 Z0.01
X37.642 Y71.069 Z0.005
X37.534 Y70.99 Z0.001
X37.435 Y70.9 Z-0.004
X37.348 Y70.798 Z-0.009
X37.274 Y70.686 Z-0.013
X37.213 Y70.567 Z-0.018
X37.167 Y70.441 Z-0.023
X37.136 Y70.311 Z-0.027
X37.121 Y70.178 Z-0.032
X37.122 Y70.044 Z-0.037
X37.138 Y69.911 Z-0.041
X37.17 Y69.781 Z-0.046
X37.217 Y69.655 Z-0.051
X37.279 Y69.536 Z-0.055
X37.354 Y69.426 Z-0.06
X37.442 Y69.324 Z-0.065
X37.541 Y69.234 Z-0.069
X37.65 Y69.157 Z-0.074
X37.768 Y69.093 Z-0.079
X37.892 Y69.043 Z-0.083
X38.022 Y69.008 Z-0.088
X38.154 Y68.989 Z-0.093
X38.288 Y68.985 Z-0.097
X38.422 Y68.997 Z-0.102
X38.553 Y69.025 Z-0.107
X38.679 Y69.069 Z-0.112
X38.8 Y69.127 Z-0.116
X38.913 Y69.199 Z-0.121
X39.017 Y69.283 Z-0.126
X39.11 Y69.38 Z-0.13
X39.191 Y69.487 Z-0.135
X39.258 Y69.602 Z-0.14
X39.312 Y69.725 Z-0.144
X39.351 Y69.853 Z-0.149
X39.374 Y69.985 Z-0.154
X39.382 Y70.119 Z-0.158
X39.373 Y70.253 Z-0.163
X39.349 Y70.384 Z-0.168
X39.31 Y70.512 Z-0.172
X39.255 Y70.635 Z-0.177
X39.187 Y70.75 Z-0.182
X39.105 Y70.856 Z-0.186
X39.012 Y70.952 Z-0.191
X38.908 Y71.036 Z-0.196
X38.794 Y71.107 Z-0.2
X38.673 Y71.165 Z-0.205
X38.546 Y71.207 Z-0.21
X38.415 Y71.235 Z-0.215
X38.282 Y71.246 Z-0.219
X38.148 Y71.242 Z-0.224
X38.015 Y71.222 Z-0.229
X37.886 Y71.186 Z-0.233
X37.762 Y71.136 Z-0.238
X37.645 Y71.071 Z-0.243
X37.536 Y70.993 Z-0.247
X37.438 Y70.902 Z-0.252
X37.35 Y70.8 Z-0.257
X37.276 Y70.689 Z-0.261
X37.215 Y70.57 Z-0.266
X37.168 Y70.444 Z-0.271
X37.137 Y70.314 Z-0.275
X37.121 Y70.181 Z-0.28
X37.122 Y70.047 Z-0.285
X37.138 Y69.914 Z-0.289
X37.169 Y69.784 Z-0.294
X37.216 Y69.658 Z-0.299
X37.277 Y69.539 Z-0.303
X37.352 Y69.428 Z-0.308
X37.44 Y69.327 Z-0.313
X37.539 Y69.236 Z-0.317
X37.648 Y69.159 Z-0.322
X37.765 Y69.094 Z-0.327
X37.889 Y69.044 Z-0.332
X38.018 Y69.009 Z-0.336
X38.151 Y68.989 Z-0.341
X38.285 Y68.985 Z-0.346
X38.418 Y68.997 Z-0.35
X38.549 Y69.025 Z-0.355
X38.676 Y69.068 Z-0.36
X38.797 Y69.125 Z-0.364
X38.91 Y69.197 Z-0.369
X39.014 Y69.281 Z-0.374
X39.108 Y69.377 Z-0.378
X39.189 Y69.484 Z-0.383
X39.257 Y69.599 Z-0.388
X39.311 Y69.722 Z-0.392
X39.35 Y69.85 Z-0.397
X39.374 Y69.982 Z-0.402
X39.382 Y70.116 Z-0.406
G3 X38.816 Y70.681 R0.566
X38.251 Y70.116 R0.566
G2 X37.685 Y69.55 R0.566
X37.119 Y70.116 R0.566
G1 X37.112 Y70.155 F1499.
X37.089 Y70.189
X37.055 Y70.212
X37.015 Y70.22
X36.976 Y70.212
X36.942 Y70.189
X36.919 Y70.155
X36.911 Y70.116
G3 X37.73 Y69.297 R0.818
X38.548 Y70.116 R0.818
X37.015 Y71.648 R1.533
X35.483 Y70.116 R1.533
X37.015 Y68.583 R1.533
X38.548 Y70.116 R1.533
G2 X39.035 Y70.999 R1.045
G3 X39.347 Y71.449 R0.702
X39.24 Y71.987 R0.702
G1 X39.164 Y72.097
X38.48 Y72.646
X37.666 Y72.967
X36.784 Y73.029
X35.945 Y72.837
X35.183 Y72.394
X34.598 Y71.763
X34.226 Y70.991
X34.09 Y70.11
X34.141 Y69.771
X34.219 Y69.256
X34.224 Y69.243
X34.594 Y68.475
X35.183 Y67.836
X35.945 Y67.393
X36.784 Y67.201
X37.666 Y67.263
X38.468 Y67.578
X39.16 Y68.126
X39.642 Y68.833
X39.906 Y69.673
Y70.558
X39.652 Y71.381
X39.24 Y71.987
X39.213 Y72.015
X39.179 Y72.033
X39.141 Y72.039
X39.103 Y72.032
X39.069 Y72.014
X39.043 Y71.986
X39.027 Y71.951
X39.023 Y71.912
X39.133 Y70.136
X39.143 Y70.096
X39.165 Y70.062
X39.198 Y70.037
X39.237 Y70.025
X39.278 Y70.027
X39.316 Y70.042
X39.346 Y70.07
X39.365 Y70.106
X39.371 Y70.147
X39.359 Y70.279 Z-0.411 F333.
X39.332 Y70.41 Z-0.416
X39.289 Y70.536 Z-0.42
X39.232 Y70.657 Z-0.425
X39.161 Y70.769 Z-0.43
X39.077 Y70.873 Z-0.434
X38.982 Y70.966 Z-0.439
X38.876 Y71.048 Z-0.444
X38.762 Y71.116 Z-0.448
X38.64 Y71.17 Z-0.453
X38.513 Y71.21 Z-0.458
X38.382 Y71.234 Z-0.462
X38.249 Y71.243 Z-0.467
X38.115 Y71.236 Z-0.472
X37.984 Y71.214 Z-0.476
X37.856 Y71.176 Z-0.481
X37.734 Y71.123 Z-0.486
X37.618 Y71.057 Z-0.49
X37.511 Y70.977 Z-0.495
X37.415 Y70.885 Z-0.5
X37.329 Y70.783 Z-0.504
X37.257 Y70.671 Z-0.509
X37.198 Y70.551 Z-0.514
X37.154 Y70.426 Z-0.518
X37.124 Y70.296 Z-0.523
X37.11 Y70.163 Z-0.528
X37.112 Y70.03 Z-0.532
X37.13 Y69.898 Z-0.537
X37.163 Y69.768 Z-0.541
X37.211 Y69.644 Z-0.546
X37.273 Y69.526 Z-0.551
X37.349 Y69.416 Z-0.555
X37.437 Y69.316 Z-0.56
X37.536 Y69.227 Z-0.565
X37.645 Y69.15 Z-0.569
X37.762 Y69.087 Z-0.574
X37.886 Y69.038 Z-0.579
X38.015 Y69.004 Z-0.583
X38.147 Y68.985 Z-0.588
X38.28 Y68.982 Z-0.593
X38.413 Y68.994 Z-0.597
X38.543 Y69.022 Z-0.602
X38.669 Y69.066 Z-0.607
X38.789 Y69.123 Z-0.611
X38.902 Y69.195 Z-0.616
X39.005 Y69.279 Z-0.621
X39.098 Y69.375 Z-0.625
X39.179 Y69.481 Z-0.63
X39.247 Y69.596 Z-0.635
X39.3 Y69.718 Z-0.639
X39.339 Y69.845 Z-0.644
X39.363 Y69.976 Z-0.649
X39.371 Y70.109 Z-0.653
G3 X38.807 Y70.676 R0.566
X38.24 Y70.114 R0.566
G1 Y70.112
G2 X37.671 Y69.549 R0.566
X37.109 Y70.115 R0.566
G1 X37.102 Y70.152 F1499.
X37.081 Y70.183
X37.05 Y70.204
X37.013 Y70.211
X36.976 Y70.204
X36.945 Y70.183
X36.924 Y70.152
X36.917 Y70.115
G3 X37.728 Y69.305 R0.81
X38.538 Y70.115 R0.81
X37.013 Y71.64 R1.525
X35.488 Y70.115 R1.525
X37.013 Y68.59 R1.525
X38.538 Y70.115 R1.525
G2 X39.024 Y71. R1.048
G3 X39.336 Y71.451 R0.703
X39.228 Y71.988 R0.703
G1 X39.158 Y72.092
X38.469 Y72.643
X37.666 Y72.958
X36.784 Y73.021
X35.945 Y72.828
X35.191 Y72.389
X34.605 Y71.758
X34.234 Y70.988
X34.192 Y70.74
X34.099 Y70.111
X34.141 Y69.829
X34.227 Y69.258
X34.233 Y69.245
X34.603 Y68.476
X35.194 Y67.837
X35.945 Y67.402
X36.784 Y67.209
X37.666 Y67.272
X38.464 Y67.585
X39.15 Y68.128
X39.638 Y68.842
X39.659 Y68.902
X39.897 Y69.672
X39.899 Y70.551
X39.644 Y71.378
X39.228 Y71.988
X39.202 Y72.016
X39.168 Y72.034
X39.129 Y72.04
X39.091 Y72.034
X39.057 Y72.016
X39.031 Y71.987
X39.015 Y71.952
X39.011 Y71.914
X39.124 Y70.135
X39.134 Y70.096
X39.156 Y70.061
X39.189 Y70.037
X39.228 Y70.025
X39.269 Y70.027
X39.307 Y70.042
X39.337 Y70.07
X39.356 Y70.106
X39.362 Y70.147
X39.35 Y70.279 Z-0.658 F333.
X39.323 Y70.41 Z-0.663
X39.28 Y70.536 Z-0.667
X39.223 Y70.657 Z-0.672
X39.152 Y70.769 Z-0.677
X39.068 Y70.873 Z-0.681
X38.973 Y70.966 Z-0.686
X38.867 Y71.048 Z-0.691
X38.753 Y71.116 Z-0.695
X38.631 Y71.17 Z-0.7
X38.504 Y71.21 Z-0.705
X38.373 Y71.234 Z-0.709
X38.24 Y71.243 Z-0.714
X38.107 Y71.236 Z-0.718
X37.975 Y71.214 Z-0.723
X37.848 Y71.176 Z-0.728
X37.725 Y71.123 Z-0.732
X37.61 Y71.057 Z-0.737
X37.503 Y70.977 Z-0.742
X37.406 Y70.885 Z-0.746
X37.321 Y70.783 Z-0.751
X37.248 Y70.671 Z-0.756
X37.189 Y70.551 Z-0.76
X37.145 Y70.426 Z-0.765
X37.116 Y70.296 Z-0.77
X37.102 Y70.163 Z-0.774
X37.104 Y70.03 Z-0.779
X37.121 Y69.898 Z-0.784
X37.154 Y69.768 Z-0.788
X37.202 Y69.644 Z-0.793
X37.264 Y69.526 Z-0.798
X37.34 Y69.416 Z-0.802
X37.428 Y69.316 Z-0.807
X37.527 Y69.227 Z-0.812
X37.636 Y69.15 Z-0.816
X37.754 Y69.087 Z-0.821
X37.877 Y69.038 Z-0.826
X38.006 Y69.004 Z-0.83
X38.138 Y68.985 Z-0.835
X38.272 Y68.982 Z-0.84
X38.404 Y68.994 Z-0.844
X38.535 Y69.022 Z-0.849
X38.661 Y69.066 Z-0.854
X38.781 Y69.123 Z-0.858
X38.893 Y69.195 Z-0.863
X38.997 Y69.279 Z-0.868
X39.089 Y69.375 Z-0.872
X39.17 Y69.481 Z-0.877
X39.238 Y69.596 Z-0.882
X39.292 Y69.718 Z-0.886
X39.331 Y69.845 Z-0.891
X39.355 Y69.976 Z-0.895
X39.363 Y70.109 Z-0.9
G3 X38.799 Y70.676 R0.566
X38.232 Y70.114 R0.566
G1 Y70.112
G2 X37.663 Y69.549 R0.566
X37.101 Y70.115 R0.566
G1 X37.094 Y70.148 F1499.
X37.075 Y70.177
X37.047 Y70.196
X37.013 Y70.202
X36.98 Y70.196
X36.951 Y70.177
X36.932 Y70.148
X36.926 Y70.115
G3 X37.727 Y69.313 R0.802
X38.529 Y70.115 R0.802
X37.013 Y71.631 R1.516
X35.497 Y70.115 R1.516
X37.013 Y68.599 R1.516
X38.529 Y70.115 R1.516
G2 X39.015 Y71. R1.048
G3 X39.326 Y71.451 R0.703
X39.219 Y71.988 R0.703
G1 X39.15 Y72.088
X38.478 Y72.627
X38.347 Y72.682
X37.666 Y72.949
X36.784 Y73.012
X35.945 Y72.818
X35.199 Y72.386
X34.612 Y71.753
X34.239 Y70.98
X34.228 Y70.924
X34.107 Y70.11
X34.141 Y69.883
X34.234 Y69.269
X34.283 Y69.158
X34.612 Y68.477
X35.207 Y67.838
X35.95 Y67.409
X36.784 Y67.218
X37.666 Y67.281
X38.463 Y67.594
X39.137 Y68.129
X39.241 Y68.274
X39.636 Y68.853
X39.888 Y69.672
X39.89 Y70.551
X39.637 Y71.374
X39.219 Y71.988
X39.194 Y72.014
X39.161 Y72.031
X39.125 Y72.036
X39.089 Y72.029
X39.058 Y72.011
X39.034 Y71.984
X38.752 Y71.532
X37.384 Y69.618
X37.274 Y69.544
X37.265 Y69.534
X37.262 Y69.52
X37.266 Y69.507
X37.344 Y69.398 Z-0.905 F333.
X37.434 Y69.3 Z-0.909
X37.535 Y69.213 Z-0.914
X37.646 Y69.138 Z-0.919
X37.765 Y69.077 Z-0.923
X37.89 Y69.031 Z-0.928
X38.02 Y68.999 Z-0.933
X38.152 Y68.983 Z-0.937
X38.286 Z-0.942
X38.418 Y68.998 Z-0.947
X38.548 Y69.029 Z-0.951
X38.674 Y69.075 Z-0.956
X38.793 Y69.136 Z-0.961
X38.904 Y69.21 Z-0.965
X39.005 Y69.297 Z-0.97
X39.096 Y69.395 Z-0.975
X39.174 Y69.503 Z-0.979
X39.239 Y69.619 Z-0.984
X39.29 Y69.743 Z-0.989
X39.326 Y69.871 Z-0.993
X39.347 Y70.003 Z-0.998
X39.352 Y70.137 Z-1.003
X39.341 Y70.27 Z-1.007
X39.315 Y70.4 Z-1.012
X39.273 Y70.527 Z-1.017
X39.217 Y70.648 Z-1.021
X39.147 Y70.762 Z-1.026
X39.064 Y70.867 Z-1.031
X38.969 Y70.961 Z-1.035
X38.864 Y71.043 Z-1.04
X38.75 Y71.112 Z-1.045
X38.628 Y71.167 Z-1.049
X38.501 Y71.208 Z-1.054
X38.37 Y71.233 Z-1.059
X38.237 Y71.243 Z-1.063
X38.104 Y71.237 Z-1.068
X37.972 Y71.215 Z-1.073
X37.844 Y71.178 Z-1.077
X37.721 Y71.126 Z-1.082
X37.605 Y71.06 Z-1.087
X37.497 Y70.981 Z-1.091
X37.4 Y70.89 Z-1.096
X37.314 Y70.788 Z-1.101
X37.241 Y70.676 Z-1.105
X37.181 Y70.557 Z-1.11
X37.136 Y70.431 Z-1.115
X37.106 Y70.301 Z-1.119
X37.092 Y70.168 Z-1.124
X37.093 Y70.035 Z-1.129
X37.11 Y69.902 Z-1.133
X37.142 Y69.773 Z-1.138
X37.19 Y69.648 Z-1.143
X37.252 Y69.53 Z-1.147
X37.327 Y69.419 Z-1.152
X37.415 Y69.319 Z-1.157
X37.514 Y69.229 Z-1.161
X37.623 Y69.152 Z-1.166
X37.74 Y69.088 Z-1.171
X37.864 Y69.039 Z-1.175
X37.993 Y69.004 Z-1.18
X38.125 Y68.985 Z-1.185
X38.259 Y68.982 Z-1.189
X38.392 Y68.994 Z-1.194
X38.522 Y69.022 Z-1.199
X38.649 Y69.065 Z-1.203
X38.769 Y69.122 Z-1.208
X38.882 Y69.194 Z-1.213
X38.985 Y69.278 Z-1.217
X39.078 Y69.374 Z-1.222
X39.159 Y69.48 Z-1.227
X39.227 Y69.595 Z-1.231
X39.281 Y69.717 Z-1.236
X39.32 Y69.845 Z-1.241
X39.344 Y69.976 Z-1.245
X39.352 Y70.109 Z-1.25
G3 X38.788 Y70.676 R0.566
X38.221 Y70.114 R0.566
G1 Y70.112
G2 X37.652 Y69.549 R0.566
X37.09 Y70.115 R0.566
G1 X37.083 Y70.147 F1499.
X37.062 Y70.173
X37.032 Y70.188
X36.999
X36.969 Y70.173
X36.948 Y70.147
X36.941 Y70.115
G3 X37.73 Y69.326 R0.789
X38.519 Y70.115 R0.789
X37.015 Y71.618 R1.503
X35.512 Y70.115 R1.503
X37.015 Y68.612 R1.503
X38.519 Y70.115 R1.503
G2 X39.004 Y70.998 R1.047
G3 X39.314 Y71.448 R0.701
X39.207 Y71.985 R0.701
G1 X39.145 Y72.075
X39.113 Y72.105
X38.465 Y72.622
X37.665 Y72.936
X36.784 Y73.
X35.945 Y72.804
X35.211 Y72.38
X34.622 Y71.746
X34.248 Y70.97
X34.121 Y70.1
X34.245 Y69.277
X34.629 Y68.476
X35.209 Y67.851
X35.959 Y67.418
X36.783 Y67.23
X37.666 Y67.294
X38.463 Y67.606
X39.138 Y68.145
X39.625 Y68.858
X39.875 Y69.672
X39.878 Y70.551
X39.627 Y71.364
X39.61 Y71.392
X39.207 Y71.985
X39.178 Y72.02 Z-1.241
X39.142 Y72.048 Z-1.232
X39.109 Y72.067 Z-1.206
X39.072 Y72.08 Z-1.18
X39.021 Y72.088 Z-1.103
X39.003 Y72.089 Z-1.012
G0 Z5.
X41.807 Y79.911
Z0.665
G1 Y79.894 Z0.575 F333.
Y79.844 Z0.499
X41.808 Y79.77 Z0.447
X41.81 Y79.681 Z0.427
X41.823 Y79.403 Z0.417
X41.847 Y79.126 Z0.407
X41.882 Y78.85 Z0.398
X41.929 Y78.575 Z0.388
X41.987 Y78.303 Z0.378
X42.01 Y78.236 Z0.376
X42.048 Y78.176 Z0.373
X42.098 Y78.126 Z0.371
X42.158 Y78.088 Z0.368
X42.225 Y78.063 Z0.366
X42.295 Y78.054 Z0.363
X42.366 Y78.061 Z0.361
X42.433 Y78.083 Z0.358
X42.494 Y78.119 Z0.356
X42.568 Y78.172 Z0.353
X42.619 Y78.214 Z0.35
X42.66 Y78.266 Z0.348
X42.691 Y78.325 Z0.346
X42.709 Y78.389 Z0.343
X42.715 Y78.455 Z0.341
X42.707 Y78.521 Z0.339
X42.512 Y79.401 Z0.307
X42.479 Y79.58 Z0.301
X42.461 Y79.761 Z0.294
X42.459 Y79.943 Z0.288
X42.472 Y80.124 Z0.282
X42.499 Y80.304 Z0.275
X42.549 Y80.533 Z0.267
X42.605 Y80.76 Z0.259
X42.661 Y80.988 Z0.251
X42.71 Y81.217 Z0.243
X42.717 Y81.283 Z0.24
X42.71 Y81.35 Z0.238
X42.691 Y81.414 Z0.236
X42.659 Y81.472 Z0.233
X42.616 Y81.523 Z0.231
X42.564 Y81.565 Z0.229
X42.527 Y81.589 Z0.227
X42.491 Y81.614 Z0.226
X42.429 Y81.649 Z0.223
X42.361 Y81.669 Z0.221
X42.291 Y81.674 Z0.218
X42.221 Y81.664 Z0.216
X42.155 Y81.638 Z0.213
X42.096 Y81.6 Z0.211
X42.046 Y81.549 Z0.208
X42.009 Y81.489 Z0.206
X41.986 Y81.422 Z0.203
X41.921 Y81.114 Z0.192
X41.871 Y80.803 Z0.181
X41.836 Y80.491 Z0.17
X41.814 Y80.177 Z0.159
X41.807 Y79.862 Z0.148
X41.815 Y79.548 Z0.137
X41.836 Y79.234 Z0.126
X41.872 Y78.921 Z0.115
X41.922 Y78.611 Z0.104
X41.987 Y78.303 Z0.093
X42.01 Y78.236 Z0.091
X42.048 Y78.176 Z0.089
X42.098 Y78.126 Z0.086
X42.158 Y78.088 Z0.084
X42.225 Y78.063 Z0.081
X42.295 Y78.054 Z0.079
X42.366 Y78.061 Z0.076
X42.433 Y78.083 Z0.074
X42.494 Y78.119 Z0.071
X42.568 Y78.172 Z0.068
X42.619 Y78.214 Z0.066
X42.66 Y78.266 Z0.063
X42.691 Y78.325 Z0.061
X42.709 Y78.389 Z0.059
X42.715 Y78.455 Z0.056
X42.707 Y78.521 Z0.054
X42.512 Y79.401 Z0.023
X42.479 Y79.58 Z0.016
X42.461 Y79.761 Z0.01
X42.459 Y79.943 Z0.003
X42.472 Y80.124 Z-0.003
X42.499 Y80.304 Z-0.009
X42.549 Y80.533 Z-0.017
X42.605 Y80.76 Z-0.026
X42.661 Y80.988 Z-0.034
X42.71 Y81.217 Z-0.042
X42.717 Y81.283 Z-0.044
X42.71 Y81.35 Z-0.047
X42.691 Y81.414 Z-0.049
X42.659 Y81.472 Z-0.051
X42.616 Y81.523 Z-0.054
X42.564 Y81.565 Z-0.056
X42.527 Y81.589 Z-0.057
X42.491 Y81.614 Z-0.059
X42.429 Y81.649 Z-0.061
X42.361 Y81.669 Z-0.064
X42.291 Y81.674 Z-0.066
X42.221 Y81.664 Z-0.069
X42.155 Y81.638 Z-0.071
X42.096 Y81.6 Z-0.074
X42.046 Y81.549 Z-0.076
X42.009 Y81.489 Z-0.079
X41.986 Y81.422 Z-0.081
X41.921 Y81.114 Z-0.092
X41.871 Y80.803 Z-0.103
X41.836 Y80.491 Z-0.114
X41.814 Y80.177 Z-0.125
X41.807 Y79.862 Z-0.136
X41.815 Y79.548 Z-0.147
X41.836 Y79.234 Z-0.158
X41.872 Y78.921 Z-0.169
X41.922 Y78.611 Z-0.18
X41.987 Y78.303 Z-0.191
X42.01 Y78.236 Z-0.194
X42.048 Y78.176 Z-0.196
X42.098 Y78.126 Z-0.199
X42.158 Y78.088 Z-0.201
X42.225 Y78.063 Z-0.204
X42.295 Y78.054 Z-0.206
X42.366 Y78.061 Z-0.209
X42.433 Y78.083 Z-0.211
X42.494 Y78.119 Z-0.213
X42.568 Y78.172 Z-0.217
X42.619 Y78.214 Z-0.219
X42.66 Y78.266 Z-0.221
X42.691 Y78.325 Z-0.224
X42.709 Y78.389 Z-0.226
X42.715 Y78.455 Z-0.228
X42.707 Y78.521 Z-0.231
X42.512 Y79.401 Z-0.262
X42.479 Y79.58 Z-0.268
X42.461 Y79.761 Z-0.275
X42.459 Y79.943 Z-0.281
X42.472 Y80.124 Z-0.287
X42.499 Y80.304 Z-0.294
X42.549 Y80.533 Z-0.302
X42.605 Y80.76 Z-0.31
X42.661 Y80.988 Z-0.318
X42.71 Y81.217 Z-0.327
X42.717 Y81.283 Z-0.329
X42.71 Y81.35 Z-0.331
X42.691 Y81.414 Z-0.334
X42.659 Y81.472 Z-0.336
X42.616 Y81.523 Z-0.338
X42.564 Y81.565 Z-0.341
X42.527 Y81.589 Z-0.342
X42.491 Y81.614 Z-0.344
X42.429 Y81.649 Z-0.346
X42.361 Y81.669 Z-0.349
X42.291 Y81.674 Z-0.351
X42.221 Y81.664 Z-0.354
X42.155 Y81.638 Z-0.356
X42.096 Y81.6 Z-0.358
X42.046 Y81.549 Z-0.361
X42.009 Y81.489 Z-0.363
X41.986 Y81.422 Z-0.366
X41.926 Y81.138 Z-0.376
X41.878 Y80.853 Z-0.386
X41.843 Y80.565 Z-0.396
X41.82 Y80.276 Z-0.406
G3 X41.987 Y78.303 R6.887 F1499.
X42.375 Y78.063 R0.322
X42.494 Y78.119 R0.322
G1 X42.568 Y78.172
G3 X42.707 Y78.521 R0.336
X42.512 Y79.401 R85.566
G2 X42.499 Y80.304 R2.168
X42.605 Y80.76 R7.47
G3 X42.71 Y81.217 R8.091
X42.564 Y81.565 R0.336
G1 X42.527 Y81.589
X42.491 Y81.614
G3 X42.037 Y81.536 R0.326
X41.986 Y81.422 R0.326
X41.82 Y80.276 R6.887
G2 X41.165 Y79.351 R1.073
G3 X40.65 Y78.342 R0.879
G1 X40.695 Y78.149
X40.794 Y77.727
X41.436 Y76.427
X42.205 Y75.487
X42.341 Y75.887
X42.377 Y75.969
X42.427 Y76.065
X42.455 Y76.114
X42.487 Y76.159
X43.076 Y76.909
X43.119 Y76.958
X43.168 Y77.002
X43.252 Y77.071
X43.307 Y77.11
X44.04 Y77.581
X44.115 Y77.622
X44.407 Y77.754
Y77.993
X44.103 Y78.456
X44.068 Y78.519
X44.04 Y78.585
X43.991 Y78.723
X43.969 Y78.805
X43.798 Y79.671
X43.79 Y79.725
X43.787 Y79.78
X43.785 Y79.924
X43.788 Y79.986
X43.797 Y80.046
X43.978 Y80.961
X43.992 Y81.017
X44.011 Y81.071
X44.062 Y81.195
X44.086 Y81.246
X44.114 Y81.294
