(NMJPLATE0PT0PT3_TOP_STEP1_4MM_SIDE1)
(T8  D=4. CR=0. - ZMIN=-17.4 - FLAT END MILL)
G0 G90 G94 G17
G21
G53 G0 Z0.

(FACE 4MM)
M5
T8
M3 S16000
G55
M8
G0 X-2.6 Y0.775
Z15.
Z5.
G1 Z-0.1 F380.
X-2.592 Z-0.178 F1500.
X-2.57 Z-0.253
X-2.533 Z-0.322
X-2.483 Z-0.383
X-2.422 Z-0.433
X-2.353 Z-0.47
X-2.278 Z-0.492
X-2.2 Z-0.5
X-2.01
X154.41
X154.488 Z-0.492
X154.563 Z-0.47
X154.632 Z-0.433
X154.693 Z-0.383
X154.743 Z-0.322
X154.78 Z-0.253
X154.802 Z-0.178
X154.81 Z-0.1
G0 Z5.
X-2.6 Y3.522
G1 Z-0.1 F380.
X-2.592 Z-0.178 F1500.
X-2.57 Z-0.253
X-2.533 Z-0.322
X-2.483 Z-0.383
X-2.422 Z-0.433
X-2.353 Z-0.47
X-2.278 Z-0.492
X-2.2 Z-0.5
X-2.01
X154.41
X154.488 Z-0.492
X154.563 Z-0.47
X154.632 Z-0.433
X154.693 Z-0.383
X154.743 Z-0.322
X154.78 Z-0.253
X154.802 Z-0.178
X154.81 Z-0.1
G0 Z5.
X-2.6 Y6.269
G1 Z-0.1 F380.
X-2.592 Z-0.178 F1500.
X-2.57 Z-0.253
X-2.533 Z-0.322
X-2.483 Z-0.383
X-2.422 Z-0.433
X-2.353 Z-0.47
X-2.278 Z-0.492
X-2.2 Z-0.5
X-2.01
X154.41
X154.488 Z-0.492
X154.563 Z-0.47
X154.632 Z-0.433
X154.693 Z-0.383
X154.743 Z-0.322
X154.78 Z-0.253
X154.802 Z-0.178
X154.81 Z-0.1
G0 Z5.
X-2.6 Y9.017
G1 Z-0.1 F380.
X-2.592 Z-0.178 F1500.
X-2.57 Z-0.253
X-2.533 Z-0.322
X-2.483 Z-0.383
X-2.422 Z-0.433
X-2.353 Z-0.47
X-2.278 Z-0.492
X-2.2 Z-0.5
X-2.01
X154.41
X154.488 Z-0.492
X154.563 Z-0.47
X154.632 Z-0.433
X154.693 Z-0.383
X154.743 Z-0.322
X154.78 Z-0.253
X154.802 Z-0.178
X154.81 Z-0.1
G0 Z5.
X-2.6 Y11.764
G1 Z-0.1 F380.
X-2.592 Z-0.178 F1500.
X-2.57 Z-0.253
X-2.533 Z-0.322
X-2.483 Z-0.383
X-2.422 Z-0.433
X-2.353 Z-0.47
X-2.278 Z-0.492
X-2.2 Z-0.5
X-2.01
X154.41
X154.488 Z-0.492
X154.563 Z-0.47
X154.632 Z-0.433
X154.693 Z-0.383
X154.743 Z-0.322
X154.78 Z-0.253
X154.802 Z-0.178
X154.81 Z-0.1
G0 Z5.
X-2.6 Y14.511
G1 Z-0.1 F380.
X-2.592 Z-0.178 F1500.
X-2.57 Z-0.253
X-2.533 Z-0.322
X-2.483 Z-0.383
X-2.422 Z-0.433
X-2.353 Z-0.47
X-2.278 Z-0.492
X-2.2 Z-0.5
X-2.01
X154.41
X154.488 Z-0.492
X154.563 Z-0.47
X154.632 Z-0.433
X154.693 Z-0.383
X154.743 Z-0.322
X154.78 Z-0.253
X154.802 Z-0.178
X154.81 Z-0.1
G0 Z5.
X-2.6 Y17.258
G1 Z-0.1 F380.
X-2.592 Z-0.178 F1500.
X-2.57 Z-0.253
X-2.533 Z-0.322
X-2.483 Z-0.383
X-2.422 Z-0.433
X-2.353 Z-0.47
X-2.278 Z-0.492
X-2.2 Z-0.5
X-2.01
X154.41
X154.488 Z-0.492
X154.563 Z-0.47
X154.632 Z-0.433
X154.693 Z-0.383
X154.743 Z-0.322
X154.78 Z-0.253
X154.802 Z-0.178
X154.81 Z-0.1
G0 Z5.
X-2.6 Y20.005
G1 Z-0.1 F380.
X-2.592 Z-0.178 F1500.
X-2.57 Z-0.253
X-2.533 Z-0.322
X-2.483 Z-0.383
X-2.422 Z-0.433
X-2.353 Z-0.47
X-2.278 Z-0.492
X-2.2 Z-0.5
X-2.01
X154.41
X154.488 Z-0.492
X154.563 Z-0.47
X154.632 Z-0.433
X154.693 Z-0.383
X154.743 Z-0.322
X154.78 Z-0.253
X154.802 Z-0.178
X154.81 Z-0.1
G0 Z5.
X-2.6 Y22.752
G1 Z-0.1 F380.
X-2.592 Z-0.178 F1500.
X-2.57 Z-0.253
X-2.533 Z-0.322
X-2.483 Z-0.383
X-2.422 Z-0.433
X-2.353 Z-0.47
X-2.278 Z-0.492
X-2.2 Z-0.5
X-2.01
X154.41
X154.488 Z-0.492
X154.563 Z-0.47
X154.632 Z-0.433
X154.693 Z-0.383
X154.743 Z-0.322
X154.78 Z-0.253
X154.802 Z-0.178
X154.81 Z-0.1
G0 Z5.
X-2.6 Y25.499
G1 Z-0.1 F380.
X-2.592 Z-0.178 F1500.
X-2.57 Z-0.253
X-2.533 Z-0.322
X-2.483 Z-0.383
X-2.422 Z-0.433
X-2.353 Z-0.47
X-2.278 Z-0.492
X-2.2 Z-0.5
X-2.01
X154.41
X154.488 Z-0.492
X154.563 Z-0.47
X154.632 Z-0.433
X154.693 Z-0.383
X154.743 Z-0.322
X154.78 Z-0.253
X154.802 Z-0.178
X154.81 Z-0.1
G0 Z5.
X-2.6 Y28.246
G1 Z-0.1 F380.
X-2.592 Z-0.178 F1500.
X-2.57 Z-0.253
X-2.533 Z-0.322
X-2.483 Z-0.383
X-2.422 Z-0.433
X-2.353 Z-0.47
X-2.278 Z-0.492
X-2.2 Z-0.5
X-2.01
X154.41
X154.488 Z-0.492
X154.563 Z-0.47
X154.632 Z-0.433
X154.693 Z-0.383
X154.743 Z-0.322
X154.78 Z-0.253
X154.802 Z-0.178
X154.81 Z-0.1
G0 Z5.
X-2.6 Y30.994
G1 Z-0.1 F380.
X-2.592 Z-0.178 F1500.
X-2.57 Z-0.253
X-2.533 Z-0.322
X-2.483 Z-0.383
X-2.422 Z-0.433
X-2.353 Z-0.47
X-2.278 Z-0.492
X-2.2 Z-0.5
X-2.01
X154.41
X154.488 Z-0.492
X154.563 Z-0.47
X154.632 Z-0.433
X154.693 Z-0.383
X154.743 Z-0.322
X154.78 Z-0.253
X154.802 Z-0.178
X154.81 Z-0.1
G0 Z5.
X-2.6 Y33.741
G1 Z-0.1 F380.
X-2.592 Z-0.178 F1500.
X-2.57 Z-0.253
X-2.533 Z-0.322
X-2.483 Z-0.383
X-2.422 Z-0.433
X-2.353 Z-0.47
X-2.278 Z-0.492
X-2.2 Z-0.5
X-2.01
X154.41
X154.488 Z-0.492
X154.563 Z-0.47
X154.632 Z-0.433
X154.693 Z-0.383
X154.743 Z-0.322
X154.78 Z-0.253
X154.802 Z-0.178
X154.81 Z-0.1
G0 Z5.
X-2.6 Y36.488
G1 Z-0.1 F380.
X-2.592 Z-0.178 F1500.
X-2.57 Z-0.253
X-2.533 Z-0.322
X-2.483 Z-0.383
X-2.422 Z-0.433
X-2.353 Z-0.47
X-2.278 Z-0.492
X-2.2 Z-0.5
X-2.01
X154.41
X154.488 Z-0.492
X154.563 Z-0.47
X154.632 Z-0.433
X154.693 Z-0.383
X154.743 Z-0.322
X154.78 Z-0.253
X154.802 Z-0.178
X154.81 Z-0.1
G0 Z5.
X-2.6 Y39.235
G1 Z-0.1 F380.
X-2.592 Z-0.178 F1500.
X-2.57 Z-0.253
X-2.533 Z-0.322
X-2.483 Z-0.383
X-2.422 Z-0.433
X-2.353 Z-0.47
X-2.278 Z-0.492
X-2.2 Z-0.5
X-2.01
X154.41
X154.488 Z-0.492
X154.563 Z-0.47
X154.632 Z-0.433
X154.693 Z-0.383
X154.743 Z-0.322
X154.78 Z-0.253
X154.802 Z-0.178
X154.81 Z-0.1
G0 Z5.
X-2.6 Y41.982
G1 Z-0.1 F380.
X-2.592 Z-0.178 F1500.
X-2.57 Z-0.253
X-2.533 Z-0.322
X-2.483 Z-0.383
X-2.422 Z-0.433
X-2.353 Z-0.47
X-2.278 Z-0.492
X-2.2 Z-0.5
X-2.01
X154.41
X154.488 Z-0.492
X154.563 Z-0.47
X154.632 Z-0.433
X154.693 Z-0.383
X154.743 Z-0.322
X154.78 Z-0.253
X154.802 Z-0.178
X154.81 Z-0.1
G0 Z5.
X-2.6 Y44.729
G1 Z-0.1 F380.
X-2.592 Z-0.178 F1500.
X-2.57 Z-0.253
X-2.533 Z-0.322
X-2.483 Z-0.383
X-2.422 Z-0.433
X-2.353 Z-0.47
X-2.278 Z-0.492
X-2.2 Z-0.5
X-2.01
X154.41
X154.488 Z-0.492
X154.563 Z-0.47
X154.632 Z-0.433
X154.693 Z-0.383
X154.743 Z-0.322
X154.78 Z-0.253
X154.802 Z-0.178
X154.81 Z-0.1
G0 Z5.
X-2.6 Y47.476
G1 Z-0.1 F380.
X-2.592 Z-0.178 F1500.
X-2.57 Z-0.253
X-2.533 Z-0.322
X-2.483 Z-0.383
X-2.422 Z-0.433
X-2.353 Z-0.47
X-2.278 Z-0.492
X-2.2 Z-0.5
X-2.01
X154.41
X154.488 Z-0.492
X154.563 Z-0.47
X154.632 Z-0.433
X154.693 Z-0.383
X154.743 Z-0.322
X154.78 Z-0.253
X154.802 Z-0.178
X154.81 Z-0.1
G0 Z5.
X-2.6 Y50.224
G1 Z-0.1 F380.
X-2.592 Z-0.178 F1500.
X-2.57 Z-0.253
X-2.533 Z-0.322
X-2.483 Z-0.383
X-2.422 Z-0.433
X-2.353 Z-0.47
X-2.278 Z-0.492
X-2.2 Z-0.5
X-2.01
X154.41
X154.488 Z-0.492
X154.563 Z-0.47
X154.632 Z-0.433
X154.693 Z-0.383
X154.743 Z-0.322
X154.78 Z-0.253
X154.802 Z-0.178
X154.81 Z-0.1
G0 Z5.
X-2.6 Y52.971
G1 Z-0.1 F380.
X-2.592 Z-0.178 F1500.
X-2.57 Z-0.253
X-2.533 Z-0.322
X-2.483 Z-0.383
X-2.422 Z-0.433
X-2.353 Z-0.47
X-2.278 Z-0.492
X-2.2 Z-0.5
X-2.01
X154.41
X154.488 Z-0.492
X154.563 Z-0.47
X154.632 Z-0.433
X154.693 Z-0.383
X154.743 Z-0.322
X154.78 Z-0.253
X154.802 Z-0.178
X154.81 Z-0.1
G0 Z5.
X-2.6 Y55.718
G1 Z-0.1 F380.
X-2.592 Z-0.178 F1500.
X-2.57 Z-0.253
X-2.533 Z-0.322
X-2.483 Z-0.383
X-2.422 Z-0.433
X-2.353 Z-0.47
X-2.278 Z-0.492
X-2.2 Z-0.5
X-2.01
X154.41
X154.488 Z-0.492
X154.563 Z-0.47
X154.632 Z-0.433
X154.693 Z-0.383
X154.743 Z-0.322
X154.78 Z-0.253
X154.802 Z-0.178
X154.81 Z-0.1
G0 Z5.
X-2.6 Y58.465
G1 Z-0.1 F380.
X-2.592 Z-0.178 F1500.
X-2.57 Z-0.253
X-2.533 Z-0.322
X-2.483 Z-0.383
X-2.422 Z-0.433
X-2.353 Z-0.47
X-2.278 Z-0.492
X-2.2 Z-0.5
X-2.01
X154.41
X154.488 Z-0.492
X154.563 Z-0.47
X154.632 Z-0.433
X154.693 Z-0.383
X154.743 Z-0.322
X154.78 Z-0.253
X154.802 Z-0.178
X154.81 Z-0.1
G0 Z5.
X-2.6 Y61.212
G1 Z-0.1 F380.
X-2.592 Z-0.178 F1500.
X-2.57 Z-0.253
X-2.533 Z-0.322
X-2.483 Z-0.383
X-2.422 Z-0.433
X-2.353 Z-0.47
X-2.278 Z-0.492
X-2.2 Z-0.5
X-2.01
X154.41
X154.488 Z-0.492
X154.563 Z-0.47
X154.632 Z-0.433
X154.693 Z-0.383
X154.743 Z-0.322
X154.78 Z-0.253
X154.802 Z-0.178
X154.81 Z-0.1
G0 Z5.
X-2.6 Y63.959
G1 Z-0.1 F380.
X-2.592 Z-0.178 F1500.
X-2.57 Z-0.253
X-2.533 Z-0.322
X-2.483 Z-0.383
X-2.422 Z-0.433
X-2.353 Z-0.47
X-2.278 Z-0.492
X-2.2 Z-0.5
X-2.01
X154.41
X154.488 Z-0.492
X154.563 Z-0.47
X154.632 Z-0.433
X154.693 Z-0.383
X154.743 Z-0.322
X154.78 Z-0.253
X154.802 Z-0.178
X154.81 Z-0.1
G0 Z5.
X-2.6 Y66.706
G1 Z-0.1 F380.
X-2.592 Z-0.178 F1500.
X-2.57 Z-0.253
X-2.533 Z-0.322
X-2.483 Z-0.383
X-2.422 Z-0.433
X-2.353 Z-0.47
X-2.278 Z-0.492
X-2.2 Z-0.5
X-2.01
X154.41
X154.488 Z-0.492
X154.563 Z-0.47
X154.632 Z-0.433
X154.693 Z-0.383
X154.743 Z-0.322
X154.78 Z-0.253
X154.802 Z-0.178
X154.81 Z-0.1
G0 Z5.
X-2.6 Y69.454
G1 Z-0.1 F380.
X-2.592 Z-0.178 F1500.
X-2.57 Z-0.253
X-2.533 Z-0.322
X-2.483 Z-0.383
X-2.422 Z-0.433
X-2.353 Z-0.47
X-2.278 Z-0.492
X-2.2 Z-0.5
X-2.01
X154.41
X154.488 Z-0.492
X154.563 Z-0.47
X154.632 Z-0.433
X154.693 Z-0.383
X154.743 Z-0.322
X154.78 Z-0.253
X154.802 Z-0.178
X154.81 Z-0.1
G0 Z5.
X-2.6 Y72.201
G1 Z-0.1 F380.
X-2.592 Z-0.178 F1500.
X-2.57 Z-0.253
X-2.533 Z-0.322
X-2.483 Z-0.383
X-2.422 Z-0.433
X-2.353 Z-0.47
X-2.278 Z-0.492
X-2.2 Z-0.5
X-2.01
X154.41
X154.488 Z-0.492
X154.563 Z-0.47
X154.632 Z-0.433
X154.693 Z-0.383
X154.743 Z-0.322
X154.78 Z-0.253
X154.802 Z-0.178
X154.81 Z-0.1
G0 Z5.
X-2.6 Y74.948
G1 Z-0.1 F380.
X-2.592 Z-0.178 F1500.
X-2.57 Z-0.253
X-2.533 Z-0.322
X-2.483 Z-0.383
X-2.422 Z-0.433
X-2.353 Z-0.47
X-2.278 Z-0.492
X-2.2 Z-0.5
X-2.01
X154.41
X154.488 Z-0.492
X154.563 Z-0.47
X154.632 Z-0.433
X154.693 Z-0.383
X154.743 Z-0.322
X154.78 Z-0.253
X154.802 Z-0.178
X154.81 Z-0.1
G0 Z5.
X-2.6 Y77.695
G1 Z-0.1 F380.
X-2.592 Z-0.178 F1500.
X-2.57 Z-0.253
X-2.533 Z-0.322
X-2.483 Z-0.383
X-2.422 Z-0.433
X-2.353 Z-0.47
X-2.278 Z-0.492
X-2.2 Z-0.5
X-2.01
X154.41
X154.488 Z-0.492
X154.563 Z-0.47
X154.632 Z-0.433
X154.693 Z-0.383
X154.743 Z-0.322
X154.78 Z-0.253
X154.802 Z-0.178
X154.81 Z-0.1
G0 Z5.
X-2.6 Y80.442
G1 Z-0.1 F380.
X-2.592 Z-0.178 F1500.
X-2.57 Z-0.253
X-2.533 Z-0.322
X-2.483 Z-0.383
X-2.422 Z-0.433
X-2.353 Z-0.47
X-2.278 Z-0.492
X-2.2 Z-0.5
X-2.01
X154.41
X154.488 Z-0.492
X154.563 Z-0.47
X154.632 Z-0.433
X154.693 Z-0.383
X154.743 Z-0.322
X154.78 Z-0.253
X154.802 Z-0.178
X154.81 Z-0.1
G0 Z5.
X-2.6 Y83.189
G1 Z-0.1 F380.
X-2.592 Z-0.178 F1500.
X-2.57 Z-0.253
X-2.533 Z-0.322
X-2.483 Z-0.383
X-2.422 Z-0.433
X-2.353 Z-0.47
X-2.278 Z-0.492
X-2.2 Z-0.5
X-2.01
X154.41
X154.488 Z-0.492
X154.563 Z-0.47
X154.632 Z-0.433
X154.693 Z-0.383
X154.743 Z-0.322
X154.78 Z-0.253
X154.802 Z-0.178
X154.81 Z-0.1
G0 Z5.
X-2.6 Y85.936
G1 Z-0.1 F380.
X-2.592 Z-0.178 F1500.
X-2.57 Z-0.253
X-2.533 Z-0.322
X-2.483 Z-0.383
X-2.422 Z-0.433
X-2.353 Z-0.47
X-2.278 Z-0.492
X-2.2 Z-0.5
X-2.01
X154.41
X154.488 Z-0.492
X154.563 Z-0.47
X154.632 Z-0.433
X154.693 Z-0.383
X154.743 Z-0.322
X154.78 Z-0.253
X154.802 Z-0.178
X154.81 Z-0.1
G0 Z5.
X-2.6 Y88.683
G1 Z-0.1 F380.
X-2.592 Z-0.178 F1500.
X-2.57 Z-0.253
X-2.533 Z-0.322
X-2.483 Z-0.383
X-2.422 Z-0.433
X-2.353 Z-0.47
X-2.278 Z-0.492
X-2.2 Z-0.5
X-2.01
X154.41
X154.488 Z-0.492
X154.563 Z-0.47
X154.632 Z-0.433
X154.693 Z-0.383
X154.743 Z-0.322
X154.78 Z-0.253
X154.802 Z-0.178
X154.81 Z-0.1
G0 Z5.
X-2.6 Y91.431
G1 Z-0.1 F380.
X-2.592 Z-0.178 F1500.
X-2.57 Z-0.253
X-2.533 Z-0.322
X-2.483 Z-0.383
X-2.422 Z-0.433
X-2.353 Z-0.47
X-2.278 Z-0.492
X-2.2 Z-0.5
X-2.01
X154.41
X154.488 Z-0.492
X154.563 Z-0.47
X154.632 Z-0.433
X154.693 Z-0.383
X154.743 Z-0.322
X154.78 Z-0.253
X154.802 Z-0.178
X154.81 Z-0.1
G0 Z5.
X-2.6 Y94.178
G1 Z-0.1 F380.
X-2.592 Z-0.178 F1500.
X-2.57 Z-0.253
X-2.533 Z-0.322
X-2.483 Z-0.383
X-2.422 Z-0.433
X-2.353 Z-0.47
X-2.278 Z-0.492
X-2.2 Z-0.5
X-2.01
X154.41
X154.488 Z-0.492
X154.563 Z-0.47
X154.632 Z-0.433
X154.693 Z-0.383
X154.743 Z-0.322
X154.78 Z-0.253
X154.802 Z-0.178
X154.81 Z-0.1
G0 Z5.
X-2.6 Y96.925
G1 Z-0.1 F380.
X-2.592 Z-0.178 F1500.
X-2.57 Z-0.253
X-2.533 Z-0.322
X-2.483 Z-0.383
X-2.422 Z-0.433
X-2.353 Z-0.47
X-2.278 Z-0.492
X-2.2 Z-0.5
X-2.01
X154.41
X154.488 Z-0.492
X154.563 Z-0.47
X154.632 Z-0.433
X154.693 Z-0.383
X154.743 Z-0.322
X154.78 Z-0.253
X154.802 Z-0.178
X154.81 Z-0.1
G0 Z5.
X-2.6 Y99.672
G1 Z-0.1 F380.
X-2.592 Z-0.178 F1500.
X-2.57 Z-0.253
X-2.533 Z-0.322
X-2.483 Z-0.383
X-2.422 Z-0.433
X-2.353 Z-0.47
X-2.278 Z-0.492
X-2.2 Z-0.5
X-2.01
X154.41
X154.488 Z-0.492
X154.563 Z-0.47
X154.632 Z-0.433
X154.693 Z-0.383
X154.743 Z-0.322
X154.78 Z-0.253
X154.802 Z-0.178
X154.81 Z-0.1
G0 Z5.
X-2.6 Y0.775
G1 Z-0.6 F380.
X-2.592 Z-0.678 F1500.
X-2.57 Z-0.753
X-2.533 Z-0.822
X-2.483 Z-0.883
X-2.422 Z-0.933
X-2.353 Z-0.97
X-2.278 Z-0.992
X-2.2 Z-1.
X-2.01
X154.41
X154.488 Z-0.992
X154.563 Z-0.97
X154.632 Z-0.933
X154.693 Z-0.883
X154.743 Z-0.822
X154.78 Z-0.753
X154.802 Z-0.678
X154.81 Z-0.6
G0 Z5.
X-2.6 Y3.522
G1 Z-0.6 F380.
X-2.592 Z-0.678 F1500.
X-2.57 Z-0.753
X-2.533 Z-0.822
X-2.483 Z-0.883
X-2.422 Z-0.933
X-2.353 Z-0.97
X-2.278 Z-0.992
X-2.2 Z-1.
X-2.01
X154.41
X154.488 Z-0.992
X154.563 Z-0.97
X154.632 Z-0.933
X154.693 Z-0.883
X154.743 Z-0.822
X154.78 Z-0.753
X154.802 Z-0.678
X154.81 Z-0.6
G0 Z5.
X-2.6 Y6.269
G1 Z-0.6 F380.
X-2.592 Z-0.678 F1500.
X-2.57 Z-0.753
X-2.533 Z-0.822
X-2.483 Z-0.883
X-2.422 Z-0.933
X-2.353 Z-0.97
X-2.278 Z-0.992
X-2.2 Z-1.
X-2.01
X154.41
X154.488 Z-0.992
X154.563 Z-0.97
X154.632 Z-0.933
X154.693 Z-0.883
X154.743 Z-0.822
X154.78 Z-0.753
X154.802 Z-0.678
X154.81 Z-0.6
G0 Z5.
X-2.6 Y9.017
G1 Z-0.6 F380.
X-2.592 Z-0.678 F1500.
X-2.57 Z-0.753
X-2.533 Z-0.822
X-2.483 Z-0.883
X-2.422 Z-0.933
X-2.353 Z-0.97
X-2.278 Z-0.992
X-2.2 Z-1.
X-2.01
X154.41
X154.488 Z-0.992
X154.563 Z-0.97
X154.632 Z-0.933
X154.693 Z-0.883
X154.743 Z-0.822
X154.78 Z-0.753
X154.802 Z-0.678
X154.81 Z-0.6
G0 Z5.
X-2.6 Y11.764
G1 Z-0.6 F380.
X-2.592 Z-0.678 F1500.
X-2.57 Z-0.753
X-2.533 Z-0.822
X-2.483 Z-0.883
X-2.422 Z-0.933
X-2.353 Z-0.97
X-2.278 Z-0.992
X-2.2 Z-1.
X-2.01
X154.41
X154.488 Z-0.992
X154.563 Z-0.97
X154.632 Z-0.933
X154.693 Z-0.883
X154.743 Z-0.822
X154.78 Z-0.753
X154.802 Z-0.678
X154.81 Z-0.6
G0 Z5.
X-2.6 Y14.511
G1 Z-0.6 F380.
X-2.592 Z-0.678 F1500.
X-2.57 Z-0.753
X-2.533 Z-0.822
X-2.483 Z-0.883
X-2.422 Z-0.933
X-2.353 Z-0.97
X-2.278 Z-0.992
X-2.2 Z-1.
X-2.01
X154.41
X154.488 Z-0.992
X154.563 Z-0.97
X154.632 Z-0.933
X154.693 Z-0.883
X154.743 Z-0.822
X154.78 Z-0.753
X154.802 Z-0.678
X154.81 Z-0.6
G0 Z5.
X-2.6 Y17.258
G1 Z-0.6 F380.
X-2.592 Z-0.678 F1500.
X-2.57 Z-0.753
X-2.533 Z-0.822
X-2.483 Z-0.883
X-2.422 Z-0.933
X-2.353 Z-0.97
X-2.278 Z-0.992
X-2.2 Z-1.
X-2.01
X154.41
X154.488 Z-0.992
X154.563 Z-0.97
X154.632 Z-0.933
X154.693 Z-0.883
X154.743 Z-0.822
X154.78 Z-0.753
X154.802 Z-0.678
X154.81 Z-0.6
G0 Z5.
X-2.6 Y20.005
G1 Z-0.6 F380.
X-2.592 Z-0.678 F1500.
X-2.57 Z-0.753
X-2.533 Z-0.822
X-2.483 Z-0.883
X-2.422 Z-0.933
X-2.353 Z-0.97
X-2.278 Z-0.992
X-2.2 Z-1.
X-2.01
X154.41
X154.488 Z-0.992
X154.563 Z-0.97
X154.632 Z-0.933
X154.693 Z-0.883
X154.743 Z-0.822
X154.78 Z-0.753
X154.802 Z-0.678
X154.81 Z-0.6
G0 Z5.
X-2.6 Y22.752
G1 Z-0.6 F380.
X-2.592 Z-0.678 F1500.
X-2.57 Z-0.753
X-2.533 Z-0.822
X-2.483 Z-0.883
X-2.422 Z-0.933
X-2.353 Z-0.97
X-2.278 Z-0.992
X-2.2 Z-1.
X-2.01
X154.41
X154.488 Z-0.992
X154.563 Z-0.97
X154.632 Z-0.933
X154.693 Z-0.883
X154.743 Z-0.822
X154.78 Z-0.753
X154.802 Z-0.678
X154.81 Z-0.6
G0 Z5.
X-2.6 Y25.499
G1 Z-0.6 F380.
X-2.592 Z-0.678 F1500.
X-2.57 Z-0.753
X-2.533 Z-0.822
X-2.483 Z-0.883
X-2.422 Z-0.933
X-2.353 Z-0.97
X-2.278 Z-0.992
X-2.2 Z-1.
X-2.01
X154.41
X154.488 Z-0.992
X154.563 Z-0.97
X154.632 Z-0.933
X154.693 Z-0.883
X154.743 Z-0.822
X154.78 Z-0.753
X154.802 Z-0.678
X154.81 Z-0.6
G0 Z5.
X-2.6 Y28.246
G1 Z-0.6 F380.
X-2.592 Z-0.678 F1500.
X-2.57 Z-0.753
X-2.533 Z-0.822
X-2.483 Z-0.883
X-2.422 Z-0.933
X-2.353 Z-0.97
X-2.278 Z-0.992
X-2.2 Z-1.
X-2.01
X154.41
X154.488 Z-0.992
X154.563 Z-0.97
X154.632 Z-0.933
X154.693 Z-0.883
X154.743 Z-0.822
X154.78 Z-0.753
X154.802 Z-0.678
X154.81 Z-0.6
G0 Z5.
X-2.6 Y30.994
G1 Z-0.6 F380.
X-2.592 Z-0.678 F1500.
X-2.57 Z-0.753
X-2.533 Z-0.822
X-2.483 Z-0.883
X-2.422 Z-0.933
X-2.353 Z-0.97
X-2.278 Z-0.992
X-2.2 Z-1.
X-2.01
X154.41
X154.488 Z-0.992
X154.563 Z-0.97
X154.632 Z-0.933
X154.693 Z-0.883
X154.743 Z-0.822
X154.78 Z-0.753
X154.802 Z-0.678
X154.81 Z-0.6
G0 Z5.
X-2.6 Y33.741
G1 Z-0.6 F380.
X-2.592 Z-0.678 F1500.
X-2.57 Z-0.753
X-2.533 Z-0.822
X-2.483 Z-0.883
X-2.422 Z-0.933
X-2.353 Z-0.97
X-2.278 Z-0.992
X-2.2 Z-1.
X-2.01
X154.41
X154.488 Z-0.992
X154.563 Z-0.97
X154.632 Z-0.933
X154.693 Z-0.883
X154.743 Z-0.822
X154.78 Z-0.753
X154.802 Z-0.678
X154.81 Z-0.6
G0 Z5.
X-2.6 Y36.488
G1 Z-0.6 F380.
X-2.592 Z-0.678 F1500.
X-2.57 Z-0.753
X-2.533 Z-0.822
X-2.483 Z-0.883
X-2.422 Z-0.933
X-2.353 Z-0.97
X-2.278 Z-0.992
X-2.2 Z-1.
X-2.01
X154.41
X154.488 Z-0.992
X154.563 Z-0.97
X154.632 Z-0.933
X154.693 Z-0.883
X154.743 Z-0.822
X154.78 Z-0.753
X154.802 Z-0.678
X154.81 Z-0.6
G0 Z5.
X-2.6 Y39.235
G1 Z-0.6 F380.
X-2.592 Z-0.678 F1500.
X-2.57 Z-0.753
X-2.533 Z-0.822
X-2.483 Z-0.883
X-2.422 Z-0.933
X-2.353 Z-0.97
X-2.278 Z-0.992
X-2.2 Z-1.
X-2.01
X154.41
X154.488 Z-0.992
X154.563 Z-0.97
X154.632 Z-0.933
X154.693 Z-0.883
X154.743 Z-0.822
X154.78 Z-0.753
X154.802 Z-0.678
X154.81 Z-0.6
G0 Z5.
X-2.6 Y41.982
G1 Z-0.6 F380.
X-2.592 Z-0.678 F1500.
X-2.57 Z-0.753
X-2.533 Z-0.822
X-2.483 Z-0.883
X-2.422 Z-0.933
X-2.353 Z-0.97
X-2.278 Z-0.992
X-2.2 Z-1.
X-2.01
X154.41
X154.488 Z-0.992
X154.563 Z-0.97
X154.632 Z-0.933
X154.693 Z-0.883
X154.743 Z-0.822
X154.78 Z-0.753
X154.802 Z-0.678
X154.81 Z-0.6
G0 Z5.
X-2.6 Y44.729
G1 Z-0.6 F380.
X-2.592 Z-0.678 F1500.
X-2.57 Z-0.753
X-2.533 Z-0.822
X-2.483 Z-0.883
X-2.422 Z-0.933
X-2.353 Z-0.97
X-2.278 Z-0.992
X-2.2 Z-1.
X-2.01
X154.41
X154.488 Z-0.992
X154.563 Z-0.97
X154.632 Z-0.933
X154.693 Z-0.883
X154.743 Z-0.822
X154.78 Z-0.753
X154.802 Z-0.678
X154.81 Z-0.6
G0 Z5.
X-2.6 Y47.476
G1 Z-0.6 F380.
X-2.592 Z-0.678 F1500.
X-2.57 Z-0.753
X-2.533 Z-0.822
X-2.483 Z-0.883
X-2.422 Z-0.933
X-2.353 Z-0.97
X-2.278 Z-0.992
X-2.2 Z-1.
X-2.01
X154.41
X154.488 Z-0.992
X154.563 Z-0.97
X154.632 Z-0.933
X154.693 Z-0.883
X154.743 Z-0.822
X154.78 Z-0.753
X154.802 Z-0.678
X154.81 Z-0.6
G0 Z5.
X-2.6 Y50.224
G1 Z-0.6 F380.
X-2.592 Z-0.678 F1500.
X-2.57 Z-0.753
X-2.533 Z-0.822
X-2.483 Z-0.883
X-2.422 Z-0.933
X-2.353 Z-0.97
X-2.278 Z-0.992
X-2.2 Z-1.
X-2.01
X154.41
X154.488 Z-0.992
X154.563 Z-0.97
X154.632 Z-0.933
X154.693 Z-0.883
X154.743 Z-0.822
X154.78 Z-0.753
X154.802 Z-0.678
X154.81 Z-0.6
G0 Z5.
X-2.6 Y52.971
G1 Z-0.6 F380.
X-2.592 Z-0.678 F1500.
X-2.57 Z-0.753
X-2.533 Z-0.822
X-2.483 Z-0.883
X-2.422 Z-0.933
X-2.353 Z-0.97
X-2.278 Z-0.992
X-2.2 Z-1.
X-2.01
X154.41
X154.488 Z-0.992
X154.563 Z-0.97
X154.632 Z-0.933
X154.693 Z-0.883
X154.743 Z-0.822
X154.78 Z-0.753
X154.802 Z-0.678
X154.81 Z-0.6
G0 Z5.
X-2.6 Y55.718
G1 Z-0.6 F380.
X-2.592 Z-0.678 F1500.
X-2.57 Z-0.753
X-2.533 Z-0.822
X-2.483 Z-0.883
X-2.422 Z-0.933
X-2.353 Z-0.97
X-2.278 Z-0.992
X-2.2 Z-1.
X-2.01
X154.41
X154.488 Z-0.992
X154.563 Z-0.97
X154.632 Z-0.933
X154.693 Z-0.883
X154.743 Z-0.822
X154.78 Z-0.753
X154.802 Z-0.678
X154.81 Z-0.6
G0 Z5.
X-2.6 Y58.465
G1 Z-0.6 F380.
X-2.592 Z-0.678 F1500.
X-2.57 Z-0.753
X-2.533 Z-0.822
X-2.483 Z-0.883
X-2.422 Z-0.933
X-2.353 Z-0.97
X-2.278 Z-0.992
X-2.2 Z-1.
X-2.01
X154.41
X154.488 Z-0.992
X154.563 Z-0.97
X154.632 Z-0.933
X154.693 Z-0.883
X154.743 Z-0.822
X154.78 Z-0.753
X154.802 Z-0.678
X154.81 Z-0.6
G0 Z5.
X-2.6 Y61.212
G1 Z-0.6 F380.
X-2.592 Z-0.678 F1500.
X-2.57 Z-0.753
X-2.533 Z-0.822
X-2.483 Z-0.883
X-2.422 Z-0.933
X-2.353 Z-0.97
X-2.278 Z-0.992
X-2.2 Z-1.
X-2.01
X154.41
X154.488 Z-0.992
X154.563 Z-0.97
X154.632 Z-0.933
X154.693 Z-0.883
X154.743 Z-0.822
X154.78 Z-0.753
X154.802 Z-0.678
X154.81 Z-0.6
G0 Z5.
X-2.6 Y63.959
G1 Z-0.6 F380.
X-2.592 Z-0.678 F1500.
X-2.57 Z-0.753
X-2.533 Z-0.822
X-2.483 Z-0.883
X-2.422 Z-0.933
X-2.353 Z-0.97
X-2.278 Z-0.992
X-2.2 Z-1.
X-2.01
X154.41
X154.488 Z-0.992
X154.563 Z-0.97
X154.632 Z-0.933
X154.693 Z-0.883
X154.743 Z-0.822
X154.78 Z-0.753
X154.802 Z-0.678
X154.81 Z-0.6
G0 Z5.
X-2.6 Y66.706
G1 Z-0.6 F380.
X-2.592 Z-0.678 F1500.
X-2.57 Z-0.753
X-2.533 Z-0.822
X-2.483 Z-0.883
X-2.422 Z-0.933
X-2.353 Z-0.97
X-2.278 Z-0.992
X-2.2 Z-1.
X-2.01
X154.41
X154.488 Z-0.992
X154.563 Z-0.97
X154.632 Z-0.933
X154.693 Z-0.883
X154.743 Z-0.822
X154.78 Z-0.753
X154.802 Z-0.678
X154.81 Z-0.6
G0 Z5.
X-2.6 Y69.454
G1 Z-0.6 F380.
X-2.592 Z-0.678 F1500.
X-2.57 Z-0.753
X-2.533 Z-0.822
X-2.483 Z-0.883
X-2.422 Z-0.933
X-2.353 Z-0.97
X-2.278 Z-0.992
X-2.2 Z-1.
X-2.01
X154.41
X154.488 Z-0.992
X154.563 Z-0.97
X154.632 Z-0.933
X154.693 Z-0.883
X154.743 Z-0.822
X154.78 Z-0.753
X154.802 Z-0.678
X154.81 Z-0.6
G0 Z5.
X-2.6 Y72.201
G1 Z-0.6 F380.
X-2.592 Z-0.678 F1500.
X-2.57 Z-0.753
X-2.533 Z-0.822
X-2.483 Z-0.883
X-2.422 Z-0.933
X-2.353 Z-0.97
X-2.278 Z-0.992
X-2.2 Z-1.
X-2.01
X154.41
X154.488 Z-0.992
X154.563 Z-0.97
X154.632 Z-0.933
X154.693 Z-0.883
X154.743 Z-0.822
X154.78 Z-0.753
X154.802 Z-0.678
X154.81 Z-0.6
G0 Z5.
X-2.6 Y74.948
G1 Z-0.6 F380.
X-2.592 Z-0.678 F1500.
X-2.57 Z-0.753
X-2.533 Z-0.822
X-2.483 Z-0.883
X-2.422 Z-0.933
X-2.353 Z-0.97
X-2.278 Z-0.992
X-2.2 Z-1.
X-2.01
X154.41
X154.488 Z-0.992
X154.563 Z-0.97
X154.632 Z-0.933
X154.693 Z-0.883
X154.743 Z-0.822
X154.78 Z-0.753
X154.802 Z-0.678
X154.81 Z-0.6
G0 Z5.
X-2.6 Y77.695
G1 Z-0.6 F380.
X-2.592 Z-0.678 F1500.
X-2.57 Z-0.753
X-2.533 Z-0.822
X-2.483 Z-0.883
X-2.422 Z-0.933
X-2.353 Z-0.97
X-2.278 Z-0.992
X-2.2 Z-1.
X-2.01
X154.41
X154.488 Z-0.992
X154.563 Z-0.97
X154.632 Z-0.933
X154.693 Z-0.883
X154.743 Z-0.822
X154.78 Z-0.753
X154.802 Z-0.678
X154.81 Z-0.6
G0 Z5.
X-2.6 Y80.442
G1 Z-0.6 F380.
X-2.592 Z-0.678 F1500.
X-2.57 Z-0.753
X-2.533 Z-0.822
X-2.483 Z-0.883
X-2.422 Z-0.933
X-2.353 Z-0.97
X-2.278 Z-0.992
X-2.2 Z-1.
X-2.01
X154.41
X154.488 Z-0.992
X154.563 Z-0.97
X154.632 Z-0.933
X154.693 Z-0.883
X154.743 Z-0.822
X154.78 Z-0.753
X154.802 Z-0.678
X154.81 Z-0.6
G0 Z5.
X-2.6 Y83.189
G1 Z-0.6 F380.
X-2.592 Z-0.678 F1500.
X-2.57 Z-0.753
X-2.533 Z-0.822
X-2.483 Z-0.883
X-2.422 Z-0.933
X-2.353 Z-0.97
X-2.278 Z-0.992
X-2.2 Z-1.
X-2.01
X154.41
X154.488 Z-0.992
X154.563 Z-0.97
X154.632 Z-0.933
X154.693 Z-0.883
X154.743 Z-0.822
X154.78 Z-0.753
X154.802 Z-0.678
X154.81 Z-0.6
G0 Z5.
X-2.6 Y85.936
G1 Z-0.6 F380.
X-2.592 Z-0.678 F1500.
X-2.57 Z-0.753
X-2.533 Z-0.822
X-2.483 Z-0.883
X-2.422 Z-0.933
X-2.353 Z-0.97
X-2.278 Z-0.992
X-2.2 Z-1.
X-2.01
X154.41
X154.488 Z-0.992
X154.563 Z-0.97
X154.632 Z-0.933
X154.693 Z-0.883
X154.743 Z-0.822
X154.78 Z-0.753
X154.802 Z-0.678
X154.81 Z-0.6
G0 Z5.
X-2.6 Y88.683
G1 Z-0.6 F380.
X-2.592 Z-0.678 F1500.
X-2.57 Z-0.753
X-2.533 Z-0.822
X-2.483 Z-0.883
X-2.422 Z-0.933
X-2.353 Z-0.97
X-2.278 Z-0.992
X-2.2 Z-1.
X-2.01
X154.41
X154.488 Z-0.992
X154.563 Z-0.97
X154.632 Z-0.933
X154.693 Z-0.883
X154.743 Z-0.822
X154.78 Z-0.753
X154.802 Z-0.678
X154.81 Z-0.6
G0 Z5.
X-2.6 Y91.431
G1 Z-0.6 F380.
X-2.592 Z-0.678 F1500.
X-2.57 Z-0.753
X-2.533 Z-0.822
X-2.483 Z-0.883
X-2.422 Z-0.933
X-2.353 Z-0.97
X-2.278 Z-0.992
X-2.2 Z-1.
X-2.01
X154.41
X154.488 Z-0.992
X154.563 Z-0.97
X154.632 Z-0.933
X154.693 Z-0.883
X154.743 Z-0.822
X154.78 Z-0.753
X154.802 Z-0.678
X154.81 Z-0.6
G0 Z5.
X-2.6 Y94.178
G1 Z-0.6 F380.
X-2.592 Z-0.678 F1500.
X-2.57 Z-0.753
X-2.533 Z-0.822
X-2.483 Z-0.883
X-2.422 Z-0.933
X-2.353 Z-0.97
X-2.278 Z-0.992
X-2.2 Z-1.
X-2.01
X154.41
X154.488 Z-0.992
X154.563 Z-0.97
X154.632 Z-0.933
X154.693 Z-0.883
X154.743 Z-0.822
X154.78 Z-0.753
X154.802 Z-0.678
X154.81 Z-0.6
G0 Z5.
X-2.6 Y96.925
G1 Z-0.6 F380.
X-2.592 Z-0.678 F1500.
X-2.57 Z-0.753
X-2.533 Z-0.822
X-2.483 Z-0.883
X-2.422 Z-0.933
X-2.353 Z-0.97
X-2.278 Z-0.992
X-2.2 Z-1.
X-2.01
X154.41
X154.488 Z-0.992
X154.563 Z-0.97
X154.632 Z-0.933
X154.693 Z-0.883
X154.743 Z-0.822
X154.78 Z-0.753
X154.802 Z-0.678
X154.81 Z-0.6
G0 Z5.
X-2.6 Y99.672
G1 Z-0.6 F380.
X-2.592 Z-0.678 F1500.
X-2.57 Z-0.753
X-2.533 Z-0.822
X-2.483 Z-0.883
X-2.422 Z-0.933
X-2.353 Z-0.97
X-2.278 Z-0.992
X-2.2 Z-1.
X-2.01
X154.41
X154.488 Z-0.992
X154.563 Z-0.97
X154.632 Z-0.933
X154.693 Z-0.883
X154.743 Z-0.822
X154.78 Z-0.753
X154.802 Z-0.678
X154.81 Z-0.6
G0 Z5.
X-2.6 Y0.775
G1 Z-1.1 F380.
X-2.592 Z-1.178 F1500.
X-2.57 Z-1.253
X-2.533 Z-1.322
X-2.483 Z-1.383
X-2.422 Z-1.433
X-2.353 Z-1.47
X-2.278 Z-1.492
X-2.2 Z-1.5
X-2.01
X154.41
X154.488 Z-1.492
X154.563 Z-1.47
X154.632 Z-1.433
X154.693 Z-1.383
X154.743 Z-1.322
X154.78 Z-1.253
X154.802 Z-1.178
X154.81 Z-1.1
G0 Z5.
X-2.6 Y3.522
G1 Z-1.1 F380.
X-2.592 Z-1.178 F1500.
X-2.57 Z-1.253
X-2.533 Z-1.322
X-2.483 Z-1.383
X-2.422 Z-1.433
X-2.353 Z-1.47
X-2.278 Z-1.492
X-2.2 Z-1.5
X-2.01
X154.41
X154.488 Z-1.492
X154.563 Z-1.47
X154.632 Z-1.433
X154.693 Z-1.383
X154.743 Z-1.322
X154.78 Z-1.253
X154.802 Z-1.178
X154.81 Z-1.1
G0 Z5.
X-2.6 Y6.269
G1 Z-1.1 F380.
X-2.592 Z-1.178 F1500.
X-2.57 Z-1.253
X-2.533 Z-1.322
X-2.483 Z-1.383
X-2.422 Z-1.433
X-2.353 Z-1.47
X-2.278 Z-1.492
X-2.2 Z-1.5
X-2.01
X154.41
X154.488 Z-1.492
X154.563 Z-1.47
X154.632 Z-1.433
X154.693 Z-1.383
X154.743 Z-1.322
X154.78 Z-1.253
X154.802 Z-1.178
X154.81 Z-1.1
G0 Z5.
X-2.6 Y9.017
G1 Z-1.1 F380.
X-2.592 Z-1.178 F1500.
X-2.57 Z-1.253
X-2.533 Z-1.322
X-2.483 Z-1.383
X-2.422 Z-1.433
X-2.353 Z-1.47
X-2.278 Z-1.492
X-2.2 Z-1.5
X-2.01
X154.41
X154.488 Z-1.492
X154.563 Z-1.47
X154.632 Z-1.433
X154.693 Z-1.383
X154.743 Z-1.322
X154.78 Z-1.253
X154.802 Z-1.178
X154.81 Z-1.1
G0 Z5.
X-2.6 Y11.764
G1 Z-1.1 F380.
X-2.592 Z-1.178 F1500.
X-2.57 Z-1.253
X-2.533 Z-1.322
X-2.483 Z-1.383
X-2.422 Z-1.433
X-2.353 Z-1.47
X-2.278 Z-1.492
X-2.2 Z-1.5
X-2.01
X154.41
X154.488 Z-1.492
X154.563 Z-1.47
X154.632 Z-1.433
X154.693 Z-1.383
X154.743 Z-1.322
X154.78 Z-1.253
X154.802 Z-1.178
X154.81 Z-1.1
G0 Z5.
X-2.6 Y14.511
G1 Z-1.1 F380.
X-2.592 Z-1.178 F1500.
X-2.57 Z-1.253
X-2.533 Z-1.322
X-2.483 Z-1.383
X-2.422 Z-1.433
X-2.353 Z-1.47
X-2.278 Z-1.492
X-2.2 Z-1.5
X-2.01
X154.41
X154.488 Z-1.492
X154.563 Z-1.47
X154.632 Z-1.433
X154.693 Z-1.383
X154.743 Z-1.322
X154.78 Z-1.253
X154.802 Z-1.178
X154.81 Z-1.1
G0 Z5.
X-2.6 Y17.258
G1 Z-1.1 F380.
X-2.592 Z-1.178 F1500.
X-2.57 Z-1.253
X-2.533 Z-1.322
X-2.483 Z-1.383
X-2.422 Z-1.433
X-2.353 Z-1.47
X-2.278 Z-1.492
X-2.2 Z-1.5
X-2.01
X154.41
X154.488 Z-1.492
X154.563 Z-1.47
X154.632 Z-1.433
X154.693 Z-1.383
X154.743 Z-1.322
X154.78 Z-1.253
X154.802 Z-1.178
X154.81 Z-1.1
G0 Z5.
X-2.6 Y20.005
G1 Z-1.1 F380.
X-2.592 Z-1.178 F1500.
X-2.57 Z-1.253
X-2.533 Z-1.322
X-2.483 Z-1.383
X-2.422 Z-1.433
X-2.353 Z-1.47
X-2.278 Z-1.492
X-2.2 Z-1.5
X-2.01
X154.41
X154.488 Z-1.492
X154.563 Z-1.47
X154.632 Z-1.433
X154.693 Z-1.383
X154.743 Z-1.322
X154.78 Z-1.253
X154.802 Z-1.178
X154.81 Z-1.1
G0 Z5.
X-2.6 Y22.752
G1 Z-1.1 F380.
X-2.592 Z-1.178 F1500.
X-2.57 Z-1.253
X-2.533 Z-1.322
X-2.483 Z-1.383
X-2.422 Z-1.433
X-2.353 Z-1.47
X-2.278 Z-1.492
X-2.2 Z-1.5
X-2.01
X154.41
X154.488 Z-1.492
X154.563 Z-1.47
X154.632 Z-1.433
X154.693 Z-1.383
X154.743 Z-1.322
X154.78 Z-1.253
X154.802 Z-1.178
X154.81 Z-1.1
G0 Z5.
X-2.6 Y25.499
G1 Z-1.1 F380.
X-2.592 Z-1.178 F1500.
X-2.57 Z-1.253
X-2.533 Z-1.322
X-2.483 Z-1.383
X-2.422 Z-1.433
X-2.353 Z-1.47
X-2.278 Z-1.492
X-2.2 Z-1.5
X-2.01
X154.41
X154.488 Z-1.492
X154.563 Z-1.47
X154.632 Z-1.433
X154.693 Z-1.383
X154.743 Z-1.322
X154.78 Z-1.253
X154.802 Z-1.178
X154.81 Z-1.1
G0 Z5.
X-2.6 Y28.246
G1 Z-1.1 F380.
X-2.592 Z-1.178 F1500.
X-2.57 Z-1.253
X-2.533 Z-1.322
X-2.483 Z-1.383
X-2.422 Z-1.433
X-2.353 Z-1.47
X-2.278 Z-1.492
X-2.2 Z-1.5
X-2.01
X154.41
X154.488 Z-1.492
X154.563 Z-1.47
X154.632 Z-1.433
X154.693 Z-1.383
X154.743 Z-1.322
X154.78 Z-1.253
X154.802 Z-1.178
X154.81 Z-1.1
G0 Z5.
X-2.6 Y30.994
G1 Z-1.1 F380.
X-2.592 Z-1.178 F1500.
X-2.57 Z-1.253
X-2.533 Z-1.322
X-2.483 Z-1.383
X-2.422 Z-1.433
X-2.353 Z-1.47
X-2.278 Z-1.492
X-2.2 Z-1.5
X-2.01
X154.41
X154.488 Z-1.492
X154.563 Z-1.47
X154.632 Z-1.433
X154.693 Z-1.383
X154.743 Z-1.322
X154.78 Z-1.253
X154.802 Z-1.178
X154.81 Z-1.1
G0 Z5.
X-2.6 Y33.741
G1 Z-1.1 F380.
X-2.592 Z-1.178 F1500.
X-2.57 Z-1.253
X-2.533 Z-1.322
X-2.483 Z-1.383
X-2.422 Z-1.433
X-2.353 Z-1.47
X-2.278 Z-1.492
X-2.2 Z-1.5
X-2.01
X154.41
X154.488 Z-1.492
X154.563 Z-1.47
X154.632 Z-1.433
X154.693 Z-1.383
X154.743 Z-1.322
X154.78 Z-1.253
X154.802 Z-1.178
X154.81 Z-1.1
G0 Z5.
X-2.6 Y36.488
G1 Z-1.1 F380.
X-2.592 Z-1.178 F1500.
X-2.57 Z-1.253
X-2.533 Z-1.322
X-2.483 Z-1.383
X-2.422 Z-1.433
X-2.353 Z-1.47
X-2.278 Z-1.492
X-2.2 Z-1.5
X-2.01
X154.41
X154.488 Z-1.492
X154.563 Z-1.47
X154.632 Z-1.433
X154.693 Z-1.383
X154.743 Z-1.322
X154.78 Z-1.253
X154.802 Z-1.178
X154.81 Z-1.1
G0 Z5.
X-2.6 Y39.235
G1 Z-1.1 F380.
X-2.592 Z-1.178 F1500.
X-2.57 Z-1.253
X-2.533 Z-1.322
X-2.483 Z-1.383
X-2.422 Z-1.433
X-2.353 Z-1.47
X-2.278 Z-1.492
X-2.2 Z-1.5
X-2.01
X154.41
X154.488 Z-1.492
X154.563 Z-1.47
X154.632 Z-1.433
X154.693 Z-1.383
X154.743 Z-1.322
X154.78 Z-1.253
X154.802 Z-1.178
X154.81 Z-1.1
G0 Z5.
X-2.6 Y41.982
G1 Z-1.1 F380.
X-2.592 Z-1.178 F1500.
X-2.57 Z-1.253
X-2.533 Z-1.322
X-2.483 Z-1.383
X-2.422 Z-1.433
X-2.353 Z-1.47
X-2.278 Z-1.492
X-2.2 Z-1.5
X-2.01
X154.41
X154.488 Z-1.492
X154.563 Z-1.47
X154.632 Z-1.433
X154.693 Z-1.383
X154.743 Z-1.322
X154.78 Z-1.253
X154.802 Z-1.178
X154.81 Z-1.1
G0 Z5.
X-2.6 Y44.729
G1 Z-1.1 F380.
X-2.592 Z-1.178 F1500.
X-2.57 Z-1.253
X-2.533 Z-1.322
X-2.483 Z-1.383
X-2.422 Z-1.433
X-2.353 Z-1.47
X-2.278 Z-1.492
X-2.2 Z-1.5
X-2.01
X154.41
X154.488 Z-1.492
X154.563 Z-1.47
X154.632 Z-1.433
X154.693 Z-1.383
X154.743 Z-1.322
X154.78 Z-1.253
X154.802 Z-1.178
X154.81 Z-1.1
G0 Z5.
X-2.6 Y47.476
G1 Z-1.1 F380.
X-2.592 Z-1.178 F1500.
X-2.57 Z-1.253
X-2.533 Z-1.322
X-2.483 Z-1.383
X-2.422 Z-1.433
X-2.353 Z-1.47
X-2.278 Z-1.492
X-2.2 Z-1.5
X-2.01
X154.41
X154.488 Z-1.492
X154.563 Z-1.47
X154.632 Z-1.433
X154.693 Z-1.383
X154.743 Z-1.322
X154.78 Z-1.253
X154.802 Z-1.178
X154.81 Z-1.1
G0 Z5.
X-2.6 Y50.224
G1 Z-1.1 F380.
X-2.592 Z-1.178 F1500.
X-2.57 Z-1.253
X-2.533 Z-1.322
X-2.483 Z-1.383
X-2.422 Z-1.433
X-2.353 Z-1.47
X-2.278 Z-1.492
X-2.2 Z-1.5
X-2.01
X154.41
X154.488 Z-1.492
X154.563 Z-1.47
X154.632 Z-1.433
X154.693 Z-1.383
X154.743 Z-1.322
X154.78 Z-1.253
X154.802 Z-1.178
X154.81 Z-1.1
G0 Z5.
X-2.6 Y52.971
G1 Z-1.1 F380.
X-2.592 Z-1.178 F1500.
X-2.57 Z-1.253
X-2.533 Z-1.322
X-2.483 Z-1.383
X-2.422 Z-1.433
X-2.353 Z-1.47
X-2.278 Z-1.492
X-2.2 Z-1.5
X-2.01
X154.41
X154.488 Z-1.492
X154.563 Z-1.47
X154.632 Z-1.433
X154.693 Z-1.383
X154.743 Z-1.322
X154.78 Z-1.253
X154.802 Z-1.178
X154.81 Z-1.1
G0 Z5.
X-2.6 Y55.718
G1 Z-1.1 F380.
X-2.592 Z-1.178 F1500.
X-2.57 Z-1.253
X-2.533 Z-1.322
X-2.483 Z-1.383
X-2.422 Z-1.433
X-2.353 Z-1.47
X-2.278 Z-1.492
X-2.2 Z-1.5
X-2.01
X154.41
X154.488 Z-1.492
X154.563 Z-1.47
X154.632 Z-1.433
X154.693 Z-1.383
X154.743 Z-1.322
X154.78 Z-1.253
X154.802 Z-1.178
X154.81 Z-1.1
G0 Z5.
X-2.6 Y58.465
G1 Z-1.1 F380.
X-2.592 Z-1.178 F1500.
X-2.57 Z-1.253
X-2.533 Z-1.322
X-2.483 Z-1.383
X-2.422 Z-1.433
X-2.353 Z-1.47
X-2.278 Z-1.492
X-2.2 Z-1.5
X-2.01
X154.41
X154.488 Z-1.492
X154.563 Z-1.47
X154.632 Z-1.433
X154.693 Z-1.383
X154.743 Z-1.322
X154.78 Z-1.253
X154.802 Z-1.178
X154.81 Z-1.1
G0 Z5.
X-2.6 Y61.212
G1 Z-1.1 F380.
X-2.592 Z-1.178 F1500.
X-2.57 Z-1.253
X-2.533 Z-1.322
X-2.483 Z-1.383
X-2.422 Z-1.433
X-2.353 Z-1.47
X-2.278 Z-1.492
X-2.2 Z-1.5
X-2.01
X154.41
X154.488 Z-1.492
X154.563 Z-1.47
X154.632 Z-1.433
X154.693 Z-1.383
X154.743 Z-1.322
X154.78 Z-1.253
X154.802 Z-1.178
X154.81 Z-1.1
G0 Z5.
X-2.6 Y63.959
G1 Z-1.1 F380.
X-2.592 Z-1.178 F1500.
X-2.57 Z-1.253
X-2.533 Z-1.322
X-2.483 Z-1.383
X-2.422 Z-1.433
X-2.353 Z-1.47
X-2.278 Z-1.492
X-2.2 Z-1.5
X-2.01
X154.41
X154.488 Z-1.492
X154.563 Z-1.47
X154.632 Z-1.433
X154.693 Z-1.383
X154.743 Z-1.322
X154.78 Z-1.253
X154.802 Z-1.178
X154.81 Z-1.1
G0 Z5.
X-2.6 Y66.706
G1 Z-1.1 F380.
X-2.592 Z-1.178 F1500.
X-2.57 Z-1.253
X-2.533 Z-1.322
X-2.483 Z-1.383
X-2.422 Z-1.433
X-2.353 Z-1.47
X-2.278 Z-1.492
X-2.2 Z-1.5
X-2.01
X154.41
X154.488 Z-1.492
X154.563 Z-1.47
X154.632 Z-1.433
X154.693 Z-1.383
X154.743 Z-1.322
X154.78 Z-1.253
X154.802 Z-1.178
X154.81 Z-1.1
G0 Z5.
X-2.6 Y69.454
G1 Z-1.1 F380.
X-2.592 Z-1.178 F1500.
X-2.57 Z-1.253
X-2.533 Z-1.322
X-2.483 Z-1.383
X-2.422 Z-1.433
X-2.353 Z-1.47
X-2.278 Z-1.492
X-2.2 Z-1.5
X-2.01
X154.41
X154.488 Z-1.492
X154.563 Z-1.47
X154.632 Z-1.433
X154.693 Z-1.383
X154.743 Z-1.322
X154.78 Z-1.253
X154.802 Z-1.178
X154.81 Z-1.1
G0 Z5.
X-2.6 Y72.201
G1 Z-1.1 F380.
X-2.592 Z-1.178 F1500.
X-2.57 Z-1.253
X-2.533 Z-1.322
X-2.483 Z-1.383
X-2.422 Z-1.433
X-2.353 Z-1.47
X-2.278 Z-1.492
X-2.2 Z-1.5
X-2.01
X154.41
X154.488 Z-1.492
X154.563 Z-1.47
X154.632 Z-1.433
X154.693 Z-1.383
X154.743 Z-1.322
X154.78 Z-1.253
X154.802 Z-1.178
X154.81 Z-1.1
G0 Z5.
X-2.6 Y74.948
G1 Z-1.1 F380.
X-2.592 Z-1.178 F1500.
X-2.57 Z-1.253
X-2.533 Z-1.322
X-2.483 Z-1.383
X-2.422 Z-1.433
X-2.353 Z-1.47
X-2.278 Z-1.492
X-2.2 Z-1.5
X-2.01
X154.41
X154.488 Z-1.492
X154.563 Z-1.47
X154.632 Z-1.433
X154.693 Z-1.383
X154.743 Z-1.322
X154.78 Z-1.253
X154.802 Z-1.178
X154.81 Z-1.1
G0 Z5.
X-2.6 Y77.695
G1 Z-1.1 F380.
X-2.592 Z-1.178 F1500.
X-2.57 Z-1.253
X-2.533 Z-1.322
X-2.483 Z-1.383
X-2.422 Z-1.433
X-2.353 Z-1.47
X-2.278 Z-1.492
X-2.2 Z-1.5
X-2.01
X154.41
X154.488 Z-1.492
X154.563 Z-1.47
X154.632 Z-1.433
X154.693 Z-1.383
X154.743 Z-1.322
X154.78 Z-1.253
X154.802 Z-1.178
X154.81 Z-1.1
G0 Z5.
X-2.6 Y80.442
G1 Z-1.1 F380.
X-2.592 Z-1.178 F1500.
X-2.57 Z-1.253
X-2.533 Z-1.322
X-2.483 Z-1.383
X-2.422 Z-1.433
X-2.353 Z-1.47
X-2.278 Z-1.492
X-2.2 Z-1.5
X-2.01
X154.41
X154.488 Z-1.492
X154.563 Z-1.47
X154.632 Z-1.433
X154.693 Z-1.383
X154.743 Z-1.322
X154.78 Z-1.253
X154.802 Z-1.178
X154.81 Z-1.1
G0 Z5.
X-2.6 Y83.189
G1 Z-1.1 F380.
X-2.592 Z-1.178 F1500.
X-2.57 Z-1.253
X-2.533 Z-1.322
X-2.483 Z-1.383
X-2.422 Z-1.433
X-2.353 Z-1.47
X-2.278 Z-1.492
X-2.2 Z-1.5
X-2.01
X154.41
X154.488 Z-1.492
X154.563 Z-1.47
X154.632 Z-1.433
X154.693 Z-1.383
X154.743 Z-1.322
X154.78 Z-1.253
X154.802 Z-1.178
X154.81 Z-1.1
G0 Z5.
X-2.6 Y85.936
G1 Z-1.1 F380.
X-2.592 Z-1.178 F1500.
X-2.57 Z-1.253
X-2.533 Z-1.322
X-2.483 Z-1.383
X-2.422 Z-1.433
X-2.353 Z-1.47
X-2.278 Z-1.492
X-2.2 Z-1.5
X-2.01
X154.41
X154.488 Z-1.492
X154.563 Z-1.47
X154.632 Z-1.433
X154.693 Z-1.383
X154.743 Z-1.322
X154.78 Z-1.253
X154.802 Z-1.178
X154.81 Z-1.1
G0 Z5.
X-2.6 Y88.683
G1 Z-1.1 F380.
X-2.592 Z-1.178 F1500.
X-2.57 Z-1.253
X-2.533 Z-1.322
X-2.483 Z-1.383
X-2.422 Z-1.433
X-2.353 Z-1.47
X-2.278 Z-1.492
X-2.2 Z-1.5
X-2.01
X154.41
X154.488 Z-1.492
X154.563 Z-1.47
X154.632 Z-1.433
X154.693 Z-1.383
X154.743 Z-1.322
X154.78 Z-1.253
X154.802 Z-1.178
X154.81 Z-1.1
G0 Z5.
X-2.6 Y91.431
G1 Z-1.1 F380.
X-2.592 Z-1.178 F1500.
X-2.57 Z-1.253
X-2.533 Z-1.322
X-2.483 Z-1.383
X-2.422 Z-1.433
X-2.353 Z-1.47
X-2.278 Z-1.492
X-2.2 Z-1.5
X-2.01
X154.41
X154.488 Z-1.492
X154.563 Z-1.47
X154.632 Z-1.433
X154.693 Z-1.383
X154.743 Z-1.322
X154.78 Z-1.253
X154.802 Z-1.178
X154.81 Z-1.1
G0 Z5.
X-2.6 Y94.178
G1 Z-1.1 F380.
X-2.592 Z-1.178 F1500.
X-2.57 Z-1.253
X-2.533 Z-1.322
X-2.483 Z-1.383
X-2.422 Z-1.433
X-2.353 Z-1.47
X-2.278 Z-1.492
X-2.2 Z-1.5
X-2.01
X154.41
X154.488 Z-1.492
X154.563 Z-1.47
X154.632 Z-1.433
X154.693 Z-1.383
X154.743 Z-1.322
X154.78 Z-1.253
X154.802 Z-1.178
X154.81 Z-1.1
G0 Z5.
X-2.6 Y96.925
G1 Z-1.1 F380.
X-2.592 Z-1.178 F1500.
X-2.57 Z-1.253
X-2.533 Z-1.322
X-2.483 Z-1.383
X-2.422 Z-1.433
X-2.353 Z-1.47
X-2.278 Z-1.492
X-2.2 Z-1.5
X-2.01
X154.41
X154.488 Z-1.492
X154.563 Z-1.47
X154.632 Z-1.433
X154.693 Z-1.383
X154.743 Z-1.322
X154.78 Z-1.253
X154.802 Z-1.178
X154.81 Z-1.1
G0 Z5.
X-2.6 Y99.672
G1 Z-1.1 F380.
X-2.592 Z-1.178 F1500.
X-2.57 Z-1.253
X-2.533 Z-1.322
X-2.483 Z-1.383
X-2.422 Z-1.433
X-2.353 Z-1.47
X-2.278 Z-1.492
X-2.2 Z-1.5
X-2.01
X154.41
X154.488 Z-1.492
X154.563 Z-1.47
X154.632 Z-1.433
X154.693 Z-1.383
X154.743 Z-1.322
X154.78 Z-1.253
X154.802 Z-1.178
X154.81 Z-1.1
G0 Z5.
X-2.6 Y0.775
G1 Z-1.6 F380.
X-2.592 Z-1.678 F1500.
X-2.57 Z-1.753
X-2.533 Z-1.822
X-2.483 Z-1.883
X-2.422 Z-1.933
X-2.353 Z-1.97
X-2.278 Z-1.992
X-2.2 Z-2.
X-2.01
X154.41
X154.488 Z-1.992
X154.563 Z-1.97
X154.632 Z-1.933
X154.693 Z-1.883
X154.743 Z-1.822
X154.78 Z-1.753
X154.802 Z-1.678
X154.81 Z-1.6
G0 Z5.
X-2.6 Y3.522
G1 Z-1.6 F380.
X-2.592 Z-1.678 F1500.
X-2.57 Z-1.753
X-2.533 Z-1.822
X-2.483 Z-1.883
X-2.422 Z-1.933
X-2.353 Z-1.97
X-2.278 Z-1.992
X-2.2 Z-2.
X-2.01
X154.41
X154.488 Z-1.992
X154.563 Z-1.97
X154.632 Z-1.933
X154.693 Z-1.883
X154.743 Z-1.822
X154.78 Z-1.753
X154.802 Z-1.678
X154.81 Z-1.6
G0 Z5.
X-2.6 Y6.269
G1 Z-1.6 F380.
X-2.592 Z-1.678 F1500.
X-2.57 Z-1.753
X-2.533 Z-1.822
X-2.483 Z-1.883
X-2.422 Z-1.933
X-2.353 Z-1.97
X-2.278 Z-1.992
X-2.2 Z-2.
X-2.01
X154.41
X154.488 Z-1.992
X154.563 Z-1.97
X154.632 Z-1.933
X154.693 Z-1.883
X154.743 Z-1.822
X154.78 Z-1.753
X154.802 Z-1.678
X154.81 Z-1.6
G0 Z5.
X-2.6 Y9.017
G1 Z-1.6 F380.
X-2.592 Z-1.678 F1500.
X-2.57 Z-1.753
X-2.533 Z-1.822
X-2.483 Z-1.883
X-2.422 Z-1.933
X-2.353 Z-1.97
X-2.278 Z-1.992
X-2.2 Z-2.
X-2.01
X154.41
X154.488 Z-1.992
X154.563 Z-1.97
X154.632 Z-1.933
X154.693 Z-1.883
X154.743 Z-1.822
X154.78 Z-1.753
X154.802 Z-1.678
X154.81 Z-1.6
G0 Z5.
X-2.6 Y11.764
G1 Z-1.6 F380.
X-2.592 Z-1.678 F1500.
X-2.57 Z-1.753
X-2.533 Z-1.822
X-2.483 Z-1.883
X-2.422 Z-1.933
X-2.353 Z-1.97
X-2.278 Z-1.992
X-2.2 Z-2.
X-2.01
X154.41
X154.488 Z-1.992
X154.563 Z-1.97
X154.632 Z-1.933
X154.693 Z-1.883
X154.743 Z-1.822
X154.78 Z-1.753
X154.802 Z-1.678
X154.81 Z-1.6
G0 Z5.
X-2.6 Y14.511
G1 Z-1.6 F380.
X-2.592 Z-1.678 F1500.
X-2.57 Z-1.753
X-2.533 Z-1.822
X-2.483 Z-1.883
X-2.422 Z-1.933
X-2.353 Z-1.97
X-2.278 Z-1.992
X-2.2 Z-2.
X-2.01
X154.41
X154.488 Z-1.992
X154.563 Z-1.97
X154.632 Z-1.933
X154.693 Z-1.883
X154.743 Z-1.822
X154.78 Z-1.753
X154.802 Z-1.678
X154.81 Z-1.6
G0 Z5.
X-2.6 Y17.258
G1 Z-1.6 F380.
X-2.592 Z-1.678 F1500.
X-2.57 Z-1.753
X-2.533 Z-1.822
X-2.483 Z-1.883
X-2.422 Z-1.933
X-2.353 Z-1.97
X-2.278 Z-1.992
X-2.2 Z-2.
X-2.01
X154.41
X154.488 Z-1.992
X154.563 Z-1.97
X154.632 Z-1.933
X154.693 Z-1.883
X154.743 Z-1.822
X154.78 Z-1.753
X154.802 Z-1.678
X154.81 Z-1.6
G0 Z5.
X-2.6 Y20.005
G1 Z-1.6 F380.
X-2.592 Z-1.678 F1500.
X-2.57 Z-1.753
X-2.533 Z-1.822
X-2.483 Z-1.883
X-2.422 Z-1.933
X-2.353 Z-1.97
X-2.278 Z-1.992
X-2.2 Z-2.
X-2.01
X154.41
X154.488 Z-1.992
X154.563 Z-1.97
X154.632 Z-1.933
X154.693 Z-1.883
X154.743 Z-1.822
X154.78 Z-1.753
X154.802 Z-1.678
X154.81 Z-1.6
G0 Z5.
X-2.6 Y22.752
G1 Z-1.6 F380.
X-2.592 Z-1.678 F1500.
X-2.57 Z-1.753
X-2.533 Z-1.822
X-2.483 Z-1.883
X-2.422 Z-1.933
X-2.353 Z-1.97
X-2.278 Z-1.992
X-2.2 Z-2.
X-2.01
X154.41
X154.488 Z-1.992
X154.563 Z-1.97
X154.632 Z-1.933
X154.693 Z-1.883
X154.743 Z-1.822
X154.78 Z-1.753
X154.802 Z-1.678
X154.81 Z-1.6
G0 Z5.
X-2.6 Y25.499
G1 Z-1.6 F380.
X-2.592 Z-1.678 F1500.
X-2.57 Z-1.753
X-2.533 Z-1.822
X-2.483 Z-1.883
X-2.422 Z-1.933
X-2.353 Z-1.97
X-2.278 Z-1.992
X-2.2 Z-2.
X-2.01
X154.41
X154.488 Z-1.992
X154.563 Z-1.97
X154.632 Z-1.933
X154.693 Z-1.883
X154.743 Z-1.822
X154.78 Z-1.753
X154.802 Z-1.678
X154.81 Z-1.6
G0 Z5.
X-2.6 Y28.246
G1 Z-1.6 F380.
X-2.592 Z-1.678 F1500.
X-2.57 Z-1.753
X-2.533 Z-1.822
X-2.483 Z-1.883
X-2.422 Z-1.933
X-2.353 Z-1.97
X-2.278 Z-1.992
X-2.2 Z-2.
X-2.01
X154.41
X154.488 Z-1.992
X154.563 Z-1.97
X154.632 Z-1.933
X154.693 Z-1.883
X154.743 Z-1.822
X154.78 Z-1.753
X154.802 Z-1.678
X154.81 Z-1.6
G0 Z5.
X-2.6 Y30.994
G1 Z-1.6 F380.
X-2.592 Z-1.678 F1500.
X-2.57 Z-1.753
X-2.533 Z-1.822
X-2.483 Z-1.883
X-2.422 Z-1.933
X-2.353 Z-1.97
X-2.278 Z-1.992
X-2.2 Z-2.
X-2.01
X154.41
X154.488 Z-1.992
X154.563 Z-1.97
X154.632 Z-1.933
X154.693 Z-1.883
X154.743 Z-1.822
X154.78 Z-1.753
X154.802 Z-1.678
X154.81 Z-1.6
G0 Z5.
X-2.6 Y33.741
G1 Z-1.6 F380.
X-2.592 Z-1.678 F1500.
X-2.57 Z-1.753
X-2.533 Z-1.822
X-2.483 Z-1.883
X-2.422 Z-1.933
X-2.353 Z-1.97
X-2.278 Z-1.992
X-2.2 Z-2.
X-2.01
X154.41
X154.488 Z-1.992
X154.563 Z-1.97
X154.632 Z-1.933
X154.693 Z-1.883
X154.743 Z-1.822
X154.78 Z-1.753
X154.802 Z-1.678
X154.81 Z-1.6
G0 Z5.
X-2.6 Y36.488
G1 Z-1.6 F380.
X-2.592 Z-1.678 F1500.
X-2.57 Z-1.753
X-2.533 Z-1.822
X-2.483 Z-1.883
X-2.422 Z-1.933
X-2.353 Z-1.97
X-2.278 Z-1.992
X-2.2 Z-2.
X-2.01
X154.41
X154.488 Z-1.992
X154.563 Z-1.97
X154.632 Z-1.933
X154.693 Z-1.883
X154.743 Z-1.822
X154.78 Z-1.753
X154.802 Z-1.678
X154.81 Z-1.6
G0 Z5.
X-2.6 Y39.235
G1 Z-1.6 F380.
X-2.592 Z-1.678 F1500.
X-2.57 Z-1.753
X-2.533 Z-1.822
X-2.483 Z-1.883
X-2.422 Z-1.933
X-2.353 Z-1.97
X-2.278 Z-1.992
X-2.2 Z-2.
X-2.01
X154.41
X154.488 Z-1.992
X154.563 Z-1.97
X154.632 Z-1.933
X154.693 Z-1.883
X154.743 Z-1.822
X154.78 Z-1.753
X154.802 Z-1.678
X154.81 Z-1.6
G0 Z5.
X-2.6 Y41.982
G1 Z-1.6 F380.
X-2.592 Z-1.678 F1500.
X-2.57 Z-1.753
X-2.533 Z-1.822
X-2.483 Z-1.883
X-2.422 Z-1.933
X-2.353 Z-1.97
X-2.278 Z-1.992
X-2.2 Z-2.
X-2.01
X154.41
X154.488 Z-1.992
X154.563 Z-1.97
X154.632 Z-1.933
X154.693 Z-1.883
X154.743 Z-1.822
X154.78 Z-1.753
X154.802 Z-1.678
X154.81 Z-1.6
G0 Z5.
X-2.6 Y44.729
G1 Z-1.6 F380.
X-2.592 Z-1.678 F1500.
X-2.57 Z-1.753
X-2.533 Z-1.822
X-2.483 Z-1.883
X-2.422 Z-1.933
X-2.353 Z-1.97
X-2.278 Z-1.992
X-2.2 Z-2.
X-2.01
X154.41
X154.488 Z-1.992
X154.563 Z-1.97
X154.632 Z-1.933
X154.693 Z-1.883
X154.743 Z-1.822
X154.78 Z-1.753
X154.802 Z-1.678
X154.81 Z-1.6
G0 Z5.
X-2.6 Y47.476
G1 Z-1.6 F380.
X-2.592 Z-1.678 F1500.
X-2.57 Z-1.753
X-2.533 Z-1.822
X-2.483 Z-1.883
X-2.422 Z-1.933
X-2.353 Z-1.97
X-2.278 Z-1.992
X-2.2 Z-2.
X-2.01
X154.41
X154.488 Z-1.992
X154.563 Z-1.97
X154.632 Z-1.933
X154.693 Z-1.883
X154.743 Z-1.822
X154.78 Z-1.753
X154.802 Z-1.678
X154.81 Z-1.6
G0 Z5.
X-2.6 Y50.224
G1 Z-1.6 F380.
X-2.592 Z-1.678 F1500.
X-2.57 Z-1.753
X-2.533 Z-1.822
X-2.483 Z-1.883
X-2.422 Z-1.933
X-2.353 Z-1.97
X-2.278 Z-1.992
X-2.2 Z-2.
X-2.01
X154.41
X154.488 Z-1.992
X154.563 Z-1.97
X154.632 Z-1.933
X154.693 Z-1.883
X154.743 Z-1.822
X154.78 Z-1.753
X154.802 Z-1.678
X154.81 Z-1.6
G0 Z5.
X-2.6 Y52.971
G1 Z-1.6 F380.
X-2.592 Z-1.678 F1500.
X-2.57 Z-1.753
X-2.533 Z-1.822
X-2.483 Z-1.883
X-2.422 Z-1.933
X-2.353 Z-1.97
X-2.278 Z-1.992
X-2.2 Z-2.
X-2.01
X154.41
X154.488 Z-1.992
X154.563 Z-1.97
X154.632 Z-1.933
X154.693 Z-1.883
X154.743 Z-1.822
X154.78 Z-1.753
X154.802 Z-1.678
X154.81 Z-1.6
G0 Z5.
X-2.6 Y55.718
G1 Z-1.6 F380.
X-2.592 Z-1.678 F1500.
X-2.57 Z-1.753
X-2.533 Z-1.822
X-2.483 Z-1.883
X-2.422 Z-1.933
X-2.353 Z-1.97
X-2.278 Z-1.992
X-2.2 Z-2.
X-2.01
X154.41
X154.488 Z-1.992
X154.563 Z-1.97
X154.632 Z-1.933
X154.693 Z-1.883
X154.743 Z-1.822
X154.78 Z-1.753
X154.802 Z-1.678
X154.81 Z-1.6
G0 Z5.
X-2.6 Y58.465
G1 Z-1.6 F380.
X-2.592 Z-1.678 F1500.
X-2.57 Z-1.753
X-2.533 Z-1.822
X-2.483 Z-1.883
X-2.422 Z-1.933
X-2.353 Z-1.97
X-2.278 Z-1.992
X-2.2 Z-2.
X-2.01
X154.41
X154.488 Z-1.992
X154.563 Z-1.97
X154.632 Z-1.933
X154.693 Z-1.883
X154.743 Z-1.822
X154.78 Z-1.753
X154.802 Z-1.678
X154.81 Z-1.6
G0 Z5.
X-2.6 Y61.212
G1 Z-1.6 F380.
X-2.592 Z-1.678 F1500.
X-2.57 Z-1.753
X-2.533 Z-1.822
X-2.483 Z-1.883
X-2.422 Z-1.933
X-2.353 Z-1.97
X-2.278 Z-1.992
X-2.2 Z-2.
X-2.01
X154.41
X154.488 Z-1.992
X154.563 Z-1.97
X154.632 Z-1.933
X154.693 Z-1.883
X154.743 Z-1.822
X154.78 Z-1.753
X154.802 Z-1.678
X154.81 Z-1.6
G0 Z5.
X-2.6 Y63.959
G1 Z-1.6 F380.
X-2.592 Z-1.678 F1500.
X-2.57 Z-1.753
X-2.533 Z-1.822
X-2.483 Z-1.883
X-2.422 Z-1.933
X-2.353 Z-1.97
X-2.278 Z-1.992
X-2.2 Z-2.
X-2.01
X154.41
X154.488 Z-1.992
X154.563 Z-1.97
X154.632 Z-1.933
X154.693 Z-1.883
X154.743 Z-1.822
X154.78 Z-1.753
X154.802 Z-1.678
X154.81 Z-1.6
G0 Z5.
X-2.6 Y66.706
G1 Z-1.6 F380.
X-2.592 Z-1.678 F1500.
X-2.57 Z-1.753
X-2.533 Z-1.822
X-2.483 Z-1.883
X-2.422 Z-1.933
X-2.353 Z-1.97
X-2.278 Z-1.992
X-2.2 Z-2.
X-2.01
X154.41
X154.488 Z-1.992
X154.563 Z-1.97
X154.632 Z-1.933
X154.693 Z-1.883
X154.743 Z-1.822
X154.78 Z-1.753
X154.802 Z-1.678
X154.81 Z-1.6
G0 Z5.
X-2.6 Y69.454
G1 Z-1.6 F380.
X-2.592 Z-1.678 F1500.
X-2.57 Z-1.753
X-2.533 Z-1.822
X-2.483 Z-1.883
X-2.422 Z-1.933
X-2.353 Z-1.97
X-2.278 Z-1.992
X-2.2 Z-2.
X-2.01
X154.41
X154.488 Z-1.992
X154.563 Z-1.97
X154.632 Z-1.933
X154.693 Z-1.883
X154.743 Z-1.822
X154.78 Z-1.753
X154.802 Z-1.678
X154.81 Z-1.6
G0 Z5.
X-2.6 Y72.201
G1 Z-1.6 F380.
X-2.592 Z-1.678 F1500.
X-2.57 Z-1.753
X-2.533 Z-1.822
X-2.483 Z-1.883
X-2.422 Z-1.933
X-2.353 Z-1.97
X-2.278 Z-1.992
X-2.2 Z-2.
X-2.01
X154.41
X154.488 Z-1.992
X154.563 Z-1.97
X154.632 Z-1.933
X154.693 Z-1.883
X154.743 Z-1.822
X154.78 Z-1.753
X154.802 Z-1.678
X154.81 Z-1.6
G0 Z5.
X-2.6 Y74.948
G1 Z-1.6 F380.
X-2.592 Z-1.678 F1500.
X-2.57 Z-1.753
X-2.533 Z-1.822
X-2.483 Z-1.883
X-2.422 Z-1.933
X-2.353 Z-1.97
X-2.278 Z-1.992
X-2.2 Z-2.
X-2.01
X154.41
X154.488 Z-1.992
X154.563 Z-1.97
X154.632 Z-1.933
X154.693 Z-1.883
X154.743 Z-1.822
X154.78 Z-1.753
X154.802 Z-1.678
X154.81 Z-1.6
G0 Z5.
X-2.6 Y77.695
G1 Z-1.6 F380.
X-2.592 Z-1.678 F1500.
X-2.57 Z-1.753
X-2.533 Z-1.822
X-2.483 Z-1.883
X-2.422 Z-1.933
X-2.353 Z-1.97
X-2.278 Z-1.992
X-2.2 Z-2.
X-2.01
X154.41
X154.488 Z-1.992
X154.563 Z-1.97
X154.632 Z-1.933
X154.693 Z-1.883
X154.743 Z-1.822
X154.78 Z-1.753
X154.802 Z-1.678
X154.81 Z-1.6
G0 Z5.
X-2.6 Y80.442
G1 Z-1.6 F380.
X-2.592 Z-1.678 F1500.
X-2.57 Z-1.753
X-2.533 Z-1.822
X-2.483 Z-1.883
X-2.422 Z-1.933
X-2.353 Z-1.97
X-2.278 Z-1.992
X-2.2 Z-2.
X-2.01
X154.41
X154.488 Z-1.992
X154.563 Z-1.97
X154.632 Z-1.933
X154.693 Z-1.883
X154.743 Z-1.822
X154.78 Z-1.753
X154.802 Z-1.678
X154.81 Z-1.6
G0 Z5.
X-2.6 Y83.189
G1 Z-1.6 F380.
X-2.592 Z-1.678 F1500.
X-2.57 Z-1.753
X-2.533 Z-1.822
X-2.483 Z-1.883
X-2.422 Z-1.933
X-2.353 Z-1.97
X-2.278 Z-1.992
X-2.2 Z-2.
X-2.01
X154.41
X154.488 Z-1.992
X154.563 Z-1.97
X154.632 Z-1.933
X154.693 Z-1.883
X154.743 Z-1.822
X154.78 Z-1.753
X154.802 Z-1.678
X154.81 Z-1.6
G0 Z5.
X-2.6 Y85.936
G1 Z-1.6 F380.
X-2.592 Z-1.678 F1500.
X-2.57 Z-1.753
X-2.533 Z-1.822
X-2.483 Z-1.883
X-2.422 Z-1.933
X-2.353 Z-1.97
X-2.278 Z-1.992
X-2.2 Z-2.
X-2.01
X154.41
X154.488 Z-1.992
X154.563 Z-1.97
X154.632 Z-1.933
X154.693 Z-1.883
X154.743 Z-1.822
X154.78 Z-1.753
X154.802 Z-1.678
X154.81 Z-1.6
G0 Z5.
X-2.6 Y88.683
G1 Z-1.6 F380.
X-2.592 Z-1.678 F1500.
X-2.57 Z-1.753
X-2.533 Z-1.822
X-2.483 Z-1.883
X-2.422 Z-1.933
X-2.353 Z-1.97
X-2.278 Z-1.992
X-2.2 Z-2.
X-2.01
X154.41
X154.488 Z-1.992
X154.563 Z-1.97
X154.632 Z-1.933
X154.693 Z-1.883
X154.743 Z-1.822
X154.78 Z-1.753
X154.802 Z-1.678
X154.81 Z-1.6
G0 Z5.
X-2.6 Y91.431
G1 Z-1.6 F380.
X-2.592 Z-1.678 F1500.
X-2.57 Z-1.753
X-2.533 Z-1.822
X-2.483 Z-1.883
X-2.422 Z-1.933
X-2.353 Z-1.97
X-2.278 Z-1.992
X-2.2 Z-2.
X-2.01
X154.41
X154.488 Z-1.992
X154.563 Z-1.97
X154.632 Z-1.933
X154.693 Z-1.883
X154.743 Z-1.822
X154.78 Z-1.753
X154.802 Z-1.678
X154.81 Z-1.6
G0 Z5.
X-2.6 Y94.178
G1 Z-1.6 F380.
X-2.592 Z-1.678 F1500.
X-2.57 Z-1.753
X-2.533 Z-1.822
X-2.483 Z-1.883
X-2.422 Z-1.933
X-2.353 Z-1.97
X-2.278 Z-1.992
X-2.2 Z-2.
X-2.01
X154.41
X154.488 Z-1.992
X154.563 Z-1.97
X154.632 Z-1.933
X154.693 Z-1.883
X154.743 Z-1.822
X154.78 Z-1.753
X154.802 Z-1.678
X154.81 Z-1.6
G0 Z5.
X-2.6 Y96.925
G1 Z-1.6 F380.
X-2.592 Z-1.678 F1500.
X-2.57 Z-1.753
X-2.533 Z-1.822
X-2.483 Z-1.883
X-2.422 Z-1.933
X-2.353 Z-1.97
X-2.278 Z-1.992
X-2.2 Z-2.
X-2.01
X154.41
X154.488 Z-1.992
X154.563 Z-1.97
X154.632 Z-1.933
X154.693 Z-1.883
X154.743 Z-1.822
X154.78 Z-1.753
X154.802 Z-1.678
X154.81 Z-1.6
G0 Z5.
X-2.6 Y99.672
G1 Z-1.6 F380.
X-2.592 Z-1.678 F1500.
X-2.57 Z-1.753
X-2.533 Z-1.822
X-2.483 Z-1.883
X-2.422 Z-1.933
X-2.353 Z-1.97
X-2.278 Z-1.992
X-2.2 Z-2.
X-2.01
X154.41
X154.488 Z-1.992
X154.563 Z-1.97
X154.632 Z-1.933
X154.693 Z-1.883
X154.743 Z-1.822
X154.78 Z-1.753
X154.802 Z-1.678
X154.81 Z-1.6
G0 Z5.
X-2.6 Y0.775
G1 Z-2.1 F380.
X-2.592 Z-2.178 F1500.
X-2.57 Z-2.253
X-2.533 Z-2.322
X-2.483 Z-2.383
X-2.422 Z-2.433
X-2.353 Z-2.47
X-2.278 Z-2.492
X-2.2 Z-2.5
X-2.01
X154.41
X154.488 Z-2.492
X154.563 Z-2.47
X154.632 Z-2.433
X154.693 Z-2.383
X154.743 Z-2.322
X154.78 Z-2.253
X154.802 Z-2.178
X154.81 Z-2.1
G0 Z5.
X-2.6 Y3.522
G1 Z-2.1 F380.
X-2.592 Z-2.178 F1500.
X-2.57 Z-2.253
X-2.533 Z-2.322
X-2.483 Z-2.383
X-2.422 Z-2.433
X-2.353 Z-2.47
X-2.278 Z-2.492
X-2.2 Z-2.5
X-2.01
X154.41
X154.488 Z-2.492
X154.563 Z-2.47
X154.632 Z-2.433
X154.693 Z-2.383
X154.743 Z-2.322
X154.78 Z-2.253
X154.802 Z-2.178
X154.81 Z-2.1
G0 Z5.
X-2.6 Y6.269
G1 Z-2.1 F380.
X-2.592 Z-2.178 F1500.
X-2.57 Z-2.253
X-2.533 Z-2.322
X-2.483 Z-2.383
X-2.422 Z-2.433
X-2.353 Z-2.47
X-2.278 Z-2.492
X-2.2 Z-2.5
X-2.01
X154.41
X154.488 Z-2.492
X154.563 Z-2.47
X154.632 Z-2.433
X154.693 Z-2.383
X154.743 Z-2.322
X154.78 Z-2.253
X154.802 Z-2.178
X154.81 Z-2.1
G0 Z5.
X-2.6 Y9.017
G1 Z-2.1 F380.
X-2.592 Z-2.178 F1500.
X-2.57 Z-2.253
X-2.533 Z-2.322
X-2.483 Z-2.383
X-2.422 Z-2.433
X-2.353 Z-2.47
X-2.278 Z-2.492
X-2.2 Z-2.5
X-2.01
X154.41
X154.488 Z-2.492
X154.563 Z-2.47
X154.632 Z-2.433
X154.693 Z-2.383
X154.743 Z-2.322
X154.78 Z-2.253
X154.802 Z-2.178
X154.81 Z-2.1
G0 Z5.
X-2.6 Y11.764
G1 Z-2.1 F380.
X-2.592 Z-2.178 F1500.
X-2.57 Z-2.253
X-2.533 Z-2.322
X-2.483 Z-2.383
X-2.422 Z-2.433
X-2.353 Z-2.47
X-2.278 Z-2.492
X-2.2 Z-2.5
X-2.01
X154.41
X154.488 Z-2.492
X154.563 Z-2.47
X154.632 Z-2.433
X154.693 Z-2.383
X154.743 Z-2.322
X154.78 Z-2.253
X154.802 Z-2.178
X154.81 Z-2.1
G0 Z5.
X-2.6 Y14.511
G1 Z-2.1 F380.
X-2.592 Z-2.178 F1500.
X-2.57 Z-2.253
X-2.533 Z-2.322
X-2.483 Z-2.383
X-2.422 Z-2.433
X-2.353 Z-2.47
X-2.278 Z-2.492
X-2.2 Z-2.5
X-2.01
X154.41
X154.488 Z-2.492
X154.563 Z-2.47
X154.632 Z-2.433
X154.693 Z-2.383
X154.743 Z-2.322
X154.78 Z-2.253
X154.802 Z-2.178
X154.81 Z-2.1
G0 Z5.
X-2.6 Y17.258
G1 Z-2.1 F380.
X-2.592 Z-2.178 F1500.
X-2.57 Z-2.253
X-2.533 Z-2.322
X-2.483 Z-2.383
X-2.422 Z-2.433
X-2.353 Z-2.47
X-2.278 Z-2.492
X-2.2 Z-2.5
X-2.01
X154.41
X154.488 Z-2.492
X154.563 Z-2.47
X154.632 Z-2.433
X154.693 Z-2.383
X154.743 Z-2.322
X154.78 Z-2.253
X154.802 Z-2.178
X154.81 Z-2.1
G0 Z5.
X-2.6 Y20.005
G1 Z-2.1 F380.
X-2.592 Z-2.178 F1500.
X-2.57 Z-2.253
X-2.533 Z-2.322
X-2.483 Z-2.383
X-2.422 Z-2.433
X-2.353 Z-2.47
X-2.278 Z-2.492
X-2.2 Z-2.5
X-2.01
X154.41
X154.488 Z-2.492
X154.563 Z-2.47
X154.632 Z-2.433
X154.693 Z-2.383
X154.743 Z-2.322
X154.78 Z-2.253
X154.802 Z-2.178
X154.81 Z-2.1
G0 Z5.
X-2.6 Y22.752
G1 Z-2.1 F380.
X-2.592 Z-2.178 F1500.
X-2.57 Z-2.253
X-2.533 Z-2.322
X-2.483 Z-2.383
X-2.422 Z-2.433
X-2.353 Z-2.47
X-2.278 Z-2.492
X-2.2 Z-2.5
X-2.01
X154.41
X154.488 Z-2.492
X154.563 Z-2.47
X154.632 Z-2.433
X154.693 Z-2.383
X154.743 Z-2.322
X154.78 Z-2.253
X154.802 Z-2.178
X154.81 Z-2.1
G0 Z5.
X-2.6 Y25.499
G1 Z-2.1 F380.
X-2.592 Z-2.178 F1500.
X-2.57 Z-2.253
X-2.533 Z-2.322
X-2.483 Z-2.383
X-2.422 Z-2.433
X-2.353 Z-2.47
X-2.278 Z-2.492
X-2.2 Z-2.5
X-2.01
X154.41
X154.488 Z-2.492
X154.563 Z-2.47
X154.632 Z-2.433
X154.693 Z-2.383
X154.743 Z-2.322
X154.78 Z-2.253
X154.802 Z-2.178
X154.81 Z-2.1
G0 Z5.
X-2.6 Y28.246
G1 Z-2.1 F380.
X-2.592 Z-2.178 F1500.
X-2.57 Z-2.253
X-2.533 Z-2.322
X-2.483 Z-2.383
X-2.422 Z-2.433
X-2.353 Z-2.47
X-2.278 Z-2.492
X-2.2 Z-2.5
X-2.01
X154.41
X154.488 Z-2.492
X154.563 Z-2.47
X154.632 Z-2.433
X154.693 Z-2.383
X154.743 Z-2.322
X154.78 Z-2.253
X154.802 Z-2.178
X154.81 Z-2.1
G0 Z5.
X-2.6 Y30.994
G1 Z-2.1 F380.
X-2.592 Z-2.178 F1500.
X-2.57 Z-2.253
X-2.533 Z-2.322
X-2.483 Z-2.383
X-2.422 Z-2.433
X-2.353 Z-2.47
X-2.278 Z-2.492
X-2.2 Z-2.5
X-2.01
X154.41
X154.488 Z-2.492
X154.563 Z-2.47
X154.632 Z-2.433
X154.693 Z-2.383
X154.743 Z-2.322
X154.78 Z-2.253
X154.802 Z-2.178
X154.81 Z-2.1
G0 Z5.
X-2.6 Y33.741
G1 Z-2.1 F380.
X-2.592 Z-2.178 F1500.
X-2.57 Z-2.253
X-2.533 Z-2.322
X-2.483 Z-2.383
X-2.422 Z-2.433
X-2.353 Z-2.47
X-2.278 Z-2.492
X-2.2 Z-2.5
X-2.01
X154.41
X154.488 Z-2.492
X154.563 Z-2.47
X154.632 Z-2.433
X154.693 Z-2.383
X154.743 Z-2.322
X154.78 Z-2.253
X154.802 Z-2.178
X154.81 Z-2.1
G0 Z5.
X-2.6 Y36.488
G1 Z-2.1 F380.
X-2.592 Z-2.178 F1500.
X-2.57 Z-2.253
X-2.533 Z-2.322
X-2.483 Z-2.383
X-2.422 Z-2.433
X-2.353 Z-2.47
X-2.278 Z-2.492
X-2.2 Z-2.5
X-2.01
X154.41
X154.488 Z-2.492
X154.563 Z-2.47
X154.632 Z-2.433
X154.693 Z-2.383
X154.743 Z-2.322
X154.78 Z-2.253
X154.802 Z-2.178
X154.81 Z-2.1
G0 Z5.
X-2.6 Y39.235
G1 Z-2.1 F380.
X-2.592 Z-2.178 F1500.
X-2.57 Z-2.253
X-2.533 Z-2.322
X-2.483 Z-2.383
X-2.422 Z-2.433
X-2.353 Z-2.47
X-2.278 Z-2.492
X-2.2 Z-2.5
X-2.01
X154.41
X154.488 Z-2.492
X154.563 Z-2.47
X154.632 Z-2.433
X154.693 Z-2.383
X154.743 Z-2.322
X154.78 Z-2.253
X154.802 Z-2.178
X154.81 Z-2.1
G0 Z5.
X-2.6 Y41.982
G1 Z-2.1 F380.
X-2.592 Z-2.178 F1500.
X-2.57 Z-2.253
X-2.533 Z-2.322
X-2.483 Z-2.383
X-2.422 Z-2.433
X-2.353 Z-2.47
X-2.278 Z-2.492
X-2.2 Z-2.5
X-2.01
X154.41
X154.488 Z-2.492
X154.563 Z-2.47
X154.632 Z-2.433
X154.693 Z-2.383
X154.743 Z-2.322
X154.78 Z-2.253
X154.802 Z-2.178
X154.81 Z-2.1
G0 Z5.
X-2.6 Y44.729
G1 Z-2.1 F380.
X-2.592 Z-2.178 F1500.
X-2.57 Z-2.253
X-2.533 Z-2.322
X-2.483 Z-2.383
X-2.422 Z-2.433
X-2.353 Z-2.47
X-2.278 Z-2.492
X-2.2 Z-2.5
X-2.01
X154.41
X154.488 Z-2.492
X154.563 Z-2.47
X154.632 Z-2.433
X154.693 Z-2.383
X154.743 Z-2.322
X154.78 Z-2.253
X154.802 Z-2.178
X154.81 Z-2.1
G0 Z5.
X-2.6 Y47.476
G1 Z-2.1 F380.
X-2.592 Z-2.178 F1500.
X-2.57 Z-2.253
X-2.533 Z-2.322
X-2.483 Z-2.383
X-2.422 Z-2.433
X-2.353 Z-2.47
X-2.278 Z-2.492
X-2.2 Z-2.5
X-2.01
X154.41
X154.488 Z-2.492
X154.563 Z-2.47
X154.632 Z-2.433
X154.693 Z-2.383
X154.743 Z-2.322
X154.78 Z-2.253
X154.802 Z-2.178
X154.81 Z-2.1
G0 Z5.
X-2.6 Y50.224
G1 Z-2.1 F380.
X-2.592 Z-2.178 F1500.
X-2.57 Z-2.253
X-2.533 Z-2.322
X-2.483 Z-2.383
X-2.422 Z-2.433
X-2.353 Z-2.47
X-2.278 Z-2.492
X-2.2 Z-2.5
X-2.01
X154.41
X154.488 Z-2.492
X154.563 Z-2.47
X154.632 Z-2.433
X154.693 Z-2.383
X154.743 Z-2.322
X154.78 Z-2.253
X154.802 Z-2.178
X154.81 Z-2.1
G0 Z5.
X-2.6 Y52.971
G1 Z-2.1 F380.
X-2.592 Z-2.178 F1500.
X-2.57 Z-2.253
X-2.533 Z-2.322
X-2.483 Z-2.383
X-2.422 Z-2.433
X-2.353 Z-2.47
X-2.278 Z-2.492
X-2.2 Z-2.5
X-2.01
X154.41
X154.488 Z-2.492
X154.563 Z-2.47
X154.632 Z-2.433
X154.693 Z-2.383
X154.743 Z-2.322
X154.78 Z-2.253
X154.802 Z-2.178
X154.81 Z-2.1
G0 Z5.
X-2.6 Y55.718
G1 Z-2.1 F380.
X-2.592 Z-2.178 F1500.
X-2.57 Z-2.253
X-2.533 Z-2.322
X-2.483 Z-2.383
X-2.422 Z-2.433
X-2.353 Z-2.47
X-2.278 Z-2.492
X-2.2 Z-2.5
X-2.01
X154.41
X154.488 Z-2.492
X154.563 Z-2.47
X154.632 Z-2.433
X154.693 Z-2.383
X154.743 Z-2.322
X154.78 Z-2.253
X154.802 Z-2.178
X154.81 Z-2.1
G0 Z5.
X-2.6 Y58.465
G1 Z-2.1 F380.
X-2.592 Z-2.178 F1500.
X-2.57 Z-2.253
X-2.533 Z-2.322
X-2.483 Z-2.383
X-2.422 Z-2.433
X-2.353 Z-2.47
X-2.278 Z-2.492
X-2.2 Z-2.5
X-2.01
X154.41
X154.488 Z-2.492
X154.563 Z-2.47
X154.632 Z-2.433
X154.693 Z-2.383
X154.743 Z-2.322
X154.78 Z-2.253
X154.802 Z-2.178
X154.81 Z-2.1
G0 Z5.
X-2.6 Y61.212
G1 Z-2.1 F380.
X-2.592 Z-2.178 F1500.
X-2.57 Z-2.253
X-2.533 Z-2.322
X-2.483 Z-2.383
X-2.422 Z-2.433
X-2.353 Z-2.47
X-2.278 Z-2.492
X-2.2 Z-2.5
X-2.01
X154.41
X154.488 Z-2.492
X154.563 Z-2.47
X154.632 Z-2.433
X154.693 Z-2.383
X154.743 Z-2.322
X154.78 Z-2.253
X154.802 Z-2.178
X154.81 Z-2.1
G0 Z5.
X-2.6 Y63.959
G1 Z-2.1 F380.
X-2.592 Z-2.178 F1500.
X-2.57 Z-2.253
X-2.533 Z-2.322
X-2.483 Z-2.383
X-2.422 Z-2.433
X-2.353 Z-2.47
X-2.278 Z-2.492
X-2.2 Z-2.5
X-2.01
X154.41
X154.488 Z-2.492
X154.563 Z-2.47
X154.632 Z-2.433
X154.693 Z-2.383
X154.743 Z-2.322
X154.78 Z-2.253
X154.802 Z-2.178
X154.81 Z-2.1
G0 Z5.
X-2.6 Y66.706
G1 Z-2.1 F380.
X-2.592 Z-2.178 F1500.
X-2.57 Z-2.253
X-2.533 Z-2.322
X-2.483 Z-2.383
X-2.422 Z-2.433
X-2.353 Z-2.47
X-2.278 Z-2.492
X-2.2 Z-2.5
X-2.01
X154.41
X154.488 Z-2.492
X154.563 Z-2.47
X154.632 Z-2.433
X154.693 Z-2.383
X154.743 Z-2.322
X154.78 Z-2.253
X154.802 Z-2.178
X154.81 Z-2.1
G0 Z5.
X-2.6 Y69.454
G1 Z-2.1 F380.
X-2.592 Z-2.178 F1500.
X-2.57 Z-2.253
X-2.533 Z-2.322
X-2.483 Z-2.383
X-2.422 Z-2.433
X-2.353 Z-2.47
X-2.278 Z-2.492
X-2.2 Z-2.5
X-2.01
X154.41
X154.488 Z-2.492
X154.563 Z-2.47
X154.632 Z-2.433
X154.693 Z-2.383
X154.743 Z-2.322
X154.78 Z-2.253
X154.802 Z-2.178
X154.81 Z-2.1
G0 Z5.
X-2.6 Y72.201
G1 Z-2.1 F380.
X-2.592 Z-2.178 F1500.
X-2.57 Z-2.253
X-2.533 Z-2.322
X-2.483 Z-2.383
X-2.422 Z-2.433
X-2.353 Z-2.47
X-2.278 Z-2.492
X-2.2 Z-2.5
X-2.01
X154.41
X154.488 Z-2.492
X154.563 Z-2.47
X154.632 Z-2.433
X154.693 Z-2.383
X154.743 Z-2.322
X154.78 Z-2.253
X154.802 Z-2.178
X154.81 Z-2.1
G0 Z5.
X-2.6 Y74.948
G1 Z-2.1 F380.
X-2.592 Z-2.178 F1500.
X-2.57 Z-2.253
X-2.533 Z-2.322
X-2.483 Z-2.383
X-2.422 Z-2.433
X-2.353 Z-2.47
X-2.278 Z-2.492
X-2.2 Z-2.5
X-2.01
X154.41
X154.488 Z-2.492
X154.563 Z-2.47
X154.632 Z-2.433
X154.693 Z-2.383
X154.743 Z-2.322
X154.78 Z-2.253
X154.802 Z-2.178
X154.81 Z-2.1
G0 Z5.
X-2.6 Y77.695
G1 Z-2.1 F380.
X-2.592 Z-2.178 F1500.
X-2.57 Z-2.253
X-2.533 Z-2.322
X-2.483 Z-2.383
X-2.422 Z-2.433
X-2.353 Z-2.47
X-2.278 Z-2.492
X-2.2 Z-2.5
X-2.01
X154.41
X154.488 Z-2.492
X154.563 Z-2.47
X154.632 Z-2.433
X154.693 Z-2.383
X154.743 Z-2.322
X154.78 Z-2.253
X154.802 Z-2.178
X154.81 Z-2.1
G0 Z5.
X-2.6 Y80.442
G1 Z-2.1 F380.
X-2.592 Z-2.178 F1500.
X-2.57 Z-2.253
X-2.533 Z-2.322
X-2.483 Z-2.383
X-2.422 Z-2.433
X-2.353 Z-2.47
X-2.278 Z-2.492
X-2.2 Z-2.5
X-2.01
X154.41
X154.488 Z-2.492
X154.563 Z-2.47
X154.632 Z-2.433
X154.693 Z-2.383
X154.743 Z-2.322
X154.78 Z-2.253
X154.802 Z-2.178
X154.81 Z-2.1
G0 Z5.
X-2.6 Y83.189
G1 Z-2.1 F380.
X-2.592 Z-2.178 F1500.
X-2.57 Z-2.253
X-2.533 Z-2.322
X-2.483 Z-2.383
X-2.422 Z-2.433
X-2.353 Z-2.47
X-2.278 Z-2.492
X-2.2 Z-2.5
X-2.01
X154.41
X154.488 Z-2.492
X154.563 Z-2.47
X154.632 Z-2.433
X154.693 Z-2.383
X154.743 Z-2.322
X154.78 Z-2.253
X154.802 Z-2.178
X154.81 Z-2.1
G0 Z5.
X-2.6 Y85.936
G1 Z-2.1 F380.
X-2.592 Z-2.178 F1500.
X-2.57 Z-2.253
X-2.533 Z-2.322
X-2.483 Z-2.383
X-2.422 Z-2.433
X-2.353 Z-2.47
X-2.278 Z-2.492
X-2.2 Z-2.5
X-2.01
X154.41
X154.488 Z-2.492
X154.563 Z-2.47
X154.632 Z-2.433
X154.693 Z-2.383
X154.743 Z-2.322
X154.78 Z-2.253
X154.802 Z-2.178
X154.81 Z-2.1
G0 Z5.
X-2.6 Y88.683
G1 Z-2.1 F380.
X-2.592 Z-2.178 F1500.
X-2.57 Z-2.253
X-2.533 Z-2.322
X-2.483 Z-2.383
X-2.422 Z-2.433
X-2.353 Z-2.47
X-2.278 Z-2.492
X-2.2 Z-2.5
X-2.01
X154.41
X154.488 Z-2.492
X154.563 Z-2.47
X154.632 Z-2.433
X154.693 Z-2.383
X154.743 Z-2.322
X154.78 Z-2.253
X154.802 Z-2.178
X154.81 Z-2.1
G0 Z5.
X-2.6 Y91.431
G1 Z-2.1 F380.
X-2.592 Z-2.178 F1500.
X-2.57 Z-2.253
X-2.533 Z-2.322
X-2.483 Z-2.383
X-2.422 Z-2.433
X-2.353 Z-2.47
X-2.278 Z-2.492
X-2.2 Z-2.5
X-2.01
X154.41
X154.488 Z-2.492
X154.563 Z-2.47
X154.632 Z-2.433
X154.693 Z-2.383
X154.743 Z-2.322
X154.78 Z-2.253
X154.802 Z-2.178
X154.81 Z-2.1
G0 Z5.
X-2.6 Y94.178
G1 Z-2.1 F380.
X-2.592 Z-2.178 F1500.
X-2.57 Z-2.253
X-2.533 Z-2.322
X-2.483 Z-2.383
X-2.422 Z-2.433
X-2.353 Z-2.47
X-2.278 Z-2.492
X-2.2 Z-2.5
X-2.01
X154.41
X154.488 Z-2.492
X154.563 Z-2.47
X154.632 Z-2.433
X154.693 Z-2.383
X154.743 Z-2.322
X154.78 Z-2.253
X154.802 Z-2.178
X154.81 Z-2.1
G0 Z5.
X-2.6 Y96.925
G1 Z-2.1 F380.
X-2.592 Z-2.178 F1500.
X-2.57 Z-2.253
X-2.533 Z-2.322
X-2.483 Z-2.383
X-2.422 Z-2.433
X-2.353 Z-2.47
X-2.278 Z-2.492
X-2.2 Z-2.5
X-2.01
X154.41
X154.488 Z-2.492
X154.563 Z-2.47
X154.632 Z-2.433
X154.693 Z-2.383
X154.743 Z-2.322
X154.78 Z-2.253
X154.802 Z-2.178
X154.81 Z-2.1
G0 Z5.
X-2.6 Y99.672
G1 Z-2.1 F380.
X-2.592 Z-2.178 F1500.
X-2.57 Z-2.253
X-2.533 Z-2.322
X-2.483 Z-2.383
X-2.422 Z-2.433
X-2.353 Z-2.47
X-2.278 Z-2.492
X-2.2 Z-2.5
X-2.01
X154.41
X154.488 Z-2.492
X154.563 Z-2.47
X154.632 Z-2.433
X154.693 Z-2.383
X154.743 Z-2.322
X154.78 Z-2.253
X154.802 Z-2.178
X154.81 Z-2.1
G0 Z5.
X-2.6 Y0.775
G1 Z-2.6 F380.
X-2.592 Z-2.678 F1500.
X-2.57 Z-2.753
X-2.533 Z-2.822
X-2.483 Z-2.883
X-2.422 Z-2.933
X-2.353 Z-2.97
X-2.278 Z-2.992
X-2.2 Z-3.
X-2.01
X154.41
X154.488 Z-2.992
X154.563 Z-2.97
X154.632 Z-2.933
X154.693 Z-2.883
X154.743 Z-2.822
X154.78 Z-2.753
X154.802 Z-2.678
X154.81 Z-2.6
G0 Z5.
X-2.6 Y3.522
G1 Z-2.6 F380.
X-2.592 Z-2.678 F1500.
X-2.57 Z-2.753
X-2.533 Z-2.822
X-2.483 Z-2.883
X-2.422 Z-2.933
X-2.353 Z-2.97
X-2.278 Z-2.992
X-2.2 Z-3.
X-2.01
X154.41
X154.488 Z-2.992
X154.563 Z-2.97
X154.632 Z-2.933
X154.693 Z-2.883
X154.743 Z-2.822
X154.78 Z-2.753
X154.802 Z-2.678
X154.81 Z-2.6
G0 Z5.
X-2.6 Y6.269
G1 Z-2.6 F380.
X-2.592 Z-2.678 F1500.
X-2.57 Z-2.753
X-2.533 Z-2.822
X-2.483 Z-2.883
X-2.422 Z-2.933
X-2.353 Z-2.97
X-2.278 Z-2.992
X-2.2 Z-3.
X-2.01
X154.41
X154.488 Z-2.992
X154.563 Z-2.97
X154.632 Z-2.933
X154.693 Z-2.883
X154.743 Z-2.822
X154.78 Z-2.753
X154.802 Z-2.678
X154.81 Z-2.6
G0 Z5.
X-2.6 Y9.017
G1 Z-2.6 F380.
X-2.592 Z-2.678 F1500.
X-2.57 Z-2.753
X-2.533 Z-2.822
X-2.483 Z-2.883
X-2.422 Z-2.933
X-2.353 Z-2.97
X-2.278 Z-2.992
X-2.2 Z-3.
X-2.01
X154.41
X154.488 Z-2.992
X154.563 Z-2.97
X154.632 Z-2.933
X154.693 Z-2.883
X154.743 Z-2.822
X154.78 Z-2.753
X154.802 Z-2.678
X154.81 Z-2.6
G0 Z5.
X-2.6 Y11.764
G1 Z-2.6 F380.
X-2.592 Z-2.678 F1500.
X-2.57 Z-2.753
X-2.533 Z-2.822
X-2.483 Z-2.883
X-2.422 Z-2.933
X-2.353 Z-2.97
X-2.278 Z-2.992
X-2.2 Z-3.
X-2.01
X154.41
X154.488 Z-2.992
X154.563 Z-2.97
X154.632 Z-2.933
X154.693 Z-2.883
X154.743 Z-2.822
X154.78 Z-2.753
X154.802 Z-2.678
X154.81 Z-2.6
G0 Z5.
X-2.6 Y14.511
G1 Z-2.6 F380.
X-2.592 Z-2.678 F1500.
X-2.57 Z-2.753
X-2.533 Z-2.822
X-2.483 Z-2.883
X-2.422 Z-2.933
X-2.353 Z-2.97
X-2.278 Z-2.992
X-2.2 Z-3.
X-2.01
X154.41
X154.488 Z-2.992
X154.563 Z-2.97
X154.632 Z-2.933
X154.693 Z-2.883
X154.743 Z-2.822
X154.78 Z-2.753
X154.802 Z-2.678
X154.81 Z-2.6
G0 Z5.
X-2.6 Y17.258
G1 Z-2.6 F380.
X-2.592 Z-2.678 F1500.
X-2.57 Z-2.753
X-2.533 Z-2.822
X-2.483 Z-2.883
X-2.422 Z-2.933
X-2.353 Z-2.97
X-2.278 Z-2.992
X-2.2 Z-3.
X-2.01
X154.41
X154.488 Z-2.992
X154.563 Z-2.97
X154.632 Z-2.933
X154.693 Z-2.883
X154.743 Z-2.822
X154.78 Z-2.753
X154.802 Z-2.678
X154.81 Z-2.6
G0 Z5.
X-2.6 Y20.005
G1 Z-2.6 F380.
X-2.592 Z-2.678 F1500.
X-2.57 Z-2.753
X-2.533 Z-2.822
X-2.483 Z-2.883
X-2.422 Z-2.933
X-2.353 Z-2.97
X-2.278 Z-2.992
X-2.2 Z-3.
X-2.01
X154.41
X154.488 Z-2.992
X154.563 Z-2.97
X154.632 Z-2.933
X154.693 Z-2.883
X154.743 Z-2.822
X154.78 Z-2.753
X154.802 Z-2.678
X154.81 Z-2.6
G0 Z5.
X-2.6 Y22.752
G1 Z-2.6 F380.
X-2.592 Z-2.678 F1500.
X-2.57 Z-2.753
X-2.533 Z-2.822
X-2.483 Z-2.883
X-2.422 Z-2.933
X-2.353 Z-2.97
X-2.278 Z-2.992
X-2.2 Z-3.
X-2.01
X154.41
X154.488 Z-2.992
X154.563 Z-2.97
X154.632 Z-2.933
X154.693 Z-2.883
X154.743 Z-2.822
X154.78 Z-2.753
X154.802 Z-2.678
X154.81 Z-2.6
G0 Z5.
X-2.6 Y25.499
G1 Z-2.6 F380.
X-2.592 Z-2.678 F1500.
X-2.57 Z-2.753
X-2.533 Z-2.822
X-2.483 Z-2.883
X-2.422 Z-2.933
X-2.353 Z-2.97
X-2.278 Z-2.992
X-2.2 Z-3.
X-2.01
X154.41
X154.488 Z-2.992
X154.563 Z-2.97
X154.632 Z-2.933
X154.693 Z-2.883
X154.743 Z-2.822
X154.78 Z-2.753
X154.802 Z-2.678
X154.81 Z-2.6
G0 Z5.
X-2.6 Y28.246
G1 Z-2.6 F380.
X-2.592 Z-2.678 F1500.
X-2.57 Z-2.753
X-2.533 Z-2.822
X-2.483 Z-2.883
X-2.422 Z-2.933
X-2.353 Z-2.97
X-2.278 Z-2.992
X-2.2 Z-3.
X-2.01
X154.41
X154.488 Z-2.992
X154.563 Z-2.97
X154.632 Z-2.933
X154.693 Z-2.883
X154.743 Z-2.822
X154.78 Z-2.753
X154.802 Z-2.678
X154.81 Z-2.6
G0 Z5.
X-2.6 Y30.994
G1 Z-2.6 F380.
X-2.592 Z-2.678 F1500.
X-2.57 Z-2.753
X-2.533 Z-2.822
X-2.483 Z-2.883
X-2.422 Z-2.933
X-2.353 Z-2.97
X-2.278 Z-2.992
X-2.2 Z-3.
X-2.01
X154.41
X154.488 Z-2.992
X154.563 Z-2.97
X154.632 Z-2.933
X154.693 Z-2.883
X154.743 Z-2.822
X154.78 Z-2.753
X154.802 Z-2.678
X154.81 Z-2.6
G0 Z5.
X-2.6 Y33.741
G1 Z-2.6 F380.
X-2.592 Z-2.678 F1500.
X-2.57 Z-2.753
X-2.533 Z-2.822
X-2.483 Z-2.883
X-2.422 Z-2.933
X-2.353 Z-2.97
X-2.278 Z-2.992
X-2.2 Z-3.
X-2.01
X154.41
X154.488 Z-2.992
X154.563 Z-2.97
X154.632 Z-2.933
X154.693 Z-2.883
X154.743 Z-2.822
X154.78 Z-2.753
X154.802 Z-2.678
X154.81 Z-2.6
G0 Z5.
X-2.6 Y36.488
G1 Z-2.6 F380.
X-2.592 Z-2.678 F1500.
X-2.57 Z-2.753
X-2.533 Z-2.822
X-2.483 Z-2.883
X-2.422 Z-2.933
X-2.353 Z-2.97
X-2.278 Z-2.992
X-2.2 Z-3.
X-2.01
X154.41
X154.488 Z-2.992
X154.563 Z-2.97
X154.632 Z-2.933
X154.693 Z-2.883
X154.743 Z-2.822
X154.78 Z-2.753
X154.802 Z-2.678
X154.81 Z-2.6
G0 Z5.
X-2.6 Y39.235
G1 Z-2.6 F380.
X-2.592 Z-2.678 F1500.
X-2.57 Z-2.753
X-2.533 Z-2.822
X-2.483 Z-2.883
X-2.422 Z-2.933
X-2.353 Z-2.97
X-2.278 Z-2.992
X-2.2 Z-3.
X-2.01
X154.41
X154.488 Z-2.992
X154.563 Z-2.97
X154.632 Z-2.933
X154.693 Z-2.883
X154.743 Z-2.822
X154.78 Z-2.753
X154.802 Z-2.678
X154.81 Z-2.6
G0 Z5.
X-2.6 Y41.982
G1 Z-2.6 F380.
X-2.592 Z-2.678 F1500.
X-2.57 Z-2.753
X-2.533 Z-2.822
X-2.483 Z-2.883
X-2.422 Z-2.933
X-2.353 Z-2.97
X-2.278 Z-2.992
X-2.2 Z-3.
X-2.01
X154.41
X154.488 Z-2.992
X154.563 Z-2.97
X154.632 Z-2.933
X154.693 Z-2.883
X154.743 Z-2.822
X154.78 Z-2.753
X154.802 Z-2.678
X154.81 Z-2.6
G0 Z5.
X-2.6 Y44.729
G1 Z-2.6 F380.
X-2.592 Z-2.678 F1500.
X-2.57 Z-2.753
X-2.533 Z-2.822
X-2.483 Z-2.883
X-2.422 Z-2.933
X-2.353 Z-2.97
X-2.278 Z-2.992
X-2.2 Z-3.
X-2.01
X154.41
X154.488 Z-2.992
X154.563 Z-2.97
X154.632 Z-2.933
X154.693 Z-2.883
X154.743 Z-2.822
X154.78 Z-2.753
X154.802 Z-2.678
X154.81 Z-2.6
G0 Z5.
X-2.6 Y47.476
G1 Z-2.6 F380.
X-2.592 Z-2.678 F1500.
X-2.57 Z-2.753
X-2.533 Z-2.822
X-2.483 Z-2.883
X-2.422 Z-2.933
X-2.353 Z-2.97
X-2.278 Z-2.992
X-2.2 Z-3.
X-2.01
X154.41
X154.488 Z-2.992
X154.563 Z-2.97
X154.632 Z-2.933
X154.693 Z-2.883
X154.743 Z-2.822
X154.78 Z-2.753
X154.802 Z-2.678
X154.81 Z-2.6
G0 Z5.
X-2.6 Y50.224
G1 Z-2.6 F380.
X-2.592 Z-2.678 F1500.
X-2.57 Z-2.753
X-2.533 Z-2.822
X-2.483 Z-2.883
X-2.422 Z-2.933
X-2.353 Z-2.97
X-2.278 Z-2.992
X-2.2 Z-3.
X-2.01
X154.41
X154.488 Z-2.992
X154.563 Z-2.97
X154.632 Z-2.933
X154.693 Z-2.883
X154.743 Z-2.822
X154.78 Z-2.753
X154.802 Z-2.678
X154.81 Z-2.6
G0 Z5.
X-2.6 Y52.971
G1 Z-2.6 F380.
X-2.592 Z-2.678 F1500.
X-2.57 Z-2.753
X-2.533 Z-2.822
X-2.483 Z-2.883
X-2.422 Z-2.933
X-2.353 Z-2.97
X-2.278 Z-2.992
X-2.2 Z-3.
X-2.01
X154.41
X154.488 Z-2.992
X154.563 Z-2.97
X154.632 Z-2.933
X154.693 Z-2.883
X154.743 Z-2.822
X154.78 Z-2.753
X154.802 Z-2.678
X154.81 Z-2.6
G0 Z5.
X-2.6 Y55.718
G1 Z-2.6 F380.
X-2.592 Z-2.678 F1500.
X-2.57 Z-2.753
X-2.533 Z-2.822
X-2.483 Z-2.883
X-2.422 Z-2.933
X-2.353 Z-2.97
X-2.278 Z-2.992
X-2.2 Z-3.
X-2.01
X154.41
X154.488 Z-2.992
X154.563 Z-2.97
X154.632 Z-2.933
X154.693 Z-2.883
X154.743 Z-2.822
X154.78 Z-2.753
X154.802 Z-2.678
X154.81 Z-2.6
G0 Z5.
X-2.6 Y58.465
G1 Z-2.6 F380.
X-2.592 Z-2.678 F1500.
X-2.57 Z-2.753
X-2.533 Z-2.822
X-2.483 Z-2.883
X-2.422 Z-2.933
X-2.353 Z-2.97
X-2.278 Z-2.992
X-2.2 Z-3.
X-2.01
X154.41
X154.488 Z-2.992
X154.563 Z-2.97
X154.632 Z-2.933
X154.693 Z-2.883
X154.743 Z-2.822
X154.78 Z-2.753
X154.802 Z-2.678
X154.81 Z-2.6
G0 Z5.
X-2.6 Y61.212
G1 Z-2.6 F380.
X-2.592 Z-2.678 F1500.
X-2.57 Z-2.753
X-2.533 Z-2.822
X-2.483 Z-2.883
X-2.422 Z-2.933
X-2.353 Z-2.97
X-2.278 Z-2.992
X-2.2 Z-3.
X-2.01
X154.41
X154.488 Z-2.992
X154.563 Z-2.97
X154.632 Z-2.933
X154.693 Z-2.883
X154.743 Z-2.822
X154.78 Z-2.753
X154.802 Z-2.678
X154.81 Z-2.6
G0 Z5.
X-2.6 Y63.959
G1 Z-2.6 F380.
X-2.592 Z-2.678 F1500.
X-2.57 Z-2.753
X-2.533 Z-2.822
X-2.483 Z-2.883
X-2.422 Z-2.933
X-2.353 Z-2.97
X-2.278 Z-2.992
X-2.2 Z-3.
X-2.01
X154.41
X154.488 Z-2.992
X154.563 Z-2.97
X154.632 Z-2.933
X154.693 Z-2.883
X154.743 Z-2.822
X154.78 Z-2.753
X154.802 Z-2.678
X154.81 Z-2.6
G0 Z5.
X-2.6 Y66.706
G1 Z-2.6 F380.
X-2.592 Z-2.678 F1500.
X-2.57 Z-2.753
X-2.533 Z-2.822
X-2.483 Z-2.883
X-2.422 Z-2.933
X-2.353 Z-2.97
X-2.278 Z-2.992
X-2.2 Z-3.
X-2.01
X154.41
X154.488 Z-2.992
X154.563 Z-2.97
X154.632 Z-2.933
X154.693 Z-2.883
X154.743 Z-2.822
X154.78 Z-2.753
X154.802 Z-2.678
X154.81 Z-2.6
G0 Z5.
X-2.6 Y69.454
G1 Z-2.6 F380.
X-2.592 Z-2.678 F1500.
X-2.57 Z-2.753
X-2.533 Z-2.822
X-2.483 Z-2.883
X-2.422 Z-2.933
X-2.353 Z-2.97
X-2.278 Z-2.992
X-2.2 Z-3.
X-2.01
X154.41
X154.488 Z-2.992
X154.563 Z-2.97
X154.632 Z-2.933
X154.693 Z-2.883
X154.743 Z-2.822
X154.78 Z-2.753
X154.802 Z-2.678
X154.81 Z-2.6
G0 Z5.
X-2.6 Y72.201
G1 Z-2.6 F380.
X-2.592 Z-2.678 F1500.
X-2.57 Z-2.753
X-2.533 Z-2.822
X-2.483 Z-2.883
X-2.422 Z-2.933
X-2.353 Z-2.97
X-2.278 Z-2.992
X-2.2 Z-3.
X-2.01
X154.41
X154.488 Z-2.992
X154.563 Z-2.97
X154.632 Z-2.933
X154.693 Z-2.883
X154.743 Z-2.822
X154.78 Z-2.753
X154.802 Z-2.678
X154.81 Z-2.6
G0 Z5.
X-2.6 Y74.948
G1 Z-2.6 F380.
X-2.592 Z-2.678 F1500.
X-2.57 Z-2.753
X-2.533 Z-2.822
X-2.483 Z-2.883
X-2.422 Z-2.933
X-2.353 Z-2.97
X-2.278 Z-2.992
X-2.2 Z-3.
X-2.01
X154.41
X154.488 Z-2.992
X154.563 Z-2.97
X154.632 Z-2.933
X154.693 Z-2.883
X154.743 Z-2.822
X154.78 Z-2.753
X154.802 Z-2.678
X154.81 Z-2.6
G0 Z5.
X-2.6 Y77.695
G1 Z-2.6 F380.
X-2.592 Z-2.678 F1500.
X-2.57 Z-2.753
X-2.533 Z-2.822
X-2.483 Z-2.883
X-2.422 Z-2.933
X-2.353 Z-2.97
X-2.278 Z-2.992
X-2.2 Z-3.
X-2.01
X154.41
X154.488 Z-2.992
X154.563 Z-2.97
X154.632 Z-2.933
X154.693 Z-2.883
X154.743 Z-2.822
X154.78 Z-2.753
X154.802 Z-2.678
X154.81 Z-2.6
G0 Z5.
X-2.6 Y80.442
G1 Z-2.6 F380.
X-2.592 Z-2.678 F1500.
X-2.57 Z-2.753
X-2.533 Z-2.822
X-2.483 Z-2.883
X-2.422 Z-2.933
X-2.353 Z-2.97
X-2.278 Z-2.992
X-2.2 Z-3.
X-2.01
X154.41
X154.488 Z-2.992
X154.563 Z-2.97
X154.632 Z-2.933
X154.693 Z-2.883
X154.743 Z-2.822
X154.78 Z-2.753
X154.802 Z-2.678
X154.81 Z-2.6
G0 Z5.
X-2.6 Y83.189
G1 Z-2.6 F380.
X-2.592 Z-2.678 F1500.
X-2.57 Z-2.753
X-2.533 Z-2.822
X-2.483 Z-2.883
X-2.422 Z-2.933
X-2.353 Z-2.97
X-2.278 Z-2.992
X-2.2 Z-3.
X-2.01
X154.41
X154.488 Z-2.992
X154.563 Z-2.97
X154.632 Z-2.933
X154.693 Z-2.883
X154.743 Z-2.822
X154.78 Z-2.753
X154.802 Z-2.678
X154.81 Z-2.6
G0 Z5.
X-2.6 Y85.936
G1 Z-2.6 F380.
X-2.592 Z-2.678 F1500.
X-2.57 Z-2.753
X-2.533 Z-2.822
X-2.483 Z-2.883
X-2.422 Z-2.933
X-2.353 Z-2.97
X-2.278 Z-2.992
X-2.2 Z-3.
X-2.01
X154.41
X154.488 Z-2.992
X154.563 Z-2.97
X154.632 Z-2.933
X154.693 Z-2.883
X154.743 Z-2.822
X154.78 Z-2.753
X154.802 Z-2.678
X154.81 Z-2.6
G0 Z5.
X-2.6 Y88.683
G1 Z-2.6 F380.
X-2.592 Z-2.678 F1500.
X-2.57 Z-2.753
X-2.533 Z-2.822
X-2.483 Z-2.883
X-2.422 Z-2.933
X-2.353 Z-2.97
X-2.278 Z-2.992
X-2.2 Z-3.
X-2.01
X154.41
X154.488 Z-2.992
X154.563 Z-2.97
X154.632 Z-2.933
X154.693 Z-2.883
X154.743 Z-2.822
X154.78 Z-2.753
X154.802 Z-2.678
X154.81 Z-2.6
G0 Z5.
X-2.6 Y91.431
G1 Z-2.6 F380.
X-2.592 Z-2.678 F1500.
X-2.57 Z-2.753
X-2.533 Z-2.822
X-2.483 Z-2.883
X-2.422 Z-2.933
X-2.353 Z-2.97
X-2.278 Z-2.992
X-2.2 Z-3.
X-2.01
X154.41
X154.488 Z-2.992
X154.563 Z-2.97
X154.632 Z-2.933
X154.693 Z-2.883
X154.743 Z-2.822
X154.78 Z-2.753
X154.802 Z-2.678
X154.81 Z-2.6
G0 Z5.
X-2.6 Y94.178
G1 Z-2.6 F380.
X-2.592 Z-2.678 F1500.
X-2.57 Z-2.753
X-2.533 Z-2.822
X-2.483 Z-2.883
X-2.422 Z-2.933
X-2.353 Z-2.97
X-2.278 Z-2.992
X-2.2 Z-3.
X-2.01
X154.41
X154.488 Z-2.992
X154.563 Z-2.97
X154.632 Z-2.933
X154.693 Z-2.883
X154.743 Z-2.822
X154.78 Z-2.753
X154.802 Z-2.678
X154.81 Z-2.6
G0 Z5.
X-2.6 Y96.925
G1 Z-2.6 F380.
X-2.592 Z-2.678 F1500.
X-2.57 Z-2.753
X-2.533 Z-2.822
X-2.483 Z-2.883
X-2.422 Z-2.933
X-2.353 Z-2.97
X-2.278 Z-2.992
X-2.2 Z-3.
X-2.01
X154.41
X154.488 Z-2.992
X154.563 Z-2.97
X154.632 Z-2.933
X154.693 Z-2.883
X154.743 Z-2.822
X154.78 Z-2.753
X154.802 Z-2.678
X154.81 Z-2.6
G0 Z5.
X-2.6 Y99.672
G1 Z-2.6 F380.
X-2.592 Z-2.678 F1500.
X-2.57 Z-2.753
X-2.533 Z-2.822
X-2.483 Z-2.883
X-2.422 Z-2.933
X-2.353 Z-2.97
X-2.278 Z-2.992
X-2.2 Z-3.
X-2.01
X154.41
X154.488 Z-2.992
X154.563 Z-2.97
X154.632 Z-2.933
X154.693 Z-2.883
X154.743 Z-2.822
X154.78 Z-2.753
X154.802 Z-2.678
X154.81 Z-2.6
G0 Z15.

(OUTLINE 4MM)
G55
G0 X17.096 Y94.438
Z15.
Z-1.492
G1 Z-2.067 F380.
X17.093 Y94.457 Z-2.188 F1500.
X17.089 Y94.511 Z-2.297
X17.085 Y94.596 Z-2.385
X17.09 Y94.703 Z-2.444
X17.105 Y94.823 Z-2.467
X17.137 Y94.962 Z-2.472
X17.185 Y95.097 Z-2.477
X17.247 Y95.226 Z-2.482
X17.323 Y95.348 Z-2.487
X17.412 Y95.46 Z-2.492
X17.513 Y95.562 Z-2.497
X17.624 Y95.652 Z-2.502
X17.745 Y95.729 Z-2.507
X17.874 Y95.792 Z-2.512
X18.009 Y95.841 Z-2.517
X18.148 Y95.874 Z-2.522
X18.29 Y95.892 Z-2.527
X18.433 Y95.894 Z-2.532
X18.576 Y95.881 Z-2.537
X18.716 Y95.851 Z-2.542
X18.852 Y95.807 Z-2.547
X18.983 Y95.747 Z-2.552
X19.106 Y95.674 Z-2.557
X19.22 Y95.587 Z-2.562
X19.324 Y95.488 Z-2.567
X19.416 Y95.379 Z-2.572
X19.496 Y95.26 Z-2.577
X19.562 Y95.132 Z-2.582
X19.613 Y94.999 Z-2.587
X19.65 Y94.86 Z-2.592
X19.671 Y94.718 Z-2.597
X19.676 Y94.575 Z-2.602
X19.665 Y94.432 Z-2.607
X19.639 Y94.291 Z-2.612
X19.597 Y94.154 Z-2.617
X19.54 Y94.023 Z-2.622
X19.47 Y93.898 Z-2.627
X19.385 Y93.782 Z-2.632
X19.289 Y93.676 Z-2.637
X19.181 Y93.582 Z-2.642
X19.064 Y93.499 Z-2.647
X18.938 Y93.431 Z-2.652
X18.806 Y93.376 Z-2.657
X18.668 Y93.337 Z-2.662
X18.526 Y93.313 Z-2.667
X18.383 Y93.305 Z-2.672
X18.24 Y93.312 Z-2.677
X18.099 Y93.336 Z-2.682
X17.961 Y93.375 Z-2.687
X17.828 Y93.429 Z-2.692
X17.702 Y93.497 Z-2.697
X17.584 Y93.578 Z-2.702
X17.476 Y93.673 Z-2.707
X17.38 Y93.778 Z-2.712
X17.295 Y93.894 Z-2.717
X17.224 Y94.018 Z-2.722
X17.166 Y94.15 Z-2.727
X17.124 Y94.286 Z-2.732
X17.097 Y94.427 Z-2.737
X17.086 Y94.57 Z-2.742
X17.09 Y94.713 Z-2.747
X17.111 Y94.855 Z-2.752
X17.147 Y94.994 Z-2.757
X17.198 Y95.128 Z-2.762
X17.263 Y95.255 Z-2.767
X17.342 Y95.375 Z-2.772
X17.434 Y95.485 Z-2.777
X17.538 Y95.584 Z-2.782
X17.652 Y95.671 Z-2.787
X17.774 Y95.745 Z-2.792
X17.905 Y95.805 Z-2.797
X18.04 Y95.85 Z-2.802
X18.181 Y95.88 Z-2.807
X18.323 Y95.894 Z-2.812
X18.466 Y95.893 Z-2.817
X18.609 Y95.875 Z-2.822
X18.748 Y95.842 Z-2.827
X18.883 Y95.794 Z-2.832
X19.012 Y95.731 Z-2.837
X19.133 Y95.655 Z-2.842
X19.245 Y95.565 Z-2.847
X19.346 Y95.464 Z-2.852
X19.436 Y95.352 Z-2.857
X19.512 Y95.231 Z-2.862
X19.575 Y95.102 Z-2.867
X19.623 Y94.967 Z-2.872
X19.656 Y94.828 Z-2.877
X19.673 Y94.685 Z-2.882
X19.675 Y94.542 Z-2.887
X19.661 Y94.399 Z-2.892
X19.631 Y94.259 Z-2.897
X19.585 Y94.123 Z-2.902
X19.525 Y93.993 Z-2.907
X19.451 Y93.871 Z-2.912
X19.364 Y93.757 Z-2.917
X19.265 Y93.653 Z-2.922
X19.155 Y93.561 Z-2.927
X19.035 Y93.482 Z-2.932
X18.908 Y93.417 Z-2.937
X18.774 Y93.366 Z-2.942
X18.635 Y93.33 Z-2.947
X18.493 Y93.31 Z-2.952
X18.35 Y93.305 Z-2.957
X18.207 Y93.316 Z-2.962
X18.067 Y93.343 Z-2.967
X17.93 Y93.386 Z-2.972
X17.798 Y93.443 Z-2.977
X17.674 Y93.514 Z-2.982
X17.559 Y93.599 Z-2.987
X17.453 Y93.696 Z-2.992
X17.359 Y93.804 Z-2.997
X17.277 Y93.922 Z-3.002
X17.209 Y94.048 Z-3.007
X17.155 Y94.181 Z-3.012
X17.116 Y94.319 Z-3.017
X17.093 Y94.46 Z-3.022
X17.085 Y94.603 Z-3.027
X17.094 Y94.746 Z-3.032
X17.118 Y94.888 Z-3.037
X17.157 Y95.025 Z-3.042
X17.212 Y95.158 Z-3.047
X17.28 Y95.284 Z-3.052
X17.363 Y95.401 Z-3.057
X17.457 Y95.508 Z-3.062
X17.563 Y95.605 Z-3.067
X17.679 Y95.689 Z-3.072
X17.804 Y95.76 Z-3.077
X17.935 Y95.817 Z-3.082
X18.073 Y95.858 Z-3.087
X18.213 Y95.885 Z-3.092
X18.356 Y95.895 Z-3.097
X18.5 Y95.89 Z-3.102
X18.641 Y95.869 Z-3.107
X18.78 Y95.833 Z-3.112
X18.914 Y95.781 Z-3.117
X19.041 Y95.715 Z-3.122
X19.16 Y95.635 Z-3.127
X19.269 Y95.543 Z-3.132
X19.368 Y95.439 Z-3.138
X19.455 Y95.325 Z-3.143
X19.528 Y95.202 Z-3.148
X19.588 Y95.071 Z-3.153
X19.632 Y94.935 Z-3.158
X19.662 Y94.795 Z-3.163
X19.675 Y94.652 Z-3.168
X19.673 Y94.509 Z-3.173
X19.655 Y94.367 Z-3.178
X19.621 Y94.227 Z-3.183
X19.573 Y94.093 Z-3.188
X19.509 Y93.964 Z-3.193
X19.432 Y93.843 Z-3.198
X19.342 Y93.732 Z-3.203
X19.24 Y93.631 Z-3.208
X19.128 Y93.542 Z-3.213
X19.007 Y93.466 Z-3.218
X18.878 Y93.404 Z-3.223
X18.742 Y93.356 Z-3.228
X18.603 Y93.324 Z-3.233
X18.46 Y93.307 Z-3.238
X18.317 Y93.306 Z-3.243
X18.175 Y93.321 Z-3.248
X18.035 Y93.352 Z-3.253
X17.899 Y93.398 Z-3.258
X17.769 Y93.458 Z-3.263
X17.647 Y93.533 Z-3.268
X17.533 Y93.621 Z-3.273
X17.43 Y93.72 Z-3.278
X17.339 Y93.831 Z-3.283
X17.26 Y93.95 Z-3.288
X17.195 Y94.078 Z-3.293
X17.145 Y94.212 Z-3.298
X17.11 Y94.351 Z-3.303
X17.09 Y94.493 Z-3.308
X17.086 Y94.636 Z-3.313
X17.098 Y94.779 Z-3.318
X17.126 Y94.92 Z-3.323
X17.168 Y95.056 Z-3.328
X17.226 Y95.188 Z-3.333
X17.298 Y95.311 Z-3.338
X17.383 Y95.427 Z-3.343
X17.481 Y95.532 Z-3.348
X17.589 Y95.626 Z-3.353
X17.707 Y95.707 Z-3.358
X17.834 Y95.774 Z-3.363
X17.967 Y95.828 Z-3.368
X18.105 Y95.866 Z-3.373
X18.246 Y95.889 Z-3.378
X18.389 Y95.895 Z-3.383
X18.533 Y95.887 Z-3.388
X18.674 Y95.862 Z-3.393
X18.811 Y95.822 Z-3.398
X18.944 Y95.767 Z-3.403
X19.069 Y95.698 Z-3.408
X19.186 Y95.615 Z-3.413
X19.293 Y95.52 Z-3.418
X19.389 Y95.413 Z-3.423
X19.473 Y95.297 Z-3.428
X19.543 Y95.172 Z-3.433
X19.599 Y95.04 Z-3.438
X19.64 Y94.903 Z-3.443
X19.666 Y94.762 Z-3.448
X19.676 Y94.619 Z-3.453
X19.67 Y94.476 Z-3.458
X19.649 Y94.334 Z-3.463
X19.612 Y94.196 Z-3.468
X19.559 Y94.062 Z-3.473
X19.493 Y93.935 Z-3.478
X19.413 Y93.817 Z-3.483
X19.32 Y93.708 Z-3.488
X19.215 Y93.609 Z-3.493
X19.101 Y93.523 Z-3.498
X18.977 Y93.45 Z-3.503
X18.847 Y93.391 Z-3.508
X18.767 Y93.356
X18.69 Y93.315
X18.531 Y93.219
X18.474 Y93.182
X18.42 Y93.141
X18.352 Y93.087
X18.273 Y93.015
X12.857 Y87.601
X12.812 Y87.553
X12.771 Y87.502
X12.665 Y87.365
X12.618 Y87.298
X12.577 Y87.227
X12.504 Y87.091
X12.466 Y87.012
X12.436 Y86.931
X12.376 Y86.749
X12.352 Y86.661
X12.336 Y86.572
X12.312 Y86.401
X12.306 Y86.334
X12.303 Y86.267
Y15.333
X12.306 Y15.266
X12.312 Y15.199
X12.336 Y15.028
X12.352 Y14.939
X12.376 Y14.851
X12.436 Y14.669
X12.466 Y14.588
X12.504 Y14.509
X12.577 Y14.373
X12.618 Y14.302
X12.665 Y14.235
X12.77 Y14.098
X12.812 Y14.047
X12.857 Y13.999
X18.273 Y8.585
X18.327 Y8.535
X18.384 Y8.489
X18.519 Y8.389
X18.585 Y8.344
X18.655 Y8.304
X18.793 Y8.232
X18.872 Y8.196
X18.954 Y8.166
X19.138 Y8.109
X19.226 Y8.086
X19.317 Y8.071
X19.488 Y8.05
X19.608 Y8.043
X137.121
X137.188 Y8.045
X137.255 Y8.052
X137.443 Y8.077
X137.509 Y8.088
X137.574 Y8.104
X138.201 Y8.276
X138.279 Y8.301
X138.355 Y8.332
X138.481 Y8.39
X138.542 Y8.42
X138.6 Y8.455
X138.726 Y8.535
X138.785 Y8.576
X138.84 Y8.62
X138.966 Y8.728
X139.023 Y8.782
X139.415 Y9.177
X139.463 Y9.228
X139.506 Y9.282
X139.6 Y9.408
X139.637 Y9.461
X139.671 Y9.517
X139.742 Y9.643
X139.781 Y9.722
X139.814 Y9.804
X139.885 Y10.009
X139.909 Y10.087
X140.05 Y10.634
X140.068 Y10.717
X140.079 Y10.801
X140.094 Y10.989
X140.098 Y11.072
X140.096 Y90.591
X140.094 Y90.662
X140.086 Y90.732
X140.06 Y90.92
X140.048 Y90.983
X140.033 Y91.045
X139.86 Y91.672
X139.834 Y91.753
X139.801 Y91.832
X139.742 Y91.957
X139.711 Y92.017
X139.676 Y92.075
X139.594 Y92.201
X139.553 Y92.26
X139.507 Y92.316
X139.397 Y92.441
X139.349 Y92.492
X138.954 Y92.883
X138.9 Y92.933
X138.843 Y92.978
X138.717 Y93.07
X138.663 Y93.107
X138.606 Y93.141
X138.481 Y93.21
X138.415 Y93.243
X138.346 Y93.271
X138.203 Y93.324
X138.107 Y93.354
X137.497 Y93.512
X137.41 Y93.53
X137.321 Y93.541
X137.133 Y93.555
X137.059 Y93.558
X19.545 Y93.553
X19.458 Y93.549
X19.371 Y93.538
X19.216 Y93.511
X19.13 Y93.491
X19.046 Y93.465
X18.862 Y93.397
X18.847 Y93.391
G2 X18.608 Y93.468 R0.2
G1 X17.433 Y95.258
G2 X17.458 Y95.51 R0.2
G1 X17.844 Y95.896
X136.94 Y95.892
X138.214 Y95.749
X139.382 Y95.339
X140.394 Y94.702
X141.238 Y93.857
X141.878 Y92.843
X142.014 Y92.467
X142.288 Y91.684
X142.436 Y90.348
X142.431 Y11.191
X142.288 Y9.917
X141.888 Y8.774
X141.238 Y7.743
X140.394 Y6.898
X139.382 Y6.261
X138.216 Y5.852
X136.878 Y5.704
X17.844
X9.964 Y13.584
Y88.016
X10.151 Y88.202
X17.458 Y95.51
X17.492 Y95.535
X17.532 Y95.549
X17.574 Y95.55
X17.615 Y95.539
X17.651 Y95.517
X18.114 Y95.118
X18.139 Y95.101
X18.167 Y95.09
X19.443 Y94.716
X19.613 Y94.727
X19.631 Y94.723
X19.645 Y94.711
X19.651 Y94.694
X19.654 Y94.552 Z-3.513
X19.641 Y94.41 Z-3.518
X19.612 Y94.271 Z-3.523
X19.568 Y94.136 Z-3.528
X19.509 Y94.006 Z-3.533
X19.436 Y93.884 Z-3.538
X19.349 Y93.771 Z-3.543
X19.251 Y93.668 Z-3.548
X19.142 Y93.577 Z-3.553
X19.023 Y93.499 Z-3.558
X18.897 Y93.434 Z-3.563
X18.764 Y93.384 Z-3.568
X18.626 Y93.349 Z-3.573
X18.485 Y93.329 Z-3.578
X18.343 Y93.326 Z-3.583
X18.201 Y93.338 Z-3.588
X18.061 Y93.366 Z-3.592
X17.926 Y93.41 Z-3.597
X17.796 Y93.468 Z-3.602
X17.674 Y93.54 Z-3.607
X17.56 Y93.626 Z-3.612
X17.457 Y93.724 Z-3.617
X17.365 Y93.832 Z-3.622
X17.286 Y93.951 Z-3.627
X17.221 Y94.077 Z-3.632
X17.17 Y94.21 Z-3.637
X17.134 Y94.347 Z-3.642
X17.114 Y94.488 Z-3.647
X17.11 Y94.63 Z-3.652
X17.121 Y94.772 Z-3.657
X17.149 Y94.912 Z-3.662
X17.191 Y95.047 Z-3.667
X17.249 Y95.177 Z-3.672
X17.321 Y95.3 Z-3.677
X17.406 Y95.414 Z-3.682
X17.503 Y95.518 Z-3.687
X17.611 Y95.61 Z-3.692
X17.729 Y95.69 Z-3.697
X17.855 Y95.756 Z-3.702
X17.988 Y95.808 Z-3.707
X18.125 Y95.844 Z-3.712
X18.266 Y95.865 Z-3.717
X18.408 Y95.87 Z-3.722
X18.55 Y95.859 Z-3.727
X18.69 Y95.832 Z-3.732
X18.825 Y95.79 Z-3.737
X18.956 Y95.733 Z-3.742
X19.079 Y95.662 Z-3.747
X19.193 Y95.578 Z-3.752
X19.298 Y95.481 Z-3.756
X19.391 Y95.373 Z-3.761
X19.471 Y95.256 Z-3.766
X19.538 Y95.13 Z-3.771
X19.59 Y94.998 Z-3.776
X19.627 Y94.861 Z-3.781
X19.648 Y94.72 Z-3.786
X19.654 Y94.578 Z-3.791
X19.644 Y94.436 Z-3.796
X19.618 Y94.296 Z-3.801
X19.577 Y94.16 Z-3.806
X19.521 Y94.03 Z-3.811
X19.45 Y93.906 Z-3.816
X19.366 Y93.791 Z-3.821
X19.27 Y93.686 Z-3.826
X19.163 Y93.593 Z-3.831
X19.046 Y93.512 Z-3.836
X18.92 Y93.445 Z-3.841
X18.788 Y93.392 Z-3.846
X18.651 Y93.354 Z-3.851
X18.511 Y93.332 Z-3.856
X18.369 Y93.325 Z-3.861
X18.227 Y93.335 Z-3.866
X18.087 Y93.36 Z-3.871
X17.951 Y93.4 Z-3.876
X17.82 Y93.456 Z-3.881
X17.696 Y93.526 Z-3.886
X17.58 Y93.609 Z-3.891
X17.475 Y93.705 Z-3.896
X17.381 Y93.812 Z-3.901
X17.3 Y93.928 Z-3.906
X17.232 Y94.053 Z-3.911
X17.178 Y94.185 Z-3.916
X17.14 Y94.322 Z-3.92
X17.117 Y94.462 Z-3.925
X17.109 Y94.604 Z-3.93
X17.118 Y94.746 Z-3.935
X17.142 Y94.886 Z-3.94
X17.182 Y95.023 Z-3.945
X17.237 Y95.154 Z-3.95
X17.307 Y95.278 Z-3.955
X17.389 Y95.394 Z-3.96
X17.484 Y95.5 Z-3.965
X17.591 Y95.594 Z-3.97
X17.707 Y95.676 Z-3.975
X17.831 Y95.745 Z-3.98
X17.963 Y95.799 Z-3.985
X18.1 Y95.839 Z-3.99
X18.24 Y95.862 Z-3.995
X18.382 Y95.87 Z-4.
X136.94 Y95.867
X138.215 Y95.723
X139.356 Y95.325
X140.376 Y94.684
X141.22 Y93.84
X141.862 Y92.821
X141.871 Y92.8
X142.262 Y91.683
X142.41 Y90.347
X142.406 Y11.191
X142.262 Y9.918
X141.871 Y8.799
X141.818 Y8.708
X141.22 Y7.761
X140.376 Y6.916
X139.36 Y6.277
X139.339 Y6.269
X138.217 Y5.877
X136.878 Y5.73
X17.855
X9.99 Y13.595
Y88.005
X10.151 Y88.166
X17.855 Y95.87
X18.382
G2 X18.578 Y95.709 R0.2
G1 X18.984 Y93.643
G2 X18.861 Y93.419 R0.2
G1 X18.752 Y93.368
X18.602 Y93.286
X18.538 Y93.247
X18.477 Y93.204
X18.376 Y93.128
X18.323 Y93.085
X18.273 Y93.038
X12.834 Y87.601
X12.754 Y87.51
X12.672 Y87.406
X12.627 Y87.344
X12.588 Y87.28
X12.504 Y87.131
X12.466 Y87.057
X12.435 Y86.981
X12.381 Y86.833
X12.357 Y86.756
X12.339 Y86.677
X12.308 Y86.515
X12.295 Y86.424
X12.291 Y86.332
X12.285 Y83.888
X12.286 Y15.333
X12.288 Y15.268
X12.295 Y15.204
X12.317 Y15.029
X12.332 Y14.947
X12.352 Y14.867
X12.398 Y14.718
X12.424 Y14.642
X12.457 Y14.569
X12.53 Y14.42
X12.573 Y14.342
X12.622 Y14.267
X12.736 Y14.113
X12.783 Y14.054
X12.834 Y13.999
X18.273 Y8.562
X18.334 Y8.506
X18.399 Y8.455
X18.551 Y8.347
X18.624 Y8.299
X18.702 Y8.258
X18.853 Y8.186
X18.927 Y8.155
X19.004 Y8.129
X19.154 Y8.085
X19.235 Y8.066
X19.317 Y8.053
X19.493 Y8.032
X19.608 Y8.026
X137.121
X137.188 Y8.028
X137.254 Y8.035
X137.442 Y8.06
X137.507 Y8.071
X137.572 Y8.086
X138.199 Y8.257
X138.277 Y8.282
X138.353 Y8.313
X138.478 Y8.37
X138.55 Y8.406
X138.619 Y8.449
X138.807 Y8.575
X138.885 Y8.632
X138.957 Y8.697
X139.434 Y9.173
X139.498 Y9.243
X139.554 Y9.318
X139.683 Y9.506
X139.725 Y9.574
X139.762 Y9.645
X139.82 Y9.77
X139.853 Y9.849
X139.879 Y9.93
X140.051 Y10.557
X140.066 Y10.619
X140.077 Y10.681
X140.103 Y10.869
X140.111 Y10.939
X140.113 Y11.009
Y90.591
X140.111 Y90.661
X140.103 Y90.731
X140.077 Y90.919
X140.066 Y90.981
X140.051 Y91.043
X139.879 Y91.67
X139.853 Y91.751
X139.82 Y91.83
X139.762 Y91.955
X139.725 Y92.026
X139.682 Y92.094
X139.554 Y92.282
X139.498 Y92.357
X139.434 Y92.427
X138.957 Y92.903
X138.885 Y92.968
X138.807 Y93.025
X138.619 Y93.151
X138.54 Y93.199
X138.456 Y93.24
X138.284 Y93.314
X138.217 Y93.34
X138.147 Y93.361
X137.566 Y93.515
X137.442 Y93.54
X137.254 Y93.565
X137.188 Y93.572
X137.121 Y93.574
X19.545 Y93.571
X19.459 Y93.567
X19.374 Y93.556
X19.211 Y93.527
X19.131 Y93.51
X19.054 Y93.487
X18.903 Y93.435
X18.861 Y93.419
X18.843 Y93.415
X18.824 Y93.419
X18.809 Y93.43
X18.693 Y93.543
X18.677 Y93.553
X18.658 Y93.557
X17.791 Y93.558
X17.735 Y93.526
X17.618 Y93.606 Z-4.005
X17.512 Y93.699 Z-4.01
X17.417 Y93.803 Z-4.015
X17.333 Y93.917 Z-4.02
X17.264 Y94.04 Z-4.025
X17.208 Y94.169 Z-4.03
X17.168 Y94.305 Z-4.035
X17.143 Y94.444 Z-4.039
X17.134 Y94.585 Z-4.044
X17.141 Y94.726 Z-4.049
X17.164 Y94.865 Z-4.054
X17.202 Y95.001 Z-4.059
X17.256 Y95.131 Z-4.064
X17.324 Y95.255 Z-4.069
X17.405 Y95.37 Z-4.074
X17.499 Y95.476 Z-4.079
X17.604 Y95.57 Z-4.084
X17.719 Y95.652 Z-4.089
X17.843 Y95.72 Z-4.094
X17.973 Y95.774 Z-4.099
X18.109 Y95.813 Z-4.104
X18.248 Y95.836 Z-4.109
X18.389 Y95.843 Z-4.113
X18.53 Y95.834 Z-4.118
X18.669 Y95.81 Z-4.123
X18.804 Y95.77 Z-4.128
X18.934 Y95.715 Z-4.133
X19.057 Y95.646 Z-4.138
X19.172 Y95.563 Z-4.143
X19.276 Y95.468 Z-4.148
X19.369 Y95.362 Z-4.153
X19.449 Y95.246 Z-4.158
X19.516 Y95.121 Z-4.163
X19.568 Y94.99 Z-4.168
X19.605 Y94.854 Z-4.173
X19.627 Y94.714 Z-4.178
X19.633 Y94.573 Z-4.182
X19.622 Y94.433 Z-4.187
X19.596 Y94.294 Z-4.192
X19.555 Y94.159 Z-4.197
X19.498 Y94.03 Z-4.202
X19.427 Y93.907 Z-4.207
X19.343 Y93.794 Z-4.212
X19.247 Y93.691 Z-4.217
X19.14 Y93.599 Z-4.222
X19.023 Y93.52 Z-4.227
X18.897 Y93.455 Z-4.232
X18.766 Y93.404 Z-4.237
X18.629 Y93.369 Z-4.242
X18.489 Y93.349 Z-4.247
X18.348 Y93.345 Z-4.252
X18.208 Y93.357 Z-4.256
X18.069 Y93.385 Z-4.261
X17.935 Y93.428 Z-4.266
X17.806 Y93.486 Z-4.271
X17.685 Y93.558 Z-4.276
X17.572 Y93.643 Z-4.281
X17.47 Y93.741 Z-4.286
X17.38 Y93.849 Z-4.291
X17.302 Y93.967 Z-4.296
X17.239 Y94.093 Z-4.301
X17.19 Y94.226 Z-4.306
X17.156 Y94.363 Z-4.311
X17.137 Y94.503 Z-4.316
X17.135 Y94.644 Z-4.321
X17.149 Y94.784 Z-4.326
X17.178 Y94.922 Z-4.33
X17.223 Y95.056 Z-4.335
X17.282 Y95.184 Z-4.34
X17.356 Y95.305 Z-4.345
X17.443 Y95.416 Z-4.35
X17.542 Y95.517 Z-4.355
X17.651 Y95.606 Z-4.36
X17.77 Y95.682 Z-4.365
X17.897 Y95.744 Z-4.37
X18.03 Y95.792 Z-4.375
X18.167 Y95.824 Z-4.38
X18.307 Y95.841 Z-4.385
X18.448 Z-4.39
X18.589 Y95.826 Z-4.395
X18.726 Y95.795 Z-4.399
X18.86 Y95.749 Z-4.404
X18.987 Y95.688 Z-4.409
X19.107 Y95.613 Z-4.414
X19.217 Y95.525 Z-4.419
X19.317 Y95.425 Z-4.424
X19.404 Y95.314 Z-4.429
X19.479 Y95.194 Z-4.434
X19.54 Y95.067 Z-4.439
X19.586 Y94.933 Z-4.444
X19.616 Y94.796 Z-4.449
X19.631 Y94.655 Z-4.454
X19.63 Y94.514 Z-4.459
X19.613 Y94.374 Z-4.464
X19.581 Y94.237 Z-4.469
X19.533 Y94.104 Z-4.473
X19.47 Y93.977 Z-4.478
X19.394 Y93.859 Z-4.483
X19.304 Y93.749 Z-4.488
X19.203 Y93.651 Z-4.493
X19.092 Y93.564 Z-4.498
X18.971 Y93.491 Z-4.503
X18.843 Y93.432 Z-4.508
X18.776 Y93.402
X18.711 Y93.368
X18.548 Y93.274
X18.49 Y93.238
X18.434 Y93.198
X18.367 Y93.146
X18.273 Y93.063
X12.809 Y87.601
X12.736 Y87.519
X12.679 Y87.447
X12.637 Y87.391
X12.599 Y87.333
X12.503 Y87.171
X12.461 Y87.092
X12.426 Y87.009
X12.366 Y86.848
X12.34 Y86.766
X12.32 Y86.682
X12.289 Y86.512
X12.276 Y86.421
X12.272 Y86.33
Y15.27
X12.276 Y15.179
X12.289 Y15.088
X12.32 Y14.918
X12.34 Y14.834
X12.366 Y14.752
X12.426 Y14.591
X12.461 Y14.508
X12.503 Y14.429
X12.599 Y14.267
X12.637 Y14.209
X12.679 Y14.153
X12.736 Y14.081
X12.809 Y13.999
X18.273 Y8.537
X18.331 Y8.484
X18.393 Y8.435
X18.515 Y8.347
X18.584 Y8.301
X18.657 Y8.261
X18.82 Y8.18
X18.9 Y8.144
X18.983 Y8.115
X19.147 Y8.068
X19.232 Y8.047
X19.318 Y8.033
X19.498 Y8.014
X19.608 Y8.008
X137.121
X137.188 Y8.01
X137.254 Y8.017
X137.442 Y8.042
X137.506 Y8.053
X137.569 Y8.068
X138.197 Y8.236
X138.275 Y8.261
X138.351 Y8.292
X138.476 Y8.349
X138.545 Y8.383
X138.61 Y8.422
X138.798 Y8.546
X138.869 Y8.596
X138.935 Y8.653
X139.123 Y8.829
X139.147 Y8.853
X139.406 Y9.113
X139.482 Y9.199
X139.581 Y9.324
X139.621 Y9.378
X139.658 Y9.435
X139.769 Y9.623
X139.81 Y9.7
X139.844 Y9.78
X139.897 Y9.919
X139.928 Y10.018
X140.072 Y10.568
X140.095 Y10.681
X140.122 Y10.869
X140.129 Y10.939
X140.131 Y11.009
Y90.591
X140.129 Y90.661
X140.122 Y90.731
X140.095 Y90.919
X140.071 Y91.038
X139.907 Y91.649
X139.882 Y91.727
X139.851 Y91.803
X139.787 Y91.945
X139.751 Y92.016
X139.709 Y92.084
X139.584 Y92.272
X139.534 Y92.341
X139.478 Y92.406
X139.3 Y92.594
X139.278 Y92.616
X139.018 Y92.874
X138.926 Y92.956
X138.8 Y93.053
X138.747 Y93.091
X138.691 Y93.126
X138.503 Y93.236
X138.437 Y93.272
X138.367 Y93.302
X138.277 Y93.338
X138.165 Y93.375
X137.565 Y93.533
X137.442 Y93.558
X137.254 Y93.583
X137.188 Y93.59
X137.121 Y93.592
X19.545 Y93.589
X19.461 Y93.586
X19.377 Y93.575
X19.205 Y93.546
X19.121 Y93.528
X19.038 Y93.502
X18.875 Y93.444
X18.843 Y93.432
G2 X18.603 Y93.507 R0.2
G1 X17.468 Y95.219
G2 X17.494 Y95.471 R0.2
G1 X17.866 Y95.843
X136.94 Y95.84
X138.215 Y95.696
X139.332 Y95.305
X139.424 Y95.251
X140.357 Y94.665
X141.203 Y93.818
X141.847 Y92.787
X142.233 Y91.683
X142.383 Y90.347
X142.379 Y11.192
X142.234 Y9.918
X141.847 Y8.813
X141.203 Y7.782
X140.357 Y6.935
X139.351 Y6.303
X139.328 Y6.293
X138.216 Y5.904
X136.878 Y5.757
X17.866
X10.017 Y13.606
Y87.994
X10.151 Y88.128
X17.494 Y95.471
X17.529 Y95.498
X17.57 Y95.515
X17.615 Y95.52
X17.659 Y95.513
X17.7 Y95.495
X18.261 Y95.152
X18.305 Y95.133
X18.354 Y95.127
X18.401 Y95.136
X18.445 Y95.158
X18.977 Y95.532
X19.016 Y95.552
X19.059 Y95.562
X19.103 Y95.56
X19.145 Y95.546
X19.182 Y95.522
X19.283 Y95.425 Z-4.513
X19.373 Y95.318 Z-4.518
X19.449 Y95.201 Z-4.523
X19.512 Y95.076 Z-4.528
X19.56 Y94.944 Z-4.532
X19.592 Y94.808 Z-4.537
X19.609 Y94.67 Z-4.542
X19.61 Y94.53 Z-4.547
X19.596 Y94.391 Z-4.552
X19.565 Y94.254 Z-4.557
X19.519 Y94.122 Z-4.562
X19.459 Y93.996 Z-4.567
X19.384 Y93.878 Z-4.571
X19.297 Y93.769 Z-4.576
X19.197 Y93.671 Z-4.581
X19.087 Y93.584 Z-4.586
X18.968 Y93.511 Z-4.591
X18.842 Y93.451 Z-4.596
X18.709 Y93.407 Z-4.601
X18.573 Y93.378 Z-4.606
X18.434 Y93.364 Z-4.611
X18.294 Y93.367 Z-4.615
X18.155 Y93.385 Z-4.62
X18.02 Y93.419 Z-4.625
X17.889 Y93.468 Z-4.63
X17.764 Y93.532 Z-4.635
X17.648 Y93.609 Z-4.64
X17.541 Y93.7 Z-4.645
X17.445 Y93.801 Z-4.65
X17.362 Y93.913 Z-4.655
X17.291 Y94.034 Z-4.659
X17.235 Y94.162 Z-4.664
X17.194 Y94.296 Z-4.669
X17.168 Y94.433 Z-4.674
X17.159 Y94.573 Z-4.679
X17.165 Y94.712 Z-4.684
X17.186 Y94.851 Z-4.689
X17.224 Y94.985 Z-4.694
X17.276 Y95.115 Z-4.698
X17.343 Y95.237 Z-4.703
X17.424 Y95.352 Z-4.708
X17.517 Y95.456 Z-4.713
X17.621 Y95.549 Z-4.718
X17.735 Y95.63 Z-4.723
X17.858 Y95.697 Z-4.728
X17.987 Y95.75 Z-4.733
X18.122 Y95.788 Z-4.738
X18.26 Y95.81 Z-4.742
X18.399 Y95.816 Z-4.747
X18.539 Y95.807 Z-4.752
X18.676 Y95.781 Z-4.757
X18.81 Y95.741 Z-4.762
X18.938 Y95.685 Z-4.767
X19.059 Y95.615 Z-4.772
X19.171 Y95.531 Z-4.777
X19.274 Y95.436 Z-4.782
X19.364 Y95.329 Z-4.786
X19.442 Y95.213 Z-4.791
X19.506 Y95.089 Z-4.796
X19.555 Y94.958 Z-4.801
X19.59 Y94.822 Z-4.806
X19.608 Y94.684 Z-4.811
X19.611 Y94.544 Z-4.816
X19.598 Y94.405 Z-4.821
X19.569 Y94.268 Z-4.825
X19.525 Y94.136 Z-4.83
X19.466 Y94.009 Z-4.835
X19.392 Y93.89 Z-4.84
X19.306 Y93.78 Z-4.845
X19.208 Y93.68 Z-4.85
X19.099 Y93.592 Z-4.855
X18.981 Y93.518 Z-4.86
X18.855 Y93.457 Z-4.865
X18.723 Y93.411 Z-4.869
X18.587 Y93.38 Z-4.874
X18.448 Y93.365 Z-4.879
X18.308 Y93.366 Z-4.884
X18.169 Y93.382 Z-4.889
X18.033 Y93.415 Z-4.894
X17.902 Y93.462 Z-4.899
X17.777 Y93.525 Z-4.904
X17.659 Y93.601 Z-4.909
X17.552 Y93.69 Z-4.913
X17.455 Y93.79 Z-4.918
X17.37 Y93.902 Z-4.923
X17.298 Y94.022 Z-4.928
X17.24 Y94.149 Z-4.933
X17.198 Y94.282 Z-4.938
X17.17 Y94.419 Z-4.943
X17.159 Y94.558 Z-4.948
X17.163 Y94.698 Z-4.952
X17.184 Y94.836 Z-4.957
X17.219 Y94.972 Z-4.962
X17.27 Y95.102 Z-4.967
X17.336 Y95.225 Z-4.972
X17.415 Y95.341 Z-4.977
X17.507 Y95.446 Z-4.982
X17.61 Y95.54 Z-4.987
X17.723 Y95.622 Z-4.992
X17.845 Y95.691 Z-4.996
X17.974 Y95.745 Z-5.001
X18.108 Y95.785 Z-5.006
X18.246 Y95.809 Z-5.011
X18.385 Y95.816 Z-5.016
X136.939 Y95.813
X138.214 Y95.668
X139.319 Y95.282
X140.354 Y94.63
X141.192 Y93.787
X141.819 Y92.786
X142.205 Y91.682
X142.357 Y90.346
X142.352 Y11.192
X142.206 Y9.918
X141.819 Y8.814
X141.192 Y7.813
X140.354 Y6.97
X139.319 Y6.318
X138.216 Y5.932
X136.878 Y5.783
X17.877
X10.044 Y13.617
Y87.983
X10.151 Y88.09
X17.877 Y95.816
X18.385
G2 X18.582 Y95.654 R0.2
G1 X18.958 Y93.672
G2 X18.833 Y93.448 R0.2
G1 X18.751 Y93.412
X18.672 Y93.369
X18.497 Y93.263
X18.416 Y93.208
X18.341 Y93.146
X18.186 Y93.004
X18.153 Y92.973
X12.785 Y87.6
X12.718 Y87.526
X12.685 Y87.486
X12.646 Y87.435
X12.61 Y87.382
X12.503 Y87.209
X12.455 Y87.124
X12.416 Y87.035
X12.351 Y86.862
X12.322 Y86.775
X12.302 Y86.686
X12.27 Y86.508
X12.258 Y86.419
X12.254 Y86.33
Y15.27
X12.258 Y15.181
X12.27 Y15.092
X12.302 Y14.914
X12.322 Y14.825
X12.351 Y14.738
X12.416 Y14.565
X12.455 Y14.476
X12.503 Y14.391
X12.61 Y14.218
X12.674 Y14.127
X12.748 Y14.044
X13.78 Y13.001
X13.784 Y12.996
X18.274 Y8.513
X18.342 Y8.451
X18.415 Y8.396
X18.567 Y8.291
X18.647 Y8.242
X18.731 Y8.2
X18.906 Y8.124
X18.993 Y8.09
X19.082 Y8.065
X19.257 Y8.025
X19.35 Y8.008
X19.445 Y8.
X19.696 Y7.99
X19.733
X137.121
X137.188 Y7.993
X137.254 Y7.999
X137.442 Y8.025
X137.56 Y8.048
X138.125 Y8.194
X138.234 Y8.229
X138.381 Y8.285
X138.46 Y8.32
X138.536 Y8.361
X138.715 Y8.468
X138.802 Y8.527
X138.921 Y8.617
X138.975 Y8.66
X139.026 Y8.708
X139.422 Y9.102
X139.465 Y9.149
X139.506 Y9.198
X139.597 Y9.315
X139.658 Y9.404
X139.766 Y9.579
X139.807 Y9.653
X139.842 Y9.731
X139.904 Y9.886
X139.944 Y10.006
X140.09 Y10.57
X140.113 Y10.681
X140.139 Y10.869
X140.147 Y10.939
X140.149 Y11.009
Y90.591
X140.147 Y90.661
X140.139 Y90.731
X140.113 Y90.919
X140.09 Y91.031
X139.944 Y91.594
X139.904 Y91.714
X139.842 Y91.869
X139.803 Y91.955
X139.756 Y92.036
X139.606 Y92.27
X139.554 Y92.344
X139.495 Y92.413
X139.331 Y92.589
X139.304 Y92.618
X139.023 Y92.895
X138.973 Y92.941
X138.921 Y92.983
X138.802 Y93.073
X138.715 Y93.132
X138.536 Y93.239
X138.46 Y93.28
X138.381 Y93.315
X138.234 Y93.371
X138.125 Y93.406
X137.56 Y93.552
X137.442 Y93.575
X137.254 Y93.601
X137.188 Y93.607
X137.121 Y93.61
X19.545 Y93.608
X19.462 Y93.604
X19.38 Y93.594
X19.201 Y93.564
X19.111 Y93.545
X19.023 Y93.517
X18.848 Y93.453
X18.833 Y93.448
X18.804 Y93.442
X18.775 Y93.448
X18.751 Y93.463
X18.57 Y93.629
X18.541 Y93.646
X18.508 Y93.649
X18.476 Y93.638
X18.451 Y93.616
X18.318 Y93.424
X18.297 Y93.404
X18.271 Y93.392
X18.243 Y93.39
X18.106 Y93.415 Z-5.021
X17.974 Y93.455 Z-5.026
X17.847 Y93.51 Z-5.031
X17.727 Y93.579 Z-5.035
X17.616 Y93.662 Z-5.04
X17.515 Y93.756 Z-5.045
X17.425 Y93.862 Z-5.05
X17.348 Y93.977 Z-5.055
X17.285 Y94.101 Z-5.06
X17.237 Y94.23 Z-5.064
X17.204 Y94.365 Z-5.069
X17.186 Y94.502 Z-5.074
X17.185 Y94.641 Z-5.079
X17.199 Y94.778 Z-5.084
X17.229 Y94.914 Z-5.089
X17.274 Y95.044 Z-5.093
X17.334 Y95.169 Z-5.098
X17.408 Y95.286 Z-5.103
X17.495 Y95.394 Z-5.108
X17.594 Y95.491 Z-5.113
X17.703 Y95.576 Z-5.118
X17.821 Y95.648 Z-5.122
X17.947 Y95.706 Z-5.127
X18.078 Y95.75 Z-5.132
X18.214 Y95.777 Z-5.137
X18.352 Y95.789 Z-5.142
X18.49 Y95.785 Z-5.147
X18.627 Y95.766 Z-5.151
X18.761 Y95.73 Z-5.156
X18.89 Y95.68 Z-5.161
X19.012 Y95.615 Z-5.166
X19.126 Y95.536 Z-5.171
X19.231 Y95.445 Z-5.176
X19.324 Y95.343 Z-5.18
X19.404 Y95.23 Z-5.185
X19.472 Y95.109 Z-5.19
X19.525 Y94.981 Z-5.195
X19.563 Y94.848 Z-5.2
X19.585 Y94.711 Z-5.205
X19.591 Y94.573 Z-5.21
X19.582 Y94.435 Z-5.214
X19.557 Y94.299 Z-5.219
X19.516 Y94.166 Z-5.224
X19.46 Y94.039 Z-5.229
X19.39 Y93.92 Z-5.234
X19.307 Y93.809 Z-5.239
X19.212 Y93.709 Z-5.243
X19.106 Y93.62 Z-5.248
X18.99 Y93.544 Z-5.253
X18.867 Y93.481 Z-5.258
X18.737 Y93.434 Z-5.263
X18.602 Y93.401 Z-5.268
X18.465 Y93.384 Z-5.272
X18.326 Y93.383 Z-5.277
X18.188 Y93.398 Z-5.282
X18.053 Y93.429 Z-5.287
X17.923 Y93.475 Z-5.292
X17.798 Y93.536 Z-5.297
X17.682 Y93.61 Z-5.301
X17.574 Y93.698 Z-5.306
X17.478 Y93.797 Z-5.311
X17.393 Y93.907 Z-5.316
X17.322 Y94.025 Z-5.321
X17.264 Y94.151 Z-5.326
X17.222 Y94.283 Z-5.33
X17.195 Y94.419 Z-5.335
X17.184 Y94.557 Z-5.34
X17.188 Y94.695 Z-5.345
X17.209 Y94.832 Z-5.35
X17.245 Y94.966 Z-5.355
X17.296 Y95.094 Z-5.36
X17.362 Y95.216 Z-5.364
X17.441 Y95.33 Z-5.369
X17.533 Y95.434 Z-5.374
X17.636 Y95.526 Z-5.379
X17.748 Y95.606 Z-5.384
X17.87 Y95.673 Z-5.389
X17.998 Y95.725 Z-5.393
X18.132 Y95.762 Z-5.398
X18.268 Y95.784 Z-5.403
X18.407 Y95.79 Z-5.408
X18.545 Y95.78 Z-5.413
X18.681 Y95.754 Z-5.418
X18.813 Y95.712 Z-5.422
X18.939 Y95.656 Z-5.427
X19.059 Y95.585 Z-5.432
X19.169 Y95.502 Z-5.437
X19.269 Y95.406 Z-5.442
X19.357 Y95.299 Z-5.447
X19.433 Y95.183 Z-5.451
X19.494 Y95.059 Z-5.456
X19.541 Y94.929 Z-5.461
X19.573 Y94.794 Z-5.466
X19.589 Y94.657 Z-5.471
Y94.518 Z-5.476
X19.574 Y94.381 Z-5.48
X19.542 Y94.246 Z-5.485
X19.496 Y94.115 Z-5.49
X19.434 Y93.991 Z-5.495
X19.359 Y93.875 Z-5.5
X19.271 Y93.768 Z-5.505
X19.171 Y93.672 Z-5.509
X19.061 Y93.588 Z-5.514
X18.942 Y93.517 Z-5.519
X18.816 Y93.461 Z-5.524
X18.741 Y93.428
X18.669 Y93.39
X18.545 Y93.318
X18.479 Y93.276
X18.416 Y93.229
X18.286 Y93.123
X18.21 Y93.054
X12.752 Y87.589
X12.693 Y87.526
X12.641 Y87.458
X12.555 Y87.335
X12.507 Y87.261
X12.466 Y87.182
X12.381 Y86.998
X12.344 Y86.908
X12.316 Y86.813
X12.271 Y86.63
X12.255 Y86.552
X12.246 Y86.474
X12.235 Y86.349
X12.232 Y86.267
X12.235 Y15.27
X12.239 Y15.183
X12.251 Y15.095
X12.284 Y14.91
X12.305 Y14.816
X12.335 Y14.725
X12.406 Y14.541
X12.44 Y14.463
X12.481 Y14.388
X12.554 Y14.265
X12.62 Y14.169
X12.676 Y14.096
X12.717 Y14.047
X12.761 Y14.
X18.21 Y8.545
X18.286 Y8.477
X18.416 Y8.371
X18.479 Y8.324
X18.545 Y8.282
X18.669 Y8.21
X18.744 Y8.17
X18.823 Y8.137
X19.009 Y8.067
X19.102 Y8.038
X19.197 Y8.018
X19.384 Y7.987
X19.464 Y7.977
X19.545 Y7.974
X137.121 Y7.973
X137.188 Y7.975
X137.254 Y7.982
X137.442 Y8.007
X137.551 Y8.028
X137.928 Y8.121
X137.96 Y8.13
X138.211 Y8.201
X138.293 Y8.229
X138.373 Y8.263
X138.552 Y8.35
X138.623 Y8.388
X138.69 Y8.432
X138.906 Y8.583
X138.974 Y8.635
X139.037 Y8.693
X139.436 Y9.091
X139.493 Y9.152
X139.544 Y9.218
X139.695 Y9.43
X139.757 Y9.527
X139.816 Y9.633
X139.846 Y9.693
X139.873 Y9.756
X139.927 Y9.896
X139.961 Y9.997
X140.079 Y10.436
X140.095 Y10.506
X140.143 Y10.757
X140.156 Y10.838
X140.161 Y10.921
X140.168 Y11.172
Y11.197
X140.167 Y90.591
X140.164 Y90.661
X140.157 Y90.731
X140.13 Y90.919
X140.109 Y91.026
X139.981 Y91.527
X139.968 Y91.575
X139.929 Y91.7
X139.907 Y91.763
X139.881 Y91.825
X139.821 Y91.955
X139.787 Y92.022
X139.748 Y92.086
X139.609 Y92.298
X139.562 Y92.363
X139.509 Y92.425
X139.363 Y92.584
X139.329 Y92.619
X139.033 Y92.911
X138.972 Y92.966
X138.906 Y93.017
X138.69 Y93.168
X138.623 Y93.212
X138.552 Y93.25
X138.373 Y93.337
X138.29 Y93.373
X138.203 Y93.401
X137.701 Y93.539
X137.62 Y93.558
X137.369 Y93.605
X137.279 Y93.618
X137.188 Y93.623
X135.934 Y93.628
X19.545 Y93.626
X19.464 Y93.623
X19.384 Y93.613
X19.197 Y93.582
X19.102 Y93.562
X19.009 Y93.533
X18.823 Y93.463
X18.816 Y93.461
G2 X18.577 Y93.538 R0.2
G1 X17.504 Y95.18
G2 X17.53 Y95.431 R0.2
G1 X17.889 Y95.79
X136.939 Y95.787
X138.214 Y95.64
X139.32 Y95.253
X140.321 Y94.625
X141.166 Y93.78
X141.79 Y92.785
X142.178 Y91.682
X142.33 Y90.346
X142.326 Y11.193
X142.178 Y9.919
X141.79 Y8.815
X141.162 Y7.815
X140.315 Y6.972
X139.32 Y6.347
X138.215 Y5.96
X136.877 Y5.81
X17.889
X10.07 Y13.628
Y87.972
X10.151 Y88.053
X17.53 Y95.431
X17.569 Y95.461
X17.616 Y95.478
X17.666 Y95.482
X17.715 Y95.472
X17.759 Y95.448
X18.348 Y95.017
X18.386 Y94.995
X18.429 Y94.984
X18.473
X18.515 Y94.994
X19.194 Y95.255
X19.242 Y95.266
X19.292 Y95.263
X19.339 Y95.246
X19.379 Y95.218
X19.41 Y95.179
X19.471 Y95.057 Z-5.529
X19.519 Y94.93 Z-5.534
X19.551 Y94.797 Z-5.538
X19.568 Y94.662 Z-5.543
X19.57 Y94.526 Z-5.548
X19.555 Y94.39 Z-5.553
X19.525 Y94.258 Z-5.557
X19.48 Y94.129 Z-5.562
X19.421 Y94.006 Z-5.567
X19.348 Y93.891 Z-5.572
X19.262 Y93.786 Z-5.576
X19.165 Y93.69 Z-5.581
X19.057 Y93.607 Z-5.586
X18.94 Y93.537 Z-5.591
X18.816 Y93.48 Z-5.595
X18.687 Y93.438 Z-5.6
X18.553 Y93.411 Z-5.605
X18.417 Y93.4 Z-5.61
X18.281 Y93.405 Z-5.614
X18.146 Y93.425 Z-5.619
X18.015 Y93.46 Z-5.624
X17.888 Y93.511 Z-5.629
X17.768 Y93.575 Z-5.633
X17.657 Y93.653 Z-5.638
X17.555 Y93.743 Z-5.643
X17.464 Y93.845 Z-5.648
X17.385 Y93.956 Z-5.653
X17.32 Y94.075 Z-5.657
X17.268 Y94.202 Z-5.662
X17.232 Y94.333 Z-5.667
X17.211 Y94.468 Z-5.672
X17.205 Y94.604 Z-5.676
X17.216 Y94.74 Z-5.681
X17.242 Y94.873 Z-5.686
X17.283 Y95.003 Z-5.691
X17.338 Y95.128 Z-5.695
X17.408 Y95.245 Z-5.7
X17.49 Y95.353 Z-5.705
X17.585 Y95.451 Z-5.71
X17.69 Y95.538 Z-5.714
X17.805 Y95.612 Z-5.719
X17.927 Y95.672 Z-5.724
X18.055 Y95.718 Z-5.729
X18.188 Y95.748 Z-5.733
X18.323 Y95.764 Z-5.738
X18.459 Y95.763 Z-5.743
X18.595 Y95.747 Z-5.748
X18.727 Y95.716 Z-5.752
X18.855 Y95.669 Z-5.757
X18.977 Y95.608 Z-5.762
X19.091 Y95.534 Z-5.767
X19.196 Y95.447 Z-5.772
X19.29 Y95.348 Z-5.776
X19.372 Y95.239 Z-5.781
X19.441 Y95.122 Z-5.786
X19.496 Y94.997 Z-5.791
X19.536 Y94.867 Z-5.795
X19.561 Y94.733 Z-5.8
X19.571 Y94.597 Z-5.805
X19.565 Y94.461 Z-5.81
X19.543 Y94.327 Z-5.814
X19.506 Y94.196 Z-5.819
X19.454 Y94.07 Z-5.824
X19.388 Y93.95 Z-5.829
X19.309 Y93.84 Z-5.833
X19.217 Y93.739 Z-5.838
X19.114 Y93.649 Z-5.843
X19.002 Y93.572 Z-5.848
X18.882 Y93.508 Z-5.852
X18.755 Y93.458 Z-5.857
X18.623 Y93.423 Z-5.862
X18.489 Y93.404 Z-5.867
X18.352 Y93.4 Z-5.871
X18.217 Y93.412 Z-5.876
X18.083 Y93.44 Z-5.881
X17.954 Y93.482 Z-5.886
X17.83 Y93.54 Z-5.891
X17.714 Y93.611 Z-5.895
X17.607 Y93.695 Z-5.9
X17.51 Y93.79 Z-5.905
X17.425 Y93.897 Z-5.91
X17.352 Y94.012 Z-5.914
X17.293 Y94.135 Z-5.919
X17.249 Y94.264 Z-5.924
X17.22 Y94.397 Z-5.929
X17.206 Y94.532 Z-5.933
X17.208 Y94.669 Z-5.938
X17.226 Y94.804 Z-5.943
X17.259 Y94.936 Z-5.948
X17.307 Y95.063 Z-5.952
X17.37 Y95.184 Z-5.957
X17.446 Y95.297 Z-5.962
X17.534 Y95.401 Z-5.967
X17.634 Y95.494 Z-5.971
X17.744 Y95.574 Z-5.976
X17.862 Y95.642 Z-5.981
X17.987 Y95.695 Z-5.986
X18.118 Y95.734 Z-5.99
X18.252 Y95.758 Z-5.995
X18.388 Y95.765 Z-6.
X136.938 Y95.762
X138.213 Y95.615
X139.318 Y95.226
X140.32 Y94.592
X141.128 Y93.784
X141.763 Y92.783
X142.156 Y91.67
X142.175 Y91.533
X142.305 Y90.348
X142.301 Y11.191
X142.161 Y9.944
X141.763 Y8.817
X141.128 Y7.816
X140.32 Y7.007
X139.318 Y6.374
X138.214 Y5.986
X136.877 Y5.835
X17.898
X10.095 Y13.638
Y87.962
X10.151 Y88.018
X17.898 Y95.765
X18.388
G2 X18.585 Y95.602 R0.2
G1 X18.941 Y93.703
G2 X18.815 Y93.479 R0.2
G1 X18.74 Y93.448
X18.668 Y93.41
X18.542 Y93.337
X18.438 Y93.268
X18.355 Y93.204
X18.302 Y93.161
X18.252 Y93.115
X12.752 Y87.616
X12.698 Y87.557
X12.649 Y87.495
X12.547 Y87.354
X12.495 Y87.274
X12.451 Y87.19
X12.363 Y87.002
X12.326 Y86.909
X12.297 Y86.813
X12.253 Y86.625
X12.234 Y86.528
X12.226 Y86.43
X12.216 Y86.18
Y86.142
X12.218 Y15.27
X12.222 Y15.185
X12.233 Y15.101
X12.265 Y14.913
X12.287 Y14.817
X12.317 Y14.724
X12.389 Y14.536
X12.424 Y14.456
X12.466 Y14.38
X12.541 Y14.254
X12.61 Y14.153
X12.671 Y14.075
X12.752 Y13.984
X18.252 Y8.485
X18.316 Y8.427
X18.384 Y8.374
X18.531 Y8.271
X18.612 Y8.22
