(NMJPLATE0PT0PT3_TOP_STEP2_332IN_SIDE1)
(T8  D=2.381 CR=0. - ZMIN=-18.119 - FLAT END MILL)
G0 G90 G94 G17
G21
G53 G0 Z0.

(UPPER WELL 332)
M5
T8
M3 S8000
G55
M8
G0 X71.871 Y51.661
Z15.
Z-0.584
G1 Z-0.594 F381.
Z-2.668 F1499.
X71.865 Y51.659 Z-2.721
X71.849 Y51.653 Z-2.772
X71.822 Y51.644 Z-2.817
X71.786 Y51.631 Z-2.854
X71.744 Y51.616 Z-2.883
X71.696 Y51.599 Z-2.9
X71.647 Y51.582 Z-2.906
G3 X70.541 Y51.14 R15.163
G1 X69.892 Y50.851
X69.869 Y50.842
X69.764 Y50.8
X69.869 Y50.758
X69.893 Y50.748
X70.54 Y50.458
X70.581 Y50.448
X70.622 Y50.453
X70.659 Y50.471
X72.004 Y51.444
X72.033 Y51.475
X72.05 Y51.514
X72.052 Y51.556
X72.039 Y51.596
X72.013 Y51.63
X71.977 Y51.652
X71.936 Y51.66
X71.894 Y51.653
X71.847 Y51.636 Z-2.912
X71.801 Y51.62 Z-2.928
X71.76 Y51.606 Z-2.954
X71.725 Y51.593 Z-2.988
X71.697 Y51.583 Z-3.03
X71.67 Y51.574 Z-3.071
X71.635 Y51.561 Z-3.106
X71.594 Y51.547 Z-3.132
X71.548 Y51.531 Z-3.148
X71.501 Y51.514 Z-3.153
G3 X70.551 Y51.134 R13.031
G1 X69.892 Y50.841
X69.866 Y50.83
X69.789 Y50.8
X69.866 Y50.77
X69.893 Y50.758
X70.555 Y50.462
X70.595 Y50.452
X70.636 Y50.456
X70.674 Y50.474
X72.002 Y51.434
X72.031 Y51.464
X72.048 Y51.503
X72.05 Y51.545
X72.037 Y51.586
X72.011 Y51.619
X71.975 Y51.641
X71.934 Y51.65
X71.892 Y51.643
X71.844 Y51.626 Z-3.159
X71.799 Y51.61 Z-3.175
X71.758 Y51.595 Z-3.2
X71.723 Y51.583 Z-3.235
X71.695 Y51.573 Z-3.277
X71.668 Y51.563 Z-3.318
X71.633 Y51.551 Z-3.353
X71.592 Y51.536 Z-3.379
X71.546 Y51.52 Z-3.395
X71.499 Y51.503 Z-3.4
G3 X70.566 Y51.131 R12.794
G1 X69.892 Y50.831
X69.864 Y50.819
X69.813 Y50.8
X69.864 Y50.781
X69.893 Y50.768
X70.565 Y50.467
X70.6 Y50.454
X73.589 Y49.644
X73.64 Y49.63 Z-3.394
X73.689 Y49.617 Z-3.376
X73.733 Y49.605 Z-3.348
X73.769 Y49.595 Z-3.31
X73.796 Y49.588 Z-3.265
X73.813 Y49.583 Z-3.215
X73.819 Y49.582 Z-3.162
G0 Z5.
X61.042 Y49.945
Z-0.584
G1 Z-0.594 F381.
Z-2.668 F1499.
X61.047 Y49.947 Z-2.721
X61.064 Y49.953 Z-2.772
X61.091 Y49.962 Z-2.817
X61.126 Y49.975 Z-2.854
X61.169 Y49.99 Z-2.883
X61.216 Y50.007 Z-2.9
X61.266 Y50.024 Z-2.906
G3 X62.373 Y50.463 R15.163
G1 X63.133 Y50.8
X62.373 Y51.139
X62.333 Y51.149
X62.292 Y51.144
X62.255 Y51.126
X60.94 Y50.175
X60.911 Y50.145
X60.894 Y50.106
X60.892 Y50.064
X60.904 Y50.024
X60.93 Y49.99
X60.966 Y49.968
X61.007 Y49.96
X61.049 Y49.966
X61.097 Y49.983 Z-2.912
X61.142 Y49.999 Z-2.928
X61.184 Y50.014 Z-2.954
X61.219 Y50.026 Z-2.988
X61.246 Y50.035 Z-3.03
X61.274 Y50.045 Z-3.071
X61.309 Y50.057 Z-3.106
X61.35 Y50.072 Z-3.132
X61.395 Y50.088 Z-3.148
X61.443 Y50.105 Z-3.153
G3 X62.36 Y50.467 R12.557
G1 X63.108 Y50.798
X62.368 Y51.129
X62.328 Y51.139
X62.287 Y51.135
X62.25 Y51.118
X60.941 Y50.183
X60.912 Y50.153
X60.895 Y50.114
X60.892 Y50.072
X60.905 Y50.032
X60.931 Y49.998
X60.967 Y49.976
X61.008 Y49.967
X61.05 Y49.974
X61.098 Y49.991 Z-3.159
X61.143 Y50.007 Z-3.175
X61.184 Y50.022 Z-3.2
X61.219 Y50.034 Z-3.235
X61.247 Y50.044 Z-3.277
X61.274 Y50.053 Z-3.318
X61.309 Y50.066 Z-3.353
X61.351 Y50.08 Z-3.379
X61.396 Y50.096 Z-3.395
X61.444 Y50.113 Z-3.4
G3 X62.351 Y50.475 R12.439
G1 X63.083 Y50.8
X62.347 Y51.129
X62.312 Y51.141
X59.322 Y51.947
X59.271 Y51.961 Z-3.394
X59.222 Y51.974 Z-3.376
X59.178 Y51.985 Z-3.348
X59.142 Y51.995 Z-3.31
X59.115 Y52.003 Z-3.265
X59.098 Y52.007 Z-3.215
X59.092 Y52.009 Z-3.162
G0 Z5.
X57.355 Y55.167
Z-0.594
G1 Z-2.668 F1499.
X57.354 Y55.173 Z-2.721
X57.35 Y55.19 Z-2.772
X57.343 Y55.217 Z-2.817
X57.334 Y55.254 Z-2.854
X57.323 Y55.298 Z-2.883
X57.311 Y55.347 Z-2.9
X57.299 Y55.398 Z-2.906
G3 X56.97 Y56.543 R15.163
G1 X56.701 Y57.359
X56.437 Y56.546
X56.431 Y56.514
X56.434 Y56.482
X56.446 Y56.451
X57.027 Y55.398
X57.054 Y55.365
X57.09 Y55.344
X57.132 Y55.337
X57.174 Y55.345
X57.21 Y55.367
X57.237 Y55.401
X57.249 Y55.441
X57.247 Y55.484
X57.235 Y55.533 Z-2.912
X57.223 Y55.58 Z-2.928
X57.213 Y55.622 Z-2.954
X57.204 Y55.658 Z-2.988
X57.197 Y55.687 Z-3.03
X57.19 Y55.715 Z-3.071
X57.182 Y55.751 Z-3.106
X57.171 Y55.794 Z-3.132
X57.16 Y55.84 Z-3.148
X57.148 Y55.889 Z-3.153
G3 X56.964 Y56.533 R8.529
G1 X56.702 Y57.332
X56.526 Y56.79
X56.52 Y56.772
X56.435 Y56.535
X56.428 Y56.503
X56.431 Y56.469
X56.443 Y56.438
X57.009 Y55.397
X57.035 Y55.364
X57.072 Y55.342
X57.114 Y55.335
X57.156 Y55.343
X57.192 Y55.365
X57.219 Y55.399
X57.231 Y55.439
X57.229 Y55.482
X57.217 Y55.531 Z-3.159
X57.206 Y55.578 Z-3.175
X57.196 Y55.62 Z-3.2
X57.187 Y55.656 Z-3.235
X57.181 Y55.685 Z-3.277
X57.174 Y55.713 Z-3.318
X57.165 Y55.749 Z-3.353
X57.155 Y55.792 Z-3.379
X57.144 Y55.839 Z-3.395
X57.132 Y55.888 Z-3.4
G3 X56.954 Y56.524 R8.411
G1 X56.702 Y57.304
X56.536 Y56.79
X56.529 Y56.771
X56.439 Y56.522
X56.429 Y56.486
X55.843 Y53.445
X55.833 Y53.393 Z-3.394
X55.824 Y53.343 Z-3.376
X55.815 Y53.299 Z-3.348
X55.808 Y53.262 Z-3.31
X55.803 Y53.234 Z-3.265
X55.799 Y53.217 Z-3.215
X55.798 Y53.211 Z-3.162
G0 Z5.
X55.999 Y65.918
Z-0.594
G1 Z-2.668 F1499.
X56.001 Y65.913 Z-2.721
X56.006 Y65.896 Z-2.772
X56.013 Y65.868 Z-2.817
X56.024 Y65.832 Z-2.854
X56.036 Y65.789 Z-2.883
X56.05 Y65.74 Z-2.9
X56.064 Y65.689 Z-2.906
G3 X56.434 Y64.557 R15.163
G1 X56.451 Y64.511
X56.459 Y64.488
X56.703 Y63.738
X56.97 Y64.561
X56.976 Y64.593
X56.973 Y64.626
X56.961 Y64.656
X56.384 Y65.702
X56.357 Y65.735
X56.32 Y65.757
X56.278 Y65.764
X56.236 Y65.756
X56.2 Y65.733
X56.174 Y65.7
X56.161 Y65.659
X56.164 Y65.617
X56.175 Y65.568 Z-2.912
X56.187 Y65.521 Z-2.928
X56.197 Y65.478 Z-2.954
X56.206 Y65.442 Z-2.988
X56.212 Y65.414 Z-3.03
X56.219 Y65.386 Z-3.071
X56.228 Y65.349 Z-3.106
X56.238 Y65.307 Z-3.132
X56.249 Y65.26 Z-3.148
X56.261 Y65.211 Z-3.153
G3 X56.443 Y64.566 R8.529
G1 X56.703 Y63.766
X56.962 Y64.565
X56.968 Y64.598
X56.964 Y64.631
X56.951 Y64.663
X56.303 Y65.74
X56.274 Y65.773
X56.236 Y65.793
X56.193 Y65.798
X56.151 Y65.787
X56.116 Y65.762
X56.092 Y65.726
X56.082 Y65.683
X56.088 Y65.64
X56.105 Y65.593 Z-3.159
X56.12 Y65.547 Z-3.175
X56.134 Y65.506 Z-3.2
X56.146 Y65.47 Z-3.235
X56.155 Y65.443 Z-3.277
X56.165 Y65.415 Z-3.318
X56.177 Y65.38 Z-3.353
X56.191 Y65.339 Z-3.379
X56.206 Y65.293 Z-3.395
X56.222 Y65.245 Z-3.4
X56.45 Y64.576
X56.452 Y64.568
X56.703 Y63.796
X56.957 Y64.578
X56.966 Y64.614
X57.449 Y67.673
X57.458 Y67.725 Z-3.394
X57.465 Y67.775 Z-3.376
X57.472 Y67.82 Z-3.348
X57.478 Y67.857 Z-3.31
X57.483 Y67.885 Z-3.265
X57.486 Y67.902 Z-3.215
Y67.908 Z-3.162
G0 Z5.
X52.373 Y71.161
Z-0.584
G1 Z-0.594 F381.
Z-2.668 F1499.
X52.368 Y71.159 Z-2.721
X52.351 Y71.154 Z-2.772
X52.325 Y71.144 Z-2.817
X52.289 Y71.132 Z-2.854
X52.246 Y71.117 Z-2.883
X52.199 Y71.1 Z-2.9
X52.149 Y71.082 Z-2.906
G3 X51.043 Y70.642 R15.163
G1 X50.272 Y70.3
X50.279 Y70.298
X50.317 Y70.282
X51.042 Y69.958
X51.082 Y69.948
X51.124 Y69.952
X51.161 Y69.97
X52.499 Y70.941
X52.528 Y70.971
X52.545 Y71.01
X52.547 Y71.052
X52.534 Y71.092
X52.508 Y71.126
X52.473 Y71.148
X52.431 Y71.156
X52.389 Y71.149
X52.342 Y71.133 Z-2.912
X52.296 Y71.117 Z-2.928
X52.255 Y71.102 Z-2.954
X52.22 Y71.09 Z-2.988
X52.193 Y71.08 Z-3.03
X52.165 Y71.071 Z-3.071
X52.13 Y71.058 Z-3.106
X52.089 Y71.044 Z-3.132
X52.043 Y71.028 Z-3.148
X51.996 Y71.011 Z-3.153
G3 X51.053 Y70.638 R12.913
G1 X50.294 Y70.302
X50.328 Y70.288
X51.054 Y69.964
X51.094 Y69.954
X51.135 Y69.958
X51.172 Y69.976
X52.494 Y70.93
X52.524 Y70.961
X52.541 Y71.
X52.543 Y71.042
X52.53 Y71.082
X52.504 Y71.116
X52.468 Y71.138
X52.427 Y71.146
X52.385 Y71.139
X52.338 Y71.122 Z-3.159
X52.292 Y71.106 Z-3.175
X52.251 Y71.092 Z-3.2
X52.216 Y71.079 Z-3.235
X52.188 Y71.07 Z-3.277
X52.161 Y71.06 Z-3.318
X52.126 Y71.048 Z-3.353
X52.085 Y71.033 Z-3.379
X52.039 Y71.017 Z-3.395
X51.992 Y71. Z-3.4
G3 X51.067 Y70.632 R12.676
G1 X50.321 Y70.3
X50.34 Y70.293
X51.07 Y69.966
X51.105 Y69.953
X54.096 Y69.147
X54.147 Y69.134 Z-3.394
X54.195 Y69.121 Z-3.376
X54.239 Y69.109 Z-3.348
X54.275 Y69.099 Z-3.31
X54.303 Y69.092 Z-3.265
X54.32 Y69.087 Z-3.215
X54.325 Y69.085 Z-3.162
G0 Z5.
X41.525 Y69.438
Z-0.584
G1 Z-0.594 F381.
Z-2.668 F1499.
X41.53 Y69.44 Z-2.721
X41.547 Y69.446 Z-2.772
X41.574 Y69.456 Z-2.817
X41.609 Y69.468 Z-2.854
X41.652 Y69.483 Z-2.883
X41.699 Y69.5 Z-2.9
X41.749 Y69.517 Z-2.906
G3 X42.856 Y69.956 R15.163
G1 X43.628 Y70.298
X42.854 Y70.645
X42.814 Y70.655
X42.772 Y70.651
X42.735 Y70.632
X41.435 Y69.671
X41.406 Y69.641
X41.389 Y69.602
X41.387 Y69.56
X41.4 Y69.52
X41.426 Y69.487
X41.462 Y69.465
X41.504 Y69.457
X41.545 Y69.463
X41.593 Y69.48 Z-2.912
X41.638 Y69.496 Z-2.928
X41.679 Y69.511 Z-2.954
X41.714 Y69.523 Z-2.988
X41.742 Y69.533 Z-3.03
X41.769 Y69.543 Z-3.071
X41.804 Y69.555 Z-3.106
X41.846 Y69.57 Z-3.132
X41.891 Y69.586 Z-3.148
X41.939 Y69.602 Z-3.153
G3 X42.854 Y69.967 R12.557
G1 X43.601 Y70.3
X43.591 Y70.304
X42.855 Y70.632
X42.815 Y70.642
X42.774 Y70.637
X42.737 Y70.619
X41.465 Y69.694
X41.436 Y69.663
X41.419 Y69.624
X41.417 Y69.582
X41.43 Y69.542
X41.456 Y69.509
X41.492 Y69.487
X41.533 Y69.478
X41.575 Y69.485
X41.623 Y69.502 Z-3.159
X41.668 Y69.518 Z-3.175
X41.709 Y69.533 Z-3.2
X41.744 Y69.545 Z-3.235
X41.772 Y69.555 Z-3.277
X41.799 Y69.564 Z-3.318
X41.834 Y69.577 Z-3.353
X41.875 Y69.591 Z-3.379
X41.921 Y69.607 Z-3.395
X41.969 Y69.624 Z-3.4
G3 X42.85 Y69.975 R12.083
G1 X43.58 Y70.299
X42.849 Y70.625
X42.814 Y70.637
X39.822 Y71.439
X39.771 Y71.452 Z-3.394
X39.723 Y71.465 Z-3.376
X39.679 Y71.477 Z-3.348
X39.643 Y71.487 Z-3.31
X39.615 Y71.494 Z-3.265
X39.598 Y71.499 Z-3.215
X39.592 Y71.5 Z-3.162
G0 Z5.
X37.896 Y74.675
Z-0.594
G1 Z-2.668 F1499.
X37.894 Y74.681 Z-2.721
X37.889 Y74.698 Z-2.772
X37.882 Y74.725 Z-2.817
X37.872 Y74.761 Z-2.854
X37.859 Y74.805 Z-2.883
X37.846 Y74.853 Z-2.9
X37.832 Y74.905 Z-2.906
G3 X37.467 Y76.038 R15.163
G1 X37.459 Y76.06
X37.452 Y76.081
X37.2 Y76.861
X36.932 Y76.039
X36.926 Y76.007
X36.929 Y75.975
X36.941 Y75.944
X37.517 Y74.899
X37.544 Y74.866
X37.581 Y74.844
X37.623 Y74.837
X37.664 Y74.845
X37.701 Y74.867
X37.727 Y74.901
X37.74 Y74.941
X37.737 Y74.984
X37.726 Y75.033 Z-2.912
X37.714 Y75.08 Z-2.928
X37.704 Y75.122 Z-2.954
X37.696 Y75.159 Z-2.988
X37.689 Y75.187 Z-3.03
X37.682 Y75.215 Z-3.071
X37.673 Y75.251 Z-3.106
X37.663 Y75.294 Z-3.132
X37.652 Y75.341 Z-3.148
X37.64 Y75.39 Z-3.153
G3 X37.459 Y76.035 R8.529
G1 X37.201 Y76.834
X36.94 Y76.036
X36.935 Y76.005
X36.937 Y75.973
X36.949 Y75.943
X37.504 Y74.906
X37.531 Y74.872
X37.567 Y74.85
X37.609 Y74.843
X37.651 Y74.851
X37.688 Y74.873
X37.714 Y74.906
X37.727 Y74.947
X37.725 Y74.989
X37.713 Y75.039 Z-3.159
X37.702 Y75.085 Z-3.175
X37.692 Y75.128 Z-3.2
X37.683 Y75.164 Z-3.235
X37.677 Y75.193 Z-3.277
X37.67 Y75.221 Z-3.318
X37.661 Y75.257 Z-3.353
X37.651 Y75.3 Z-3.379
X37.64 Y75.346 Z-3.395
X37.628 Y75.396 Z-3.4
G3 X37.453 Y76.023 R8.292
G1 X37.201 Y76.805
X36.946 Y76.025
X36.937 Y75.989
X36.447 Y72.93
X36.439 Y72.878 Z-3.394
X36.431 Y72.828 Z-3.376
X36.424 Y72.784 Z-3.348
X36.418 Y72.747 Z-3.31
X36.413 Y72.719 Z-3.265
X36.41 Y72.701 Z-3.215
X36.409 Y72.695 Z-3.162
G0 Z5.
X36.54 Y85.437
Z-0.594
G1 Z-2.668 F1499.
X36.541 Y85.432 Z-2.721
X36.545 Y85.415 Z-2.772
X36.552 Y85.387 Z-2.817
X36.561 Y85.35 Z-2.854
X36.572 Y85.307 Z-2.883
X36.584 Y85.258 Z-2.9
X36.597 Y85.206 Z-2.906
G3 X36.926 Y84.062 R15.163
G1 X37.2 Y83.238
X37.469 Y84.061
X37.474 Y84.093
X37.471 Y84.126
X37.459 Y84.156
X36.866 Y85.209
X36.839 Y85.242
X36.802 Y85.263
X36.76 Y85.27
X36.719 Y85.261
X36.683 Y85.239
X36.657 Y85.205
X36.644 Y85.164
X36.647 Y85.122
X36.659 Y85.073 Z-2.912
X36.671 Y85.026 Z-2.928
X36.681 Y84.984 Z-2.954
X36.69 Y84.948 Z-2.988
X36.697 Y84.919 Z-3.03
X36.704 Y84.891 Z-3.071
X36.713 Y84.855 Z-3.106
X36.723 Y84.813 Z-3.132
X36.735 Y84.766 Z-3.148
X36.747 Y84.717 Z-3.153
G3 X36.935 Y84.064 R8.648
G1 X37.2 Y83.266
X37.46 Y84.064
X37.466 Y84.096
X37.463 Y84.128
X37.452 Y84.158
X36.875 Y85.21
X36.848 Y85.243
X36.811 Y85.265
X36.769 Y85.272
X36.727 Y85.264
X36.691 Y85.242
X36.665 Y85.208
X36.652 Y85.167
X36.655 Y85.125
X36.667 Y85.076 Z-3.159
X36.678 Y85.029 Z-3.175
X36.689 Y84.986 Z-3.2
X36.698 Y84.95 Z-3.235
X36.705 Y84.922 Z-3.277
X36.712 Y84.894 Z-3.318
X36.721 Y84.858 Z-3.353
X36.731 Y84.815 Z-3.379
X36.743 Y84.768 Z-3.395
X36.755 Y84.719 Z-3.4
G3 X36.937 Y84.085 R8.411
G1 X37.2 Y83.292
X37.455 Y84.072
X37.463 Y84.108
X37.953 Y87.166
X37.961 Y87.219 Z-3.394
X37.969 Y87.268 Z-3.376
X37.977 Y87.313 Z-3.348
X37.983 Y87.35 Z-3.31
X37.987 Y87.378 Z-3.265
X37.99 Y87.396 Z-3.215
X37.991 Y87.401 Z-3.162
G0 Z5.
X39.86 Y87.656
Z-0.584
G1 Z-0.594 F381.
Z-2.668 F1499.
X39.865 Y87.659 Z-2.721
X39.88 Y87.668 Z-2.772
X39.904 Y87.683 Z-2.817
X39.937 Y87.702 Z-2.854
X39.975 Y87.726 Z-2.883
X40.018 Y87.752 Z-2.9
X40.063 Y87.78 Z-2.906
G3 X41.053 Y88.441 R15.163
G1 X41.75 Y88.947
X41.802 Y88.981
X41.857 Y89.009
X42.581 Y89.332
X40.757
X40.718 Y89.325
X40.683 Y89.306
X40.657 Y89.277
X39.745 Y87.872
X39.729 Y87.835
X39.726 Y87.795
X39.737 Y87.757
X39.76 Y87.724
X39.792 Y87.7
X39.83 Y87.689
X39.87 Y87.691
X39.907 Y87.705
X39.95 Y87.732 Z-2.912
X39.991 Y87.757 Z-2.928
X40.029 Y87.78 Z-2.954
X40.06 Y87.8 Z-2.988
X40.085 Y87.815 Z-3.03
X40.11 Y87.83 Z-3.071
X40.141 Y87.85 Z-3.106
X40.179 Y87.872 Z-3.132
X40.22 Y87.898 Z-3.148
X40.263 Y87.924 Z-3.153
G3 X41.043 Y88.447 R11.965
G1 X41.701 Y88.927
X41.744 Y88.955
X41.789 Y88.98
X42.03 Y89.098
X42.051 Y89.108
X42.535 Y89.323
X40.748
X40.71 Y89.317
X40.675 Y89.298
X40.649 Y89.269
X39.737 Y87.876
X39.721 Y87.839
X39.718 Y87.799
X39.728 Y87.761
X39.751 Y87.728
X39.783 Y87.704
X39.821 Y87.693
X39.861 Y87.694
X39.899 Y87.709
X39.942 Y87.736 Z-3.159
X39.983 Y87.761 Z-3.175
X40.02 Y87.784 Z-3.2
X40.052 Y87.803 Z-3.235
X40.076 Y87.819 Z-3.277
X40.101 Y87.834 Z-3.318
X40.133 Y87.853 Z-3.353
X40.17 Y87.876 Z-3.379
X40.211 Y87.901 Z-3.395
X40.254 Y87.928 Z-3.4
G3 X41.027 Y88.446 R11.846
G1 X41.701 Y88.937
X41.747 Y88.967
X41.795 Y88.993
X42.12 Y89.148
X42.135 Y89.155
X42.496 Y89.315
X40.735
X40.698 Y89.312
X37.639 Y88.827
X37.587 Y88.819 Z-3.394
X37.537 Y88.811 Z-3.376
X37.493 Y88.804 Z-3.348
X37.455 Y88.798 Z-3.31
X37.427 Y88.794 Z-3.265
X37.41 Y88.791 Z-3.215
X37.404 Y88.79 Z-3.162
G0 Z5.
X35.062 Y89.266
Z-0.583
G1 Z-0.594 F381.
Z-2.668 F1499.
X35.056 Y89.267 Z-2.721
X35.039 Y89.268 Z-2.772
X35.01 Y89.27 Z-2.817
X34.973 Y89.273 Z-2.854
X34.928 Y89.277 Z-2.883
X34.878 Y89.281 Z-2.9
X34.825 Y89.285 Z-2.906
G3 X33.635 Y89.332 R15.163
G1 X31.819
X32.515 Y89.023
X32.561 Y89.001
X32.604 Y88.974
X32.786 Y88.853
X32.807 Y88.839
X33.341 Y88.449
X33.376 Y88.432
X33.414 Y88.427
X33.452 Y88.434
X35.08 Y89.021
X35.115 Y89.041
X35.142 Y89.071
X35.156 Y89.109
X35.158 Y89.149
X35.146 Y89.187
X35.122 Y89.219
X35.088 Y89.242
X35.049 Y89.252
X34.999 Y89.256 Z-2.912
X34.951 Y89.259 Z-2.928
X34.907 Y89.263 Z-2.954
X34.87 Y89.266 Z-2.988
X34.841 Y89.268 Z-3.03
X34.812 Y89.27 Z-3.071
X34.775 Y89.273 Z-3.106
X34.731 Y89.277 Z-3.132
X34.683 Y89.28 Z-3.148
X34.633 Y89.284 Z-3.153
G3 X33.648 Y89.323 R12.557
G1 X31.861
X32.566 Y89.006
X32.62 Y88.978
X32.671 Y88.945
X33.353 Y88.45
X33.387 Y88.432
X33.426 Y88.427
X33.463 Y88.434
X35.075 Y89.013
X35.11 Y89.033
X35.137 Y89.064
X35.152 Y89.101
X35.153 Y89.141
X35.141 Y89.18
X35.117 Y89.212
X35.083 Y89.234
X35.044 Y89.244
X34.994 Y89.248 Z-3.159
X34.946 Y89.252 Z-3.175
X34.902 Y89.255 Z-3.2
X34.865 Y89.258 Z-3.235
X34.836 Y89.26 Z-3.277
X34.807 Y89.263 Z-3.318
X34.77 Y89.266 Z-3.353
X34.727 Y89.269 Z-3.379
X34.679 Y89.273 Z-3.395
X34.628 Y89.277 Z-3.4
G3 X33.662 Y89.315 R12.32
G1 X31.898
X32.566 Y89.015
X32.62 Y88.987
X32.672 Y88.954
X33.367 Y88.45
X33.399 Y88.43
X36.159 Y87.025
X36.206 Y87.001 Z-3.394
X36.251 Y86.979 Z-3.376
X36.291 Y86.958 Z-3.348
X36.325 Y86.941 Z-3.31
X36.35 Y86.928 Z-3.265
X36.366 Y86.92 Z-3.215
X36.371 Y86.917 Z-3.162
G0 Z5.
X18.151 Y75.256
Z-0.589
G1 Z-0.594 F381.
Z-2.668 F1499.
X18.149 Y75.262 Z-2.721
X18.145 Y75.279 Z-2.772
X18.138 Y75.307 Z-2.817
X18.13 Y75.343 Z-2.854
X18.119 Y75.387 Z-2.883
X18.107 Y75.436 Z-2.9
X18.095 Y75.488 Z-2.906
G3 X17.772 Y76.634 R15.163
G1 X17.451 Y77.621
X17.447 Y77.632
X17.388 Y77.828
X17.37 Y77.906
X17.339 Y78.099
X17.335 Y78.133
X17.147 Y79.966
X17.144 Y80.03
Y80.127
X17.148 Y80.186
X17.356 Y82.116
X17.37 Y82.196
X17.4 Y82.317
X17.412 Y82.359
X18.004 Y84.166
X18.022 Y84.213
X18.043 Y84.257
X18.144 Y84.45
X18.156 Y84.473
X19.077 Y86.057
X19.109 Y86.106
X19.145 Y86.151
X19.497 Y86.55
X19.502 Y86.557
X20.49 Y87.648
X20.561 Y87.714
X20.729 Y87.848
X20.751 Y87.865
X22.245 Y88.944
X22.296 Y88.977
X22.35 Y89.004
X23.081 Y89.332
X20.563
X16.528 Y85.297
Y76.409
X16.534 Y76.374
X16.549 Y76.343
X16.573 Y76.317
X17.915 Y75.241
X17.952 Y75.221
X17.994 Y75.215
X18.035 Y75.224
X18.07 Y75.246
X18.096 Y75.28
X18.108 Y75.32
X18.105 Y75.362
X18.094 Y75.411 Z-2.912
X18.082 Y75.458 Z-2.928
X18.072 Y75.5 Z-2.954
X18.063 Y75.536 Z-2.988
X18.057 Y75.565 Z-3.03
X18.05 Y75.593 Z-3.071
X18.041 Y75.629 Z-3.106
X18.031 Y75.672 Z-3.132
X18.02 Y75.718 Z-3.148
X18.008 Y75.767 Z-3.153
G3 X17.767 Y76.618 R11.254
G1 X17.451 Y77.59
X17.443 Y77.617
X17.355 Y77.94
X17.337 Y78.035
X17.143 Y79.867
X17.14 Y79.917
X17.136 Y80.11
X17.139 Y80.185
X17.3 Y81.728
X17.302 Y81.745
X17.363 Y82.199
X17.372 Y82.252
X17.386 Y82.303
X17.863 Y83.778
X17.868 Y83.791
X18.019 Y84.225
X18.04 Y84.277
X18.066 Y84.327
X19.043 Y86.019
X19.071 Y86.063
X19.137 Y86.157
X19.183 Y86.215
X20.484 Y87.653
X20.531 Y87.7
X20.619 Y87.777
X20.664 Y87.813
X22.196 Y88.921
X22.236 Y88.948
X22.333 Y89.006
X22.399 Y89.041
X23.034 Y89.323
X20.567
X16.537 Y85.293
Y76.395
X16.542 Y76.36
X16.557 Y76.328
X16.581 Y76.302
X17.908 Y75.238
X17.945 Y75.218
X17.987 Y75.212
X18.028 Y75.221
X18.063 Y75.244
X18.089 Y75.277
X18.101 Y75.317
X18.098 Y75.359
X18.087 Y75.408 Z-3.159
X18.075 Y75.455 Z-3.175
X18.065 Y75.498 Z-3.2
X18.056 Y75.534 Z-3.235
X18.05 Y75.562 Z-3.277
X18.043 Y75.59 Z-3.318
X18.034 Y75.626 Z-3.353
X18.024 Y75.669 Z-3.379
X18.012 Y75.716 Z-3.395
X18.001 Y75.765 Z-3.4
G3 X17.765 Y76.597 R11.017
G1 X17.451 Y77.56
X17.443 Y77.587
X17.346 Y77.94
X17.328 Y78.035
X17.135 Y79.867
X17.131 Y79.917
X17.127 Y80.11
X17.13 Y80.184
X17.291 Y81.728
X17.293 Y81.747
X17.356 Y82.208
X17.366 Y82.26
X17.38 Y82.311
X17.854 Y83.778
X17.859 Y83.792
X18.011 Y84.227
X18.031 Y84.277
X18.056 Y84.325
X18.69 Y85.434
X18.694 Y85.441
X19.046 Y86.037
X19.069 Y86.074
X19.13 Y86.162
X19.177 Y86.221
X20.296 Y87.466
X20.31 Y87.48
X20.535 Y87.715
X20.574 Y87.751
X20.615 Y87.784
X22.195 Y88.93
X22.235 Y88.957
X22.331 Y89.015
X22.4 Y89.051
X22.995 Y89.315
X20.575
X16.545 Y85.29
Y76.376
X16.548 Y76.338
X17.033 Y73.279
X17.041 Y73.227 Z-3.394
X17.049 Y73.177 Z-3.376
X17.056 Y73.133 Z-3.348
X17.062 Y73.096 Z-3.31
X17.066 Y73.068 Z-3.265
X17.069 Y73.05 Z-3.215
X17.07 Y73.044 Z-3.162
G0 Z5.
X22.029 Y69.438
Z-0.584
G1 Z-0.594 F381.
Z-2.668 F1499.
X22.035 Y69.44 Z-2.721
X22.051 Y69.446 Z-2.772
X22.078 Y69.455 Z-2.817
X22.114 Y69.468 Z-2.854
X22.156 Y69.483 Z-2.883
X22.204 Y69.5 Z-2.9
X22.254 Y69.517 Z-2.906
G3 X23.36 Y69.958 R15.163
G1 X24.13 Y70.3
X24.118 Y70.304
X24.078 Y70.32
X23.358 Y70.643
X23.318 Y70.653
X23.277 Y70.649
X23.239 Y70.631
X21.909 Y69.662
X21.879 Y69.631
X21.863 Y69.593
X21.861 Y69.551
X21.873 Y69.51
X21.899 Y69.477
X21.935 Y69.455
X21.977 Y69.447
X22.018 Y69.453
X22.066 Y69.47 Z-2.912
X22.111 Y69.486 Z-2.928
X22.153 Y69.501 Z-2.954
X22.188 Y69.513 Z-2.988
X22.215 Y69.523 Z-3.03
X22.242 Y69.532 Z-3.071
X22.278 Y69.545 Z-3.106
X22.319 Y69.559 Z-3.132
X22.364 Y69.575 Z-3.148
X22.412 Y69.592 Z-3.153
G3 X23.346 Y69.962 R12.794
G1 X24.107 Y70.299
X24.093 Y70.304
X24.056 Y70.319
X23.35 Y70.635
X23.31 Y70.645
X23.269 Y70.641
X23.232 Y70.623
X21.916 Y69.675
X21.887 Y69.645
X21.87 Y69.606
X21.868 Y69.564
X21.88 Y69.523
X21.906 Y69.49
X21.942 Y69.468
X21.984 Y69.46
X22.025 Y69.466
X22.073 Y69.483 Z-3.159
X22.118 Y69.499 Z-3.175
X22.16 Y69.513 Z-3.2
X22.195 Y69.526 Z-3.235
X22.222 Y69.535 Z-3.277
X22.25 Y69.545 Z-3.318
X22.285 Y69.557 Z-3.353
X22.326 Y69.572 Z-3.379
X22.372 Y69.588 Z-3.395
X22.419 Y69.604 Z-3.4
G3 X23.336 Y69.967 R12.557
G1 X24.086 Y70.299
X24.07 Y70.304
X24.033 Y70.32
X23.337 Y70.631
X23.302 Y70.644
X20.312 Y71.451
X20.261 Y71.465 Z-3.394
X20.212 Y71.478 Z-3.376
X20.168 Y71.49 Z-3.348
X20.132 Y71.5 Z-3.31
X20.105 Y71.507 Z-3.265
X20.088 Y71.512 Z-3.215
X20.082 Y71.513 Z-3.162
G0 Z5.
X32.876 Y71.167
Z-0.584
G1 Z-0.594 F381.
Z-2.668 F1499.
X32.871 Y71.165 Z-2.721
X32.854 Y71.159 Z-2.772
X32.827 Y71.15 Z-2.817
X32.792 Y71.137 Z-2.854
X32.749 Y71.122 Z-2.883
X32.702 Y71.105 Z-2.9
X32.652 Y71.088 Z-2.906
G3 X31.546 Y70.647 R15.163
G1 X30.769 Y70.302
X31.549 Y69.954
X31.589 Y69.944
X31.63 Y69.948
X31.668 Y69.966
X33.019 Y70.956
X33.048 Y70.986
X33.064 Y71.025
X33.066 Y71.067
X33.053 Y71.108
X33.027 Y71.141
X32.991 Y71.163
X32.95 Y71.171
X32.908 Y71.164
X32.861 Y71.147 Z-2.912
X32.815 Y71.131 Z-2.928
X32.774 Y71.117 Z-2.954
X32.739 Y71.104 Z-2.988
X32.712 Y71.095 Z-3.03
X32.684 Y71.085 Z-3.071
X32.649 Y71.072 Z-3.106
X32.608 Y71.058 Z-3.132
X32.563 Y71.042 Z-3.148
X32.515 Y71.025 Z-3.153
G3 X31.556 Y70.642 R13.15
G1 X30.792 Y70.302
X31.556 Y69.96
X31.597 Y69.95
X31.638 Y69.954
X31.675 Y69.972
X33.021 Y70.95
X33.05 Y70.981
X33.067 Y71.02
X33.069 Y71.062
X33.056 Y71.102
X33.03 Y71.135
X32.994 Y71.157
X32.953 Y71.166
X32.911 Y71.159
X32.863 Y71.142 Z-3.159
X32.818 Y71.125 Z-3.175
X32.777 Y71.111 Z-3.2
X32.742 Y71.098 Z-3.235
X32.714 Y71.088 Z-3.277
X32.687 Y71.079 Z-3.318
X32.652 Y71.066 Z-3.353
X32.611 Y71.051 Z-3.379
X32.566 Y71.035 Z-3.395
X32.518 Y71.018 Z-3.4
G3 X31.569 Y70.636 R13.031
G1 X30.82 Y70.299
X31.566 Y69.968
X31.601 Y69.956
X34.593 Y69.157
X34.645 Y69.143 Z-3.394
X34.693 Y69.13 Z-3.376
X34.737 Y69.119 Z-3.348
X34.773 Y69.109 Z-3.31
X34.801 Y69.102 Z-3.265
X34.818 Y69.097 Z-3.215
X34.823 Y69.095 Z-3.162
G0 Z5.
X36.549 Y65.937
Z-0.594
G1 Z-2.668 F1499.
X36.55 Y65.931 Z-2.721
X36.555 Y65.914 Z-2.772
X36.561 Y65.886 Z-2.817
X36.57 Y65.85 Z-2.854
X36.581 Y65.806 Z-2.883
X36.593 Y65.757 Z-2.9
X36.605 Y65.705 Z-2.906
G3 X36.93 Y64.56 R15.163
G1 X37.199 Y63.738
X37.466 Y64.557
X37.472 Y64.589
X37.469 Y64.621
X37.457 Y64.651
X36.882 Y65.702
X36.856 Y65.735
X36.819 Y65.757
X36.777 Y65.764
X36.735 Y65.756
X36.699 Y65.734
X36.672 Y65.7
X36.66 Y65.66
X36.662 Y65.617
X36.674 Y65.568 Z-2.912
X36.685 Y65.521 Z-2.928
X36.695 Y65.479 Z-2.954
X36.704 Y65.442 Z-2.988
X36.711 Y65.414 Z-3.03
X36.718 Y65.386 Z-3.071
X36.726 Y65.35 Z-3.106
X36.737 Y65.307 Z-3.132
X36.748 Y65.26 Z-3.148
X36.76 Y65.211 Z-3.153
G3 X36.942 Y64.567 R8.529
G1 X37.2 Y63.772
X37.463 Y64.568
X37.469 Y64.6
X37.466 Y64.632
X37.454 Y64.662
X36.891 Y65.703
X36.864 Y65.736
X36.827 Y65.758
X36.785 Y65.765
X36.744 Y65.757
X36.707 Y65.735
X36.681 Y65.702
X36.668 Y65.661
X36.67 Y65.618
X36.682 Y65.569 Z-3.159
X36.693 Y65.522 Z-3.175
X36.704 Y65.48 Z-3.2
X36.712 Y65.444 Z-3.235
X36.719 Y65.415 Z-3.277
X36.726 Y65.387 Z-3.318
X36.735 Y65.351 Z-3.353
X36.745 Y65.308 Z-3.379
X36.756 Y65.262 Z-3.395
X36.768 Y65.212 Z-3.4
G3 X36.947 Y64.577 R8.411
G1 X37.201 Y63.798
X37.455 Y64.575
X37.464 Y64.611
X37.957 Y67.669
X37.966 Y67.721 Z-3.394
X37.974 Y67.771 Z-3.376
X37.981 Y67.815 Z-3.348
X37.987 Y67.853 Z-3.31
X37.992 Y67.881 Z-3.265
X37.994 Y67.898 Z-3.215
X37.995 Y67.904 Z-3.162
G0 Z5.
X37.852 Y55.163
Z-0.594
G1 Z-2.668 F1499.
X37.851 Y55.168 Z-2.721
X37.847 Y55.186 Z-2.772
X37.84 Y55.213 Z-2.817
X37.831 Y55.25 Z-2.854
X37.821 Y55.294 Z-2.883
X37.809 Y55.343 Z-2.9
X37.796 Y55.394 Z-2.906
G3 X37.472 Y56.54 R15.163
G1 X37.201 Y57.369
X36.929 Y56.541
X36.923 Y56.509
X36.926 Y56.477
X36.938 Y56.446
X37.518 Y55.401
X37.545 Y55.369
X37.582 Y55.347
X37.624 Y55.34
X37.665 Y55.348
X37.702 Y55.37
X37.728 Y55.404
X37.74 Y55.445
X37.738 Y55.487
X37.726 Y55.536 Z-2.912
X37.715 Y55.583 Z-2.928
X37.705 Y55.625 Z-2.954
X37.696 Y55.662 Z-2.988
X37.689 Y55.69 Z-3.03
X37.683 Y55.718 Z-3.071
X37.674 Y55.754 Z-3.106
X37.664 Y55.797 Z-3.132
X37.653 Y55.844 Z-3.148
X37.641 Y55.893 Z-3.153
G3 X37.459 Y56.538 R8.529
G1 X37.2 Y57.338
X36.937 Y56.537
X36.931 Y56.505
X36.934 Y56.473
X36.946 Y56.442
X37.516 Y55.397
X37.543 Y55.364
X37.58 Y55.343
X37.621 Y55.335
X37.663 Y55.343
X37.7 Y55.365
X37.726 Y55.399
X37.739 Y55.44
X37.736 Y55.482
X37.724 Y55.531 Z-3.159
X37.713 Y55.578 Z-3.175
X37.703 Y55.621 Z-3.2
X37.694 Y55.657 Z-3.235
X37.687 Y55.685 Z-3.277
X37.681 Y55.713 Z-3.318
X37.672 Y55.75 Z-3.353
X37.662 Y55.792 Z-3.379
X37.65 Y55.839 Z-3.395
X37.639 Y55.888 Z-3.4
G3 X37.461 Y56.515 R8.292
G1 X37.201 Y57.314
X36.94 Y56.517
X36.931 Y56.481
X36.439 Y53.423
X36.43 Y53.371 Z-3.394
X36.422 Y53.321 Z-3.376
X36.415 Y53.276 Z-3.348
X36.409 Y53.239 Z-3.31
X36.404 Y53.211 Z-3.265
X36.402 Y53.194 Z-3.215
X36.401 Y53.188 Z-3.162
G0 Z5.
X41.529 Y49.94
Z-0.584
G1 Z-0.594 F381.
Z-2.668 F1499.
X41.535 Y49.942 Z-2.721
X41.551 Y49.947 Z-2.772
X41.578 Y49.957 Z-2.817
X41.614 Y49.969 Z-2.854
X41.656 Y49.984 Z-2.883
X41.704 Y50.001 Z-2.9
X41.754 Y50.019 Z-2.906
G3 X42.86 Y50.458 R15.163
G1 X43.631 Y50.8
X43.62 Y50.804
X43.59 Y50.816
X42.86 Y51.143
X42.82 Y51.153
X42.778 Y51.148
X42.741 Y51.13
X41.412 Y50.163
X41.383 Y50.133
X41.367 Y50.094
X41.364 Y50.052
X41.377 Y50.012
X41.403 Y49.978
X41.439 Y49.956
X41.48 Y49.948
X41.522 Y49.955
X41.57 Y49.971 Z-2.912
X41.615 Y49.987 Z-2.928
X41.656 Y50.002 Z-2.954
X41.691 Y50.014 Z-2.988
X41.719 Y50.024 Z-3.03
X41.746 Y50.034 Z-3.071
X41.781 Y50.046 Z-3.106
X41.823 Y50.06 Z-3.132
X41.868 Y50.076 Z-3.148
X41.916 Y50.093 Z-3.153
G3 X42.85 Y50.463 R12.794
G1 X43.608 Y50.799
X43.59 Y50.806
X42.855 Y51.135
X42.815 Y51.145
X42.774 Y51.141
X42.737 Y51.123
X41.424 Y50.178
X41.394 Y50.147
X41.377 Y50.109
X41.375 Y50.066
X41.388 Y50.026
X41.413 Y49.993
X41.449 Y49.97
X41.491 Y49.962
X41.532 Y49.969
X41.58 Y49.985 Z-3.159
X41.626 Y50.001 Z-3.175
X41.667 Y50.016 Z-3.2
X41.702 Y50.028 Z-3.235
X41.729 Y50.038 Z-3.277
X41.757 Y50.047 Z-3.318
X41.792 Y50.06 Z-3.353
X41.833 Y50.074 Z-3.379
X41.879 Y50.09 Z-3.395
X41.926 Y50.107 Z-3.4
G3 X42.843 Y50.469 R12.557
G1 X43.588 Y50.798
X42.843 Y51.131
X42.808 Y51.144
X39.817 Y51.95
X39.766 Y51.964 Z-3.394
X39.718 Y51.977 Z-3.376
X39.674 Y51.989 Z-3.348
X39.638 Y51.999 Z-3.31
X39.61 Y52.006 Z-3.265
X39.593 Y52.011 Z-3.215
X39.587 Y52.012 Z-3.162
G0 Z5.
X52.373 Y51.661
Z-0.584
G1 Z-0.594 F381.
Z-2.668 F1499.
X52.367 Y51.659 Z-2.721
X52.351 Y51.653 Z-2.772
X52.324 Y51.644 Z-2.817
X52.288 Y51.631 Z-2.854
X52.246 Y51.616 Z-2.883
X52.198 Y51.6 Z-2.9
X52.148 Y51.582 Z-2.906
G3 X51.041 Y51.144 R15.163
G1 X50.267 Y50.801
X51.037 Y50.459
X51.077 Y50.449
X51.117 Y50.453
X51.155 Y50.471
X52.513 Y51.447
X52.543 Y51.478
X52.56 Y51.516
X52.562 Y51.558
X52.55 Y51.599
X52.524 Y51.632
X52.488 Y51.655
X52.446 Y51.663
X52.405 Y51.656
X52.357 Y51.639 Z-2.912
X52.311 Y51.624 Z-2.928
X52.27 Y51.609 Z-2.954
X52.235 Y51.597 Z-2.988
X52.208 Y51.587 Z-3.03
X52.18 Y51.578 Z-3.071
X52.145 Y51.565 Z-3.106
X52.104 Y51.551 Z-3.132
X52.058 Y51.535 Z-3.148
X52.011 Y51.518 Z-3.153
G3 X51.051 Y51.138 R13.15
G1 X50.286 Y50.801
X51.051 Y50.461
X51.091 Y50.451
X51.132 Y50.455
X51.169 Y50.473
X52.506 Y51.435
X52.536 Y51.466
X52.553 Y51.505
X52.555 Y51.547
X52.542 Y51.587
X52.516 Y51.621
X52.48 Y51.643
X52.439 Y51.651
X52.397 Y51.644
X52.35 Y51.628 Z-3.159
X52.304 Y51.612 Z-3.175
X52.263 Y51.597 Z-3.2
X52.228 Y51.585 Z-3.235
X52.2 Y51.575 Z-3.277
X52.173 Y51.566 Z-3.318
X52.138 Y51.553 Z-3.353
X52.097 Y51.539 Z-3.379
X52.051 Y51.523 Z-3.395
X52.003 Y51.506 Z-3.4
G3 X51.061 Y51.133 R12.913
G1 X50.308 Y50.8
X51.059 Y50.468
X51.095 Y50.456
X54.089 Y49.664
X54.14 Y49.65 Z-3.394
X54.188 Y49.637 Z-3.376
X54.232 Y49.626 Z-3.348
X54.269 Y49.616 Z-3.31
X54.296 Y49.609 Z-3.265
X54.313 Y49.604 Z-3.215
X54.319 Y49.603 Z-3.162
G0 Z5.
X56.057 Y46.437
Z-0.594
G1 Z-2.668 F1499.
X56.059 Y46.431 Z-2.721
X56.063 Y46.414 Z-2.772
X56.069 Y46.386 Z-2.817
X56.078 Y46.35 Z-2.854
X56.089 Y46.306 Z-2.883
X56.1 Y46.257 Z-2.9
X56.113 Y46.205 Z-2.906
G3 X56.435 Y45.059 R15.163
G1 X56.702 Y44.237
X56.966 Y45.058
X56.972 Y45.089
X56.969 Y45.121
X56.957 Y45.151
X56.386 Y46.196
X56.359 Y46.229
X56.322 Y46.25
X56.281 Y46.258
X56.239 Y46.25
X56.202 Y46.228
X56.176 Y46.194
X56.163 Y46.153
X56.166 Y46.111
X56.177 Y46.062 Z-2.912
X56.189 Y46.015 Z-2.928
X56.199 Y45.972 Z-2.954
X56.208 Y45.936 Z-2.988
X56.214 Y45.908 Z-3.03
X56.221 Y45.88 Z-3.071
X56.23 Y45.843 Z-3.106
X56.24 Y45.801 Z-3.132
X56.251 Y45.754 Z-3.148
X56.263 Y45.705 Z-3.153
G3 X56.442 Y45.069 R8.411
G1 X56.701 Y44.268
X56.96 Y45.069
X56.966 Y45.102
X56.962 Y45.135
X56.949 Y45.167
X56.3 Y46.249
X56.272 Y46.281
X56.234 Y46.301
X56.191 Y46.307
X56.15 Y46.296
X56.114 Y46.272
X56.09 Y46.237
X56.079 Y46.195
X56.084 Y46.153
X56.099 Y46.104 Z-3.159
X56.113 Y46.058 Z-3.175
X56.126 Y46.017 Z-3.2
X56.137 Y45.981 Z-3.235
X56.146 Y45.953 Z-3.277
X56.154 Y45.925 Z-3.318
X56.165 Y45.89 Z-3.353
X56.178 Y45.848 Z-3.379
X56.192 Y45.802 Z-3.395
X56.207 Y45.754 Z-3.4
G3 X56.445 Y45.078 R9.122
G1 X56.461 Y45.039
X56.473 Y45.004
X56.704 Y44.294
X56.959 Y45.078
X56.968 Y45.115
X57.455 Y48.173
X57.463 Y48.225 Z-3.394
X57.471 Y48.275 Z-3.376
X57.478 Y48.32 Z-3.348
X57.484 Y48.357 Z-3.31
X57.489 Y48.385 Z-3.265
X57.492 Y48.402 Z-3.215
Y48.408 Z-3.162
G0 Z5.
X57.35 Y35.658
Z-0.594
G1 Z-2.668 F1499.
X57.348 Y35.664 Z-2.721
X57.344 Y35.681 Z-2.772
X57.338 Y35.709 Z-2.817
X57.329 Y35.746 Z-2.854
X57.318 Y35.79 Z-2.883
X57.306 Y35.839 Z-2.9
X57.294 Y35.89 Z-2.906
G3 X56.971 Y37.036 R15.163
G1 X56.702 Y37.864
X56.433 Y37.038
X56.427 Y37.006
X56.43 Y36.974
X56.442 Y36.944
X57.022 Y35.895
X57.048 Y35.862
X57.085 Y35.841
X57.127 Y35.834
X57.169 Y35.842
X57.205 Y35.864
X57.231 Y35.898
X57.244 Y35.938
X57.242 Y35.981
X57.23 Y36.03 Z-2.912
X57.219 Y36.077 Z-2.928
X57.208 Y36.119 Z-2.954
X57.2 Y36.155 Z-2.988
X57.193 Y36.184 Z-3.03
X57.186 Y36.212 Z-3.071
X57.178 Y36.248 Z-3.106
X57.167 Y36.291 Z-3.132
X57.156 Y36.338 Z-3.148
X57.144 Y36.387 Z-3.153
G3 X56.963 Y37.031 R8.529
G1 X56.702 Y37.837
X56.438 Y37.031
X56.432 Y36.999
X56.435 Y36.967
X56.447 Y36.937
X57.008 Y35.896
X57.035 Y35.863
X57.071 Y35.841
X57.113 Y35.833
X57.155 Y35.841
X57.192 Y35.863
X57.218 Y35.897
X57.231 Y35.937
X57.229 Y35.98
X57.217 Y36.029 Z-3.159
X57.206 Y36.076 Z-3.175
X57.196 Y36.118 Z-3.2
X57.187 Y36.155 Z-3.235
X57.18 Y36.183 Z-3.277
X57.174 Y36.211 Z-3.318
X57.165 Y36.247 Z-3.353
X57.155 Y36.29 Z-3.379
X57.144 Y36.337 Z-3.395
X57.132 Y36.386 Z-3.4
G3 X56.954 Y37.022 R8.411
G1 X56.702 Y37.802
X56.452 Y37.032
X56.45 Y37.024
X55.455 Y34.091
X55.438 Y34.041 Z-3.394
X55.422 Y33.993 Z-3.376
X55.408 Y33.951 Z-3.348
X55.396 Y33.915 Z-3.31
X55.387 Y33.888 Z-3.265
X55.381 Y33.871 Z-3.215
X55.379 Y33.866 Z-3.162
G0 Z5.
X52.369 Y32.159
Z-0.584
G1 Z-0.594 F381.
Z-2.668 F1499.
X52.364 Y32.157 Z-2.721
X52.347 Y32.152 Z-2.772
X52.32 Y32.142 Z-2.817
X52.285 Y32.13 Z-2.854
X52.242 Y32.115 Z-2.883
X52.195 Y32.098 Z-2.9
X52.145 Y32.08 Z-2.906
G3 X51.038 Y31.641 R15.163
G1 X50.271 Y31.3
X50.284 Y31.295
X50.32 Y31.281
X51.036 Y30.961
X51.076 Y30.951
X51.117 Y30.955
X51.154 Y30.973
X52.495 Y31.939
X52.524 Y31.97
X52.541 Y32.009
X52.544 Y32.051
X52.531 Y32.091
X52.505 Y32.124
X52.469 Y32.147
X52.428 Y32.155
X52.386 Y32.148
X52.338 Y32.132 Z-2.912
X52.293 Y32.116 Z-2.928
X52.252 Y32.101 Z-2.954
X52.217 Y32.089 Z-2.988
X52.189 Y32.079 Z-3.03
X52.162 Y32.069 Z-3.071
X52.127 Y32.057 Z-3.106
X52.085 Y32.043 Z-3.132
X52.04 Y32.027 Z-3.148
X51.992 Y32.01 Z-3.153
G3 X51.05 Y31.637 R12.913
G1 X50.292 Y31.301
X50.308 Y31.295
X50.343 Y31.281
X51.05 Y30.966
X51.09 Y30.956
X51.131 Y30.96
X51.168 Y30.978
X52.491 Y31.93
X52.52 Y31.96
X52.537 Y31.999
X52.54 Y32.041
X52.527 Y32.081
X52.501 Y32.115
X52.465 Y32.137
X52.424 Y32.145
X52.382 Y32.139
X52.334 Y32.122 Z-3.159
X52.289 Y32.106 Z-3.175
X52.248 Y32.091 Z-3.2
X52.212 Y32.079 Z-3.235
X52.185 Y32.069 Z-3.277
X52.158 Y32.059 Z-3.318
X52.123 Y32.047 Z-3.353
X52.081 Y32.032 Z-3.379
X52.036 Y32.016 Z-3.395
X51.988 Y31.999 Z-3.4
G3 X51.064 Y31.63 R12.676
G1 X50.436 Y31.351
X50.411 Y31.34
X50.313 Y31.302
X50.331 Y31.295
X50.366 Y31.281
X51.063 Y30.97
X51.098 Y30.957
X54.088 Y30.152
X54.139 Y30.138 Z-3.394
X54.188 Y30.125 Z-3.376
X54.232 Y30.113 Z-3.348
X54.268 Y30.103 Z-3.31
X54.295 Y30.096 Z-3.265
X54.312 Y30.091 Z-3.215
X54.318 Y30.09 Z-3.162
G0 Z5.
X41.529 Y30.44
Z-0.584
G1 Z-0.594 F381.
Z-2.668 F1499.
X41.535 Y30.442 Z-2.721
X41.552 Y30.448 Z-2.772
X41.578 Y30.457 Z-2.817
X41.614 Y30.47 Z-2.854
X41.656 Y30.485 Z-2.883
X41.704 Y30.501 Z-2.9
X41.754 Y30.519 Z-2.906
G3 X42.861 Y30.958 R15.163
G1 X43.628 Y31.299
X42.859 Y31.643
X42.818 Y31.653
X42.777 Y31.648
X42.74 Y31.63
X41.447 Y30.68
X41.418 Y30.65
X41.401 Y30.611
X41.399 Y30.569
X41.412 Y30.529
X41.438 Y30.496
X41.474 Y30.474
X41.515 Y30.465
X41.557 Y30.472
X41.604 Y30.489 Z-2.912
X41.65 Y30.505 Z-2.928
X41.691 Y30.519 Z-2.954
X41.726 Y30.531 Z-2.988
X41.754 Y30.541 Z-3.03
X41.781 Y30.551 Z-3.071
X41.816 Y30.563 Z-3.106
X41.857 Y30.577 Z-3.132
X41.903 Y30.593 Z-3.148
X41.951 Y30.61 Z-3.153
G3 X42.85 Y30.965 R12.32
G1 X43.607 Y31.298
X42.852 Y31.636
X42.812 Y31.646
X42.771 Y31.642
X42.733 Y31.624
X41.451 Y30.687
X41.422 Y30.656
X41.406 Y30.618
X41.404 Y30.576
X41.416 Y30.535
X41.442 Y30.502
X41.478 Y30.48
X41.52 Y30.472
X41.561 Y30.479
X41.609 Y30.495 Z-3.159
X41.654 Y30.511 Z-3.175
X41.696 Y30.526 Z-3.2
X41.731 Y30.538 Z-3.235
X41.758 Y30.548 Z-3.277
X41.785 Y30.558 Z-3.318
X41.821 Y30.57 Z-3.353
X41.862 Y30.585 Z-3.379
X41.907 Y30.601 Z-3.395
X41.955 Y30.618 Z-3.4
G3 X42.845 Y30.972 R12.202
G1 X43.582 Y31.3
X42.846 Y31.629
X42.811 Y31.641
X39.821 Y32.448
X39.77 Y32.461 Z-3.394
X39.721 Y32.474 Z-3.376
X39.678 Y32.486 Z-3.348
X39.641 Y32.496 Z-3.31
X39.614 Y32.503 Z-3.265
X39.597 Y32.508 Z-3.215
X39.591 Y32.51 Z-3.162
G0 Z5.
X37.85 Y35.662
Z-0.594
G1 Z-2.668 F1499.
X37.848 Y35.667 Z-2.721
X37.844 Y35.685 Z-2.772
X37.838 Y35.712 Z-2.817
X37.829 Y35.749 Z-2.854
X37.818 Y35.793 Z-2.883
X37.807 Y35.842 Z-2.9
X37.794 Y35.893 Z-2.906
G3 X37.471 Y37.039 R15.163
G1 X37.202 Y37.865
X36.935 Y37.045
X36.929 Y37.013
X36.932 Y36.981
X36.944 Y36.95
X37.519 Y35.902
X37.546 Y35.869
X37.583 Y35.848
X37.625 Y35.84
X37.667 Y35.848
X37.703 Y35.87
X37.729 Y35.904
X37.742 Y35.945
X37.739 Y35.987
X37.728 Y36.036 Z-2.912
X37.716 Y36.083 Z-2.928
X37.706 Y36.126 Z-2.954
X37.698 Y36.162 Z-2.988
X37.691 Y36.19 Z-3.03
X37.684 Y36.218 Z-3.071
X37.675 Y36.254 Z-3.106
X37.665 Y36.297 Z-3.132
X37.654 Y36.344 Z-3.148
X37.642 Y36.393 Z-3.153
G3 X37.461 Y37.038 R8.529
G1 X37.203 Y37.833
X36.943 Y37.031
X36.937 Y36.999
X36.94 Y36.965
X36.953 Y36.934
X37.577 Y35.871
X37.606 Y35.839
X37.644 Y35.818
X37.687 Y35.813
X37.729 Y35.823
X37.764 Y35.848
X37.789 Y35.883
X37.799 Y35.925
X37.793 Y35.968
X37.778 Y36.016 Z-3.159
X37.763 Y36.062 Z-3.175
X37.75 Y36.104 Z-3.2
X37.738 Y36.139 Z-3.235
X37.729 Y36.167 Z-3.277
X37.721 Y36.194 Z-3.318
X37.709 Y36.23 Z-3.353
X37.696 Y36.271 Z-3.379
X37.681 Y36.317 Z-3.395
X37.665 Y36.365 Z-3.4
X37.454 Y37.021
X37.202 Y37.803
X36.949 Y37.024
X36.941 Y36.988
X36.457 Y33.929
X36.448 Y33.877 Z-3.394
X36.441 Y33.827 Z-3.376
X36.433 Y33.782 Z-3.348
X36.428 Y33.745 Z-3.31
X36.423 Y33.717 Z-3.265
X36.42 Y33.7 Z-3.215
X36.419 Y33.694 Z-3.162
G0 Z5.
X36.558 Y46.437
Z-0.594
G1 Z-2.668 F1499.
X36.559 Y46.431 Z-2.721
X36.563 Y46.414 Z-2.772
X36.57 Y46.386 Z-2.817
X36.578 Y46.35 Z-2.854
X36.589 Y46.306 Z-2.883
X36.601 Y46.257 Z-2.9
X36.613 Y46.205 Z-2.906
G3 X36.935 Y45.059 R15.163
G1 X37.201 Y44.241
X37.468 Y45.06
X37.473 Y45.092
X37.47 Y45.124
X37.459 Y45.154
X36.885 Y46.2
X36.858 Y46.233
X36.821 Y46.254
X36.78 Y46.262
X36.738 Y46.254
X36.701 Y46.231
X36.675 Y46.198
X36.662 Y46.157
X36.665 Y46.115
X36.677 Y46.066 Z-2.912
X36.688 Y46.019 Z-2.928
X36.698 Y45.976 Z-2.954
X36.707 Y45.94 Z-2.988
X36.713 Y45.912 Z-3.03
X36.72 Y45.884 Z-3.071
X36.729 Y45.847 Z-3.106
X36.739 Y45.805 Z-3.132
X36.75 Y45.758 Z-3.148
X36.762 Y45.709 Z-3.153
G3 X36.943 Y45.064 R8.529
G1 X37.202 Y44.267
X37.464 Y45.066
X37.47 Y45.1
X37.466 Y45.133
X37.453 Y45.165
X36.804 Y46.246
X36.775 Y46.278
X36.737 Y46.298
X36.695 Y46.303
X36.653 Y46.293
X36.618 Y46.269
X36.593 Y46.234
X36.583 Y46.192
X36.588 Y46.149
X36.602 Y46.101 Z-3.159
X36.617 Y46.055 Z-3.175
X36.629 Y46.013 Z-3.2
X36.64 Y45.978 Z-3.235
X36.649 Y45.95 Z-3.277
X36.657 Y45.922 Z-3.318
X36.668 Y45.887 Z-3.353
X36.681 Y45.845 Z-3.379
X36.695 Y45.799 Z-3.395
X36.71 Y45.75 Z-3.4
G3 X36.943 Y45.083 R9.003
G1 X36.961 Y45.038
X36.974 Y45.003
X37.203 Y44.293
X37.461 Y45.085
X37.47 Y45.122
X37.957 Y48.18
X37.966 Y48.232 Z-3.394
X37.974 Y48.282 Z-3.376
X37.981 Y48.327 Z-3.348
X37.987 Y48.364 Z-3.31
X37.991 Y48.392 Z-3.265
X37.994 Y48.409 Z-3.215
X37.995 Y48.415 Z-3.162
G0 Z5.
X32.871 Y51.663
Z-0.584
G1 Z-0.594 F381.
Z-2.668 F1499.
X32.865 Y51.661 Z-2.721
X32.849 Y51.655 Z-2.772
X32.822 Y51.646 Z-2.817
X32.786 Y51.633 Z-2.854
X32.744 Y51.618 Z-2.883
X32.696 Y51.601 Z-2.9
X32.646 Y51.584 Z-2.906
G3 X31.54 Y51.145 R15.163
G1 X30.763 Y50.801
X30.963 Y50.717
X30.975 Y50.711
X31.536 Y50.461
X31.576 Y50.451
X31.617 Y50.455
X31.654 Y50.473
X33.013 Y51.451
X33.042 Y51.482
X33.059 Y51.521
X33.062 Y51.563
X33.049 Y51.603
X33.023 Y51.637
X32.987 Y51.659
X32.945 Y51.667
X32.904 Y51.66
X32.856 Y51.643 Z-2.912
X32.811 Y51.627 Z-2.928
X32.769 Y51.613 Z-2.954
X32.734 Y51.6 Z-2.988
X32.707 Y51.591 Z-3.03
X32.68 Y51.581 Z-3.071
X32.645 Y51.568 Z-3.106
X32.603 Y51.554 Z-3.132
X32.558 Y51.538 Z-3.148
X32.51 Y51.521 Z-3.153
G3 X31.551 Y51.138 R13.15
G1 X30.794 Y50.8
X31.55 Y50.464
X31.59 Y50.454
X31.63 Y50.458
X31.668 Y50.476
X33.023 Y51.451
X33.053 Y51.481
X33.07 Y51.52
X33.072 Y51.562
X33.059 Y51.603
X33.033 Y51.636
X32.997 Y51.658
X32.956 Y51.666
X32.914 Y51.66
X32.866 Y51.643 Z-3.159
X32.821 Y51.627 Z-3.175
X32.78 Y51.612 Z-3.2
X32.745 Y51.599 Z-3.235
X32.717 Y51.59 Z-3.277
X32.69 Y51.58 Z-3.318
X32.655 Y51.567 Z-3.353
X32.614 Y51.553 Z-3.379
X32.568 Y51.537 Z-3.395
X32.521 Y51.52 Z-3.4
G3 X31.563 Y51.135 R13.15
G1 X30.813 Y50.8
X31.564 Y50.466
X31.599 Y50.453
X34.591 Y49.652
X34.642 Y49.638 Z-3.394
X34.69 Y49.625 Z-3.376
X34.734 Y49.614 Z-3.348
X34.77 Y49.604 Z-3.31
X34.798 Y49.596 Z-3.265
X34.815 Y49.592 Z-3.215
X34.821 Y49.59 Z-3.162
G0 Z5.
X22.029 Y49.936
Z-0.584
G1 Z-0.594 F381.
Z-2.668 F1499.
X22.034 Y49.938 Z-2.721
X22.051 Y49.944 Z-2.772
X22.078 Y49.953 Z-2.817
X22.113 Y49.966 Z-2.854
X22.156 Y49.981 Z-2.883
X22.203 Y49.998 Z-2.9
X22.253 Y50.015 Z-2.906
G3 X23.359 Y50.457 R15.163
G1 X24.135 Y50.802
X23.619 Y51.025
X23.611 Y51.029
X23.358 Y51.142
X23.318 Y51.152
X23.277 Y51.148
X23.239 Y51.13
X21.912 Y50.163
X21.883 Y50.132
X21.866 Y50.094
X21.864 Y50.051
X21.877 Y50.011
X21.903 Y49.978
X21.939 Y49.956
X21.98 Y49.948
X22.022 Y49.954
X22.069 Y49.971 Z-2.912
X22.115 Y49.987 Z-2.928
X22.156 Y50.002 Z-2.954
X22.191 Y50.014 Z-2.988
X22.219 Y50.024 Z-3.03
X22.246 Y50.033 Z-3.071
X22.281 Y50.046 Z-3.106
X22.322 Y50.06 Z-3.132
X22.368 Y50.076 Z-3.148
X22.415 Y50.093 Z-3.153
G3 X23.349 Y50.463 R12.794
G1 X24.114 Y50.802
X23.561 Y51.041
X23.553 Y51.045
X23.348 Y51.136
X23.308 Y51.147
X23.267 Y51.142
X23.23 Y51.124
X21.926 Y50.178
X21.896 Y50.148
X21.88 Y50.109
X21.878 Y50.067
X21.89 Y50.026
X21.916 Y49.993
X21.952 Y49.971
X21.993 Y49.963
X22.035 Y49.969
X22.083 Y49.986 Z-3.159
X22.128 Y50.002 Z-3.175
X22.169 Y50.017 Z-3.2
X22.205 Y50.029 Z-3.235
X22.232 Y50.039 Z-3.277
X22.259 Y50.048 Z-3.318
X22.295 Y50.061 Z-3.353
X22.336 Y50.075 Z-3.379
X22.381 Y50.091 Z-3.395
X22.429 Y50.108 Z-3.4
G3 X23.337 Y50.467 R12.439
G1 X24.091 Y50.8
X23.956 Y50.855
X23.938 Y50.863
X23.335 Y51.134
X23.3 Y51.147
X20.311 Y51.958
X20.26 Y51.972 Z-3.394
X20.211 Y51.985 Z-3.376
X20.168 Y51.997 Z-3.348
X20.131 Y52.007 Z-3.31
X20.104 Y52.014 Z-3.265
X20.087 Y52.019 Z-3.215
X20.081 Y52.02 Z-3.162
G0 Z5.
X18.151 Y55.757
Z-0.589
G1 Z-0.594 F381.
Z-2.668 F1499.
X18.149 Y55.763 Z-2.721
X18.145 Y55.78 Z-2.772
X18.138 Y55.807 Z-2.817
X18.13 Y55.844 Z-2.854
X18.119 Y55.888 Z-2.883
X18.107 Y55.937 Z-2.9
X18.095 Y55.988 Z-2.906
G3 X17.772 Y57.134 R15.163
G1 X17.451 Y58.121
X17.447 Y58.133
X17.383 Y58.344
X17.364 Y58.431
X17.336 Y58.624
X17.333 Y58.647
X17.147 Y60.432
X17.144 Y60.505
X17.146 Y60.65
X17.149 Y60.701
X17.348 Y62.582
X17.356 Y62.631
X17.367 Y62.679
X17.444 Y62.955
X17.451 Y62.98
X17.77 Y63.959
X17.776 Y63.999
X17.768 Y64.038
X17.747 Y64.073
X17.716 Y64.099
X17.679 Y64.113
X16.669 Y64.3
X16.628
X16.588 Y64.286
X16.556 Y64.259
X16.536 Y64.224
X16.528 Y64.183
Y56.906
X16.534 Y56.871
X16.549 Y56.839
X16.573 Y56.813
X17.916 Y55.736
X17.953 Y55.716
X17.994 Y55.71
X18.035 Y55.719
X18.071 Y55.741
X18.096 Y55.774
X18.109 Y55.815
X18.106 Y55.857
X18.094 Y55.906 Z-2.912
X18.083 Y55.953 Z-2.928
X18.073 Y55.995 Z-2.954
X18.064 Y56.031 Z-2.988
X18.057 Y56.06 Z-3.03
X18.051 Y56.088 Z-3.071
X18.042 Y56.124 Z-3.106
X18.032 Y56.166 Z-3.132
X18.02 Y56.213 Z-3.148
X18.009 Y56.262 Z-3.153
G3 X17.769 Y57.113 R11.254
G1 X17.451 Y58.091
X17.447 Y58.105
X17.375 Y58.347
X17.362 Y58.397
X17.354 Y58.447
X17.264 Y59.219
X17.263 Y59.227
X17.138 Y60.433
X17.135 Y60.506
X17.138 Y60.65
X17.141 Y60.701
X17.34 Y62.582
X17.347 Y62.631
X17.358 Y62.679
X17.444 Y62.986
X17.451 Y63.011
X17.766 Y63.974
X17.772 Y64.014
X17.764 Y64.054
X17.743 Y64.088
X17.712 Y64.114
X17.675 Y64.128
X16.678 Y64.317
X16.637 Y64.318
X16.597 Y64.304
X16.565 Y64.277
X16.544 Y64.241
X16.537 Y64.2
Y56.913
X16.542 Y56.879
X16.557 Y56.847
X16.581 Y56.821
X17.906 Y55.739
X17.943 Y55.719
X17.984 Y55.712
X18.026 Y55.721
X18.061 Y55.743
X18.087 Y55.777
X18.099 Y55.817
X18.097 Y55.859
X18.085 Y55.908 Z-3.159
X18.074 Y55.955 Z-3.175
X18.064 Y55.998 Z-3.2
X18.055 Y56.034 Z-3.235
X18.048 Y56.062 Z-3.277
X18.041 Y56.09 Z-3.318
X18.033 Y56.127 Z-3.353
X18.022 Y56.169 Z-3.379
X18.011 Y56.216 Z-3.395
X17.999 Y56.265 Z-3.4
G3 X17.767 Y57.089 R10.899
G1 X17.451 Y58.062
X17.385 Y58.267
X17.372 Y58.315
X17.363 Y58.364
X17.297 Y58.817
X17.294 Y58.841
X17.13 Y60.433
X17.127 Y60.508
X17.13 Y60.653
X17.134 Y60.701
X17.332 Y62.582
X17.339 Y62.631
X17.35 Y62.679
X17.444 Y63.015
X17.451 Y63.041
X17.763 Y63.994
X17.769 Y64.034
X17.761 Y64.073
X17.741 Y64.108
X17.71 Y64.134
X17.672 Y64.148
X16.686 Y64.335
X16.645 Y64.336
X16.606 Y64.322
X16.573 Y64.295
X16.552 Y64.259
X16.545 Y64.218
Y56.856
X16.548 Y56.819
X17.033 Y53.76
X17.041 Y53.708 Z-3.394
X17.049 Y53.658 Z-3.376
X17.056 Y53.614 Z-3.348
X17.062 Y53.576 Z-3.31
X17.066 Y53.548 Z-3.265
X17.069 Y53.531 Z-3.215
X17.07 Y53.525 Z-3.162
G0 Z5.
X18.155 Y36.261
Z-0.589
G1 Z-0.594 F381.
Z-2.668 F1499.
X18.154 Y36.267 Z-2.721
X18.15 Y36.284 Z-2.772
X18.143 Y36.312 Z-2.817
X18.134 Y36.349 Z-2.854
X18.123 Y36.392 Z-2.883
X18.112 Y36.441 Z-2.9
X18.099 Y36.493 Z-2.906
G3 X17.774 Y37.638 R15.163
G1 X17.451 Y38.624
X17.448 Y38.635
X17.38 Y38.858
X17.366 Y38.914
X17.357 Y38.97
X17.145 Y40.996
X17.142 Y41.058
X17.145 Y41.12
X17.351 Y43.097
X17.359 Y43.153
X17.373 Y43.209
X17.506 Y43.643
X17.509 Y43.654
X17.77 Y44.455
X17.776 Y44.495
X17.768 Y44.534
X17.747 Y44.569
X17.716 Y44.595
X17.678 Y44.609
X16.669 Y44.797
X16.628
X16.588 Y44.783
X16.556 Y44.756
X16.536 Y44.72
X16.528 Y44.679
Y37.414
X16.534 Y37.379
X16.549 Y37.347
X16.573 Y37.321
X17.921 Y36.238
X17.958 Y36.217
X18. Y36.211
X18.041 Y36.22
X18.076 Y36.243
X18.102 Y36.276
X18.114 Y36.316
X18.111 Y36.358
X18.1 Y36.407 Z-2.912
X18.088 Y36.454 Z-2.928
X18.078 Y36.497 Z-2.954
X18.069 Y36.533 Z-2.988
X18.062 Y36.561 Z-3.03
X18.056 Y36.589 Z-3.071
X18.047 Y36.626 Z-3.106
X18.037 Y36.668 Z-3.132
X18.025 Y36.715 Z-3.148
X18.013 Y36.764 Z-3.153
G3 X17.769 Y37.623 R11.373
G1 X17.451 Y38.596
X17.448 Y38.606
X17.371 Y38.858
X17.357 Y38.914
X17.348 Y38.97
X17.136 Y40.996
X17.133 Y41.058
X17.136 Y41.12
X17.342 Y43.097
X17.351 Y43.153
X17.365 Y43.208
X17.496 Y43.642
X17.5 Y43.655
X17.768 Y44.471
X17.774 Y44.511
X17.766 Y44.551
X17.745 Y44.586
X17.714 Y44.612
X17.675 Y44.626
X16.676 Y44.793
X16.635
X16.596 Y44.779
X16.565 Y44.752
X16.544 Y44.716
X16.537 Y44.676
Y37.4
X16.542 Y37.364
X16.558 Y37.332
X16.582 Y37.306
X17.904 Y36.254
X17.941 Y36.234
X17.983 Y36.228
X18.024 Y36.237
X18.059 Y36.259
X18.085 Y36.293
X18.097 Y36.333
X18.094 Y36.375
X18.083 Y36.424 Z-3.159
X18.071 Y36.471 Z-3.175
X18.061 Y36.513 Z-3.2
X18.052 Y36.549 Z-3.235
X18.046 Y36.578 Z-3.277
X18.039 Y36.606 Z-3.318
X18.03 Y36.642 Z-3.353
X18.02 Y36.685 Z-3.379
X18.009 Y36.732 Z-3.395
X17.997 Y36.781 Z-3.4
G3 X17.765 Y37.604 R10.899
G1 X17.451 Y38.57
X17.448 Y38.579
X17.363 Y38.858
X17.348 Y38.914
X17.34 Y38.971
X17.128 Y40.996
X17.125 Y41.058
X17.128 Y41.121
X17.343 Y43.146
X17.353 Y43.208
X17.369 Y43.268
X17.772 Y44.506
X17.778 Y44.545
X17.771 Y44.585
X17.75 Y44.619
X17.719 Y44.645
X17.681 Y44.659
X16.686 Y44.848
X16.645
X16.606 Y44.835
X16.573 Y44.808
X16.552 Y44.772
X16.545 Y44.731
Y37.38
X16.548 Y37.343
X17.033 Y34.284
X17.041 Y34.231 Z-3.394
X17.049 Y34.182 Z-3.376
X17.056 Y34.137 Z-3.348
X17.062 Y34.1 Z-3.31
X17.066 Y34.072 Z-3.265
X17.069 Y34.054 Z-3.215
X17.07 Y34.049 Z-3.162
G0 Z5.
X22.028 Y30.437
Z-0.584
G1 Z-0.594 F381.
Z-2.668 F1499.
X22.034 Y30.439 Z-2.721
X22.051 Y30.445 Z-2.772
X22.077 Y30.455 Z-2.817
X22.113 Y30.467 Z-2.854
X22.155 Y30.482 Z-2.883
X22.203 Y30.499 Z-2.9
X22.253 Y30.517 Z-2.906
G3 X23.358 Y30.959 R15.163
G1 X24.08 Y31.281
X24.118 Y31.296
X24.133 Y31.302
X23.358 Y31.646
X23.317 Y31.656
X23.276 Y31.651
X23.239 Y31.633
X21.908 Y30.658
X21.879 Y30.628
X21.863 Y30.589
X21.861 Y30.547
X21.873 Y30.507
X21.899 Y30.473
X21.935 Y30.451
X21.977 Y30.443
X22.018 Y30.45
X22.066 Y30.467 Z-2.912
X22.111 Y30.483 Z-2.928
X22.153 Y30.498 Z-2.954
X22.188 Y30.51 Z-2.988
X22.215 Y30.52 Z-3.03
X22.242 Y30.53 Z-3.071
X22.278 Y30.542 Z-3.106
X22.319 Y30.557 Z-3.132
X22.364 Y30.573 Z-3.148
X22.412 Y30.59 Z-3.153
G3 X23.353 Y30.967 R12.913
G1 X24.056 Y31.281
X24.092 Y31.295
X24.105 Y31.3
X23.35 Y31.638
X23.31 Y31.648
X23.269 Y31.644
X23.232 Y31.626
X21.92 Y30.675
X21.891 Y30.645
X21.874 Y30.606
X21.872 Y30.564
X21.885 Y30.523
X21.911 Y30.49
X21.947 Y30.468
X21.988 Y30.46
X22.03 Y30.467
X22.077 Y30.483 Z-3.159
X22.123 Y30.499 Z-3.175
X22.164 Y30.514 Z-3.2
X22.199 Y30.526 Z-3.235
X22.226 Y30.536 Z-3.277
X22.254 Y30.546 Z-3.318
X22.289 Y30.558 Z-3.353
X22.33 Y30.573 Z-3.379
X22.375 Y30.589 Z-3.395
X22.423 Y30.606 Z-3.4
G3 X23.339 Y30.971 R12.557
G1 X24.034 Y31.281
X24.075 Y31.297
X24.083 Y31.3
X23.338 Y31.633
X23.303 Y31.646
X20.312 Y32.452
X20.261 Y32.466 Z-3.394
X20.213 Y32.479 Z-3.376
X20.169 Y32.491 Z-3.348
X20.133 Y32.501 Z-3.31
X20.105 Y32.508 Z-3.265
X20.088 Y32.513 Z-3.215
X20.082 Y32.514 Z-3.162
G0 Z5.
X32.876 Y32.165
Z-0.584
G1 Z-0.594 F381.
Z-2.668 F1499.
X32.871 Y32.163 Z-2.721
X32.854 Y32.158 Z-2.772
X32.827 Y32.148 Z-2.817
X32.792 Y32.136 Z-2.854
X32.749 Y32.12 Z-2.883
X32.702 Y32.104 Z-2.9
X32.652 Y32.086 Z-2.906
G3 X31.546 Y31.645 R15.163
G1 X30.773 Y31.301
X31.547 Y30.955
X31.587 Y30.944
X31.628 Y30.949
X31.666 Y30.967
X33.001 Y31.942
X33.03 Y31.973
X33.046 Y32.012
X33.048 Y32.054
X33.036 Y32.094
X33.01 Y32.127
X32.974 Y32.149
X32.932 Y32.157
X32.891 Y32.151
X32.843 Y32.134 Z-2.912
X32.798 Y32.118 Z-2.928
X32.756 Y32.103 Z-2.954
X32.721 Y32.091 Z-2.988
X32.694 Y32.081 Z-3.03
X32.667 Y32.072 Z-3.071
X32.631 Y32.059 Z-3.106
X32.59 Y32.045 Z-3.132
X32.545 Y32.029 Z-3.148
X32.497 Y32.012 Z-3.153
G3 X31.555 Y31.638 R12.913
G1 X30.795 Y31.302
X31.554 Y30.962
X31.594 Y30.951
X31.635 Y30.956
X31.673 Y30.974
X32.997 Y31.931
X33.026 Y31.962
X33.043 Y32.001
X33.046 Y32.043
X33.033 Y32.083
X33.007 Y32.116
X32.971 Y32.139
X32.93 Y32.147
X32.888 Y32.14
X32.84 Y32.123 Z-3.159
X32.795 Y32.107 Z-3.175
X32.754 Y32.093 Z-3.2
X32.718 Y32.081 Z-3.235
X32.691 Y32.071 Z-3.277
X32.664 Y32.061 Z-3.318
X32.629 Y32.049 Z-3.353
X32.587 Y32.035 Z-3.379
X32.542 Y32.019 Z-3.395
X32.494 Y32.002 Z-3.4
G3 X31.569 Y31.635 R12.676
G1 X30.816 Y31.302
X31.565 Y30.966
X31.6 Y30.953
X34.589 Y30.143
X34.641 Y30.129 Z-3.394
X34.689 Y30.116 Z-3.376
X34.733 Y30.104 Z-3.348
X34.769 Y30.094 Z-3.31
X34.796 Y30.087 Z-3.265
X34.813 Y30.082 Z-3.215
X34.819 Y30.08 Z-3.162
G0 Z5.
X36.488 Y26.916
Z-0.594
G1 Z-2.668 F1499.
X36.489 Y26.911 Z-2.721
X36.494 Y26.894 Z-2.772
X36.502 Y26.866 Z-2.817
X36.513 Y26.83 Z-2.854
X36.526 Y26.787 Z-2.883
X36.54 Y26.739 Z-2.9
X36.555 Y26.688 Z-2.906
G3 X36.934 Y25.559 R15.163
G1 X36.938 Y25.547
X36.948 Y25.518
X37.199 Y24.74
X37.468 Y25.561
X37.474 Y25.593
X37.471 Y25.625
X37.459 Y25.655
X36.88 Y26.703
X36.854 Y26.736
X36.817 Y26.757
X36.775 Y26.765
X36.733 Y26.757
X36.697 Y26.734
X36.671 Y26.701
X36.658 Y26.66
X36.66 Y26.618
X36.672 Y26.569 Z-2.912
X36.683 Y26.522 Z-2.928
X36.693 Y26.479 Z-2.954
X36.702 Y26.443 Z-2.988
X36.709 Y26.415 Z-3.03
X36.716 Y26.387 Z-3.071
X36.724 Y26.35 Z-3.106
X36.734 Y26.308 Z-3.132
X36.746 Y26.261 Z-3.148
X36.757 Y26.212 Z-3.153
G3 X36.939 Y25.567 R8.529
G1 X37.198 Y24.766
X37.461 Y25.571
X37.467 Y25.602
X37.464 Y25.634
X37.453 Y25.664
X36.892 Y26.701
X36.866 Y26.735
X36.829 Y26.756
X36.787 Y26.764
X36.745 Y26.756
X36.709 Y26.734
X36.682 Y26.7
X36.67 Y26.659
X36.672 Y26.617
X36.684 Y26.568 Z-3.159
X36.695 Y26.521 Z-3.175
X36.705 Y26.478 Z-3.2
X36.714 Y26.442 Z-3.235
X36.721 Y26.414 Z-3.277
X36.727 Y26.386 Z-3.318
X36.736 Y26.349 Z-3.353
X36.746 Y26.307 Z-3.379
X36.758 Y26.26 Z-3.395
X36.769 Y26.211 Z-3.4
G3 X36.949 Y25.575 R8.411
G1 X37.2 Y24.802
X37.452 Y25.576
X37.461 Y25.613
X37.948 Y28.671
X37.956 Y28.724 Z-3.394
X37.964 Y28.773 Z-3.376
X37.971 Y28.818 Z-3.348
X37.977 Y28.855 Z-3.31
X37.982 Y28.883 Z-3.265
X37.984 Y28.901 Z-3.215
X37.985 Y28.906 Z-3.162
G0 Z5.
X37.872 Y16.176
Z-0.594
G1 Z-2.668 F1499.
X37.87 Y16.182 Z-2.721
X37.866 Y16.199 Z-2.772
X37.859 Y16.226 Z-2.817
X37.849 Y16.263 Z-2.854
X37.838 Y16.306 Z-2.883
X37.825 Y16.355 Z-2.9
X37.812 Y16.406 Z-2.906
G3 X37.469 Y17.546 R15.163
G1 X37.378 Y17.811
X37.374 Y17.821
X37.2 Y18.36
X36.934 Y17.547
X36.928 Y17.515
X36.931 Y17.482
X36.943 Y17.452
X37.536 Y16.395
X37.563 Y16.362
X37.6 Y16.341
X37.642 Y16.334
X37.683 Y16.342
X37.719 Y16.365
X37.745 Y16.398
X37.758 Y16.439
X37.755 Y16.482
X37.743 Y16.531 Z-2.912
X37.731 Y16.577 Z-2.928
X37.72 Y16.62 Z-2.954
X37.711 Y16.656 Z-2.988
X37.704 Y16.684 Z-3.03
X37.697 Y16.712 Z-3.071
X37.688 Y16.748 Z-3.106
X37.678 Y16.791 Z-3.132
X37.666 Y16.838 Z-3.148
X37.654 Y16.887 Z-3.153
G3 X37.463 Y17.538 R8.648
G1 X37.241 Y18.201
X37.239 Y18.208
X37.198 Y18.334
X36.939 Y17.537
X36.934 Y17.505
X36.937 Y17.473
X36.948 Y17.442
X37.531 Y16.388
X37.558 Y16.355
X37.595 Y16.333
X37.637 Y16.326
X37.679 Y16.334
X37.715 Y16.357
X37.741 Y16.391
X37.753 Y16.432
X37.75 Y16.474
X37.738 Y16.523 Z-3.159
X37.726 Y16.57 Z-3.175
X37.716 Y16.612 Z-3.2
X37.707 Y16.648 Z-3.235
X37.7 Y16.677 Z-3.277
X37.693 Y16.705 Z-3.318
X37.684 Y16.741 Z-3.353
X37.673 Y16.783 Z-3.379
X37.661 Y16.83 Z-3.395
X37.649 Y16.879 Z-3.4
G3 X37.463 Y17.513 R8.411
G1 X37.232 Y18.201
X37.23 Y18.208
X37.199 Y18.304
X36.942 Y17.517
X36.933 Y17.48
X36.442 Y14.422
X36.434 Y14.37 Z-3.394
X36.426 Y14.32 Z-3.376
X36.419 Y14.276 Z-3.348
X36.413 Y14.239 Z-3.31
X36.408 Y14.211 Z-3.265
X36.406 Y14.193 Z-3.215
X36.405 Y14.187 Z-3.162
G0 Z5.
X39.336 Y12.334
Z-0.583
G1 Z-0.594 F381.
Z-2.668 F1499.
X39.342 Y12.333 Z-2.721
X39.359 Y12.332 Z-2.772
X39.388 Y12.33 Z-2.817
X39.425 Y12.327 Z-2.854
X39.47 Y12.323 Z-2.883
X39.52 Y12.319 Z-2.9
X39.573 Y12.315 Z-2.906
G3 X40.763 Y12.268 R15.163
G1 X42.579
X41.857 Y12.591
X41.802 Y12.62
X41.75 Y12.653
X41.055 Y13.158
X41.02 Y13.175
X40.982 Y13.181
X40.944 Y13.173
X39.308 Y12.579
X39.273 Y12.559
X39.247 Y12.529
X39.232 Y12.492
X39.231 Y12.451
X39.243 Y12.413
X39.267 Y12.381
X39.301 Y12.359
X39.34 Y12.349
X39.39 Y12.345 Z-2.912
X39.438 Y12.341 Z-2.928
X39.482 Y12.338 Z-2.954
X39.519 Y12.335 Z-2.988
X39.548 Y12.332 Z-3.03
X39.577 Y12.33 Z-3.071
X39.614 Y12.327 Z-3.106
X39.657 Y12.324 Z-3.132
X39.705 Y12.32 Z-3.148
X39.756 Y12.316 Z-3.153
G3 X40.75 Y12.277 R12.676
G1 X42.538
X41.857 Y12.581
X41.802 Y12.61
X41.75 Y12.643
X41.046 Y13.154
X41.012 Y13.171
X40.974 Y13.176
X40.936 Y13.17
X39.304 Y12.587
X39.269 Y12.568
X39.243 Y12.537
X39.228 Y12.5
X39.226 Y12.46
X39.238 Y12.421
X39.262 Y12.389
X39.296 Y12.367
X39.335 Y12.357
X39.385 Y12.353 Z-3.159
X39.433 Y12.349 Z-3.175
X39.477 Y12.345 Z-3.2
X39.514 Y12.343 Z-3.235
X39.543 Y12.34 Z-3.277
X39.572 Y12.338 Z-3.318
X39.609 Y12.335 Z-3.353
X39.652 Y12.332 Z-3.379
X39.701 Y12.328 Z-3.395
X39.751 Y12.324 Z-3.4
G3 X40.736 Y12.285 R12.557
G1 X42.501
X41.857 Y12.572
X41.803 Y12.6
X41.751 Y12.633
X41.029 Y13.154
X40.997 Y13.173
X38.232 Y14.57
X38.185 Y14.594 Z-3.394
X38.14 Y14.616 Z-3.376
X38.1 Y14.637 Z-3.348
X38.066 Y14.654 Z-3.31
X38.041 Y14.666 Z-3.265
X38.025 Y14.674 Z-3.215
X38.02 Y14.677 Z-3.162
G0 Z5.
X34.538 Y13.938
Z-0.584
G1 Z-0.594 F381.
Z-2.668 F1499.
X34.533 Y13.935 Z-2.721
X34.518 Y13.926 Z-2.772
X34.493 Y13.911 Z-2.817
X34.461 Y13.891 Z-2.854
X34.423 Y13.868 Z-2.883
X34.38 Y13.841 Z-2.9
X34.335 Y13.814 Z-2.906
G3 X33.344 Y13.153 R15.163
G1 X32.669 Y12.664
X32.617 Y12.631
X32.563 Y12.603
X31.817 Y12.268
X33.641
X33.68 Y12.275
X33.714 Y12.294
X33.741 Y12.322
X34.649 Y13.719
X34.665 Y13.756
X34.667 Y13.796
X34.657 Y13.834
X34.634 Y13.867
X34.602 Y13.89
X34.564 Y13.902
X34.524 Y13.9
X34.487 Y13.886
X34.444 Y13.859 Z-2.912
X34.403 Y13.834 Z-2.928
X34.365 Y13.811 Z-2.954
X34.334 Y13.792 Z-2.988
X34.309 Y13.777 Z-3.03
X34.284 Y13.762 Z-3.071
X34.252 Y13.742 Z-3.106
X34.215 Y13.719 Z-3.132
X34.174 Y13.694 Z-3.148
X34.131 Y13.668 Z-3.153
G3 X33.357 Y13.152 R11.846
G1 X32.671 Y12.655
X32.619 Y12.622
X32.565 Y12.594
X31.857 Y12.277
X33.65
X33.688 Y12.283
X33.723 Y12.302
X33.749 Y12.331
X34.658 Y13.716
X34.674 Y13.752
X34.677 Y13.792
X34.667 Y13.831
X34.644 Y13.864
X34.612 Y13.887
X34.573 Y13.899
X34.533 Y13.897
X34.496 Y13.882
X34.453 Y13.856 Z-3.159
X34.412 Y13.831 Z-3.175
X34.375 Y13.808 Z-3.2
X34.343 Y13.789 Z-3.235
X34.318 Y13.774 Z-3.277
X34.293 Y13.759 Z-3.318
X34.262 Y13.739 Z-3.353
X34.224 Y13.716 Z-3.379
X34.183 Y13.691 Z-3.395
X34.14 Y13.665 Z-3.4
G3 X33.374 Y13.154 R11.728
G1 X32.671 Y12.646
X32.62 Y12.612
X32.565 Y12.584
X31.897 Y12.285
X33.668
X33.705 Y12.288
X36.764 Y12.773
X36.816 Y12.781 Z-3.394
X36.866 Y12.789 Z-3.376
X36.911 Y12.796 Z-3.348
X36.948 Y12.802 Z-3.31
X36.976 Y12.806 Z-3.265
X36.993 Y12.809 Z-3.215
X36.999 Y12.81 Z-3.162
G0 Z5.
X16.594 Y26.619
Z-0.583
G1 Z-0.594 F381.
Z-2.668 F1499.
X16.593 Y26.613 Z-2.721
X16.592 Y26.596 Z-2.772
X16.59 Y26.568 Z-2.817
X16.587 Y26.53 Z-2.854
X16.583 Y26.485 Z-2.883
X16.579 Y26.435 Z-2.9
X16.575 Y26.382 Z-2.906
G3 X16.528 Y25.192 R15.163
G1 Y16.303
X20.563 Y12.268
X23.08
X22.35 Y12.596
X22.295 Y12.624
X22.244 Y12.657
X20.625 Y13.83
X20.581 Y13.865
X20.54 Y13.904
X20.281 Y14.179
X20.272 Y14.189
X19.188 Y15.393
X19.144 Y15.448
X19.072 Y15.55
X19.043 Y15.596
X18.075 Y17.273
X18.048 Y17.326
X18.026 Y17.381
X17.75 Y18.201
X17.748 Y18.207
X17.451 Y19.121
X17.392 Y19.308
X17.378 Y19.359
X17.369 Y19.411
X17.311 Y19.857
X17.31 Y19.873
X17.146 Y21.465
X17.143 Y21.552
X17.15 Y21.696
X17.152 Y21.733
X17.346 Y23.565
X17.359 Y23.644
X17.407 Y23.837
X17.419 Y23.88
X17.772 Y24.966
X17.777 Y24.998
X17.774 Y25.032
X17.761 Y25.062
X16.83 Y26.657
X16.802 Y26.689
X16.764 Y26.71
X16.722 Y26.716
X16.68 Y26.706
X16.644 Y26.682
X16.619 Y26.647
X16.608 Y26.606
X16.604 Y26.556 Z-2.912
X16.601 Y26.508 Z-2.928
X16.597 Y26.464 Z-2.954
X16.594 Y26.427 Z-2.988
X16.592 Y26.398 Z-3.03
X16.59 Y26.369 Z-3.071
X16.587 Y26.332 Z-3.106
X16.583 Y26.288 Z-3.132
X16.58 Y26.24 Z-3.148
X16.576 Y26.19 Z-3.153
G3 X16.537 Y25.205 R12.557
G1 Y16.307
X20.567 Y12.277
X23.036
X22.348 Y12.587
X22.298 Y12.612
X22.25 Y12.643
X21.902 Y12.888
X21.893 Y12.894
X20.618 Y13.824
X20.576 Y13.857
X20.537 Y13.895
X20.282 Y14.164
X20.272 Y14.175
X19.182 Y15.386
X19.137 Y15.443
X19.071 Y15.537
X19.043 Y15.581
X18.066 Y17.273
X18.039 Y17.326
X18.017 Y17.38
X17.74 Y18.2
X17.738 Y18.207
X17.451 Y19.091
X17.449 Y19.096
X17.385 Y19.301
X17.372 Y19.351
X17.363 Y19.401
X17.302 Y19.855
X17.3 Y19.872
X17.139 Y21.415
X17.136 Y21.49
X17.14 Y21.683
X17.143 Y21.733
X17.337 Y23.565
X17.35 Y23.641
X17.396 Y23.834
X17.409 Y23.88
X17.767 Y24.981
X17.773 Y25.014
X17.769 Y25.047
X17.757 Y25.078
X16.837 Y26.656
X16.81 Y26.688
X16.772 Y26.709
X16.729 Y26.715
X16.688 Y26.705
X16.652 Y26.681
X16.627 Y26.647
X16.616 Y26.605
X16.612 Y26.555 Z-3.159
X16.608 Y26.507 Z-3.175
X16.605 Y26.463 Z-3.2
X16.602 Y26.426 Z-3.235
X16.6 Y26.397 Z-3.277
X16.597 Y26.368 Z-3.318
X16.594 Y26.331 Z-3.353
X16.591 Y26.287 Z-3.379
X16.587 Y26.239 Z-3.395
X16.583 Y26.189 Z-3.4
G3 X16.545 Y25.222 R12.32
G1 Y16.31
X20.575 Y12.285
X22.999
X22.349 Y12.577
X22.299 Y12.603
X22.251 Y12.633
X21.888 Y12.887
X21.878 Y12.894
X20.614 Y13.817
X20.572 Y13.85
X20.534 Y13.887
X20.284 Y14.149
X20.272 Y14.162
X19.177 Y15.379
X19.145 Y15.417
X19.117 Y15.458
X18.927 Y15.756
X18.914 Y15.778
X18.079 Y17.225
X18.048 Y17.287
X18.007 Y17.384
X17.988 Y17.432
X17.605 Y18.589
X17.451 Y19.061
X17.449 Y19.068
X17.378 Y19.295
X17.365 Y19.343
X17.356 Y19.392
X17.293 Y19.853
X17.291 Y19.872
X17.13 Y21.416
X17.127 Y21.489
X17.131 Y21.682
X17.134 Y21.733
X17.329 Y23.566
X17.341 Y23.638
X17.386 Y23.831
X17.399 Y23.88
X17.763 Y24.996
X17.772 Y25.032
X18.259 Y28.091
X18.267 Y28.143 Z-3.394
X18.275 Y28.193 Z-3.376
X18.282 Y28.238 Z-3.348
X18.288 Y28.275 Z-3.31
X18.293 Y28.303 Z-3.265
X18.295 Y28.32 Z-3.215
X18.296 Y28.326 Z-3.162
G0 Z5.
X54.035 Y13.934
Z-0.584
G1 Z-0.594 F381.
Z-2.668 F1499.
X54.03 Y13.931 Z-2.721
X54.015 Y13.922 Z-2.772
X53.991 Y13.907 Z-2.817
X53.959 Y13.887 Z-2.854
X53.92 Y13.864 Z-2.883
X53.877 Y13.838 Z-2.9
X53.832 Y13.81 Z-2.906
G3 X52.841 Y13.15 R15.163
G1 X52.178 Y12.671
X52.114 Y12.631
X52.018 Y12.578
X51.973 Y12.556
X51.323 Y12.268
X53.136
X53.175 Y12.275
X53.209 Y12.293
X53.236 Y12.322
X54.163 Y13.73
X54.179 Y13.767
X54.182 Y13.807
X54.172 Y13.846
X54.149 Y13.879
X54.117 Y13.902
X54.079 Y13.914
X54.039 Y13.912
X54.002 Y13.897
X53.959 Y13.871 Z-2.912
X53.917 Y13.846 Z-2.928
X53.88 Y13.823 Z-2.954
X53.848 Y13.804 Z-2.988
X53.824 Y13.789 Z-3.03
X53.799 Y13.773 Z-3.071
X53.767 Y13.754 Z-3.106
X53.73 Y13.731 Z-3.132
X53.689 Y13.706 Z-3.148
X53.646 Y13.68 Z-3.153
G3 X52.856 Y13.153 R12.083
G1 X52.178 Y12.662
X52.116 Y12.622
X52.02 Y12.569
X51.973 Y12.546
X51.364 Y12.277
X53.13
X53.161 Y12.284
X53.185 Y12.305
X53.197 Y12.335
X53.236 Y12.615
X53.248 Y12.645
X53.985 Y13.678
X54.05 Y13.829
X54.052 Y13.853
X54.039 Y13.875
X54.016 Y13.884
X53.992 Y13.879
X53.949 Y13.852 Z-3.159
X53.908 Y13.827 Z-3.175
X53.871 Y13.804 Z-3.2
X53.839 Y13.785 Z-3.235
X53.814 Y13.77 Z-3.277
X53.789 Y13.754 Z-3.318
X53.758 Y13.735 Z-3.353
X53.72 Y13.712 Z-3.379
X53.679 Y13.687 Z-3.395
X53.636 Y13.661 Z-3.4
G3 X52.886 Y13.16 R11.491
G1 X52.275 Y12.716
X52.234 Y12.689
X52.042 Y12.572
X51.973 Y12.536
X51.406 Y12.285
X53.177
X53.214 Y12.288
X56.273 Y12.773
X56.325 Y12.781 Z-3.394
X56.375 Y12.789 Z-3.376
X56.419 Y12.796 Z-3.348
X56.457 Y12.802 Z-3.31
X56.485 Y12.806 Z-3.265
X56.502 Y12.809 Z-3.215
X56.508 Y12.81 Z-3.162
G0 Z5.
X57.353 Y16.163
Z-0.594
G1 Z-2.668 F1499.
X57.352 Y16.169 Z-2.721
X57.348 Y16.186 Z-2.772
X57.341 Y16.213 Z-2.817
X57.332 Y16.25 Z-2.854
X57.321 Y16.294 Z-2.883
X57.309 Y16.343 Z-2.9
X57.297 Y16.394 Z-2.906
G3 X56.972 Y17.54 R15.163
G1 X56.701 Y18.366
X56.43 Y17.54
X56.425 Y17.508
X56.428 Y17.475
X56.44 Y17.445
X57.026 Y16.396
X57.053 Y16.364
X57.09 Y16.342
X57.132 Y16.336
X57.174 Y16.344
X57.21 Y16.366
X57.236 Y16.4
X57.248 Y16.44
X57.246 Y16.483
X57.234 Y16.532 Z-2.912
X57.223 Y16.578 Z-2.928
X57.213 Y16.621 Z-2.954
X57.204 Y16.657 Z-2.988
X57.197 Y16.685 Z-3.03
X57.19 Y16.714 Z-3.071
X57.181 Y16.75 Z-3.106
X57.171 Y16.792 Z-3.132
X57.16 Y16.839 Z-3.148
X57.148 Y16.888 Z-3.153
G3 X56.965 Y17.532 R8.529
G1 X56.702 Y18.336
X56.537 Y17.822
X56.532 Y17.807
X56.435 Y17.533
X56.429 Y17.501
X56.431 Y17.467
X56.443 Y17.436
X57.021 Y16.389
X57.048 Y16.356
X57.085 Y16.335
X57.127 Y16.328
X57.169 Y16.336
X57.205 Y16.358
X57.231 Y16.392
X57.244 Y16.432
X57.241 Y16.475
X57.229 Y16.524 Z-3.159
X57.218 Y16.571 Z-3.175
X57.208 Y16.613 Z-3.2
X57.199 Y16.649 Z-3.235
X57.192 Y16.678 Z-3.277
X57.185 Y16.706 Z-3.318
X57.176 Y16.742 Z-3.353
X57.166 Y16.784 Z-3.379
X57.154 Y16.831 Z-3.395
X57.143 Y16.88 Z-3.4
G3 X56.959 Y17.524 R8.529
G1 X56.702 Y18.304
X56.546 Y17.821
X56.541 Y17.805
X56.439 Y17.519
X56.429 Y17.483
X55.86 Y14.439
X55.85 Y14.387 Z-3.394
X55.841 Y14.337 Z-3.376
X55.832 Y14.293 Z-3.348
X55.826 Y14.256 Z-3.31
X55.82 Y14.228 Z-3.265
X55.817 Y14.21 Z-3.215
X55.816 Y14.205 Z-3.162
G0 Z5.
X58.836 Y12.334
Z-0.583
G1 Z-0.594 F381.
Z-2.668 F1499.
X58.842 Y12.333 Z-2.721
X58.86 Y12.332 Z-2.772
X58.888 Y12.33 Z-2.817
X58.926 Y12.327 Z-2.854
X58.971 Y12.323 Z-2.883
X59.021 Y12.319 Z-2.9
X59.074 Y12.315 Z-2.906
G3 X60.263 Y12.268 R15.163
G1 X62.082
X61.361 Y12.59
X61.306 Y12.618
X61.255 Y12.651
X60.558 Y13.153
X60.524 Y13.17
X60.486 Y13.176
X60.448 Y13.169
X58.807 Y12.58
X58.772 Y12.56
X58.746 Y12.53
X58.731 Y12.493
X58.73 Y12.452
X58.742 Y12.414
X58.766 Y12.382
X58.799 Y12.359
X58.838 Y12.349
X58.889 Y12.346 Z-2.912
X58.937 Y12.342 Z-2.928
X58.98 Y12.338 Z-2.954
X59.017 Y12.335 Z-2.988
X59.046 Y12.333 Z-3.03
X59.075 Y12.331 Z-3.071
X59.112 Y12.328 Z-3.106
X59.156 Y12.324 Z-3.132
X59.204 Y12.321 Z-3.148
X59.254 Y12.317 Z-3.153
G3 X60.267 Y12.277 R12.913
G1 X62.039
X61.357 Y12.582
X61.305 Y12.609
X61.257 Y12.639
X60.829 Y12.941
X60.821 Y12.947
X60.546 Y13.148
X60.511 Y13.166
X60.474 Y13.171
X60.436 Y13.165
X58.797 Y12.588
X58.762 Y12.568
X58.736 Y12.538
X58.721 Y12.5
X58.719 Y12.46
X58.731 Y12.421
X58.755 Y12.389
X58.789 Y12.367
X58.828 Y12.357
X58.878 Y12.353 Z-3.159
X58.926 Y12.349 Z-3.175
X58.97 Y12.345 Z-3.2
X59.007 Y12.343 Z-3.235
X59.036 Y12.34 Z-3.277
X59.065 Y12.338 Z-3.318
X59.102 Y12.335 Z-3.353
X59.145 Y12.332 Z-3.379
X59.193 Y12.328 Z-3.395
X59.244 Y12.324 Z-3.4
G3 X60.229 Y12.285 R12.557
G1 X61.993
X61.474 Y12.516
X61.435 Y12.535
X61.236 Y12.642
X61.166 Y12.686
X60.52 Y13.158
X60.488 Y13.178
X57.732 Y14.591
X57.685 Y14.615 Z-3.394
X57.64 Y14.638 Z-3.376
X57.6 Y14.659 Z-3.348
X57.567 Y14.676 Z-3.31
X57.541 Y14.689 Z-3.265
X57.526 Y14.697 Z-3.215
X57.52 Y14.7 Z-3.162
G0 Z5.
X73.543 Y13.94
Z-0.584
G1 Z-0.594 F381.
Z-2.668 F1499.
X73.538 Y13.937 Z-2.721
X73.523 Y13.928 Z-2.772
X73.498 Y13.913 Z-2.817
X73.466 Y13.893 Z-2.854
X73.428 Y13.87 Z-2.883
X73.385 Y13.843 Z-2.9
X73.34 Y13.816 Z-2.906
G3 X72.35 Y13.154 R15.163
G1 X71.733 Y12.707
X71.687 Y12.676
X71.542 Y12.591
X71.481 Y12.559
X70.828 Y12.268
X72.647
X72.686 Y12.275
X72.721 Y12.294
X72.747 Y12.323
X73.647 Y13.715
X73.662 Y13.752
X73.665 Y13.792
X73.655 Y13.83
X73.632 Y13.863
X73.6 Y13.887
X73.561 Y13.898
X73.522 Y13.896
X73.485 Y13.881
X73.441 Y13.855 Z-2.912
X73.4 Y13.83 Z-2.928
X73.363 Y13.807 Z-2.954
X73.331 Y13.788 Z-2.988
X73.307 Y13.773 Z-3.03
X73.282 Y13.757 Z-3.071
X73.25 Y13.738 Z-3.106
X73.213 Y13.715 Z-3.132
X73.172 Y13.69 Z-3.148
X73.128 Y13.664 Z-3.153
G3 X72.362 Y13.153 R11.728
G1 X71.733 Y12.697
X71.688 Y12.667
X71.543 Y12.581
X71.481 Y12.549
X70.87 Y12.277
X72.652
X72.691 Y12.283
X72.725 Y12.302
X72.752 Y12.331
X73.648 Y13.705
X73.664 Y13.742
X73.667 Y13.782
X73.657 Y13.82
X73.634 Y13.853
X73.602 Y13.877
X73.563 Y13.888
X73.524 Y13.887
X73.486 Y13.872
X73.443 Y13.846 Z-3.159
X73.402 Y13.82 Z-3.175
X73.365 Y13.798 Z-3.2
X73.333 Y13.778 Z-3.235
X73.308 Y13.763 Z-3.277
X73.284 Y13.748 Z-3.318
X73.252 Y13.729 Z-3.353
X73.214 Y13.706 Z-3.379
X73.173 Y13.681 Z-3.395
X73.13 Y13.654 Z-3.4
G3 X72.371 Y13.15 R11.609
G1 X71.732 Y12.687
X71.676 Y12.651
X71.483 Y12.543
X71.433 Y12.517
X70.912 Y12.285
X72.667
X72.704 Y12.288
X75.763 Y12.773
X75.815 Y12.781 Z-3.394
X75.865 Y12.789 Z-3.376
X75.909 Y12.796 Z-3.348
X75.947 Y12.802 Z-3.31
X75.975 Y12.806 Z-3.265
X75.992 Y12.809 Z-3.215
X75.998 Y12.81 Z-3.162
G0 Z5.
X76.85 Y16.159
Z-0.594
G1 Z-2.668 F1499.
X76.848 Y16.165 Z-2.721
X76.844 Y16.182 Z-2.772
X76.837 Y16.209 Z-2.817
X76.829 Y16.246 Z-2.854
X76.818 Y16.29 Z-2.883
X76.806 Y16.339 Z-2.9
X76.794 Y16.39 Z-2.906
G3 X76.469 Y17.536 R15.163
G1 X76.2 Y18.362
X75.93 Y17.538
X75.924 Y17.506
X75.927 Y17.474
X75.939 Y17.444
X76.522 Y16.395
X76.549 Y16.362
X76.586 Y16.341
X76.628 Y16.334
X76.669 Y16.342
X76.706 Y16.364
X76.732 Y16.398
X76.744 Y16.438
X76.742 Y16.481
X76.73 Y16.53 Z-2.912
X76.719 Y16.577 Z-2.928
X76.708 Y16.619 Z-2.954
X76.7 Y16.655 Z-2.988
X76.693 Y16.684 Z-3.03
X76.686 Y16.712 Z-3.071
X76.677 Y16.748 Z-3.106
X76.667 Y16.791 Z-3.132
X76.656 Y16.837 Z-3.148
X76.644 Y16.886 Z-3.153
G3 X76.462 Y17.531 R8.529
G1 X76.201 Y18.329
X75.941 Y17.528
X75.935 Y17.496
X75.938 Y17.463
X75.95 Y17.433
X76.55 Y16.375
X76.577 Y16.342
X76.614 Y16.321
X76.656 Y16.315
X76.698 Y16.323
X76.734 Y16.346
X76.76 Y16.381
X76.772 Y16.422
X76.768 Y16.464
X76.755 Y16.513 Z-3.159
X76.743 Y16.56 Z-3.175
X76.731 Y16.602 Z-3.2
X76.722 Y16.638 Z-3.235
X76.714 Y16.666 Z-3.277
X76.707 Y16.694 Z-3.318
X76.697 Y16.73 Z-3.353
X76.686 Y16.772 Z-3.379
X76.673 Y16.819 Z-3.395
X76.66 Y16.868 Z-3.4
G3 X76.457 Y17.525 R8.766
G1 X76.409 Y17.66
X76.404 Y17.674
X76.2 Y18.302
X75.947 Y17.523
X75.938 Y17.486
X75.453 Y14.427
X75.445 Y14.375 Z-3.394
X75.437 Y14.325 Z-3.376
X75.43 Y14.281 Z-3.348
X75.424 Y14.243 Z-3.31
X75.42 Y14.215 Z-3.265
X75.417 Y14.198 Z-3.215
X75.416 Y14.192 Z-3.162
G0 Z5.
X78.337 Y12.334
Z-0.583
G1 Z-0.594 F381.
Z-2.668 F1499.
X78.342 Y12.333 Z-2.721
X78.36 Y12.332 Z-2.772
X78.388 Y12.33 Z-2.817
X78.426 Y12.327 Z-2.854
X78.471 Y12.323 Z-2.883
X78.521 Y12.319 Z-2.9
X78.574 Y12.315 Z-2.906
G3 X79.764 Y12.268 R15.163
G1 X81.578
X80.87 Y12.585
X80.796 Y12.624
X80.7 Y12.685
X80.666 Y12.708
X80.058 Y13.151
X80.024 Y13.168
X79.985 Y13.174
X79.947 Y13.166
X78.32 Y12.579
X78.285 Y12.559
X78.259 Y12.529
X78.244 Y12.491
X78.243 Y12.451
X78.255 Y12.413
X78.279 Y12.381
X78.312 Y12.358
X78.351 Y12.348
X78.402 Y12.344 Z-2.912
X78.45 Y12.341 Z-2.928
X78.493 Y12.337 Z-2.954
X78.53 Y12.334 Z-2.988
X78.559 Y12.332 Z-3.03
X78.588 Y12.33 Z-3.071
X78.625 Y12.327 Z-3.106
X78.669 Y12.323 Z-3.132
X78.717 Y12.32 Z-3.148
X78.767 Y12.316 Z-3.153
G3 X79.753 Y12.277 R12.557
G1 X81.538
X80.87 Y12.576
X80.805 Y12.61
X80.708 Y12.668
X80.666 Y12.697
X80.045 Y13.149
X80.011 Y13.167
X79.972 Y13.172
X79.935 Y13.165
X78.327 Y12.587
X78.292 Y12.567
X78.265 Y12.536
X78.25 Y12.499
X78.249 Y12.459
X78.261 Y12.42
X78.285 Y12.388
X78.319 Y12.366
X78.358 Y12.356
X78.408 Y12.352 Z-3.159
X78.456 Y12.348 Z-3.175
X78.5 Y12.345 Z-3.2
X78.537 Y12.342 Z-3.235
X78.566 Y12.34 Z-3.277
X78.595 Y12.337 Z-3.318
X78.632 Y12.334 Z-3.353
X78.675 Y12.331 Z-3.379
X78.723 Y12.327 Z-3.395
X78.774 Y12.323 Z-3.4
G3 X79.74 Y12.285 R12.32
G1 X81.5
X80.87 Y12.567
X80.813 Y12.596
X80.717 Y12.653
X80.666 Y12.686
X80.032 Y13.148
X80. Y13.168
X77.244 Y14.58
X77.197 Y14.604 Z-3.394
X77.152 Y14.627 Z-3.376
X77.112 Y14.647 Z-3.348
X77.078 Y14.665 Z-3.31
X77.053 Y14.677 Z-3.265
X77.037 Y14.685 Z-3.215
X77.032 Y14.688 Z-3.162
G0 Z5.
X93.045 Y13.941
Z-0.584
G1 Z-0.594 F381.
Z-2.668 F1499.
X93.04 Y13.938 Z-2.721
X93.025 Y13.929 Z-2.772
X93.001 Y13.914 Z-2.817
X92.969 Y13.894 Z-2.854
X92.93 Y13.871 Z-2.883
X92.887 Y13.845 Z-2.9
X92.842 Y13.817 Z-2.906
G3 X91.851 Y13.157 R15.163
G1 X91.191 Y12.68
X91.143 Y12.649
X91.054 Y12.596
X90.994 Y12.565
X90.326 Y12.268
X92.145
X92.184 Y12.275
X92.218 Y12.294
X92.245 Y12.323
X93.148 Y13.716
X93.164 Y13.752
X93.167 Y13.792
X93.156 Y13.831
X93.133 Y13.863
X93.101 Y13.887
X93.063 Y13.899
X93.023 Y13.897
X92.986 Y13.882
X92.943 Y13.856 Z-2.912
X92.902 Y13.831 Z-2.928
X92.865 Y13.808 Z-2.954
X92.833 Y13.789 Z-2.988
X92.808 Y13.774 Z-3.03
X92.783 Y13.759 Z-3.071
X92.751 Y13.739 Z-3.106
X92.714 Y13.716 Z-3.132
X92.673 Y13.691 Z-3.148
X92.63 Y13.665 Z-3.153
G3 X91.863 Y13.156 R11.728
G1 X91.191 Y12.67
X91.149 Y12.642
X91.065 Y12.592
X91. Y12.558
X90.366 Y12.277
X92.142
X92.181 Y12.283
X92.215 Y12.302
X92.241 Y12.33
X93.151 Y13.708
X93.167 Y13.745
X93.17 Y13.785
X93.16 Y13.823
X93.137 Y13.856
X93.105 Y13.88
X93.066 Y13.892
X93.026 Y13.89
X92.989 Y13.875
X92.946 Y13.849 Z-3.159
X92.905 Y13.823 Z-3.175
X92.868 Y13.801 Z-3.2
X92.836 Y13.781 Z-3.235
X92.811 Y13.766 Z-3.277
X92.786 Y13.751 Z-3.318
X92.755 Y13.731 Z-3.353
X92.717 Y13.709 Z-3.379
X92.676 Y13.683 Z-3.395
X92.633 Y13.657 Z-3.4
G3 X91.883 Y13.156 R11.491
G1 X91.522 Y12.893
X91.508 Y12.883
X91.099 Y12.604
X91.054 Y12.576
X91.007 Y12.553
X90.408 Y12.285
X92.179
X92.216 Y12.288
X95.275 Y12.773
X95.328 Y12.781 Z-3.394
X95.377 Y12.789 Z-3.376
X95.422 Y12.796 Z-3.348
X95.459 Y12.802 Z-3.31
X95.487 Y12.806 Z-3.265
X95.505 Y12.809 Z-3.215
X95.511 Y12.81 Z-3.162
G0 Z5.
X96.348 Y16.159
Z-0.594
G1 Z-2.668 F1499.
X96.347 Y16.165 Z-2.721
X96.343 Y16.182 Z-2.772
X96.336 Y16.21 Z-2.817
X96.327 Y16.246 Z-2.854
X96.317 Y16.29 Z-2.883
X96.305 Y16.339 Z-2.9
X96.293 Y16.391 Z-2.906
G3 X95.969 Y17.536 R15.163
G1 X95.7 Y18.364
X95.43 Y17.539
X95.424 Y17.507
X95.427 Y17.474
X95.439 Y17.444
X96.026 Y16.394
X96.053 Y16.362
X96.09 Y16.34
X96.132 Y16.334
X96.174 Y16.342
X96.21 Y16.364
X96.236 Y16.398
X96.248 Y16.438
X96.246 Y16.481
X96.234 Y16.53 Z-2.912
X96.223 Y16.576 Z-2.928
X96.213 Y16.619 Z-2.954
X96.204 Y16.655 Z-2.988
X96.197 Y16.683 Z-3.03
X96.19 Y16.712 Z-3.071
X96.181 Y16.748 Z-3.106
X96.171 Y16.79 Z-3.132
X96.16 Y16.837 Z-3.148
X96.148 Y16.886 Z-3.153
G3 X95.965 Y17.53 R8.529
G1 X95.702 Y18.335
X95.439 Y17.527
X95.434 Y17.496
X95.437 Y17.463
X95.448 Y17.433
X96.018 Y16.395
X96.045 Y16.362
X96.082 Y16.34
X96.123 Y16.333
X96.165 Y16.341
X96.202 Y16.364
X96.228 Y16.397
X96.24 Y16.438
X96.238 Y16.48
X96.226 Y16.529 Z-3.159
X96.215 Y16.576 Z-3.175
X96.205 Y16.619 Z-3.2
X96.196 Y16.655 Z-3.235
X96.189 Y16.683 Z-3.277
X96.182 Y16.711 Z-3.318
X96.173 Y16.748 Z-3.353
X96.163 Y16.79 Z-3.379
X96.152 Y16.837 Z-3.395
X96.14 Y16.886 Z-3.4
G3 X95.96 Y17.521 R8.411
G1 X95.703 Y18.306
X95.452 Y17.532
X95.445 Y17.51
X94.374 Y14.604
X94.356 Y14.554 Z-3.394
X94.338 Y14.507 Z-3.376
X94.323 Y14.464 Z-3.348
X94.31 Y14.429 Z-3.31
X94.3 Y14.402 Z-3.265
X94.294 Y14.386 Z-3.215
X94.292 Y14.38 Z-3.162
G0 Z5.
X97.834 Y12.334
Z-0.583
G1 Z-0.594 F381.
Z-2.668 F1499.
X97.84 Y12.333 Z-2.721
X97.858 Y12.332 Z-2.772
X97.886 Y12.33 Z-2.817
X97.923 Y12.327 Z-2.854
X97.968 Y12.323 Z-2.883
X98.019 Y12.319 Z-2.9
X98.071 Y12.315 Z-2.906
G3 X99.261 Y12.268 R15.163
G1 X101.082
X100.378 Y12.581
X100.295 Y12.626
X100.151 Y12.72
X100.124 Y12.738
X99.555 Y13.153
X99.521 Y13.17
X99.483 Y13.176
X99.445 Y13.169
X97.8 Y12.581
X97.765 Y12.561
X97.738 Y12.531
X97.723 Y12.493
X97.722 Y12.453
X97.734 Y12.414
X97.758 Y12.382
X97.792 Y12.36
X97.831 Y12.35
X97.881 Y12.346 Z-2.912
X97.929 Y12.342 Z-2.928
X97.972 Y12.339 Z-2.954
X98.01 Y12.336 Z-2.988
X98.039 Y12.333 Z-3.03
X98.068 Y12.331 Z-3.071
X98.105 Y12.328 Z-3.106
X98.148 Y12.325 Z-3.132
X98.196 Y12.321 Z-3.148
X98.247 Y12.317 Z-3.153
G3 X99.269 Y12.277 R13.031
G1 X101.035
X100.425 Y12.549
X100.378 Y12.572
X100.234 Y12.653
X100.173 Y12.691
X99.543 Y13.149
X99.509 Y13.166
X99.471 Y13.172
X99.433 Y13.165
X97.804 Y12.587
X97.769 Y12.567
X97.742 Y12.537
X97.727 Y12.5
X97.725 Y12.459
X97.737 Y12.421
X97.762 Y12.389
X97.795 Y12.366
X97.834 Y12.356
X97.884 Y12.352 Z-3.159
X97.933 Y12.349 Z-3.175
X97.976 Y12.345 Z-3.2
X98.013 Y12.342 Z-3.235
X98.042 Y12.34 Z-3.277
X98.071 Y12.338 Z-3.318
X98.108 Y12.335 Z-3.353
X98.152 Y12.331 Z-3.379
X98.2 Y12.328 Z-3.395
X98.25 Y12.324 Z-3.4
G3 X99.226 Y12.285 R12.439
G1 X100.997
X100.425 Y12.54
X100.384 Y12.561
X100.239 Y12.639
X100.173 Y12.681
X99.53 Y13.148
X99.498 Y13.167
X96.739 Y14.573
X96.691 Y14.597 Z-3.394
X96.647 Y14.62 Z-3.376
X96.606 Y14.64 Z-3.348
X96.573 Y14.658 Z-3.31
X96.548 Y14.67 Z-3.265
X96.532 Y14.678 Z-3.215
X96.527 Y14.681 Z-3.162
G0 Z5.
X112.534 Y13.935
Z-0.584
G1 Z-0.594 F381.
Z-2.668 F1499.
X112.529 Y13.932 Z-2.721
X112.514 Y13.923 Z-2.772
X112.49 Y13.908 Z-2.817
X112.458 Y13.889 Z-2.854
X112.419 Y13.865 Z-2.883
X112.376 Y13.839 Z-2.9
X112.331 Y13.811 Z-2.906
G3 X111.342 Y13.149 R15.163
G1 X110.843 Y12.786
X110.82 Y12.77
X110.579 Y12.612
X110.537 Y12.587
X110.493 Y12.565
X109.823 Y12.268
X111.637
X111.676 Y12.275
X111.71 Y12.293
X111.737 Y12.322
X112.646 Y13.714
X112.662 Y13.751
X112.665 Y13.791
X112.654 Y13.83
X112.632 Y13.862
X112.599 Y13.886
X112.561 Y13.898
X112.521 Y13.896
X112.484 Y13.881
X112.441 Y13.855 Z-2.912
X112.4 Y13.829 Z-2.928
X112.363 Y13.807 Z-2.954
X112.331 Y13.787 Z-2.988
X112.306 Y13.772 Z-3.03
X112.281 Y13.757 Z-3.071
X112.25 Y13.737 Z-3.106
X112.212 Y13.715 Z-3.132
X112.171 Y13.689 Z-3.148
X112.128 Y13.663 Z-3.153
G3 X111.355 Y13.146 R11.846
G1 X110.843 Y12.774
X110.818 Y12.757
X110.577 Y12.6
X110.495 Y12.556
X109.869 Y12.277
X111.651
X111.69 Y12.283
X111.724 Y12.302
X111.751 Y12.331
X112.659 Y13.713
X112.675 Y13.75
X112.678 Y13.79
X112.667 Y13.828
X112.645 Y13.861
X112.613 Y13.885
X112.574 Y13.897
X112.534 Y13.895
X112.497 Y13.88
X112.454 Y13.854 Z-3.159
X112.413 Y13.828 Z-3.175
X112.376 Y13.806 Z-3.2
X112.344 Y13.786 Z-3.235
X112.319 Y13.771 Z-3.277
X112.294 Y13.756 Z-3.318
X112.263 Y13.736 Z-3.353
X112.225 Y13.713 Z-3.379
X112.184 Y13.688 Z-3.395
X112.141 Y13.662 Z-3.4
G3 X111.376 Y13.15 R11.728
G1 X110.843 Y12.763
X110.815 Y12.744
X110.574 Y12.589
X110.494 Y12.546
X109.908 Y12.285
X111.669
X111.706 Y12.288
X114.765 Y12.773
X114.817 Y12.781 Z-3.394
X114.867 Y12.789 Z-3.376
X114.911 Y12.796 Z-3.348
X114.949 Y12.802 Z-3.31
X114.977 Y12.806 Z-3.265
X114.994 Y12.809 Z-3.215
X115. Y12.81 Z-3.162
G0 Z5.
X115.848 Y16.164
Z-0.594
G1 Z-2.668 F1499.
X115.846 Y16.17 Z-2.721
X115.842 Y16.187 Z-2.772
X115.835 Y16.214 Z-2.817
X115.827 Y16.251 Z-2.854
X115.816 Y16.295 Z-2.883
X115.804 Y16.344 Z-2.9
X115.792 Y16.395 Z-2.906
G3 X115.468 Y17.541 R15.163
G1 X115.2 Y18.362
X114.93 Y17.539
X114.924 Y17.506
X114.927 Y17.474
X114.939 Y17.444
X115.52 Y16.4
X115.547 Y16.367
X115.584 Y16.346
X115.626 Y16.339
X115.668 Y16.347
X115.704 Y16.369
X115.73 Y16.403
X115.742 Y16.443
X115.74 Y16.486
X115.728 Y16.535 Z-2.912
X115.717 Y16.582 Z-2.928
X115.707 Y16.624 Z-2.954
X115.698 Y16.66 Z-2.988
X115.691 Y16.689 Z-3.03
X115.684 Y16.717 Z-3.071
X115.676 Y16.753 Z-3.106
X115.665 Y16.796 Z-3.132
X115.654 Y16.842 Z-3.148
X115.642 Y16.892 Z-3.153
G3 X115.46 Y17.536 R8.529
G1 X115.2 Y18.333
X114.938 Y17.532
X114.932 Y17.501
X114.935 Y17.469
X114.947 Y17.438
X115.512 Y16.399
X115.539 Y16.366
X115.576 Y16.344
X115.618 Y16.337
X115.66 Y16.344
X115.696 Y16.367
X115.722 Y16.4
X115.735 Y16.441
X115.733 Y16.483
X115.721 Y16.533 Z-3.159
X115.709 Y16.579 Z-3.175
X115.699 Y16.622 Z-3.2
X115.69 Y16.658 Z-3.235
X115.684 Y16.686 Z-3.277
X115.677 Y16.715 Z-3.318
X115.668 Y16.751 Z-3.353
X115.658 Y16.793 Z-3.379
X115.647 Y16.84 Z-3.395
X115.635 Y16.889 Z-3.4
G3 X115.457 Y17.516 R8.292
G1 X115.201 Y18.302
X114.952 Y17.532
X114.95 Y17.526
X113.965 Y14.59
X113.948 Y14.54 Z-3.394
X113.932 Y14.492 Z-3.376
X113.917 Y14.449 Z-3.348
X113.905 Y14.414 Z-3.31
X113.896 Y14.387 Z-3.265
X113.891 Y14.37 Z-3.215
X113.889 Y14.364 Z-3.162
G0 Z5.
X117.337 Y12.334
Z-0.583
G1 Z-0.594 F381.
Z-2.668 F1499.
X117.343 Y12.333 Z-2.721
X117.36 Y12.332 Z-2.772
X117.389 Y12.33 Z-2.817
X117.426 Y12.327 Z-2.854
X117.471 Y12.323 Z-2.883
X117.521 Y12.319 Z-2.9
X117.574 Y12.315 Z-2.906
G3 X118.764 Y12.268 R15.163
G1 X120.581
X119.836 Y12.603
X119.782 Y12.631
X119.73 Y12.665
X119.062 Y13.151
X119.027 Y13.168
X118.989 Y13.173
X118.951 Y13.166
X117.319 Y12.579
X117.284 Y12.559
X117.258 Y12.529
X117.243 Y12.491
X117.241 Y12.451
X117.253 Y12.413
X117.278 Y12.381
X117.311 Y12.358
X117.35 Y12.348
X117.4 Y12.344 Z-2.912
X117.448 Y12.341 Z-2.928
X117.492 Y12.337 Z-2.954
X117.529 Y12.334 Z-2.988
X117.558 Y12.332 Z-3.03
X117.587 Y12.33 Z-3.071
X117.624 Y12.327 Z-3.106
X117.668 Y12.323 Z-3.132
X117.716 Y12.32 Z-3.148
X117.766 Y12.316 Z-3.153
G3 X118.751 Y12.277 R12.557
G1 X120.537
X119.883 Y12.57
X119.831 Y12.596
X119.735 Y12.651
X119.68 Y12.686
X119.046 Y13.149
X119.012 Y13.166
X118.974 Y13.172
X118.936 Y13.165
X117.323 Y12.587
X117.288 Y12.567
X117.262 Y12.537
X117.247 Y12.499
X117.246 Y12.459
X117.258 Y12.42
X117.282 Y12.388
X117.315 Y12.366
X117.354 Y12.356
X117.405 Y12.352 Z-3.159
X117.453 Y12.348 Z-3.175
X117.496 Y12.345 Z-3.2
X117.533 Y12.342 Z-3.235
X117.562 Y12.34 Z-3.277
X117.591 Y12.337 Z-3.318
X117.628 Y12.334 Z-3.353
X117.672 Y12.331 Z-3.379
X117.72 Y12.327 Z-3.395
X117.77 Y12.323 Z-3.4
G3 X118.737 Y12.285 R12.32
G1 X120.498
X119.883 Y12.561
X119.837 Y12.584
X119.741 Y12.637
X119.679 Y12.677
X119.032 Y13.149
X119.001 Y13.168
X116.244 Y14.58
X116.197 Y14.605 Z-3.394
X116.152 Y14.628 Z-3.376
X116.112 Y14.648 Z-3.348
X116.079 Y14.665 Z-3.31
X116.053 Y14.678 Z-3.265
X116.038 Y14.686 Z-3.215
X116.032 Y14.689 Z-3.162
G0 Z5.
X132.04 Y13.937
Z-0.584
G1 Z-0.594 F381.
Z-2.668 F1499.
X132.035 Y13.934 Z-2.721
X132.02 Y13.925 Z-2.772
X131.996 Y13.91 Z-2.817
X131.964 Y13.891 Z-2.854
X131.925 Y13.867 Z-2.883
X131.882 Y13.841 Z-2.9
X131.837 Y13.813 Z-2.906
G3 X130.846 Y13.153 R15.163
G1 X130.204 Y12.688
X130.16 Y12.659
X130.064 Y12.602
X130.001 Y12.569
X129.326 Y12.268
X131.14
X131.178 Y12.275
X131.213 Y12.293
X131.239 Y12.322
X132.168 Y13.735
X132.184 Y13.772
X132.187 Y13.811
X132.177 Y13.85
X132.154 Y13.883
X132.122 Y13.907
X132.084 Y13.918
X132.044 Y13.917
X132.007 Y13.902
X131.964 Y13.875 Z-2.912
X131.922 Y13.85 Z-2.928
X131.885 Y13.827 Z-2.954
X131.853 Y13.808 Z-2.988
X131.829 Y13.793 Z-3.03
X131.804 Y13.778 Z-3.071
X131.772 Y13.758 Z-3.106
X131.735 Y13.735 Z-3.132
X131.694 Y13.71 Z-3.148
X131.651 Y13.684 Z-3.153
G3 X130.862 Y13.157 R12.083
G1 X130.205 Y12.679
X130.163 Y12.652
X130.067 Y12.593
X130.001 Y12.559
X129.366 Y12.277
X131.148
X131.187 Y12.283
X131.221 Y12.302
X131.248 Y12.331
X132.153 Y13.709
X132.169 Y13.746
X132.172 Y13.786
X132.161 Y13.825
X132.139 Y13.858
X132.106 Y13.881
X132.068 Y13.893
X132.028 Y13.891
X131.991 Y13.876
X131.948 Y13.85 Z-3.159
X131.907 Y13.825 Z-3.175
X131.87 Y13.802 Z-3.2
X131.838 Y13.782 Z-3.235
X131.813 Y13.767 Z-3.277
X131.788 Y13.752 Z-3.318
X131.757 Y13.733 Z-3.353
X131.719 Y13.71 Z-3.379
X131.678 Y13.685 Z-3.395
X131.635 Y13.658 Z-3.4
G3 X130.885 Y13.157 R11.491
G1 X130.302 Y12.733
X130.269 Y12.711
X130.076 Y12.59
X130. Y12.549
X129.405 Y12.285
X131.165
X131.203 Y12.288
X134.262 Y12.773
X134.314 Y12.781 Z-3.394
X134.364 Y12.789 Z-3.376
X134.408 Y12.796 Z-3.348
X134.445 Y12.802 Z-3.31
X134.473 Y12.806 Z-3.265
X134.491 Y12.809 Z-3.215
X134.497 Y12.81 Z-3.162
G0 Z5.
X134.25 Y26.348
Z-0.59
G1 Z-0.594 F381.
Z-2.668 F1499.
X134.251 Y26.343 Z-2.721
X134.255 Y26.325 Z-2.772
X134.262 Y26.298 Z-2.817
X134.271 Y26.261 Z-2.854
X134.281 Y26.217 Z-2.883
X134.293 Y26.168 Z-2.9
X134.305 Y26.117 Z-2.906
G3 X134.626 Y24.97 R15.163
G1 X135.009 Y23.782
X135.031 Y23.692
X135.061 Y23.499
X135.065 Y23.467
X135.253 Y21.634
X135.256 Y21.567
X135.255 Y21.47
X135.252 Y21.415
X135.054 Y19.534
X135.042 Y19.461
X135.002 Y19.291
X134.988 Y19.241
X134.624 Y18.131
X134.618 Y18.091
X134.626 Y18.051
X134.647 Y18.016
X134.678 Y17.991
X134.716 Y17.977
X135.731 Y17.79
X135.773
X135.812 Y17.804
X135.844 Y17.83
X135.864 Y17.866
X135.872 Y17.907
Y25.194
X135.866 Y25.229
X135.851 Y25.261
X135.827 Y25.287
X134.484 Y26.359
X134.447 Y26.379
X134.405 Y26.385
X134.364 Y26.376
X134.329 Y26.354
X134.304 Y26.32
X134.291 Y26.28
X134.294 Y26.238
X134.306 Y26.189 Z-2.912
X134.317 Y26.142 Z-2.928
X134.327 Y26.1 Z-2.954
X134.336 Y26.064 Z-2.988
X134.343 Y26.035 Z-3.03
X134.349 Y26.007 Z-3.071
X134.358 Y25.971 Z-3.106
X134.368 Y25.928 Z-3.132
X134.38 Y25.882 Z-3.148
X134.391 Y25.832 Z-3.153
G3 X134.632 Y24.982 R11.254
G1 X135.006 Y23.832
X135.026 Y23.752
X135.069 Y23.511
X135.075 Y23.468
X135.261 Y21.684
X135.264 Y21.622
Y21.477
X135.261 Y21.415
X135.062 Y19.534
X135.05 Y19.462
X135.007 Y19.277
X134.993 Y19.226
X134.63 Y18.111
X134.624 Y18.07
X134.632 Y18.03
X134.653 Y17.995
X134.685 Y17.969
X134.724 Y17.956
X135.725 Y17.798
X135.766 Y17.799
X135.805 Y17.813
X135.836 Y17.84
X135.856 Y17.875
X135.863 Y17.916
Y25.208
X135.858 Y25.243
X135.842 Y25.275
X135.818 Y25.301
X134.498 Y26.352
X134.461 Y26.372
X134.419 Y26.378
X134.378 Y26.369
X134.343 Y26.346
X134.318 Y26.313
X134.305 Y26.273
X134.308 Y26.231
X134.319 Y26.182 Z-3.159
X134.331 Y26.135 Z-3.175
X134.341 Y26.092 Z-3.2
X134.349 Y26.056 Z-3.235
X134.356 Y26.028 Z-3.277
X134.363 Y26. Z-3.318
X134.372 Y25.963 Z-3.353
X134.382 Y25.921 Z-3.379
X134.393 Y25.874 Z-3.395
X134.405 Y25.825 Z-3.4
G3 X134.636 Y25.001 R10.899
G1 X135.015 Y23.831
X135.034 Y23.754
X135.078 Y23.513
X135.084 Y23.469
X135.266 Y21.732
X135.27 Y21.67
Y21.429
X135.266 Y21.367
X135.079 Y19.582
X135.068 Y19.518
X135.014 Y19.269
X134.998 Y19.212
X134.634 Y18.091
X134.628 Y18.051
X134.636 Y18.012
X134.656 Y17.977
X134.687 Y17.952
X134.724 Y17.937
X135.713 Y17.743
X135.755 Y17.742
X135.794 Y17.756
X135.826 Y17.783
X135.847 Y17.819
X135.855 Y17.86
Y25.227
X135.852 Y25.264
X135.367 Y28.323
X135.359 Y28.375 Z-3.394
X135.351 Y28.425 Z-3.376
X135.344 Y28.47 Z-3.348
X135.338 Y28.507 Z-3.31
X135.334 Y28.535 Z-3.265
X135.331 Y28.552 Z-3.215
X135.33 Y28.558 Z-3.162
G0 Z5.
X130.376 Y32.164
Z-0.584
G1 Z-0.594 F381.
Z-2.668 F1499.
X130.37 Y32.162 Z-2.721
X130.353 Y32.156 Z-2.772
X130.327 Y32.146 Z-2.817
X130.291 Y32.134 Z-2.854
X130.249 Y32.119 Z-2.883
X130.201 Y32.102 Z-2.9
X130.151 Y32.084 Z-2.906
G3 X129.045 Y31.644 R15.163
G1 X128.266 Y31.299
X128.445 Y31.225
X128.461 Y31.218
X129.041 Y30.958
X129.081 Y30.948
X129.122 Y30.952
X129.159 Y30.97
X130.5 Y31.944
X130.529 Y31.974
X130.546 Y32.013
X130.548 Y32.055
X130.535 Y32.095
X130.509 Y32.129
X130.473 Y32.151
X130.432 Y32.159
X130.39 Y32.152
X130.343 Y32.136 Z-2.912
X130.297 Y32.12 Z-2.928
X130.256 Y32.105 Z-2.954
X130.221 Y32.093 Z-2.988
X130.193 Y32.083 Z-3.03
X130.166 Y32.073 Z-3.071
X130.131 Y32.061 Z-3.106
X130.09 Y32.046 Z-3.132
X130.044 Y32.03 Z-3.148
X129.997 Y32.014 Z-3.153
G3 X129.054 Y31.639 R12.913
G1 X128.286 Y31.299
X128.439 Y31.238
X128.46 Y31.228
X129.055 Y30.963
X129.095 Y30.953
X129.136 Y30.958
X129.173 Y30.976
X130.501 Y31.935
X130.53 Y31.966
X130.547 Y32.004
X130.549 Y32.047
X130.536 Y32.087
X130.51 Y32.12
X130.474 Y32.142
X130.433 Y32.151
X130.391 Y32.144
X130.344 Y32.127 Z-3.159
X130.298 Y32.111 Z-3.175
X130.257 Y32.097 Z-3.2
X130.222 Y32.084 Z-3.235
X130.194 Y32.075 Z-3.277
X130.167 Y32.065 Z-3.318
X130.132 Y32.053 Z-3.353
X130.091 Y32.038 Z-3.379
X130.045 Y32.022 Z-3.395
X129.998 Y32.005 Z-3.4
G3 X129.064 Y31.634 R12.794
G1 X128.308 Y31.299
X128.438 Y31.248
X128.46 Y31.238
X129.064 Y30.969
X129.1 Y30.956
X132.09 Y30.151
X132.141 Y30.138 Z-3.394
X132.19 Y30.125 Z-3.376
X132.234 Y30.113 Z-3.348
X132.27 Y30.103 Z-3.31
X132.297 Y30.096 Z-3.265
X132.314 Y30.091 Z-3.215
X132.32 Y30.089 Z-3.162
G0 Z5.
X119.528 Y30.435
Z-0.584
G1 Z-0.594 F381.
Z-2.668 F1499.
X119.534 Y30.437 Z-2.721
X119.551 Y30.443 Z-2.772
X119.577 Y30.453 Z-2.817
X119.613 Y30.465 Z-2.854
X119.656 Y30.48 Z-2.883
X119.703 Y30.497 Z-2.9
X119.753 Y30.515 Z-2.906
G3 X120.859 Y30.956 R15.163
G1 X121.63 Y31.298
X120.861 Y31.643
X120.821 Y31.653
X120.779 Y31.649
X120.742 Y31.631
X119.383 Y30.642
X119.353 Y30.612
X119.337 Y30.573
X119.335 Y30.53
X119.347 Y30.49
X119.374 Y30.457
X119.41 Y30.435
X119.451 Y30.427
X119.493 Y30.434
X119.54 Y30.451 Z-2.912
X119.586 Y30.467 Z-2.928
X119.627 Y30.482 Z-2.954
X119.662 Y30.494 Z-2.988
X119.689 Y30.504 Z-3.03
X119.717 Y30.514 Z-3.071
X119.752 Y30.526 Z-3.106
X119.793 Y30.541 Z-3.132
X119.838 Y30.557 Z-3.148
X119.886 Y30.574 Z-3.153
G3 X120.852 Y30.963 R13.268
G1 X121.604 Y31.3
X120.854 Y31.635
X120.814 Y31.645
X120.773 Y31.641
X120.736 Y31.623
X119.428 Y30.681
X119.398 Y30.65
X119.381 Y30.612
X119.379 Y30.569
X119.392 Y30.529
X119.418 Y30.496
X119.453 Y30.473
X119.495 Y30.465
X119.537 Y30.472
X119.584 Y30.488 Z-3.159
X119.63 Y30.504 Z-3.175
X119.671 Y30.519 Z-3.2
X119.706 Y30.531 Z-3.235
X119.734 Y30.541 Z-3.277
X119.761 Y30.55 Z-3.318
X119.796 Y30.563 Z-3.353
X119.837 Y30.577 Z-3.379
X119.883 Y30.593 Z-3.395
X119.93 Y30.61 Z-3.4
G3 X120.839 Y30.969 R12.439
G1 X121.585 Y31.299
X120.84 Y31.632
X120.805 Y31.645
X117.815 Y32.453
X117.764 Y32.466 Z-3.394
X117.715 Y32.48 Z-3.376
X117.672 Y32.491 Z-3.348
X117.635 Y32.501 Z-3.31
X117.608 Y32.509 Z-3.265
X117.591 Y32.513 Z-3.215
X117.585 Y32.515 Z-3.162
G0 Z5.
X114.48 Y26.918
Z-0.594
G1 Z-2.668 F1499.
X114.481 Y26.912 Z-2.721
X114.487 Y26.895 Z-2.772
X114.495 Y26.868 Z-2.817
X114.505 Y26.832 Z-2.854
X114.518 Y26.789 Z-2.883
X114.533 Y26.741 Z-2.9
X114.548 Y26.69 Z-2.906
G3 X114.933 Y25.563 R15.163
G1 X114.938 Y25.55
X114.949 Y25.518
X115.201 Y24.737
X115.468 Y25.56
X115.474 Y25.593
X115.47 Y25.627
X115.456 Y25.658
X114.798 Y26.74
X114.769 Y26.772
X114.731 Y26.792
X114.689 Y26.797
X114.647 Y26.787
X114.612 Y26.762
X114.587 Y26.727
X114.577 Y26.686
X114.582 Y26.643
X114.597 Y26.595 Z-2.912
X114.611 Y26.549 Z-2.928
X114.624 Y26.507 Z-2.954
X114.635 Y26.471 Z-2.988
X114.643 Y26.444 Z-3.03
X114.652 Y26.416 Z-3.071
X114.663 Y26.38 Z-3.106
X114.675 Y26.338 Z-3.132
X114.689 Y26.292 Z-3.148
X114.704 Y26.244 Z-3.153
G3 X114.941 Y25.568 R9.122
G1 X114.946 Y25.554
X114.959 Y25.519
X115.201 Y24.771
X115.46 Y25.566
X115.466 Y25.599
X115.462 Y25.633
X115.449 Y25.665
X114.781 Y26.756
X114.753 Y26.788
X114.715 Y26.808
X114.672 Y26.813
X114.63 Y26.802
X114.595 Y26.777
X114.571 Y26.742
X114.561 Y26.7
X114.567 Y26.657
X114.582 Y26.609 Z-3.159
X114.597 Y26.563 Z-3.175
X114.61 Y26.522 Z-3.2
X114.622 Y26.486 Z-3.235
X114.631 Y26.459 Z-3.277
X114.64 Y26.431 Z-3.318
X114.651 Y26.396 Z-3.353
X114.665 Y26.354 Z-3.379
X114.68 Y26.308 Z-3.395
X114.695 Y26.26 Z-3.4
G3 X114.945 Y25.579 R9.24
G1 X114.952 Y25.563
X114.968 Y25.519
X115.201 Y24.799
X115.455 Y25.577
X115.464 Y25.613
X115.952 Y28.671
X115.96 Y28.724 Z-3.394
X115.968 Y28.774 Z-3.376
X115.975 Y28.818 Z-3.348
X115.981 Y28.855 Z-3.31
X115.985 Y28.883 Z-3.265
X115.988 Y28.901 Z-3.215
X115.989 Y28.907 Z-3.162
G0 Z5.
X110.871 Y32.159
Z-0.584
G1 Z-0.594 F381.
Z-2.668 F1499.
X110.865 Y32.157 Z-2.721
X110.848 Y32.151 Z-2.772
X110.822 Y32.141 Z-2.817
X110.786 Y32.129 Z-2.854
X110.743 Y32.114 Z-2.883
X110.696 Y32.097 Z-2.9
X110.646 Y32.08 Z-2.906
G3 X109.539 Y31.641 R15.163
G1 X108.77 Y31.301
X108.79 Y31.293
X108.821 Y31.28
X109.541 Y30.957
X109.582 Y30.947
X109.623 Y30.951
X109.66 Y30.97
X110.969 Y31.929
X110.998 Y31.96
X111.014 Y31.999
X111.016 Y32.041
X111.004 Y32.081
X110.978 Y32.114
X110.942 Y32.136
X110.901 Y32.144
X110.859 Y32.138
X110.811 Y32.121 Z-2.912
X110.766 Y32.105 Z-2.928
X110.725 Y32.09 Z-2.954
X110.69 Y32.078 Z-2.988
X110.662 Y32.068 Z-3.03
X110.635 Y32.059 Z-3.071
X110.6 Y32.046 Z-3.106
X110.558 Y32.032 Z-3.132
X110.513 Y32.016 Z-3.148
X110.465 Y31.999 Z-3.153
G3 X109.549 Y31.636 R12.557
G1 X108.791 Y31.301
X108.813 Y31.293
X108.843 Y31.281
X109.549 Y30.966
X109.59 Y30.955
X109.631 Y30.96
X109.668 Y30.978
X110.949 Y31.913
X110.978 Y31.943
X110.994 Y31.982
X110.996 Y32.024
X110.984 Y32.064
X110.958 Y32.098
X110.922 Y32.12
X110.88 Y32.128
X110.839 Y32.121
X110.791 Y32.104 Z-3.159
X110.746 Y32.088 Z-3.175
X110.704 Y32.074 Z-3.2
X110.669 Y32.061 Z-3.235
X110.642 Y32.052 Z-3.277
X110.615 Y32.042 Z-3.318
X110.579 Y32.03 Z-3.353
X110.538 Y32.015 Z-3.379
X110.493 Y31.999 Z-3.395
X110.445 Y31.982 Z-3.4
G3 X109.555 Y31.628 R12.202
G1 X108.818 Y31.3
X108.835 Y31.293
X108.866 Y31.281
X109.557 Y30.971
X109.592 Y30.959
X112.582 Y30.152
X112.634 Y30.138 Z-3.394
X112.682 Y30.125 Z-3.376
X112.726 Y30.113 Z-3.348
X112.762 Y30.103 Z-3.31
X112.79 Y30.096 Z-3.265
X112.807 Y30.091 Z-3.215
X112.812 Y30.09 Z-3.162
G0 Z5.
X100.03 Y30.443
Z-0.584
G1 Z-0.594 F381.
Z-2.668 F1499.
X100.035 Y30.445 Z-2.721
X100.052 Y30.451 Z-2.772
X100.079 Y30.46 Z-2.817
X100.114 Y30.473 Z-2.854
X100.157 Y30.488 Z-2.883
X100.204 Y30.504 Z-2.9
X100.254 Y30.522 Z-2.906
G3 X101.362 Y30.959 R15.163
G1 X102.137 Y31.3
X102.034 Y31.34
X102.008 Y31.351
X101.361 Y31.64
X101.321 Y31.651
X101.279 Y31.646
X101.242 Y31.628
X99.882 Y30.641
X99.853 Y30.611
X99.836 Y30.572
X99.834 Y30.53
X99.847 Y30.489
X99.873 Y30.456
X99.909 Y30.434
X99.95 Y30.426
X99.992 Y30.433
X100.04 Y30.45 Z-2.912
X100.085 Y30.466 Z-2.928
X100.126 Y30.481 Z-2.954
X100.161 Y30.494 Z-2.988
X100.189 Y30.503 Z-3.03
X100.216 Y30.513 Z-3.071
X100.251 Y30.526 Z-3.106
X100.292 Y30.54 Z-3.132
X100.338 Y30.557 Z-3.148
X100.385 Y30.574 Z-3.153
G3 X101.351 Y30.964 R13.268
G1 X101.772 Y31.153
X101.782 Y31.157
X102.114 Y31.3
X102.011 Y31.34
X101.984 Y31.351
X101.352 Y31.635
X101.311 Y31.645
X101.27 Y31.641
X101.233 Y31.623
X99.916 Y30.673
X99.887 Y30.642
X99.87 Y30.604
X99.868 Y30.561
X99.881 Y30.521
X99.907 Y30.488
X99.943 Y30.466
X99.984 Y30.457
X100.026 Y30.464
X100.073 Y30.481 Z-3.159
X100.119 Y30.497 Z-3.175
X100.16 Y30.511 Z-3.2
X100.195 Y30.524 Z-3.235
X100.222 Y30.534 Z-3.277
X100.25 Y30.543 Z-3.318
X100.285 Y30.556 Z-3.353
X100.326 Y30.57 Z-3.379
X100.372 Y30.586 Z-3.395
X100.419 Y30.603 Z-3.4
G3 X101.335 Y30.967 R12.557
G1 X102.088 Y31.301
X101.99 Y31.34
X101.963 Y31.351
X101.339 Y31.629
X101.304 Y31.642
X98.314 Y32.447
X98.262 Y32.461 Z-3.394
X98.214 Y32.474 Z-3.376
X98.17 Y32.486 Z-3.348
X98.134 Y32.496 Z-3.31
X98.106 Y32.503 Z-3.265
X98.089 Y32.508 Z-3.215
X98.084 Y32.509 Z-3.162
G0 Z5.
X94.991 Y26.916
Z-0.594
G1 Z-2.668 F1499.
X94.992 Y26.91 Z-2.721
X94.997 Y26.894 Z-2.772
X95.005 Y26.866 Z-2.817
X95.016 Y26.83 Z-2.854
X95.028 Y26.787 Z-2.883
X95.042 Y26.738 Z-2.9
X95.057 Y26.688 Z-2.906
G3 X95.435 Y25.558 R15.163
G1 X95.439 Y25.546
X95.449 Y25.519
X95.701 Y24.74
X95.827 Y25.131
X95.829 Y25.136
X95.968 Y25.56
X95.974 Y25.592
X95.971 Y25.624
X95.96 Y25.655
X95.382 Y26.701
X95.355 Y26.734
X95.318 Y26.756
X95.276 Y26.763
X95.234 Y26.755
X95.198 Y26.732
X95.172 Y26.699
X95.159 Y26.658
X95.162 Y26.616
X95.174 Y26.567 Z-2.912
X95.185 Y26.52 Z-2.928
X95.195 Y26.477 Z-2.954
X95.204 Y26.441 Z-2.988
X95.211 Y26.413 Z-3.03
X95.217 Y26.385 Z-3.071
X95.226 Y26.349 Z-3.106
X95.236 Y26.306 Z-3.132
X95.248 Y26.259 Z-3.148
X95.259 Y26.21 Z-3.153
G3 X95.442 Y25.566 R8.529
G1 X95.701 Y24.771
X95.964 Y25.571
X95.97 Y25.605
X95.966 Y25.639
X95.953 Y25.67
X95.293 Y26.752
X95.265 Y26.784
X95.226 Y26.804
X95.184 Y26.809
X95.142 Y26.799
X95.107 Y26.774
X95.083 Y26.739
X95.073 Y26.697
X95.078 Y26.654
X95.093 Y26.606 Z-3.159
X95.107 Y26.56 Z-3.175
X95.121 Y26.519 Z-3.2
X95.132 Y26.483 Z-3.235
X95.141 Y26.455 Z-3.277
X95.149 Y26.428 Z-3.318
X95.16 Y26.392 Z-3.353
X95.174 Y26.35 Z-3.379
X95.188 Y26.304 Z-3.395
X95.203 Y26.256 Z-3.4
G3 X95.448 Y25.573 R9.24
G1 X95.454 Y25.558
X95.468 Y25.519
X95.702 Y24.798
X95.957 Y25.573
X95.966 Y25.609
X96.461 Y28.666
X96.47 Y28.719 Z-3.394
X96.478 Y28.768 Z-3.376
X96.485 Y28.813 Z-3.348
X96.491 Y28.85 Z-3.31
X96.496 Y28.878 Z-3.265
X96.499 Y28.896 Z-3.215
X96.5 Y28.901 Z-3.162
G0 Z5.
X91.368 Y32.16
Z-0.584
G1 Z-0.594 F381.
Z-2.668 F1499.
X91.362 Y32.158 Z-2.721
X91.346 Y32.152 Z-2.772
X91.319 Y32.142 Z-2.817
X91.283 Y32.13 Z-2.854
X91.241 Y32.115 Z-2.883
X91.193 Y32.098 Z-2.9
X91.143 Y32.08 Z-2.906
G3 X90.037 Y31.639 R15.163
G1 X89.274 Y31.3
X89.288 Y31.294
X89.321 Y31.28
X90.036 Y30.959
X90.076 Y30.949
X90.118 Y30.954
X90.155 Y30.972
X91.496 Y31.942
X91.526 Y31.972
X91.543 Y32.011
X91.545 Y32.053
X91.532 Y32.093
X91.506 Y32.127
X91.47 Y32.149
X91.429 Y32.157
X91.387 Y32.15
X91.339 Y32.133 Z-2.912
X91.294 Y32.117 Z-2.928
X91.253 Y32.103 Z-2.954
X91.218 Y32.09 Z-2.988
X91.19 Y32.081 Z-3.03
X91.163 Y32.071 Z-3.071
X91.128 Y32.059 Z-3.106
X91.087 Y32.044 Z-3.132
X91.041 Y32.028 Z-3.148
X90.994 Y32.011 Z-3.153
G3 X90.052 Y31.636 R12.913
G1 X89.295 Y31.3
X89.312 Y31.294
X89.343 Y31.281
X90.049 Y30.965
X90.089 Y30.955
X90.13 Y30.959
X90.167 Y30.977
X91.502 Y31.935
X91.531 Y31.965
X91.548 Y32.004
X91.551 Y32.046
X91.538 Y32.086
X91.512 Y32.12
X91.476 Y32.142
X91.435 Y32.15
X91.393 Y32.144
X91.345 Y32.127 Z-3.159
X91.3 Y32.111 Z-3.175
X91.259 Y32.096 Z-3.2
X91.224 Y32.084 Z-3.235
X91.196 Y32.074 Z-3.277
X91.169 Y32.064 Z-3.318
X91.134 Y32.052 Z-3.353
X91.092 Y32.037 Z-3.379
X91.047 Y32.021 Z-3.395
X90.999 Y32.005 Z-3.4
G3 X90.066 Y31.633 R12.794
G1 X89.316 Y31.3
X89.334 Y31.294
X89.366 Y31.28
X90.067 Y30.966
X90.102 Y30.954
X93.092 Y30.145
X93.143 Y30.131 Z-3.394
X93.192 Y30.118 Z-3.376
X93.235 Y30.106 Z-3.348
X93.271 Y30.097 Z-3.31
X93.299 Y30.089 Z-3.265
X93.316 Y30.085 Z-3.215
X93.322 Y30.083 Z-3.162
G0 Z5.
X80.537 Y30.438
Z-0.584
G1 Z-0.594 F381.
Z-2.668 F1499.
X80.543 Y30.44 Z-2.721
X80.56 Y30.446 Z-2.772
X80.586 Y30.455 Z-2.817
X80.622 Y30.468 Z-2.854
X80.664 Y30.483 Z-2.883
X80.712 Y30.5 Z-2.9
X80.762 Y30.517 Z-2.906
G3 X81.868 Y30.958 R15.163
G1 X82.635 Y31.3
X81.865 Y31.642
X81.824 Y31.652
X81.783 Y31.648
X81.746 Y31.63
X80.435 Y30.675
X80.406 Y30.645
X80.389 Y30.606
X80.387 Y30.564
X80.4 Y30.523
X80.426 Y30.49
X80.462 Y30.468
X80.503 Y30.46
X80.545 Y30.466
X80.592 Y30.483 Z-2.912
X80.638 Y30.499 Z-2.928
X80.679 Y30.514 Z-2.954
X80.714 Y30.526 Z-2.988
X80.742 Y30.535 Z-3.03
X80.769 Y30.545 Z-3.071
X80.804 Y30.557 Z-3.106
X80.845 Y30.572 Z-3.132
X80.891 Y30.588 Z-3.148
X80.939 Y30.604 Z-3.153
G3 X81.856 Y30.967 R12.557
G1 X82.607 Y31.299
X81.857 Y31.634
X81.817 Y31.644
X81.776 Y31.64
X81.739 Y31.622
X80.431 Y30.68
X80.401 Y30.65
X80.384 Y30.611
X80.382 Y30.569
X80.395 Y30.528
X80.42 Y30.495
X80.456 Y30.473
X80.498 Y30.464
X80.54 Y30.471
X80.587 Y30.488 Z-3.159
X80.633 Y30.504 Z-3.175
X80.674 Y30.518 Z-3.2
X80.709 Y30.531 Z-3.235
X80.736 Y30.54 Z-3.277
X80.764 Y30.55 Z-3.318
X80.799 Y30.562 Z-3.353
X80.84 Y30.577 Z-3.379
X80.886 Y30.593 Z-3.395
X80.933 Y30.61 Z-3.4
G3 X81.841 Y30.97 R12.439
G1 X82.586 Y31.299
X81.846 Y31.631
X81.81 Y31.643
X78.82 Y32.451
X78.769 Y32.464 Z-3.394
X78.721 Y32.477 Z-3.376
X78.677 Y32.489 Z-3.348
X78.641 Y32.499 Z-3.31
X78.613 Y32.506 Z-3.265
X78.596 Y32.511 Z-3.215
X78.591 Y32.513 Z-3.162
G0 Z5.
X76.844 Y35.666
Z-0.594
G1 Z-2.668 F1499.
X76.843 Y35.672 Z-2.721
X76.838 Y35.689 Z-2.772
X76.832 Y35.717 Z-2.817
X76.823 Y35.753 Z-2.854
X76.812 Y35.797 Z-2.883
X76.801 Y35.846 Z-2.9
X76.788 Y35.898 Z-2.906
G3 X76.465 Y37.044 R15.163
G1 X76.2 Y37.858
X75.934 Y37.043
X75.929 Y37.011
X75.932 Y36.979
X75.943 Y36.948
X76.517 Y35.903
X76.543 Y35.87
X76.58 Y35.848
X76.622 Y35.841
X76.664 Y35.849
X76.7 Y35.871
X76.726 Y35.905
X76.739 Y35.946
X76.737 Y35.988
X76.725 Y36.037 Z-2.912
X76.714 Y36.084 Z-2.928
X76.703 Y36.127 Z-2.954
X76.695 Y36.163 Z-2.988
X76.688 Y36.191 Z-3.03
X76.681 Y36.219 Z-3.071
X76.673 Y36.255 Z-3.106
X76.662 Y36.298 Z-3.132
X76.651 Y36.345 Z-3.148
X76.639 Y36.394 Z-3.153
G3 X76.457 Y37.038 R8.529
G1 X76.201 Y37.827
X75.942 Y37.031
X75.937 Y37.
X75.939 Y36.968
X75.951 Y36.938
X76.51 Y35.895
X76.537 Y35.862
X76.574 Y35.84
X76.616 Y35.832
X76.658 Y35.84
X76.694 Y35.862
X76.72 Y35.896
X76.733 Y35.937
X76.731 Y35.979
X76.719 Y36.028 Z-3.159
X76.708 Y36.075 Z-3.175
X76.698 Y36.118 Z-3.2
X76.689 Y36.154 Z-3.235
X76.682 Y36.182 Z-3.277
X76.675 Y36.211 Z-3.318
X76.667 Y36.247 Z-3.353
X76.657 Y36.289 Z-3.379
X76.645 Y36.336 Z-3.395
X76.634 Y36.385 Z-3.4
G3 X76.454 Y37.021 R8.411
G1 X76.201 Y37.8
X75.949 Y37.024
X75.94 Y36.988
X75.457 Y33.929
X75.448 Y33.877 Z-3.394
X75.44 Y33.827 Z-3.376
X75.433 Y33.782 Z-3.348
X75.427 Y33.745 Z-3.31
X75.423 Y33.717 Z-3.265
X75.42 Y33.7 Z-3.215
X75.419 Y33.694 Z-3.162
G0 Z5.
X75.447 Y46.398
Z-0.591
G1 Z-0.594 F381.
Z-2.668 F1499.
X75.449 Y46.392 Z-2.721
X75.455 Y46.376 Z-2.772
X75.464 Y46.349 Z-2.817
X75.477 Y46.314 Z-2.854
X75.493 Y46.271 Z-2.883
X75.51 Y46.224 Z-2.9
X75.528 Y46.174 Z-2.906
X75.936 Y45.056
X75.943 Y45.035
X76.201 Y44.242
X76.466 Y45.057
X76.472 Y45.091
X76.468 Y45.125
X76.454 Y45.156
X75.79 Y46.234
X75.761 Y46.266
X75.723 Y46.286
X75.68 Y46.29
X75.638 Y46.279
X75.603 Y46.254
X75.579 Y46.218
X75.57 Y46.175
X75.576 Y46.133
X75.593 Y46.085 Z-2.912
X75.608 Y46.039 Z-2.928
X75.623 Y45.998 Z-2.954
X75.635 Y45.963 Z-2.988
X75.644 Y45.935 Z-3.03
X75.654 Y45.908 Z-3.071
X75.666 Y45.873 Z-3.106
X75.68 Y45.831 Z-3.132
X75.696 Y45.786 Z-3.148
X75.712 Y45.738 Z-3.153
X75.945 Y45.061
X75.949 Y45.05
X76.202 Y44.268
X76.464 Y45.066
X76.47 Y45.1
X76.466 Y45.135
X76.452 Y45.166
X75.78 Y46.245
X75.751 Y46.277
X75.712 Y46.296
X75.669 Y46.3
X75.627 Y46.289
X75.592 Y46.263
X75.569 Y46.227
X75.56 Y46.184
X75.567 Y46.141
X75.584 Y46.094 Z-3.159
X75.6 Y46.048 Z-3.175
X75.615 Y46.007 Z-3.2
X75.628 Y45.972 Z-3.235
X75.638 Y45.945 Z-3.277
X75.647 Y45.918 Z-3.318
X75.66 Y45.883 Z-3.353
X75.675 Y45.841 Z-3.379
X75.691 Y45.796 Z-3.395
X75.708 Y45.749 Z-3.4
X75.947 Y45.083
X75.953 Y45.066
X76.204 Y44.294
X76.462 Y45.086
X76.47 Y45.122
X76.958 Y48.181
X76.966 Y48.233 Z-3.394
X76.974 Y48.283 Z-3.376
X76.981 Y48.328 Z-3.348
X76.987 Y48.365 Z-3.31
X76.991 Y48.393 Z-3.265
X76.994 Y48.41 Z-3.215
X76.995 Y48.416 Z-3.162
G0 Z5.
X80.534 Y49.942
Z-0.584
G1 Z-0.594 F381.
Z-2.668 F1499.
X80.54 Y49.944 Z-2.721
X80.557 Y49.95 Z-2.772
X80.583 Y49.959 Z-2.817
X80.619 Y49.972 Z-2.854
X80.661 Y49.987 Z-2.883
X80.709 Y50.003 Z-2.9
X80.759 Y50.021 Z-2.906
G3 X81.866 Y50.46 R15.163
G1 X82.63 Y50.798
X81.866 Y51.14
X81.825 Y51.15
X81.784 Y51.146
X81.747 Y51.128
X80.409 Y50.16
X80.38 Y50.13
X80.363 Y50.091
X80.361 Y50.049
X80.374 Y50.009
X80.4 Y49.975
X80.436 Y49.953
X80.477 Y49.945
X80.519 Y49.952
X80.567 Y49.969 Z-2.912
X80.612 Y49.985 Z-2.928
X80.653 Y49.999 Z-2.954
X80.688 Y50.012 Z-2.988
X80.716 Y50.021 Z-3.03
X80.743 Y50.031 Z-3.071
X80.778 Y50.043 Z-3.106
X80.819 Y50.058 Z-3.132
X80.865 Y50.074 Z-3.148
X80.912 Y50.091 Z-3.153
G3 X81.854 Y50.466 R12.913
G1 X82.604 Y50.8
X81.854 Y51.136
X81.814 Y51.146
X81.773 Y51.141
X81.736 Y51.124
X80.414 Y50.172
X80.385 Y50.142
X80.368 Y50.103
X80.365 Y50.061
X80.378 Y50.02
X80.404 Y49.987
X80.44 Y49.965
X80.481 Y49.956
X80.523 Y49.963
X80.571 Y49.98 Z-3.159
X80.616 Y49.996 Z-3.175
X80.657 Y50.011 Z-3.2
X80.692 Y50.023 Z-3.235
X80.72 Y50.033 Z-3.277
X80.747 Y50.042 Z-3.318
X80.782 Y50.055 Z-3.353
X80.824 Y50.069 Z-3.379
X80.869 Y50.085 Z-3.395
X80.917 Y50.102 Z-3.4
G3 X81.841 Y50.47 R12.676
G1 X82.584 Y50.8
X81.844 Y51.131
X81.809 Y51.144
X78.819 Y51.951
X78.767 Y51.965 Z-3.394
X78.719 Y51.978 Z-3.376
X78.675 Y51.99 Z-3.348
X78.639 Y52. Z-3.31
X78.612 Y52.007 Z-3.265
X78.595 Y52.012 Z-3.215
X78.589 Y52.013 Z-3.162
G0 Z5.
X91.367 Y51.659
Z-0.584
G1 Z-0.594 F381.
Z-2.668 F1499.
X91.362 Y51.657 Z-2.721
X91.345 Y51.651 Z-2.772
X91.318 Y51.642 Z-2.817
X91.283 Y51.629 Z-2.854
X91.24 Y51.614 Z-2.883
X91.193 Y51.598 Z-2.9
X91.143 Y51.58 Z-2.906
G3 X90.037 Y51.14 R15.163
G1 X89.27 Y50.799
X89.324 Y50.778
X89.352 Y50.767
X90.038 Y50.459
X90.078 Y50.449
X90.119 Y50.453
X90.157 Y50.471
X91.492 Y51.44
X91.521 Y51.47
X91.538 Y51.509
X91.54 Y51.551
X91.528 Y51.591
X91.502 Y51.625
X91.466 Y51.647
X91.424 Y51.655
X91.383 Y51.648
X91.335 Y51.632 Z-2.912
X91.29 Y51.615 Z-2.928
X91.248 Y51.601 Z-2.954
X91.213 Y51.589 Z-2.988
X91.186 Y51.579 Z-3.03
X91.159 Y51.569 Z-3.071
X91.123 Y51.557 Z-3.106
X91.082 Y51.542 Z-3.132
X91.037 Y51.526 Z-3.148
X90.989 Y51.51 Z-3.153
G3 X90.055 Y51.139 R12.794
G1 X89.292 Y50.801
X89.321 Y50.79
X89.352 Y50.777
X90.053 Y50.462
X90.093 Y50.452
X90.134 Y50.456
X90.171 Y50.474
X91.495 Y51.432
X91.524 Y51.463
X91.541 Y51.502
X91.543 Y51.544
X91.53 Y51.584
X91.504 Y51.618
X91.468 Y51.64
X91.427 Y51.648
X91.385 Y51.641
X91.338 Y51.624 Z-3.159
X91.292 Y51.608 Z-3.175
X91.251 Y51.594 Z-3.2
X91.216 Y51.581 Z-3.235
X91.188 Y51.571 Z-3.277
X91.161 Y51.562 Z-3.318
X91.126 Y51.549 Z-3.353
X91.085 Y51.535 Z-3.379
X91.039 Y51.519 Z-3.395
X90.992 Y51.502 Z-3.4
G3 X90.068 Y51.132 R12.676
G1 X89.35 Y50.813
X89.32 Y50.8
X89.35 Y50.787
X90.067 Y50.468
X90.102 Y50.455
X93.093 Y49.653
X93.144 Y49.639 Z-3.394
X93.193 Y49.626 Z-3.376
X93.236 Y49.614 Z-3.348
X93.273 Y49.604 Z-3.31
X93.3 Y49.597 Z-3.265
X93.317 Y49.592 Z-3.215
X93.323 Y49.591 Z-3.162
G0 Z5.
X94.999 Y46.424
Z-0.594
G1 Z-2.668 F1499.
X95.001 Y46.418 Z-2.721
X95.005 Y46.401 Z-2.772
X95.013 Y46.374 Z-2.817
X95.023 Y46.337 Z-2.854
X95.036 Y46.294 Z-2.883
X95.049 Y46.245 Z-2.9
X95.064 Y46.194 Z-2.906
G3 X95.433 Y45.062 R15.163
G1 X95.446 Y45.026
X95.454 Y45.003
X95.7 Y44.244
X95.966 Y45.061
X95.971 Y45.093
X95.968 Y45.125
X95.957 Y45.155
X95.386 Y46.196
X95.359 Y46.229
X95.322 Y46.25
X95.28 Y46.258
X95.239 Y46.25
X95.202 Y46.228
X95.176 Y46.194
X95.163 Y46.153
X95.166 Y46.111
X95.177 Y46.062 Z-2.912
X95.189 Y46.015 Z-2.928
X95.199 Y45.972 Z-2.954
X95.208 Y45.936 Z-2.988
X95.214 Y45.908 Z-3.03
X95.221 Y45.88 Z-3.071
X95.23 Y45.843 Z-3.106
X95.24 Y45.801 Z-3.132
X95.251 Y45.754 Z-3.148
X95.263 Y45.705 Z-3.153
G3 X95.442 Y45.069 R8.411
G1 X95.7 Y44.273
X95.874 Y44.81
X95.88 Y44.828
X95.967 Y45.072
X95.974 Y45.106
X95.971 Y45.142
X95.957 Y45.174
X95.3 Y46.244
X95.271 Y46.276
X95.233 Y46.295
X95.191 Y46.3
X95.149 Y46.29
X95.114 Y46.265
X95.09 Y46.23
X95.08 Y46.189
X95.085 Y46.146
X95.1 Y46.098 Z-3.159
X95.114 Y46.052 Z-3.175
X95.127 Y46.01 Z-3.2
X95.138 Y45.975 Z-3.235
X95.147 Y45.947 Z-3.277
X95.155 Y45.919 Z-3.318
X95.166 Y45.884 Z-3.353
X95.179 Y45.842 Z-3.379
X95.193 Y45.796 Z-3.395
X95.208 Y45.748 Z-3.4
G3 X95.447 Y45.072 R9.122
G1 X95.46 Y45.04
X95.473 Y45.004
X95.701 Y44.304
X95.864 Y44.81
X95.871 Y44.83
X95.961 Y45.078
X95.971 Y45.114
X96.557 Y48.155
X96.567 Y48.207 Z-3.394
X96.577 Y48.257 Z-3.376
X96.585 Y48.301 Z-3.348
X96.592 Y48.338 Z-3.31
X96.598 Y48.366 Z-3.265
X96.601 Y48.383 Z-3.215
X96.602 Y48.389 Z-3.162
G0 Z5.
X96.4 Y35.682
Z-0.594
G1 Z-2.668 F1499.
X96.399 Y35.687 Z-2.721
X96.394 Y35.704 Z-2.772
X96.386 Y35.732 Z-2.817
X96.376 Y35.768 Z-2.854
X96.364 Y35.811 Z-2.883
X96.35 Y35.86 Z-2.9
