;FLAVOR:Marlin
;TIME:7319
;Filament used: 5.38033m
;Layer height: 0.2
;MINX:90
;MINY:119.333
;MINZ:0.2
;MAXX:210
;MAXY:200.333
;MAXZ:19.6
;Generated with Cura_SteamEngine main
M140 S50
M105
M190 S50
M104 S200
M105
M109 S200
M82 ;absolute extrusion mode
M201 X500.00 Y500.00 Z100.00 E5000.00 ;Setup machine max acceleration
M203 X500.00 Y500.00 Z10.00 E50.00 ;Setup machine max feedrate
M204 P500.00 R1000.00 T500.00 ;Setup Print/Retract/Travel acceleration
M205 X8.00 Y8.00 Z0.40 E5.00 ;Setup Jerk
M220 S100 ;Reset Feedrate
M221 S100 ;Reset Flowrate

G28 ;Home

G92 E0 ;Reset Extruder
G1 Z2.0 F3000 ;Move Z Axis up
G1 X10.1 Y20 Z0.28 F5000.0 ;Move to start position
G1 X10.1 Y200.0 Z0.28 F1500.0 E15 ;Draw the first line
G1 X10.4 Y200.0 Z0.28 F5000.0 ;Move to side a little
G1 X10.4 Y20 Z0.28 F1500.0 E30 ;Draw the second line
G92 E0 ;Reset Extruder
G1 Z2.0 F3000 ;Move Z Axis up

G92 E0
G92 E0
G1 F2700 E-5
;LAYER_COUNT:98
;LAYER:0
M107
G0 F6000 X94.626 Y121.384 Z0.2
G0 X90.001 Y130.858
;TYPE:SKIRT
G1 F2700 E0
G1 F1200 X90.01 Y130.193 E0.02212
G1 X90.063 Y129.257 E0.0533
G1 X90.195 Y128.328 E0.08451
G1 X90.406 Y127.414 E0.11571
G1 X90.694 Y126.522 E0.14689
G1 X91.057 Y125.657 E0.17809
G1 X91.492 Y124.826 E0.20928
G1 X91.996 Y124.036 E0.24045
G1 X92.566 Y123.291 E0.27165
G1 X93.198 Y122.597 E0.30287
G1 X93.886 Y121.96 E0.33405
G1 X94.626 Y121.384 E0.36524
G1 X95.412 Y120.872 E0.39644
G1 X96.239 Y120.43 E0.42763
G1 X97.101 Y120.06 E0.45883
G1 X97.991 Y119.764 E0.49003
G1 X98.903 Y119.546 E0.52122
G1 X99.83 Y119.405 E0.5524
G1 X100.701 Y119.346 E0.58144
G1 X101.33 Y119.333 E0.60236
G1 X198.451 Y119.334 E3.83262
G1 X199.149 Y119.344 E3.85584
G1 X200.085 Y119.398 E3.88702
G1 X201.013 Y119.53 E3.9182
G1 X201.927 Y119.742 E3.94941
G1 X202.819 Y120.031 E3.98059
G1 X203.684 Y120.394 E4.01179
G1 X204.514 Y120.83 E4.04298
G1 X205.305 Y121.335 E4.07419
G1 X206.049 Y121.906 E4.10538
G1 X206.742 Y122.538 E4.13658
G1 X207.379 Y123.226 E4.16776
G1 X207.954 Y123.967 E4.19896
G1 X208.465 Y124.753 E4.23014
G1 X208.907 Y125.581 E4.26136
G1 X209.276 Y126.443 E4.29254
G1 X209.571 Y127.333 E4.32373
G1 X209.789 Y128.245 E4.35492
G1 X209.929 Y129.173 E4.38613
G1 X209.987 Y130.034 E4.41483
G1 X210 Y130.663 E4.43576
G1 X209.999 Y188.733 E6.36717
G1 X209.99 Y189.46 E6.39136
G1 X209.939 Y190.397 E6.42257
G1 X209.807 Y191.325 E6.45374
G1 X209.598 Y192.239 E6.48493
G1 X209.311 Y193.132 E6.51612
G1 X208.949 Y193.998 E6.54734
G1 X208.515 Y194.829 E6.57852
G1 X208.011 Y195.62 E6.60972
G1 X207.442 Y196.365 E6.6409
G1 X206.811 Y197.06 E6.67212
G1 X206.124 Y197.698 E6.7033
G1 X205.385 Y198.275 E6.73449
G1 X204.599 Y198.787 E6.76569
G1 X203.773 Y199.23 E6.79686
G1 X202.911 Y199.602 E6.82809
G1 X202.022 Y199.898 E6.85925
G1 X201.11 Y200.118 E6.89046
G1 X200.183 Y200.259 E6.92164
G1 X199.299 Y200.32 E6.95112
G1 X198.67 Y200.333 E6.97204
G1 X101.565 Y200.332 E10.20177
G1 X100.867 Y200.323 E10.22498
G1 X99.931 Y200.271 E10.25616
G1 X99.002 Y200.139 E10.28737
G1 X98.088 Y199.929 E10.31856
G1 X97.195 Y199.642 E10.34976
G1 X96.33 Y199.279 E10.38096
G1 X95.499 Y198.845 E10.41214
G1 X94.708 Y198.341 E10.44334
G1 X93.963 Y197.771 E10.47454
G1 X93.269 Y197.14 E10.50574
G1 X92.632 Y196.453 E10.5369
G1 X92.055 Y195.713 E10.56811
G1 X91.543 Y194.927 E10.59931
G1 X91.1 Y194.1 E10.63051
G1 X90.729 Y193.239 E10.66169
G1 X90.433 Y192.349 E10.69289
G1 X90.214 Y191.437 E10.72408
G1 X90.073 Y190.51 E10.75527
G1 X90.013 Y189.621 E10.78491
G1 X90 Y188.991 E10.80586
G1 X90.001 Y130.858 E12.73938
G0 F6000 X90.401 Y130.864
G1 F1200 X90.41 Y130.199 E12.7615
G1 X90.462 Y129.279 E12.79214
G1 X90.594 Y128.368 E12.82276
G1 X90.805 Y127.472 E12.85338
G1 X91.092 Y126.597 E12.884
G1 X91.455 Y125.751 E12.91462
G1 X91.889 Y124.939 E12.94525
G1 X92.392 Y124.168 E12.97586
G1 X92.961 Y123.444 E13.00649
G1 X93.589 Y122.772 E13.03708
G1 X94.274 Y122.156 E13.06772
G1 X95.01 Y121.603 E13.09834
G1 X95.791 Y121.115 E13.12897
G1 X96.611 Y120.697 E13.15959
G1 X97.465 Y120.352 E13.19022
G1 X98.345 Y120.082 E13.22084
G1 X99.245 Y119.89 E13.25144
G1 X100.159 Y119.776 E13.28208
G1 X100.712 Y119.746 E13.3005
G1 X101.33 Y119.733 E13.32106
G1 X198.445 Y119.734 E16.55112
G1 X199.143 Y119.744 E16.57433
G1 X200.062 Y119.797 E16.60495
G1 X200.973 Y119.93 E16.63557
G1 X201.869 Y120.141 E16.66619
G1 X202.743 Y120.429 E16.69679
G1 X203.59 Y120.792 E16.72744
G1 X204.401 Y121.227 E16.75805
G1 X205.171 Y121.731 E16.78866
G1 X205.895 Y122.3 E16.81929
G1 X206.567 Y122.93 E16.84993
G1 X207.182 Y123.615 E16.88054
G1 X207.735 Y124.351 E16.91116
G1 X208.222 Y125.132 E16.94178
G1 X208.639 Y125.953 E16.9724
G1 X208.984 Y126.807 E17.00304
G1 X209.253 Y127.687 E17.03364
G1 X209.445 Y128.588 E17.06428
G1 X209.558 Y129.501 E17.09488
G1 X209.587 Y130.045 E17.113
G1 X209.6 Y130.663 E17.13356
G1 X209.599 Y188.728 E19.06481
G1 X209.59 Y189.455 E19.08899
G1 X209.539 Y190.374 E19.11961
G1 X209.408 Y191.286 E19.15025
G1 X209.198 Y192.182 E19.18086
G1 X208.912 Y193.057 E19.21148
G1 X208.551 Y193.904 E19.2421
G1 X208.117 Y194.716 E19.27272
G1 X207.615 Y195.488 E19.30335
G1 X207.047 Y196.213 E19.33398
G1 X206.419 Y196.886 E19.3646
G1 X205.735 Y197.502 E19.39521
G1 X205 Y198.056 E19.42583
G1 X204.22 Y198.545 E19.45645
G1 X203.4 Y198.964 E19.48707
G1 X202.547 Y199.31 E19.51769
G1 X201.667 Y199.581 E19.54832
G1 X200.767 Y199.774 E19.57893
G1 X199.853 Y199.889 E19.60957
G1 X199.288 Y199.92 E19.62839
G1 X198.67 Y199.933 E19.64895
G1 X101.57 Y199.932 E22.87851
G1 X100.872 Y199.923 E22.90173
G1 X99.953 Y199.871 E22.93234
G1 X99.042 Y199.74 E22.96295
G1 X98.146 Y199.53 E22.99356
G1 X97.271 Y199.243 E23.02419
G1 X96.424 Y198.881 E23.05483
G1 X95.612 Y198.447 E23.08545
G1 X94.841 Y197.945 E23.11605
G1 X94.116 Y197.377 E23.14668
G1 X93.443 Y196.748 E23.17732
G1 X92.828 Y196.064 E23.20791
G1 X92.274 Y195.329 E23.23853
G1 X91.786 Y194.548 E23.26916
G1 X91.367 Y193.728 E23.29978
G1 X91.021 Y192.875 E23.3304
G1 X90.751 Y191.995 E23.36102
G1 X90.558 Y191.094 E23.39166
G1 X90.444 Y190.181 E23.42227
G1 X90.413 Y189.61 E23.44128
G1 X90.4 Y188.991 E23.46188
G1 X90.401 Y130.864 E25.39519
G0 F6000 X90.801 Y130.869
G1 F1200 X90.81 Y130.204 E25.41731
G1 X90.862 Y129.302 E25.44736
G1 X90.994 Y128.409 E25.47738
G1 X91.204 Y127.531 E25.50741
G1 X91.491 Y126.674 E25.53747
G1 X91.853 Y125.847 E25.5675
G1 X92.286 Y125.055 E25.59752
G1 X92.788 Y124.304 E25.62756
G1 X93.355 Y123.6 E25.65763
G1 X93.981 Y122.95 E25.68764
G1 X94.662 Y122.357 E25.71768
G1 X95.394 Y121.827 E25.74773
G1 X96.169 Y121.364 E25.77776
G1 X96.982 Y120.971 E25.80779
G1 X97.827 Y120.651 E25.83785
G1 X98.696 Y120.408 E25.86786
G1 X99.584 Y120.242 E25.89791
G1 X100.723 Y120.146 E25.93592
G1 X101.33 Y120.133 E25.95612
G1 X198.439 Y120.134 E29.18598
G1 X199.137 Y120.144 E29.20919
G1 X200.039 Y120.197 E29.23925
G1 X200.932 Y120.329 E29.26927
G1 X201.81 Y120.54 E29.2993
G1 X202.666 Y120.828 E29.32934
G1 X203.493 Y121.19 E29.35937
G1 X204.285 Y121.625 E29.38942
G1 X205.036 Y122.127 E29.41947
G1 X205.739 Y122.694 E29.44951
G1 X206.389 Y123.321 E29.47954
G1 X206.981 Y124.003 E29.50958
G1 X207.511 Y124.734 E29.53961
G1 X207.973 Y125.51 E29.56965
G1 X208.366 Y126.323 E29.59968
G1 X208.684 Y127.168 E29.62971
G1 X208.927 Y128.038 E29.65976
G1 X209.092 Y128.926 E29.6898
G1 X209.187 Y130.056 E29.72751
G1 X209.2 Y130.663 E29.74771
G1 X209.199 Y188.723 E31.67879
G1 X209.19 Y189.45 E31.70297
G1 X209.139 Y190.352 E31.73302
G1 X209.008 Y191.246 E31.76307
G1 X208.799 Y192.124 E31.79309
G1 X208.513 Y192.981 E31.82314
G1 X208.152 Y193.809 E31.85318
G1 X207.72 Y194.601 E31.88319
G1 X207.219 Y195.353 E31.91324
G1 X206.653 Y196.057 E31.94329
G1 X206.028 Y196.708 E31.9733
G1 X205.347 Y197.302 E32.00336
G1 X204.616 Y197.833 E32.03341
G1 X203.842 Y198.297 E32.06343
G1 X203.029 Y198.691 E32.09347
G1 X202.185 Y199.011 E32.1235
G1 X201.315 Y199.256 E32.15356
G1 X200.428 Y199.422 E32.18357
G1 X199.277 Y199.52 E32.22199
G1 X198.67 Y199.533 E32.24219
G1 X101.575 Y199.532 E35.47158
G1 X100.877 Y199.523 E35.4948
G1 X99.976 Y199.472 E35.52481
G1 X99.082 Y199.34 E35.55487
G1 X98.204 Y199.131 E35.58489
G1 X97.347 Y198.844 E35.61495
G1 X96.52 Y198.483 E35.64496
G1 X95.727 Y198.05 E35.67501
G1 X94.976 Y197.549 E35.70504
G1 X94.272 Y196.983 E35.73508
G1 X93.621 Y196.357 E35.76512
G1 X93.028 Y195.676 E35.79515
G1 X92.498 Y194.945 E35.82519
G1 X92.034 Y194.17 E35.85523
G1 X91.64 Y193.357 E35.88528
G1 X91.32 Y192.513 E35.9153
G1 X91.076 Y191.643 E35.94535
G1 X90.91 Y190.755 E35.9754
G1 X90.813 Y189.6 E36.01395
G1 X90.8 Y188.991 E36.03421
G1 X90.801 Y130.869 E37.96735
G1 F2700 E32.96735
;MESH:NMJ_0_0_1_Plate_Aligner2.stl
G0 F6000 X100.335 Y130.869
G0 X101.6 Y188.733
;TYPE:WALL-INNER
G1 F2700 E37.96735
G1 F1200 X169.5 Y188.733 E40.22572
G1 X198.4 Y188.733 E41.18694
G1 X198.4 Y130.933 E43.10937
G1 X101.6 Y130.933 E46.32895
G1 X101.6 Y188.733 E48.25139
G0 F6000 X101.2 Y189.133
;TYPE:WALL-OUTER
G1 F1200 X169.5 Y189.133 E50.52306
G1 X198.8 Y189.133 E51.49758
G1 X198.8 Y130.533 E53.44662
G1 X101.2 Y130.533 E56.69281
G1 X101.2 Y189.133 E58.64185
G0 F6000 X101.47 Y188.863
G0 X101.7 Y188.373
G0 X101.96 Y188.373
;TYPE:SKIN
G1 F1200 X198.04 Y188.373 E61.83749
G1 X198.04 Y131.293 E63.73598
G1 X101.96 Y131.293 E66.93161
G1 X101.96 Y188.373 E68.8301
G0 F6000 X102.753 Y188.172
G1 F1200 X102.159 Y187.578 E68.85804
G0 F6000 X102.159 Y187.012
G1 F1200 X103.319 Y188.172 E68.9126
G0 F6000 X103.885 Y188.172
G1 F1200 X102.159 Y186.447 E68.99376
G0 F6000 X102.159 Y185.881
G1 F1200 X104.45 Y188.172 E69.10153
G0 F6000 X105.016 Y188.172
G1 F1200 X102.159 Y185.315 E69.23591
G0 F6000 X102.159 Y184.75
G1 F1200 X105.582 Y188.172 E69.39689
G0 F6000 X106.148 Y188.172
G1 F1200 X102.159 Y184.184 E69.5845
G0 F6000 X102.159 Y183.618
G1 F1200 X106.713 Y188.172 E69.79871
G0 F6000 X107.279 Y188.172
G1 F1200 X102.159 Y183.052 E70.03954
G0 F6000 X102.159 Y182.487
G1 F1200 X107.845 Y188.172 E70.30696
G0 F6000 X108.41 Y188.172
G1 F1200 X102.159 Y181.921 E70.60099
G0 F6000 X102.159 Y181.355
G1 F1200 X108.976 Y188.172 E70.92164
G0 F6000 X109.542 Y188.172
G1 F1200 X102.159 Y180.79 E71.26889
G0 F6000 X102.159 Y180.224
G1 F1200 X110.107 Y188.172 E71.64274
G0 F6000 X110.673 Y188.172
G1 F1200 X102.159 Y179.658 E72.04322
G0 F6000 X102.159 Y179.093
G1 F1200 X111.239 Y188.172 E72.47029
G0 F6000 X111.804 Y188.172
G1 F1200 X102.159 Y178.527 E72.92396
G0 F6000 X102.159 Y177.961
G1 F1200 X112.37 Y188.172 E73.40425
G0 F6000 X112.936 Y188.172
G1 F1200 X102.159 Y177.396 E73.91115
G0 F6000 X102.159 Y176.83
G1 F1200 X113.501 Y188.172 E74.44464
G0 F6000 X114.067 Y188.172
G1 F1200 X102.159 Y176.264 E75.00475
G0 F6000 X102.159 Y175.699
G1 F1200 X114.633 Y188.172 E75.59147
G0 F6000 X115.199 Y188.172
G1 F1200 X102.159 Y175.133 E76.20481
G0 F6000 X102.159 Y174.567
G1 F1200 X115.764 Y188.172 E76.84475
G0 F6000 X116.33 Y188.172
G1 F1200 X102.159 Y174.002 E77.51128
G0 F6000 X102.159 Y173.436
G1 F1200 X116.896 Y188.172 E78.20444
G0 F6000 X117.461 Y188.172
G1 F1200 X102.159 Y172.87 E78.9242
G0 F6000 X102.159 Y172.304
G1 F1200 X118.027 Y188.172 E79.67058
G0 F6000 X118.593 Y188.172
G1 F1200 X102.159 Y171.739 E80.44356
G0 F6000 X102.159 Y171.173
G1 F1200 X119.158 Y188.172 E81.24315
G0 F6000 X119.724 Y188.172
G1 F1200 X102.159 Y170.607 E82.06935
G0 F6000 X102.159 Y170.042
G1 F1200 X120.29 Y188.172 E82.92215
G0 F6000 X120.855 Y188.172
G1 F1200 X102.159 Y169.476 E83.80155
G0 F6000 X102.159 Y168.91
G1 F1200 X121.421 Y188.172 E84.70758
G0 F6000 X121.987 Y188.172
G1 F1200 X102.159 Y168.345 E85.64021
G0 F6000 X102.159 Y167.779
G1 F1200 X122.552 Y188.172 E86.59943
G0 F6000 X123.118 Y188.172
G1 F1200 X102.159 Y167.213 E87.58528
G0 F6000 X102.159 Y166.648
G1 F1200 X123.684 Y188.172 E88.59772
G0 F6000 X124.249 Y188.172
G1 F1200 X102.159 Y166.082 E89.63677
G0 F6000 X102.159 Y165.516
G1 F1200 X124.815 Y188.172 E90.70244
G0 F6000 X125.381 Y188.172
G1 F1200 X102.159 Y164.951 E91.79471
G0 F6000 X102.159 Y164.385
G1 F1200 X125.947 Y188.172 E92.9136
G0 F6000 X126.512 Y188.172
G1 F1200 X102.159 Y163.819 E94.05909
G0 F6000 X102.159 Y163.253
G1 F1200 X127.078 Y188.172 E95.2312
G0 F6000 X127.644 Y188.172
G1 F1200 X102.159 Y162.688 E96.42991
G0 F6000 X102.159 Y162.122
G1 F1200 X128.209 Y188.172 E97.65523
G0 F6000 X128.775 Y188.172
G1 F1200 X102.159 Y161.556 E98.90716
G0 F6000 X102.159 Y160.991
G1 F1200 X129.341 Y188.172 E100.1857
G0 F6000 X129.906 Y188.172
G1 F1200 X102.159 Y160.425 E101.49083
G0 F6000 X102.159 Y159.859
G1 F1200 X130.472 Y188.172 E102.82259
G0 F6000 X131.038 Y188.172
G1 F1200 X102.159 Y159.294 E104.18094
G0 F6000 X102.159 Y158.728
G1 F1200 X131.603 Y188.172 E105.5659
G0 F6000 X132.169 Y188.172
G1 F1200 X102.159 Y158.162 E106.97748
G0 F6000 X102.159 Y157.597
G1 F1200 X132.735 Y188.172 E108.41565
G0 F6000 X133.3 Y188.172
G1 F1200 X102.159 Y157.031 E109.88043
G0 F6000 X102.159 Y156.465
G1 F1200 X133.866 Y188.172 E111.37183
G0 F6000 X134.432 Y188.172
G1 F1200 X102.159 Y155.9 E112.88983
G0 F6000 X102.159 Y155.334
G1 F1200 X134.997 Y188.172 E114.43443
G0 F6000 X135.563 Y188.172
G1 F1200 X102.159 Y154.768 E116.00565
G0 F6000 X102.159 Y154.203
G1 F1200 X136.129 Y188.172 E117.60347
G0 F6000 X136.695 Y188.172
G1 F1200 X102.159 Y153.637 E119.22792
G0 F6000 X102.159 Y153.071
G1 F1200 X137.26 Y188.172 E120.87896
G0 F6000 X137.826 Y188.172
G1 F1200 X102.159 Y152.505 E122.55663
G0 F6000 X102.159 Y151.94
G1 F1200 X138.392 Y188.172 E124.26089
G0 F6000 X138.957 Y188.172
G1 F1200 X102.159 Y151.374 E125.99176
G0 F6000 X102.159 Y150.808
G1 F1200 X139.523 Y188.172 E127.74924
G0 F6000 X140.089 Y188.172
G1 F1200 X102.159 Y150.243 E129.53333
G0 F6000 X102.159 Y149.677
G1 F1200 X140.654 Y188.172 E131.34402
G0 F6000 X141.22 Y188.172
G1 F1200 X102.159 Y149.111 E133.18133
G0 F6000 X102.159 Y148.546
G1 F1200 X141.786 Y188.172 E135.04524
G0 F6000 X142.351 Y188.172
G1 F1200 X102.159 Y147.98 E136.93575
G0 F6000 X102.159 Y147.414
G1 F1200 X142.917 Y188.172 E138.85288
G0 F6000 X143.483 Y188.172
G1 F1200 X102.159 Y146.849 E140.79661
G0 F6000 X102.159 Y146.283
G1 F1200 X144.048 Y188.172 E142.76694
G0 F6000 X144.614 Y188.172
G1 F1200 X102.159 Y145.717 E144.76389
G0 F6000 X102.159 Y145.152
G1 F1200 X145.18 Y188.172 E146.78744
G0 F6000 X145.746 Y188.172
G1 F1200 X102.159 Y144.586 E148.83762
G0 F6000 X102.159 Y144.02
G1 F1200 X146.311 Y188.172 E150.91439
G0 F6000 X146.877 Y188.172
G1 F1200 X102.159 Y143.454 E153.01779
G0 F6000 X102.159 Y142.889
G1 F1200 X147.443 Y188.172 E155.14779
G0 F6000 X148.008 Y188.172
G1 F1200 X102.159 Y142.323 E157.30438
G0 F6000 X102.159 Y141.757
G1 F1200 X148.574 Y188.172 E159.4876
G0 F6000 X149.14 Y188.172
G1 F1200 X102.159 Y141.192 E161.69742
G0 F6000 X102.159 Y140.626
G1 F1200 X149.705 Y188.172 E163.93384
G0 F6000 X150.271 Y188.172
G1 F1200 X102.159 Y140.06 E166.19688
G0 F6000 X102.159 Y139.495
G1 F1200 X150.837 Y188.172 E168.48652
G0 F6000 X151.402 Y188.172
G1 F1200 X102.159 Y138.929 E170.80276
G0 F6000 X102.159 Y138.363
G1 F1200 X151.968 Y188.172 E173.14562
G0 F6000 X152.534 Y188.172
G1 F1200 X102.159 Y137.798 E175.51509
G0 F6000 X102.159 Y137.232
G1 F1200 X153.099 Y188.172 E177.91115
G0 F6000 X153.665 Y188.172
G1 F1200 X102.159 Y136.666 E180.33383
G0 F6000 X102.159 Y136.101
G1 F1200 X154.231 Y188.172 E182.78312
G0 F6000 X154.796 Y188.172
G1 F1200 X102.159 Y135.535 E185.259
G0 F6000 X102.159 Y134.969
G1 F1200 X155.362 Y188.172 E187.7615
G0 F6000 X155.928 Y188.172
G1 F1200 X102.159 Y134.404 E190.29061
G0 F6000 X102.159 Y133.838
G1 F1200 X156.494 Y188.172 E192.84634
G0 F6000 X157.059 Y188.172
G1 F1200 X102.159 Y133.272 E195.42867
G0 F6000 X102.159 Y132.706
G1 F1200 X157.625 Y188.172 E198.03762
G0 F6000 X158.191 Y188.172
G1 F1200 X102.159 Y132.141 E200.67317
G0 F6000 X102.159 Y131.575
G1 F1200 X158.756 Y188.172 E203.33532
G0 F6000 X159.322 Y188.172
G1 F1200 X102.642 Y131.492 E206.00137
G0 F6000 X103.208 Y131.492
G1 F1200 X159.888 Y188.172 E208.66742
G0 F6000 X160.453 Y188.172
G1 F1200 X103.774 Y131.492 E211.33345
G0 F6000 X104.339 Y131.492
G1 F1200 X161.019 Y188.172 E213.99951
G0 F6000 X161.585 Y188.172
G1 F1200 X104.905 Y131.492 E216.66556
G0 F6000 X105.471 Y131.492
G1 F1200 X162.15 Y188.172 E219.33159
