(NMJPLATE0PT0PT2_TOP_STEP1_4MM_SIDE1)
(T8  D=4. CR=0. - ZMIN=-17.05 - FLAT END MILL)
G0 G90 G94 G17
G21
G53 G0 Z0.

(FACE2)
M5
T8
M3 S16000
G55
M8
G0 X155. Y0.775
Z15.
Z5.
G1 Z0.35 F380.
X154.992 Z0.272 F1500.
X154.97 Z0.197
X154.933 Z0.128
X154.883 Z0.067
X154.822 Z0.017
X154.753 Z-0.02
X154.678 Z-0.042
X154.6 Z-0.05
X154.41
X-2.01
G2 X-3.384 Y2.149 R1.374
X-2.01 Y3.522 R1.374
G1 X154.41
G3 X155.784 Y4.896 R1.374
X154.41 Y6.269 R1.374
G1 X-2.01
G2 X-3.384 Y7.643 R1.374
X-2.01 Y9.017 R1.374
G1 X154.41
G3 X155.784 Y10.39 R1.374
X154.41 Y11.764 R1.374
G1 X-2.01
G2 X-3.384 Y13.137 R1.374
X-2.01 Y14.511 R1.374
G1 X154.41
G3 X155.784 Y15.884 R1.374
X154.41 Y17.258 R1.374
G1 X-2.01
G2 X-3.384 Y18.632 R1.374
X-2.01 Y20.005 R1.374
G1 X154.41
G3 X155.784 Y21.379 R1.374
X154.41 Y22.752 R1.374
G1 X-2.01
G2 X-3.384 Y24.126 R1.374
X-2.01 Y25.499 R1.374
G1 X154.41
G3 X155.784 Y26.873 R1.374
X154.41 Y28.246 R1.374
G1 X-2.01
G2 X-3.384 Y29.62 R1.374
X-2.01 Y30.994 R1.374
G1 X154.41
G3 X155.784 Y32.367 R1.374
X154.41 Y33.741 R1.374
G1 X-2.01
G2 X-3.384 Y35.114 R1.374
X-2.01 Y36.488 R1.374
G1 X154.41
G3 X155.784 Y37.861 R1.374
X154.41 Y39.235 R1.374
G1 X-2.01
G2 X-3.384 Y40.609 R1.374
X-2.01 Y41.982 R1.374
G1 X154.41
G3 X155.784 Y43.356 R1.374
X154.41 Y44.729 R1.374
G1 X-2.01
G2 X-3.384 Y46.103 R1.374
X-2.01 Y47.476 R1.374
G1 X154.41
G3 X155.784 Y48.85 R1.374
X154.41 Y50.224 R1.374
G1 X-2.01
G2 X-3.384 Y51.597 R1.374
X-2.01 Y52.971 R1.374
G1 X154.41
G3 X155.784 Y54.344 R1.374
X154.41 Y55.718 R1.374
G1 X-2.01
G2 X-3.384 Y57.091 R1.374
X-2.01 Y58.465 R1.374
G1 X154.41
G3 X155.784 Y59.839 R1.374
X154.41 Y61.212 R1.374
G1 X-2.01
G2 X-3.384 Y62.586 R1.374
X-2.01 Y63.959 R1.374
G1 X154.41
G3 X155.784 Y65.333 R1.374
X154.41 Y66.706 R1.374
G1 X-2.01
G2 X-3.384 Y68.08 R1.374
X-2.01 Y69.454 R1.374
G1 X154.41
G3 X155.784 Y70.827 R1.374
X154.41 Y72.201 R1.374
G1 X-2.01
G2 X-3.384 Y73.574 R1.374
X-2.01 Y74.948 R1.374
G1 X154.41
G3 X155.784 Y76.321 R1.374
X154.41 Y77.695 R1.374
G1 X-2.01
G2 X-3.384 Y79.068 R1.374
X-2.01 Y80.442 R1.374
G1 X154.41
G3 X155.784 Y81.816 R1.374
X154.41 Y83.189 R1.374
G1 X-2.01
G2 X-3.384 Y84.563 R1.374
X-2.01 Y85.936 R1.374
G1 X154.41
G3 X155.784 Y87.31 R1.374
X154.41 Y88.683 R1.374
G1 X-2.01
G2 X-3.384 Y90.057 R1.374
X-2.01 Y91.431 R1.374
G1 X154.41
G3 X155.784 Y92.804 R1.374
X154.41 Y94.178 R1.374
G1 X-2.01
G2 X-3.384 Y95.551 R1.374
X-2.01 Y96.925 R1.374
G1 X154.41
G3 X155.784 Y98.298 R1.374
X154.41 Y99.672 R1.374
G1 X-2.01
X-2.088 Z-0.042
X-2.163 Z-0.02
X-2.232 Z0.017
X-2.293 Z0.067
X-2.343 Z0.128
X-2.38 Z0.197
X-2.402 Z0.272
X-2.41 Z0.35
G0 Z5.
X-2.6 Y0.775
G1 Z-0.15 F380.
X-2.592 Z-0.228 F1500.
X-2.57 Z-0.303
X-2.533 Z-0.372
X-2.483 Z-0.433
X-2.422 Z-0.483
X-2.353 Z-0.52
X-2.278 Z-0.542
X-2.2 Z-0.55
X-2.01
X154.41
G3 X155.784 Y2.149 R1.374
X154.41 Y3.522 R1.374
G1 X-2.01
G2 X-3.384 Y4.896 R1.374
X-2.01 Y6.269 R1.374
G1 X154.41
G3 X155.784 Y7.643 R1.374
X154.41 Y9.017 R1.374
G1 X-2.01
G2 X-3.384 Y10.39 R1.374
X-2.01 Y11.764 R1.374
G1 X154.41
G3 X155.784 Y13.137 R1.374
X154.41 Y14.511 R1.374
G1 X-2.01
G2 X-3.384 Y15.884 R1.374
X-2.01 Y17.258 R1.374
G1 X154.41
G3 X155.784 Y18.632 R1.374
X154.41 Y20.005 R1.374
G1 X-2.01
G2 X-3.384 Y21.379 R1.374
X-2.01 Y22.752 R1.374
G1 X154.41
G3 X155.784 Y24.126 R1.374
X154.41 Y25.499 R1.374
G1 X-2.01
G2 X-3.384 Y26.873 R1.374
X-2.01 Y28.246 R1.374
G1 X154.41
G3 X155.784 Y29.62 R1.374
X154.41 Y30.994 R1.374
G1 X-2.01
G2 X-3.384 Y32.367 R1.374
X-2.01 Y33.741 R1.374
G1 X154.41
G3 X155.784 Y35.114 R1.374
X154.41 Y36.488 R1.374
G1 X-2.01
G2 X-3.384 Y37.861 R1.374
X-2.01 Y39.235 R1.374
G1 X154.41
G3 X155.784 Y40.609 R1.374
X154.41 Y41.982 R1.374
G1 X-2.01
G2 X-3.384 Y43.356 R1.374
X-2.01 Y44.729 R1.374
G1 X154.41
G3 X155.784 Y46.103 R1.374
X154.41 Y47.476 R1.374
G1 X-2.01
G2 X-3.384 Y48.85 R1.374
X-2.01 Y50.224 R1.374
G1 X154.41
G3 X155.784 Y51.597 R1.374
X154.41 Y52.971 R1.374
G1 X-2.01
G2 X-3.384 Y54.344 R1.374
X-2.01 Y55.718 R1.374
G1 X154.41
G3 X155.784 Y57.091 R1.374
X154.41 Y58.465 R1.374
G1 X-2.01
G2 X-3.384 Y59.839 R1.374
X-2.01 Y61.212 R1.374
G1 X154.41
G3 X155.784 Y62.586 R1.374
X154.41 Y63.959 R1.374
G1 X-2.01
G2 X-3.384 Y65.333 R1.374
X-2.01 Y66.706 R1.374
G1 X154.41
G3 X155.784 Y68.08 R1.374
X154.41 Y69.454 R1.374
G1 X-2.01
G2 X-3.384 Y70.827 R1.374
X-2.01 Y72.201 R1.374
G1 X154.41
G3 X155.784 Y73.574 R1.374
X154.41 Y74.948 R1.374
G1 X-2.01
G2 X-3.384 Y76.321 R1.374
X-2.01 Y77.695 R1.374
G1 X154.41
G3 X155.784 Y79.068 R1.374
X154.41 Y80.442 R1.374
G1 X-2.01
G2 X-3.384 Y81.816 R1.374
X-2.01 Y83.189 R1.374
G1 X154.41
G3 X155.784 Y84.563 R1.374
X154.41 Y85.936 R1.374
G1 X-2.01
G2 X-3.384 Y87.31 R1.374
X-2.01 Y88.683 R1.374
G1 X154.41
G3 X155.784 Y90.057 R1.374
X154.41 Y91.431 R1.374
G1 X-2.01
G2 X-3.384 Y92.804 R1.374
X-2.01 Y94.178 R1.374
G1 X154.41
G3 X155.784 Y95.551 R1.374
X154.41 Y96.925 R1.374
G1 X-2.01
G2 X-3.384 Y98.298 R1.374
X-2.01 Y99.672 R1.374
G1 X154.41
X154.488 Z-0.542
X154.563 Z-0.52
X154.632 Z-0.483
X154.693 Z-0.433
X154.743 Z-0.372
X154.78 Z-0.303
X154.802 Z-0.228
X154.81 Z-0.15
G0 Z5.
X155. Y0.775
G1 Z-0.65 F380.
X154.992 Z-0.728 F1500.
X154.97 Z-0.803
X154.933 Z-0.872
X154.883 Z-0.933
X154.822 Z-0.983
X154.753 Z-1.02
X154.678 Z-1.042
X154.6 Z-1.05
X154.41
X-2.01
G2 X-3.384 Y2.149 R1.374
X-2.01 Y3.522 R1.374
G1 X154.41
G3 X155.784 Y4.896 R1.374
X154.41 Y6.269 R1.374
G1 X-2.01
G2 X-3.384 Y7.643 R1.374
X-2.01 Y9.017 R1.374
G1 X154.41
G3 X155.784 Y10.39 R1.374
X154.41 Y11.764 R1.374
G1 X-2.01
G2 X-3.384 Y13.137 R1.374
X-2.01 Y14.511 R1.374
G1 X154.41
G3 X155.784 Y15.884 R1.374
X154.41 Y17.258 R1.374
G1 X-2.01
G2 X-3.384 Y18.632 R1.374
X-2.01 Y20.005 R1.374
G1 X154.41
G3 X155.784 Y21.379 R1.374
X154.41 Y22.752 R1.374
G1 X-2.01
G2 X-3.384 Y24.126 R1.374
X-2.01 Y25.499 R1.374
G1 X154.41
G3 X155.784 Y26.873 R1.374
X154.41 Y28.246 R1.374
G1 X-2.01
G2 X-3.384 Y29.62 R1.374
X-2.01 Y30.994 R1.374
G1 X154.41
G3 X155.784 Y32.367 R1.374
X154.41 Y33.741 R1.374
G1 X-2.01
G2 X-3.384 Y35.114 R1.374
X-2.01 Y36.488 R1.374
G1 X154.41
G3 X155.784 Y37.861 R1.374
X154.41 Y39.235 R1.374
G1 X-2.01
G2 X-3.384 Y40.609 R1.374
X-2.01 Y41.982 R1.374
G1 X154.41
G3 X155.784 Y43.356 R1.374
X154.41 Y44.729 R1.374
G1 X-2.01
G2 X-3.384 Y46.103 R1.374
X-2.01 Y47.476 R1.374
G1 X154.41
G3 X155.784 Y48.85 R1.374
X154.41 Y50.224 R1.374
G1 X-2.01
G2 X-3.384 Y51.597 R1.374
X-2.01 Y52.971 R1.374
G1 X154.41
G3 X155.784 Y54.344 R1.374
X154.41 Y55.718 R1.374
G1 X-2.01
G2 X-3.384 Y57.091 R1.374
X-2.01 Y58.465 R1.374
G1 X154.41
G3 X155.784 Y59.839 R1.374
X154.41 Y61.212 R1.374
G1 X-2.01
G2 X-3.384 Y62.586 R1.374
X-2.01 Y63.959 R1.374
G1 X154.41
G3 X155.784 Y65.333 R1.374
X154.41 Y66.706 R1.374
G1 X-2.01
G2 X-3.384 Y68.08 R1.374
X-2.01 Y69.454 R1.374
G1 X154.41
G3 X155.784 Y70.827 R1.374
X154.41 Y72.201 R1.374
G1 X-2.01
G2 X-3.384 Y73.574 R1.374
X-2.01 Y74.948 R1.374
G1 X154.41
G3 X155.784 Y76.321 R1.374
X154.41 Y77.695 R1.374
G1 X-2.01
G2 X-3.384 Y79.068 R1.374
X-2.01 Y80.442 R1.374
G1 X154.41
G3 X155.784 Y81.816 R1.374
X154.41 Y83.189 R1.374
G1 X-2.01
G2 X-3.384 Y84.563 R1.374
X-2.01 Y85.936 R1.374
G1 X154.41
G3 X155.784 Y87.31 R1.374
X154.41 Y88.683 R1.374
G1 X-2.01
G2 X-3.384 Y90.057 R1.374
X-2.01 Y91.431 R1.374
G1 X154.41
G3 X155.784 Y92.804 R1.374
X154.41 Y94.178 R1.374
G1 X-2.01
G2 X-3.384 Y95.551 R1.374
X-2.01 Y96.925 R1.374
G1 X154.41
G3 X155.784 Y98.298 R1.374
X154.41 Y99.672 R1.374
G1 X-2.01
X-2.088 Z-1.042
X-2.163 Z-1.02
X-2.232 Z-0.983
X-2.293 Z-0.933
X-2.343 Z-0.872
X-2.38 Z-0.803
X-2.402 Z-0.728
X-2.41 Z-0.65
G0 Z5.
X-2.6 Y0.775
G1 Z-1.15 F380.
X-2.592 Z-1.228 F1500.
X-2.57 Z-1.303
X-2.533 Z-1.372
X-2.483 Z-1.433
X-2.422 Z-1.483
X-2.353 Z-1.52
X-2.278 Z-1.542
X-2.2 Z-1.55
X-2.01
X154.41
G3 X155.784 Y2.149 R1.374
X154.41 Y3.522 R1.374
G1 X-2.01
G2 X-3.384 Y4.896 R1.374
X-2.01 Y6.269 R1.374
G1 X154.41
G3 X155.784 Y7.643 R1.374
X154.41 Y9.017 R1.374
G1 X-2.01
G2 X-3.384 Y10.39 R1.374
X-2.01 Y11.764 R1.374
G1 X154.41
G3 X155.784 Y13.137 R1.374
X154.41 Y14.511 R1.374
G1 X-2.01
G2 X-3.384 Y15.884 R1.374
X-2.01 Y17.258 R1.374
G1 X154.41
G3 X155.784 Y18.632 R1.374
X154.41 Y20.005 R1.374
G1 X-2.01
G2 X-3.384 Y21.379 R1.374
X-2.01 Y22.752 R1.374
G1 X154.41
G3 X155.784 Y24.126 R1.374
X154.41 Y25.499 R1.374
G1 X-2.01
G2 X-3.384 Y26.873 R1.374
X-2.01 Y28.246 R1.374
G1 X154.41
G3 X155.784 Y29.62 R1.374
X154.41 Y30.994 R1.374
G1 X-2.01
G2 X-3.384 Y32.367 R1.374
X-2.01 Y33.741 R1.374
G1 X154.41
G3 X155.784 Y35.114 R1.374
X154.41 Y36.488 R1.374
G1 X-2.01
G2 X-3.384 Y37.861 R1.374
X-2.01 Y39.235 R1.374
G1 X154.41
G3 X155.784 Y40.609 R1.374
X154.41 Y41.982 R1.374
G1 X-2.01
G2 X-3.384 Y43.356 R1.374
X-2.01 Y44.729 R1.374
G1 X154.41
G3 X155.784 Y46.103 R1.374
X154.41 Y47.476 R1.374
G1 X-2.01
G2 X-3.384 Y48.85 R1.374
X-2.01 Y50.224 R1.374
G1 X154.41
G3 X155.784 Y51.597 R1.374
X154.41 Y52.971 R1.374
G1 X-2.01
G2 X-3.384 Y54.344 R1.374
X-2.01 Y55.718 R1.374
G1 X154.41
G3 X155.784 Y57.091 R1.374
X154.41 Y58.465 R1.374
G1 X-2.01
G2 X-3.384 Y59.839 R1.374
X-2.01 Y61.212 R1.374
G1 X154.41
G3 X155.784 Y62.586 R1.374
X154.41 Y63.959 R1.374
G1 X-2.01
G2 X-3.384 Y65.333 R1.374
X-2.01 Y66.706 R1.374
G1 X154.41
G3 X155.784 Y68.08 R1.374
X154.41 Y69.454 R1.374
G1 X-2.01
G2 X-3.384 Y70.827 R1.374
X-2.01 Y72.201 R1.374
G1 X154.41
G3 X155.784 Y73.574 R1.374
X154.41 Y74.948 R1.374
G1 X-2.01
G2 X-3.384 Y76.321 R1.374
X-2.01 Y77.695 R1.374
G1 X154.41
G3 X155.784 Y79.068 R1.374
X154.41 Y80.442 R1.374
G1 X-2.01
G2 X-3.384 Y81.816 R1.374
X-2.01 Y83.189 R1.374
G1 X154.41
G3 X155.784 Y84.563 R1.374
X154.41 Y85.936 R1.374
G1 X-2.01
G2 X-3.384 Y87.31 R1.374
X-2.01 Y88.683 R1.374
G1 X154.41
G3 X155.784 Y90.057 R1.374
X154.41 Y91.431 R1.374
G1 X-2.01
G2 X-3.384 Y92.804 R1.374
X-2.01 Y94.178 R1.374
G1 X154.41
G3 X155.784 Y95.551 R1.374
X154.41 Y96.925 R1.374
G1 X-2.01
G2 X-3.384 Y98.298 R1.374
X-2.01 Y99.672 R1.374
G1 X154.41
X154.488 Z-1.542
X154.563 Z-1.52
X154.632 Z-1.483
X154.693 Z-1.433
X154.743 Z-1.372
X154.78 Z-1.303
X154.802 Z-1.228
X154.81 Z-1.15
G0 Z5.
X155. Y0.775
G1 Z-1.65 F380.
X154.992 Z-1.728 F1500.
X154.97 Z-1.803
X154.933 Z-1.872
X154.883 Z-1.933
X154.822 Z-1.983
X154.753 Z-2.02
X154.678 Z-2.042
X154.6 Z-2.05
X154.41
X-2.01
G2 X-3.384 Y2.149 R1.374
X-2.01 Y3.522 R1.374
G1 X154.41
G3 X155.784 Y4.896 R1.374
X154.41 Y6.269 R1.374
G1 X-2.01
G2 X-3.384 Y7.643 R1.374
X-2.01 Y9.017 R1.374
G1 X154.41
G3 X155.784 Y10.39 R1.374
X154.41 Y11.764 R1.374
G1 X-2.01
G2 X-3.384 Y13.137 R1.374
X-2.01 Y14.511 R1.374
G1 X154.41
G3 X155.784 Y15.884 R1.374
X154.41 Y17.258 R1.374
G1 X-2.01
G2 X-3.384 Y18.632 R1.374
X-2.01 Y20.005 R1.374
G1 X154.41
G3 X155.784 Y21.379 R1.374
X154.41 Y22.752 R1.374
G1 X-2.01
G2 X-3.384 Y24.126 R1.374
X-2.01 Y25.499 R1.374
G1 X154.41
G3 X155.784 Y26.873 R1.374
X154.41 Y28.246 R1.374
G1 X-2.01
G2 X-3.384 Y29.62 R1.374
X-2.01 Y30.994 R1.374
G1 X154.41
G3 X155.784 Y32.367 R1.374
X154.41 Y33.741 R1.374
G1 X-2.01
G2 X-3.384 Y35.114 R1.374
X-2.01 Y36.488 R1.374
G1 X154.41
G3 X155.784 Y37.861 R1.374
X154.41 Y39.235 R1.374
G1 X-2.01
G2 X-3.384 Y40.609 R1.374
X-2.01 Y41.982 R1.374
G1 X154.41
G3 X155.784 Y43.356 R1.374
X154.41 Y44.729 R1.374
G1 X-2.01
G2 X-3.384 Y46.103 R1.374
X-2.01 Y47.476 R1.374
G1 X154.41
G3 X155.784 Y48.85 R1.374
X154.41 Y50.224 R1.374
G1 X-2.01
G2 X-3.384 Y51.597 R1.374
X-2.01 Y52.971 R1.374
G1 X154.41
G3 X155.784 Y54.344 R1.374
X154.41 Y55.718 R1.374
G1 X-2.01
G2 X-3.384 Y57.091 R1.374
X-2.01 Y58.465 R1.374
G1 X154.41
G3 X155.784 Y59.839 R1.374
X154.41 Y61.212 R1.374
G1 X-2.01
G2 X-3.384 Y62.586 R1.374
X-2.01 Y63.959 R1.374
G1 X154.41
G3 X155.784 Y65.333 R1.374
X154.41 Y66.706 R1.374
G1 X-2.01
G2 X-3.384 Y68.08 R1.374
X-2.01 Y69.454 R1.374
G1 X154.41
G3 X155.784 Y70.827 R1.374
X154.41 Y72.201 R1.374
G1 X-2.01
G2 X-3.384 Y73.574 R1.374
X-2.01 Y74.948 R1.374
G1 X154.41
G3 X155.784 Y76.321 R1.374
X154.41 Y77.695 R1.374
G1 X-2.01
G2 X-3.384 Y79.068 R1.374
X-2.01 Y80.442 R1.374
G1 X154.41
G3 X155.784 Y81.816 R1.374
X154.41 Y83.189 R1.374
G1 X-2.01
G2 X-3.384 Y84.563 R1.374
X-2.01 Y85.936 R1.374
G1 X154.41
G3 X155.784 Y87.31 R1.374
X154.41 Y88.683 R1.374
G1 X-2.01
G2 X-3.384 Y90.057 R1.374
X-2.01 Y91.431 R1.374
G1 X154.41
G3 X155.784 Y92.804 R1.374
X154.41 Y94.178 R1.374
G1 X-2.01
G2 X-3.384 Y95.551 R1.374
X-2.01 Y96.925 R1.374
G1 X154.41
G3 X155.784 Y98.298 R1.374
X154.41 Y99.672 R1.374
G1 X-2.01
X-2.088 Z-2.042
X-2.163 Z-2.02
X-2.232 Z-1.983
X-2.293 Z-1.933
X-2.343 Z-1.872
X-2.38 Z-1.803
X-2.402 Z-1.728
X-2.41 Z-1.65
G0 Z5.
X-2.6 Y0.775
G1 Z-2.15 F380.
X-2.592 Z-2.228 F1500.
X-2.57 Z-2.303
X-2.533 Z-2.372
X-2.483 Z-2.433
X-2.422 Z-2.483
X-2.353 Z-2.52
X-2.278 Z-2.542
X-2.2 Z-2.55
X-2.01
X154.41
G3 X155.784 Y2.149 R1.374
X154.41 Y3.522 R1.374
G1 X-2.01
G2 X-3.384 Y4.896 R1.374
X-2.01 Y6.269 R1.374
G1 X154.41
G3 X155.784 Y7.643 R1.374
X154.41 Y9.017 R1.374
G1 X-2.01
G2 X-3.384 Y10.39 R1.374
X-2.01 Y11.764 R1.374
G1 X154.41
G3 X155.784 Y13.137 R1.374
X154.41 Y14.511 R1.374
G1 X-2.01
G2 X-3.384 Y15.884 R1.374
X-2.01 Y17.258 R1.374
G1 X154.41
G3 X155.784 Y18.632 R1.374
X154.41 Y20.005 R1.374
G1 X-2.01
G2 X-3.384 Y21.379 R1.374
X-2.01 Y22.752 R1.374
G1 X154.41
G3 X155.784 Y24.126 R1.374
X154.41 Y25.499 R1.374
G1 X-2.01
G2 X-3.384 Y26.873 R1.374
X-2.01 Y28.246 R1.374
G1 X154.41
G3 X155.784 Y29.62 R1.374
X154.41 Y30.994 R1.374
G1 X-2.01
G2 X-3.384 Y32.367 R1.374
X-2.01 Y33.741 R1.374
G1 X154.41
G3 X155.784 Y35.114 R1.374
X154.41 Y36.488 R1.374
G1 X-2.01
G2 X-3.384 Y37.861 R1.374
X-2.01 Y39.235 R1.374
G1 X154.41
G3 X155.784 Y40.609 R1.374
X154.41 Y41.982 R1.374
G1 X-2.01
G2 X-3.384 Y43.356 R1.374
X-2.01 Y44.729 R1.374
G1 X154.41
G3 X155.784 Y46.103 R1.374
X154.41 Y47.476 R1.374
G1 X-2.01
G2 X-3.384 Y48.85 R1.374
X-2.01 Y50.224 R1.374
G1 X154.41
G3 X155.784 Y51.597 R1.374
X154.41 Y52.971 R1.374
G1 X-2.01
G2 X-3.384 Y54.344 R1.374
X-2.01 Y55.718 R1.374
G1 X154.41
G3 X155.784 Y57.091 R1.374
X154.41 Y58.465 R1.374
G1 X-2.01
G2 X-3.384 Y59.839 R1.374
X-2.01 Y61.212 R1.374
G1 X154.41
G3 X155.784 Y62.586 R1.374
X154.41 Y63.959 R1.374
G1 X-2.01
G2 X-3.384 Y65.333 R1.374
X-2.01 Y66.706 R1.374
G1 X154.41
G3 X155.784 Y68.08 R1.374
X154.41 Y69.454 R1.374
G1 X-2.01
G2 X-3.384 Y70.827 R1.374
X-2.01 Y72.201 R1.374
G1 X154.41
G3 X155.784 Y73.574 R1.374
X154.41 Y74.948 R1.374
G1 X-2.01
G2 X-3.384 Y76.321 R1.374
X-2.01 Y77.695 R1.374
G1 X154.41
G3 X155.784 Y79.068 R1.374
X154.41 Y80.442 R1.374
G1 X-2.01
G2 X-3.384 Y81.816 R1.374
X-2.01 Y83.189 R1.374
G1 X154.41
G3 X155.784 Y84.563 R1.374
X154.41 Y85.936 R1.374
G1 X-2.01
G2 X-3.384 Y87.31 R1.374
X-2.01 Y88.683 R1.374
G1 X154.41
G3 X155.784 Y90.057 R1.374
X154.41 Y91.431 R1.374
G1 X-2.01
G2 X-3.384 Y92.804 R1.374
X-2.01 Y94.178 R1.374
G1 X154.41
G3 X155.784 Y95.551 R1.374
X154.41 Y96.925 R1.374
G1 X-2.01
G2 X-3.384 Y98.298 R1.374
X-2.01 Y99.672 R1.374
G1 X154.41
X154.488 Z-2.542
X154.563 Z-2.52
X154.632 Z-2.483
X154.693 Z-2.433
X154.743 Z-2.372
X154.78 Z-2.303
X154.802 Z-2.228
X154.81 Z-2.15
G0 Z5.
X155. Y0.775
G1 Z-2.65 F380.
X154.992 Z-2.728 F1500.
X154.97 Z-2.803
X154.933 Z-2.872
X154.883 Z-2.933
X154.822 Z-2.983
X154.753 Z-3.02
X154.678 Z-3.042
X154.6 Z-3.05
X154.41
X-2.01
G2 X-3.384 Y2.149 R1.374
X-2.01 Y3.522 R1.374
G1 X154.41
G3 X155.784 Y4.896 R1.374
X154.41 Y6.269 R1.374
G1 X-2.01
G2 X-3.384 Y7.643 R1.374
X-2.01 Y9.017 R1.374
G1 X154.41
G3 X155.784 Y10.39 R1.374
X154.41 Y11.764 R1.374
G1 X-2.01
G2 X-3.384 Y13.137 R1.374
X-2.01 Y14.511 R1.374
G1 X154.41
G3 X155.784 Y15.884 R1.374
X154.41 Y17.258 R1.374
G1 X-2.01
G2 X-3.384 Y18.632 R1.374
X-2.01 Y20.005 R1.374
G1 X154.41
G3 X155.784 Y21.379 R1.374
X154.41 Y22.752 R1.374
G1 X-2.01
G2 X-3.384 Y24.126 R1.374
X-2.01 Y25.499 R1.374
G1 X154.41
G3 X155.784 Y26.873 R1.374
X154.41 Y28.246 R1.374
G1 X-2.01
G2 X-3.384 Y29.62 R1.374
X-2.01 Y30.994 R1.374
G1 X154.41
G3 X155.784 Y32.367 R1.374
X154.41 Y33.741 R1.374
G1 X-2.01
G2 X-3.384 Y35.114 R1.374
X-2.01 Y36.488 R1.374
G1 X154.41
G3 X155.784 Y37.861 R1.374
X154.41 Y39.235 R1.374
G1 X-2.01
G2 X-3.384 Y40.609 R1.374
X-2.01 Y41.982 R1.374
G1 X154.41
G3 X155.784 Y43.356 R1.374
X154.41 Y44.729 R1.374
G1 X-2.01
G2 X-3.384 Y46.103 R1.374
X-2.01 Y47.476 R1.374
G1 X154.41
G3 X155.784 Y48.85 R1.374
X154.41 Y50.224 R1.374
G1 X-2.01
G2 X-3.384 Y51.597 R1.374
X-2.01 Y52.971 R1.374
G1 X154.41
G3 X155.784 Y54.344 R1.374
X154.41 Y55.718 R1.374
G1 X-2.01
G2 X-3.384 Y57.091 R1.374
X-2.01 Y58.465 R1.374
G1 X154.41
G3 X155.784 Y59.839 R1.374
X154.41 Y61.212 R1.374
G1 X-2.01
G2 X-3.384 Y62.586 R1.374
X-2.01 Y63.959 R1.374
G1 X154.41
G3 X155.784 Y65.333 R1.374
X154.41 Y66.706 R1.374
G1 X-2.01
G2 X-3.384 Y68.08 R1.374
X-2.01 Y69.454 R1.374
G1 X154.41
G3 X155.784 Y70.827 R1.374
X154.41 Y72.201 R1.374
G1 X-2.01
G2 X-3.384 Y73.574 R1.374
X-2.01 Y74.948 R1.374
G1 X154.41
G3 X155.784 Y76.321 R1.374
X154.41 Y77.695 R1.374
G1 X-2.01
G2 X-3.384 Y79.068 R1.374
X-2.01 Y80.442 R1.374
G1 X154.41
G3 X155.784 Y81.816 R1.374
X154.41 Y83.189 R1.374
G1 X-2.01
G2 X-3.384 Y84.563 R1.374
X-2.01 Y85.936 R1.374
G1 X154.41
G3 X155.784 Y87.31 R1.374
X154.41 Y88.683 R1.374
G1 X-2.01
G2 X-3.384 Y90.057 R1.374
X-2.01 Y91.431 R1.374
G1 X154.41
G3 X155.784 Y92.804 R1.374
X154.41 Y94.178 R1.374
G1 X-2.01
G2 X-3.384 Y95.551 R1.374
X-2.01 Y96.925 R1.374
G1 X154.41
G3 X155.784 Y98.298 R1.374
X154.41 Y99.672 R1.374
G1 X-2.01
X-2.088 Z-3.042
X-2.163 Z-3.02
X-2.232 Z-2.983
X-2.293 Z-2.933
X-2.343 Z-2.872
X-2.38 Z-2.803
X-2.402 Z-2.728
X-2.41 Z-2.65
G0 Z5.
X-2.6 Y0.775
G1 Z-3.15 F380.
X-2.592 Z-3.228 F1500.
X-2.57 Z-3.303
X-2.533 Z-3.372
X-2.483 Z-3.433
X-2.422 Z-3.483
X-2.353 Z-3.52
X-2.278 Z-3.542
X-2.2 Z-3.55
X-2.01
X154.41
G3 X155.784 Y2.149 R1.374
X154.41 Y3.522 R1.374
G1 X-2.01
G2 X-3.384 Y4.896 R1.374
X-2.01 Y6.269 R1.374
G1 X154.41
G3 X155.784 Y7.643 R1.374
X154.41 Y9.017 R1.374
G1 X-2.01
G2 X-3.384 Y10.39 R1.374
X-2.01 Y11.764 R1.374
G1 X154.41
G3 X155.784 Y13.137 R1.374
X154.41 Y14.511 R1.374
G1 X-2.01
G2 X-3.384 Y15.884 R1.374
X-2.01 Y17.258 R1.374
G1 X154.41
G3 X155.784 Y18.632 R1.374
X154.41 Y20.005 R1.374
G1 X-2.01
G2 X-3.384 Y21.379 R1.374
X-2.01 Y22.752 R1.374
G1 X154.41
G3 X155.784 Y24.126 R1.374
X154.41 Y25.499 R1.374
G1 X-2.01
G2 X-3.384 Y26.873 R1.374
X-2.01 Y28.246 R1.374
G1 X154.41
G3 X155.784 Y29.62 R1.374
X154.41 Y30.994 R1.374
G1 X-2.01
G2 X-3.384 Y32.367 R1.374
X-2.01 Y33.741 R1.374
G1 X154.41
G3 X155.784 Y35.114 R1.374
X154.41 Y36.488 R1.374
G1 X-2.01
G2 X-3.384 Y37.861 R1.374
X-2.01 Y39.235 R1.374
G1 X154.41
G3 X155.784 Y40.609 R1.374
X154.41 Y41.982 R1.374
G1 X-2.01
G2 X-3.384 Y43.356 R1.374
X-2.01 Y44.729 R1.374
G1 X154.41
G3 X155.784 Y46.103 R1.374
X154.41 Y47.476 R1.374
G1 X-2.01
G2 X-3.384 Y48.85 R1.374
X-2.01 Y50.224 R1.374
G1 X154.41
G3 X155.784 Y51.597 R1.374
X154.41 Y52.971 R1.374
G1 X-2.01
G2 X-3.384 Y54.344 R1.374
X-2.01 Y55.718 R1.374
G1 X154.41
G3 X155.784 Y57.091 R1.374
X154.41 Y58.465 R1.374
G1 X-2.01
G2 X-3.384 Y59.839 R1.374
X-2.01 Y61.212 R1.374
G1 X154.41
G3 X155.784 Y62.586 R1.374
X154.41 Y63.959 R1.374
G1 X-2.01
G2 X-3.384 Y65.333 R1.374
X-2.01 Y66.706 R1.374
G1 X154.41
G3 X155.784 Y68.08 R1.374
X154.41 Y69.454 R1.374
G1 X-2.01
G2 X-3.384 Y70.827 R1.374
X-2.01 Y72.201 R1.374
G1 X154.41
G3 X155.784 Y73.574 R1.374
X154.41 Y74.948 R1.374
G1 X-2.01
G2 X-3.384 Y76.321 R1.374
X-2.01 Y77.695 R1.374
G1 X154.41
G3 X155.784 Y79.068 R1.374
X154.41 Y80.442 R1.374
G1 X-2.01
G2 X-3.384 Y81.816 R1.374
X-2.01 Y83.189 R1.374
G1 X154.41
G3 X155.784 Y84.563 R1.374
X154.41 Y85.936 R1.374
G1 X-2.01
G2 X-3.384 Y87.31 R1.374
X-2.01 Y88.683 R1.374
G1 X154.41
G3 X155.784 Y90.057 R1.374
X154.41 Y91.431 R1.374
G1 X-2.01
G2 X-3.384 Y92.804 R1.374
X-2.01 Y94.178 R1.374
G1 X154.41
G3 X155.784 Y95.551 R1.374
X154.41 Y96.925 R1.374
G1 X-2.01
G2 X-3.384 Y98.298 R1.374
X-2.01 Y99.672 R1.374
G1 X154.41
X154.488 Z-3.542
X154.563 Z-3.52
X154.632 Z-3.483
X154.693 Z-3.433
X154.743 Z-3.372
X154.78 Z-3.303
X154.802 Z-3.228
X154.81 Z-3.15
G0 Z5.
X155. Y0.775
G1 Z-3.65 F380.
X154.992 Z-3.728 F1500.
X154.97 Z-3.803
X154.933 Z-3.872
X154.883 Z-3.933
X154.822 Z-3.983
X154.753 Z-4.02
X154.678 Z-4.042
X154.6 Z-4.05
X154.41
X-2.01
G2 X-3.384 Y2.149 R1.374
X-2.01 Y3.522 R1.374
G1 X154.41
G3 X155.784 Y4.896 R1.374
X154.41 Y6.269 R1.374
G1 X-2.01
G2 X-3.384 Y7.643 R1.374
X-2.01 Y9.017 R1.374
G1 X154.41
G3 X155.784 Y10.39 R1.374
X154.41 Y11.764 R1.374
G1 X-2.01
G2 X-3.384 Y13.137 R1.374
X-2.01 Y14.511 R1.374
G1 X154.41
G3 X155.784 Y15.884 R1.374
X154.41 Y17.258 R1.374
G1 X-2.01
G2 X-3.384 Y18.632 R1.374
X-2.01 Y20.005 R1.374
G1 X154.41
G3 X155.784 Y21.379 R1.374
X154.41 Y22.752 R1.374
G1 X-2.01
G2 X-3.384 Y24.126 R1.374
X-2.01 Y25.499 R1.374
G1 X154.41
G3 X155.784 Y26.873 R1.374
X154.41 Y28.246 R1.374
G1 X-2.01
G2 X-3.384 Y29.62 R1.374
X-2.01 Y30.994 R1.374
G1 X154.41
G3 X155.784 Y32.367 R1.374
X154.41 Y33.741 R1.374
G1 X-2.01
G2 X-3.384 Y35.114 R1.374
X-2.01 Y36.488 R1.374
G1 X154.41
G3 X155.784 Y37.861 R1.374
X154.41 Y39.235 R1.374
G1 X-2.01
G2 X-3.384 Y40.609 R1.374
X-2.01 Y41.982 R1.374
G1 X154.41
G3 X155.784 Y43.356 R1.374
X154.41 Y44.729 R1.374
G1 X-2.01
G2 X-3.384 Y46.103 R1.374
X-2.01 Y47.476 R1.374
G1 X154.41
G3 X155.784 Y48.85 R1.374
X154.41 Y50.224 R1.374
G1 X-2.01
G2 X-3.384 Y51.597 R1.374
X-2.01 Y52.971 R1.374
G1 X154.41
G3 X155.784 Y54.344 R1.374
X154.41 Y55.718 R1.374
G1 X-2.01
G2 X-3.384 Y57.091 R1.374
X-2.01 Y58.465 R1.374
G1 X154.41
G3 X155.784 Y59.839 R1.374
X154.41 Y61.212 R1.374
G1 X-2.01
G2 X-3.384 Y62.586 R1.374
X-2.01 Y63.959 R1.374
G1 X154.41
G3 X155.784 Y65.333 R1.374
X154.41 Y66.706 R1.374
G1 X-2.01
G2 X-3.384 Y68.08 R1.374
X-2.01 Y69.454 R1.374
G1 X154.41
G3 X155.784 Y70.827 R1.374
X154.41 Y72.201 R1.374
G1 X-2.01
G2 X-3.384 Y73.574 R1.374
X-2.01 Y74.948 R1.374
G1 X154.41
G3 X155.784 Y76.321 R1.374
X154.41 Y77.695 R1.374
G1 X-2.01
G2 X-3.384 Y79.068 R1.374
X-2.01 Y80.442 R1.374
G1 X154.41
G3 X155.784 Y81.816 R1.374
X154.41 Y83.189 R1.374
G1 X-2.01
G2 X-3.384 Y84.563 R1.374
X-2.01 Y85.936 R1.374
G1 X154.41
G3 X155.784 Y87.31 R1.374
X154.41 Y88.683 R1.374
G1 X-2.01
G2 X-3.384 Y90.057 R1.374
X-2.01 Y91.431 R1.374
G1 X154.41
G3 X155.784 Y92.804 R1.374
X154.41 Y94.178 R1.374
G1 X-2.01
G2 X-3.384 Y95.551 R1.374
X-2.01 Y96.925 R1.374
G1 X154.41
G3 X155.784 Y98.298 R1.374
X154.41 Y99.672 R1.374
G1 X-2.01
X-2.088 Z-4.042
X-2.163 Z-4.02
X-2.232 Z-3.983
X-2.293 Z-3.933
X-2.343 Z-3.872
X-2.38 Z-3.803
X-2.402 Z-3.728
X-2.41 Z-3.65
G0 Z5.
X-2.6 Y0.775
G1 Z-4.15 F380.
X-2.592 Z-4.228 F1500.
X-2.57 Z-4.303
X-2.533 Z-4.372
X-2.483 Z-4.433
X-2.422 Z-4.483
X-2.353 Z-4.52
X-2.278 Z-4.542
X-2.2 Z-4.55
X-2.01
X154.41
G3 X155.784 Y2.149 R1.374
X154.41 Y3.522 R1.374
G1 X-2.01
G2 X-3.384 Y4.896 R1.374
X-2.01 Y6.269 R1.374
G1 X154.41
G3 X155.784 Y7.643 R1.374
X154.41 Y9.017 R1.374
G1 X-2.01
G2 X-3.384 Y10.39 R1.374
X-2.01 Y11.764 R1.374
G1 X154.41
G3 X155.784 Y13.137 R1.374
X154.41 Y14.511 R1.374
G1 X-2.01
G2 X-3.384 Y15.884 R1.374
X-2.01 Y17.258 R1.374
G1 X154.41
G3 X155.784 Y18.632 R1.374
X154.41 Y20.005 R1.374
G1 X-2.01
G2 X-3.384 Y21.379 R1.374
X-2.01 Y22.752 R1.374
G1 X154.41
G3 X155.784 Y24.126 R1.374
X154.41 Y25.499 R1.374
G1 X-2.01
G2 X-3.384 Y26.873 R1.374
X-2.01 Y28.246 R1.374
G1 X154.41
G3 X155.784 Y29.62 R1.374
X154.41 Y30.994 R1.374
G1 X-2.01
G2 X-3.384 Y32.367 R1.374
X-2.01 Y33.741 R1.374
G1 X154.41
G3 X155.784 Y35.114 R1.374
X154.41 Y36.488 R1.374
G1 X-2.01
G2 X-3.384 Y37.861 R1.374
X-2.01 Y39.235 R1.374
G1 X154.41
G3 X155.784 Y40.609 R1.374
X154.41 Y41.982 R1.374
G1 X-2.01
G2 X-3.384 Y43.356 R1.374
X-2.01 Y44.729 R1.374
G1 X154.41
G3 X155.784 Y46.103 R1.374
X154.41 Y47.476 R1.374
G1 X-2.01
G2 X-3.384 Y48.85 R1.374
X-2.01 Y50.224 R1.374
G1 X154.41
G3 X155.784 Y51.597 R1.374
X154.41 Y52.971 R1.374
G1 X-2.01
G2 X-3.384 Y54.344 R1.374
X-2.01 Y55.718 R1.374
G1 X154.41
G3 X155.784 Y57.091 R1.374
X154.41 Y58.465 R1.374
G1 X-2.01
G2 X-3.384 Y59.839 R1.374
X-2.01 Y61.212 R1.374
G1 X154.41
G3 X155.784 Y62.586 R1.374
X154.41 Y63.959 R1.374
G1 X-2.01
G2 X-3.384 Y65.333 R1.374
X-2.01 Y66.706 R1.374
G1 X154.41
G3 X155.784 Y68.08 R1.374
X154.41 Y69.454 R1.374
G1 X-2.01
G2 X-3.384 Y70.827 R1.374
X-2.01 Y72.201 R1.374
G1 X154.41
G3 X155.784 Y73.574 R1.374
X154.41 Y74.948 R1.374
G1 X-2.01
G2 X-3.384 Y76.321 R1.374
X-2.01 Y77.695 R1.374
G1 X154.41
G3 X155.784 Y79.068 R1.374
X154.41 Y80.442 R1.374
G1 X-2.01
G2 X-3.384 Y81.816 R1.374
X-2.01 Y83.189 R1.374
G1 X154.41
G3 X155.784 Y84.563 R1.374
X154.41 Y85.936 R1.374
G1 X-2.01
G2 X-3.384 Y87.31 R1.374
X-2.01 Y88.683 R1.374
G1 X154.41
G3 X155.784 Y90.057 R1.374
X154.41 Y91.431 R1.374
G1 X-2.01
G2 X-3.384 Y92.804 R1.374
X-2.01 Y94.178 R1.374
G1 X154.41
G3 X155.784 Y95.551 R1.374
X154.41 Y96.925 R1.374
G1 X-2.01
G2 X-3.384 Y98.298 R1.374
X-2.01 Y99.672 R1.374
G1 X154.41
X154.488 Z-4.542
X154.563 Z-4.52
X154.632 Z-4.483
X154.693 Z-4.433
X154.743 Z-4.372
X154.78 Z-4.303
X154.802 Z-4.228
X154.81 Z-4.15
G0 Z15.

(POCKET2)
G55
G0 X19.244 Y6.16
Z15.
Z-3.042
G1 Z-3.617 F380.
X19.247 Y6.178 Z-3.738 F1500.
X19.257 Y6.232 Z-3.847
X19.266 Y6.316 Z-3.935
X19.268 Y6.424 Z-3.994
X19.259 Y6.544 Z-4.017
X19.233 Y6.676 Z-4.021
X19.192 Y6.804 Z-4.026
X19.136 Y6.927 Z-4.031
X19.066 Y7.042 Z-4.035
X18.983 Y7.149 Z-4.04
X18.888 Y7.244 Z-4.045
X18.782 Y7.328 Z-4.05
X18.667 Y7.398 Z-4.054
X18.545 Y7.455 Z-4.059
X18.416 Y7.496 Z-4.064
X18.284 Y7.523 Z-4.068
X18.15 Y7.533 Z-4.073
X18.015 Y7.527 Z-4.078
X17.882 Y7.505 Z-4.083
X17.752 Y7.468 Z-4.087
X17.628 Y7.416 Z-4.092
X17.511 Y7.349 Z-4.097
X17.402 Y7.269 Z-4.101
X17.304 Y7.177 Z-4.106
X17.217 Y7.074 Z-4.111
X17.143 Y6.961 Z-4.116
X17.083 Y6.84 Z-4.12
X17.038 Y6.713 Z-4.125
X17.008 Y6.582 Z-4.13
X16.993 Y6.448 Z-4.134
X16.995 Y6.313 Z-4.139
X17.013 Y6.179 Z-4.144
X17.046 Y6.048 Z-4.149
X17.095 Y5.923 Z-4.153
X17.158 Y5.803 Z-4.158
X17.235 Y5.693 Z-4.163
X17.324 Y5.592 Z-4.167
X17.425 Y5.502 Z-4.172
X17.535 Y5.425 Z-4.177
X17.654 Y5.361 Z-4.182
X17.78 Y5.312 Z-4.186
X17.911 Y5.278 Z-4.191
X18.044 Y5.26 Z-4.196
X18.179 Y5.258 Z-4.2
X18.313 Y5.272 Z-4.205
X18.445 Y5.301 Z-4.21
X18.572 Y5.346 Z-4.215
X18.693 Y5.406 Z-4.219
X18.806 Y5.479 Z-4.224
X18.91 Y5.566 Z-4.229
X19.002 Y5.664 Z-4.233
X19.083 Y5.772 Z-4.238
X19.15 Y5.889 Z-4.243
X19.202 Y6.013 Z-4.247
X19.24 Y6.143 Z-4.252
X19.262 Y6.276 Z-4.257
X19.268 Y6.41 Z-4.262
X19.258 Y6.545 Z-4.266
X19.233 Y6.677 Z-4.271
X19.192 Y6.806 Z-4.276
X19.136 Y6.928 Z-4.28
X19.065 Y7.043 Z-4.285
X18.982 Y7.15 Z-4.29
X18.887 Y7.245 Z-4.295
X18.781 Y7.329 Z-4.299
X18.666 Y7.399 Z-4.304
X18.544 Y7.455 Z-4.309
X18.415 Y7.497 Z-4.313
X18.283 Y7.523 Z-4.318
X18.148 Y7.533 Z-4.323
X18.014 Y7.527 Z-4.328
X17.881 Y7.505 Z-4.332
X17.751 Y7.468 Z-4.337
X17.627 Y7.415 Z-4.342
X17.509 Y7.349 Z-4.346
X17.401 Y7.269 Z-4.351
X17.303 Y7.176 Z-4.356
X17.216 Y7.073 Z-4.361
X17.142 Y6.96 Z-4.365
X17.083 Y6.839 Z-4.37
X17.037 Y6.712 Z-4.375
X17.007 Y6.581 Z-4.379
X16.993 Y6.446 Z-4.384
X16.995 Y6.312 Z-4.389
X17.013 Y6.178 Z-4.394
X17.047 Y6.047 Z-4.398
X17.095 Y5.921 Z-4.403
X17.159 Y5.802 Z-4.408
X17.236 Y5.692 Z-4.412
X17.325 Y5.591 Z-4.417
X17.426 Y5.501 Z-4.422
X17.537 Y5.424 Z-4.427
X17.656 Y5.361 Z-4.431
X17.781 Y5.312 Z-4.436
X17.912 Y5.278 Z-4.441
X18.045 Y5.26 Z-4.445
X18.18 Y5.258 Z-4.45
X18.314 Y5.272 Z-4.455
X18.446 Y5.302 Z-4.46
X18.573 Y5.347 Z-4.464
X18.694 Y5.406 Z-4.469
X18.807 Y5.48 Z-4.474
X18.911 Y5.566 Z-4.478
X19.003 Y5.665 Z-4.483
X19.083 Y5.773 Z-4.488
X19.15 Y5.89 Z-4.493
X19.203 Y6.014 Z-4.497
X19.24 Y6.144 Z-4.502
X19.262 Y6.277 Z-4.507
X19.268 Y6.412 Z-4.511
X19.258 Y6.546 Z-4.516
X19.232 Y6.678 Z-4.521
X19.191 Y6.807 Z-4.526
X19.135 Y6.929 Z-4.53
X19.065 Y7.044 Z-4.535
X18.981 Y7.15 Z-4.54
X18.886 Y7.246 Z-4.544
X18.78 Y7.329 Z-4.549
X18.665 Y7.4 Z-4.554
X18.542 Y7.456 Z-4.559
X18.414 Y7.497 Z-4.563
X18.282 Y7.523 Z-4.568
X18.147 Y7.533 Z-4.573
X18.012 Y7.527 Z-4.577
X17.879 Y7.505 Z-4.582
X17.75 Y7.467 Z-4.587
X17.626 Y7.415 Z-4.591
X17.508 Y7.348 Z-4.596
X17.4 Y7.268 Z-4.601
X17.302 Y7.175 Z-4.606
X17.215 Y7.072 Z-4.61
X17.142 Y6.959 Z-4.615
X17.082 Y6.838 Z-4.62
X17.037 Y6.711 Z-4.624
X17.007 Y6.579 Z-4.629
X16.993 Y6.445 Z-4.634
X16.995 Y6.31 Z-4.639
X17.013 Y6.177 Z-4.643
X17.047 Y6.046 Z-4.648
X17.096 Y5.92 Z-4.653
X17.159 Y5.801 Z-4.657
X17.236 Y5.691 Z-4.662
X17.326 Y5.59 Z-4.667
X17.427 Y5.5 Z-4.672
X17.538 Y5.423 Z-4.676
X17.657 Y5.36 Z-4.681
X17.782 Y5.311 Z-4.686
X17.913 Y5.278 Z-4.69
X18.047 Y5.26 Z-4.695
X18.182 Y5.258 Z-4.7
X18.316 Y5.272 Z-4.705
X18.447 Y5.302 Z-4.709
X18.574 Y5.347 Z-4.714
X18.695 Y5.407 Z-4.719
X18.808 Y5.481 Z-4.723
X18.911 Y5.567 Z-4.728
X19.004 Y5.665 Z-4.733
X19.084 Y5.774 Z-4.738
X19.151 Y5.891 Z-4.742
X19.203 Y6.015 Z-4.747
X19.241 Y6.145 Z-4.752
X19.262 Y6.278 Z-4.756
X19.268 Y6.413 Z-4.761
X19.258 Y6.547 Z-4.766
X19.232 Y6.68 Z-4.771
X19.191 Y6.808 Z-4.775
X19.134 Y6.93 Z-4.78
X19.064 Y7.046 Z-4.785
X18.981 Y7.151 Z-4.789
X18.885 Y7.247 Z-4.794
X18.779 Y7.33 Z-4.799
X18.664 Y7.4 Z-4.804
X18.541 Y7.456 Z-4.808
X18.413 Y7.497 Z-4.813
X18.28 Y7.523 Z-4.818
X18.146 Y7.533 Z-4.822
X18.011 Y7.527 Z-4.827
X17.878 Y7.505 Z-4.832
X17.749 Y7.467 Z-4.837
X17.624 Y7.414 Z-4.841
X17.507 Y7.347 Z-4.846
X17.399 Y7.267 Z-4.851
X17.301 Y7.174 Z-4.855
X17.215 Y7.071 Z-4.86
X17.141 Y6.958 Z-4.865
X17.082 Y6.837 Z-4.87
X17.037 Y6.71 Z-4.874
X17.007 Y6.578 Z-4.879
X16.993 Y6.444 Z-4.884
X16.995 Y6.309 Z-4.888
X17.014 Y6.175 Z-4.893
X17.047 Y6.045 Z-4.898
X17.096 Y5.919 Z-4.902
X17.16 Y5.8 Z-4.907
X17.237 Y5.69 Z-4.912
X17.327 Y5.589 Z-4.917
X17.428 Y5.5 Z-4.921
X17.539 Y5.423 Z-4.926
X17.658 Y5.36 Z-4.931
X17.784 Y5.311 Z-4.935
X17.914 Y5.278 Z-4.94
X18.048 Y5.26 Z-4.945
X18.183 Y5.258 Z-4.95
X18.317 Y5.272 Z-4.954
X18.448 Y5.302 Z-4.959
X18.575 Y5.348 Z-4.964
X18.696 Y5.408 Z-4.968
X18.809 Y5.481 Z-4.973
X18.912 Y5.568 Z-4.978
X19.005 Y5.666 Z-4.983
X19.085 Y5.775 Z-4.987
X19.151 Y5.892 Z-4.992
X19.204 Y6.017 Z-4.997
X19.241 Y6.146 Z-5.001
X19.262 Y6.279 Z-5.006
X19.268 Y6.414 Z-5.011
X19.258 Y6.548 Z-5.016
X19.232 Y6.681 Z-5.02
X19.19 Y6.809 Z-5.025
X19.134 Y6.932 Z-5.03
X19.063 Y7.047 Z-5.034
X18.98 Y7.152 Z-5.039
X18.884 Y7.247 Z-5.044
X18.778 Y7.331 Z-5.049
X18.663 Y7.401 Z-5.053
X18.54 Y7.457 Z-5.058
X18.472 Y7.486
X18.406 Y7.52
X18.28 Y7.592
X18.216 Y7.632
X18.154 Y7.677
X18.029 Y7.776
X17.942 Y7.853
X12.3 Y13.494
X12.29 Y13.504
X12.064 Y13.737
X12.011 Y13.796
X11.963 Y13.859
X11.875 Y13.984
X11.826 Y14.06
X11.785 Y14.14
X11.698 Y14.328
X11.661 Y14.421
X11.633 Y14.517
X11.588 Y14.704
X11.57 Y14.804
X11.562 Y14.905
X11.553 Y15.218
X11.552 Y15.248
X11.555 Y86.603
X11.558 Y86.687
X11.569 Y86.77
X11.601 Y86.958
X11.622 Y87.054
X11.653 Y87.147
X11.724 Y87.335
X11.759 Y87.414
X11.8 Y87.491
X11.874 Y87.616
X11.917 Y87.68
X11.963 Y87.742
X12.067 Y87.867
X12.13 Y87.936
X17.942 Y93.747
X18.029 Y93.824
X18.154 Y93.923
X18.216 Y93.968
X18.28 Y94.008
X18.406 Y94.08
X18.482 Y94.119
X18.562 Y94.152
X18.75 Y94.219
X18.844 Y94.248
X18.939 Y94.267
X19.127 Y94.295
X19.202 Y94.303
X19.276 Y94.306
X137.136
X137.215 Y94.303
X137.293 Y94.294
X137.544 Y94.254
X137.585 Y94.246
X138.212 Y94.12
X138.291 Y94.1
X138.367 Y94.075
X138.555 Y94.004
X138.643 Y93.966
X138.727 Y93.92
X138.915 Y93.804
X138.95 Y93.781
X139.517 Y93.398
X139.588 Y93.345
X139.654 Y93.286
X139.79 Y93.153
X139.84 Y93.101
X139.885 Y93.046
X139.944 Y92.971
X139.983 Y92.916
X140.4 Y92.29
X140.439 Y92.227
X140.472 Y92.162
X140.561 Y91.974
X140.598 Y91.885
X140.626 Y91.792
X140.674 Y91.604
X140.686 Y91.552
X140.82 Y90.863
X140.833 Y90.781
X140.839 Y90.699
X140.847 Y90.386
X140.848 Y90.358
X140.845 Y10.992
X140.842 Y10.91
X140.832 Y10.828
X140.79 Y10.578
X140.784 Y10.542
X140.656 Y9.916
X140.636 Y9.833
X140.608 Y9.751
X140.535 Y9.564
X140.494 Y9.473
X140.444 Y9.386
X140.234 Y9.06
X140.222 Y9.042
X139.952 Y8.642
X139.912 Y8.586
X139.868 Y8.534
X139.766 Y8.42
X139.71 Y8.362
X139.65 Y8.31
X139.52 Y8.205
X139.445 Y8.15
X138.819 Y7.733
X138.751 Y7.692
X138.681 Y7.656
X138.493 Y7.57
X138.405 Y7.535
X138.314 Y7.508
X138.126 Y7.462
X138.079 Y7.452
X137.39 Y7.318
X137.299 Y7.304
X137.208 Y7.299
X136.393 Y7.292
X136.384
X19.276 Y7.294
X19.202 Y7.297
X19.127 Y7.305
X18.939 Y7.333
X18.844 Y7.352
X18.75 Y7.381
X18.562 Y7.448
X18.54 Y7.457
G3 X18.301 Y7.38 R0.2
G1 X17.293 Y5.848
G3 X17.319 Y5.597 R0.2
G1 X17.659 Y5.257
X136.955
X138.356 Y5.413
X139.585 Y5.841
X140.673 Y6.522
X141.608 Y7.45
X142.297 Y8.549
X142.726 Y9.776
X142.883 Y11.173
Y90.427
X142.726 Y91.824
X142.297 Y93.051
X141.615 Y94.138
X140.69 Y95.067
X139.585 Y95.759
X138.356 Y96.187
X136.955 Y96.343
X17.659
X9.517 Y88.201
Y13.399
X17.319 Y5.597
X17.351 Y5.575
X17.388 Y5.568
X17.426 Y5.574
X17.733 Y5.695
X17.771 Y5.702
X17.809 Y5.694
X17.84 Y5.672
X17.862 Y5.64
X17.979 Y5.346
X17.999 Y5.315
X18.029 Y5.293
X18.066 Y5.284
X18.198 Z-5.063
X18.33 Y5.3 Z-5.067
X18.459 Y5.331 Z-5.072
X18.584 Y5.378 Z-5.077
X18.702 Y5.439 Z-5.081
X18.812 Y5.513 Z-5.086
X18.912 Y5.6 Z-5.09
X19.001 Y5.699 Z-5.095
X19.078 Y5.807 Z-5.1
X19.142 Y5.924 Z-5.104
X19.191 Y6.047 Z-5.109
X19.225 Y6.176 Z-5.114
X19.244 Y6.307 Z-5.118
X19.247 Y6.44 Z-5.123
X19.234 Y6.572 Z-5.128
X19.205 Y6.702 Z-5.132
X19.162 Y6.827 Z-5.137
X19.103 Y6.947 Z-5.142
X19.031 Y7.058 Z-5.146
X18.946 Y7.16 Z-5.151
X18.85 Y7.252 Z-5.155
X18.744 Y7.331 Z-5.16
X18.628 Y7.397 Z-5.165
X18.506 Y7.449 Z-5.169
X18.378 Y7.486 Z-5.174
X18.247 Y7.508 Z-5.179
X18.115 Y7.514 Z-5.183
X17.982 Y7.504 Z-5.188
X17.852 Y7.478 Z-5.193
X17.725 Y7.437 Z-5.197
X17.605 Y7.382 Z-5.202
X17.492 Y7.312 Z-5.207
X17.388 Y7.23 Z-5.211
X17.294 Y7.135 Z-5.216
X17.212 Y7.031 Z-5.22
X17.144 Y6.917 Z-5.225
X17.089 Y6.796 Z-5.23
X17.049 Y6.669 Z-5.234
X17.025 Y6.539 Z-5.239
X17.016 Y6.406 Z-5.244
X17.023 Y6.273 Z-5.248
X17.045 Y6.143 Z-5.253
X17.083 Y6.015 Z-5.258
X17.136 Y5.893 Z-5.262
X17.203 Y5.779 Z-5.267
X17.283 Y5.673 Z-5.272
X17.376 Y5.577 Z-5.276
X17.479 Y5.493 Z-5.281
X17.591 Y5.422 Z-5.285
X17.711 Y5.365 Z-5.29
X17.836 Y5.322 Z-5.295
X17.966 Y5.294 Z-5.299
X18.099 Y5.283 Z-5.304
X18.231 Y5.287 Z-5.309
X18.363 Y5.306 Z-5.313
X18.491 Y5.342 Z-5.318
X18.614 Y5.392 Z-5.323
X18.73 Y5.456 Z-5.327
X18.838 Y5.534 Z-5.332
X18.935 Y5.624 Z-5.336
X19.022 Y5.725 Z-5.341
X19.095 Y5.835 Z-5.346
X19.155 Y5.954 Z-5.35
X19.201 Y6.079 Z-5.355
X19.231 Y6.208 Z-5.36
X19.246 Y6.34 Z-5.364
X19.245 Y6.473 Z-5.369
X19.228 Y6.605 Z-5.374
X19.196 Y6.734 Z-5.378
X19.148 Y6.858 Z-5.383
X19.087 Y6.975 Z-5.388
X19.011 Y7.085 Z-5.392
X18.924 Y7.184 Z-5.397
X18.824 Y7.273 Z-5.401
X18.716 Y7.349 Z-5.406
X18.598 Y7.412 Z-5.411
X18.475 Y7.46 Z-5.415
X18.346 Y7.493 Z-5.42
X18.214 Y7.511 Z-5.425
X18.082 Y7.513 Z-5.429
X17.95 Y7.499 Z-5.434
X17.82 Y7.47 Z-5.439
X17.695 Y7.425 Z-5.443
X17.576 Y7.366 Z-5.448
X17.465 Y7.293 Z-5.453
X17.363 Y7.207 Z-5.457
X17.273 Y7.11 Z-5.462
X17.194 Y7.003 Z-5.466
X17.129 Y6.887 Z-5.471
X17.078 Y6.765 Z-5.476
X17.042 Y6.637 Z-5.48
X17.021 Y6.506 Z-5.485
X17.016 Y6.373 Z-5.49
X17.027 Y6.241 Z-5.494
X17.053 Y6.111 Z-5.499
X17.095 Y5.984 Z-5.504
X17.152 Y5.864 Z-5.508
X17.222 Y5.752 Z-5.513
X17.305 Y5.648 Z-5.518
X17.4 Y5.555 Z-5.522
X17.506 Y5.474 Z-5.527
X17.62 Y5.406 Z-5.531
X17.741 Y5.353 Z-5.536
X17.868 Y5.314 Z-5.541
X17.999 Y5.29 Z-5.545
X18.132 Y5.282 Z-5.55
X136.955
X138.355 Y5.439
X139.584 Y5.867
X140.661 Y6.544
X141.593 Y7.474
X142.269 Y8.55
X142.7 Y9.777
X142.858 Y11.173
Y90.427
X142.7 Y91.823
X142.269 Y93.05
X141.593 Y94.126
X140.661 Y95.056
X139.584 Y95.733
X138.355 Y96.161
X136.955 Y96.318
X17.669
X9.543 Y88.191
Y15.248
Y13.409
X17.669 Y5.282
X18.132
G3 X18.328 Y5.445 R0.2
G1 X18.666 Y7.212
G3 X18.541 Y7.436 R0.2
G1 X18.476 Y7.464
X18.413 Y7.496
X18.287 Y7.566
X18.223 Y7.606
X18.161 Y7.65
X18.036 Y7.747
X17.942 Y7.83
X12.3 Y13.47
X12.289 Y13.481
X12.04 Y13.738
X11.985 Y13.8
X11.935 Y13.866
X11.849 Y13.991
X11.801 Y14.067
X11.761 Y14.147
X11.676 Y14.335
X11.639 Y14.428
X11.612 Y14.524
X11.569 Y14.711
X11.552 Y14.809
X11.544 Y14.908
X11.536 Y15.221
X11.535 Y15.248
X11.538 Y86.603
X11.541 Y86.683
X11.551 Y86.763
X11.581 Y86.951
X11.602 Y87.047
X11.631 Y87.14
X11.701 Y87.327
X11.735 Y87.407
X11.775 Y87.484
X11.849 Y87.609
X11.89 Y87.673
X11.936 Y87.735
X12.038 Y87.86
X12.106 Y87.936
X17.942 Y93.77
X18.036 Y93.853
X18.161 Y93.95
X18.223 Y93.994
X18.287 Y94.034
X18.413 Y94.104
X18.489 Y94.142
X18.569 Y94.174
X18.757 Y94.24
X18.851 Y94.268
X18.946 Y94.286
X19.134 Y94.313
X19.205 Y94.321
X19.276 Y94.323
X137.136
X137.215 Y94.32
X137.293 Y94.311
X137.544 Y94.271
X137.585 Y94.263
X138.212 Y94.137
X138.287 Y94.119
X138.361 Y94.095
X138.549 Y94.025
X138.638 Y93.987
X138.723 Y93.941
X138.911 Y93.826
X138.949 Y93.801
X139.521 Y93.416
X139.581 Y93.372
X139.638 Y93.323
X139.749 Y93.221
X139.804 Y93.167
X139.854 Y93.108
X139.953 Y92.984
X140.003 Y92.915
X140.42 Y92.289
X140.46 Y92.224
X140.495 Y92.156
X140.582 Y91.968
X140.618 Y91.879
X140.645 Y91.788
X140.692 Y91.6
X140.703 Y91.552
X140.837 Y90.863
X140.85 Y90.781
X140.856 Y90.699
X140.864 Y90.386
X140.865 Y90.358
X140.862 Y10.992
X140.859 Y10.91
X140.849 Y10.828
X140.807 Y10.578
X140.801 Y10.543
X140.674 Y9.917
X140.654 Y9.836
X140.628 Y9.758
X140.556 Y9.57
X140.514 Y9.476
X140.463 Y9.387
X140.234 Y9.031
X140.218 Y9.006
X139.934 Y8.591
X139.888 Y8.53
X139.838 Y8.472
X139.761 Y8.39
X139.709 Y8.338
X139.653 Y8.291
X139.514 Y8.18
X139.445 Y8.13
X138.818 Y7.713
X138.748 Y7.671
X138.675 Y7.634
X138.487 Y7.55
X138.4 Y7.515
X138.31 Y7.489
X138.122 Y7.444
X138.079 Y7.435
X137.39 Y7.301
X137.299 Y7.288
X137.208 Y7.283
X136.393 Y7.275
X136.384
X19.276 Y7.277
X19.205 Y7.279
X19.134 Y7.287
X18.946 Y7.314
X18.851 Y7.332
X18.757 Y7.36
X18.569 Y7.426
X18.541 Y7.436
X18.51 Y7.442
X18.48 Y7.435
X18.454 Y7.418
X18.436 Y7.392
X18.43 Y7.361
X18.435 Y7.331
X18.452 Y7.304
X18.663 Y7.08
X19.017 Y6.868
X19.099 Y6.834
X19.115 Y6.835
X19.126 Y6.846
Y6.862
X19.063 Y6.977 Z-5.555
X18.987 Y7.084 Z-5.559
X18.899 Y7.181 Z-5.564
X18.8 Y7.267 Z-5.568
X18.692 Y7.34 Z-5.573
X18.575 Y7.4 Z-5.577
X18.453 Y7.446 Z-5.582
X18.325 Y7.476 Z-5.587
X18.195 Y7.491 Z-5.591
X18.064 Y7.49 Z-5.596
X17.934 Y7.474 Z-5.6
X17.807 Y7.442 Z-5.605
X17.685 Y7.395 Z-5.609
X17.569 Y7.333 Z-5.614
X17.461 Y7.259 Z-5.619
X17.363 Y7.172 Z-5.623
X17.277 Y7.074 Z-5.628
X17.202 Y6.966 Z-5.632
X17.141 Y6.85 Z-5.637
X17.095 Y6.728 Z-5.642
X17.063 Y6.601 Z-5.646
X17.047 Y6.471 Z-5.651
X17.046 Y6.34 Z-5.655
X17.062 Y6.209 Z-5.66
X17.092 Y6.082 Z-5.664
X17.138 Y5.959 Z-5.669
X17.198 Y5.843 Z-5.674
X17.272 Y5.735 Z-5.678
X17.358 Y5.636 Z-5.683
X17.455 Y5.548 Z-5.687
X17.562 Y5.473 Z-5.692
X17.677 Y5.411 Z-5.696
X17.799 Y5.363 Z-5.701
X17.926 Y5.33 Z-5.706
X18.056 Y5.312 Z-5.71
X18.187 Y5.31 Z-5.715
X18.317 Y5.324 Z-5.719
X18.444 Y5.354 Z-5.724
X18.568 Y5.398 Z-5.728
X18.685 Y5.457 Z-5.733
X18.794 Y5.53 Z-5.738
X18.893 Y5.615 Z-5.742
X18.982 Y5.711 Z-5.747
X19.059 Y5.817 Z-5.751
X19.122 Y5.932 Z-5.756
X19.171 Y6.053 Z-5.761
X19.205 Y6.18 Z-5.765
X19.224 Y6.309 Z-5.77
X19.227 Y6.44 Z-5.774
X19.214 Y6.571 Z-5.779
X19.186 Y6.699 Z-5.783
X19.143 Y6.822 Z-5.788
X19.085 Y6.94 Z-5.793
X19.014 Y7.05 Z-5.797
X18.93 Y7.15 Z-5.802
X18.835 Y7.24 Z-5.806
X18.729 Y7.317 Z-5.811
X18.615 Y7.382 Z-5.815
X18.494 Y7.432 Z-5.82
X18.368 Y7.468 Z-5.825
X18.238 Y7.488 Z-5.829
X18.108 Y7.492 Z-5.834
X17.977 Y7.481 Z-5.838
X17.849 Y7.454 Z-5.843
X17.725 Y7.412 Z-5.847
X17.607 Y7.355 Z-5.852
X17.496 Y7.285 Z-5.857
X17.395 Y7.202 Z-5.861
X17.304 Y7.107 Z-5.866
X17.226 Y7.003 Z-5.87
X17.16 Y6.889 Z-5.875
X17.109 Y6.769 Z-5.88
X17.072 Y6.643 Z-5.884
X17.051 Y6.514 Z-5.889
X17.045 Y6.383 Z-5.893
X17.055 Y6.253 Z-5.898
X17.08 Y6.124 Z-5.902
X17.121 Y6. Z-5.907
X17.176 Y5.881 Z-5.912
X17.246 Y5.77 Z-5.916
X17.328 Y5.668 Z-5.921
X17.421 Y5.576 Z-5.925
X17.525 Y5.496 Z-5.93
X17.638 Y5.43 Z-5.934
X17.758 Y5.377 Z-5.939
X17.883 Y5.339 Z-5.944
X18.012 Y5.316 Z-5.948
X18.143 Y5.309 Z-5.953
X18.274 Y5.318 Z-5.957
X18.402 Y5.342 Z-5.962
X18.527 Y5.382 Z-5.966
X18.647 Y5.436 Z-5.971
X18.758 Y5.504 Z-5.976
X18.861 Y5.585 Z-5.98
X18.954 Y5.678 Z-5.985
X19.035 Y5.781 Z-5.989
X19.102 Y5.893 Z-5.994
X19.156 Y6.012 Z-5.999
X19.195 Y6.137 Z-6.003
X19.219 Y6.266 Z-6.008
X19.228 Y6.397 Z-6.012
X19.22 Y6.528 Z-6.017
X19.197 Y6.656 Z-6.021
X19.159 Y6.782 Z-6.026
X19.106 Y6.902 Z-6.031
X19.039 Y7.014 Z-6.035
X18.959 Y7.118 Z-6.04
X18.867 Y7.211 Z-6.044
X18.765 Y7.293 Z-6.049
X18.654 Y7.362 Z-6.053
X18.535 Y7.417 Z-6.058
X18.477 Y7.442
X18.42 Y7.471
X18.295 Y7.539
X18.23 Y7.578
X18.169 Y7.621
X18.044 Y7.716
X17.991 Y7.759
X17.942 Y7.805
X12.3 Y13.445
X12.288 Y13.457
X12.015 Y13.739
X11.958 Y13.804
X11.906 Y13.873
X11.821 Y13.999
X11.775 Y14.075
X11.735 Y14.155
X11.652 Y14.342
X11.616 Y14.435
X11.59 Y14.531
X11.548 Y14.719
X11.532 Y14.815
X11.525 Y14.911
X11.518 Y15.224
X11.517 Y15.248
X11.519 Y86.603
X11.522 Y86.679
X11.531 Y86.756
X11.56 Y86.943
X11.58 Y87.039
X11.608 Y87.132
X11.677 Y87.32
X11.71 Y87.4
X11.749 Y87.476
X11.821 Y87.601
X11.862 Y87.666
X11.907 Y87.727
X12.007 Y87.852
X12.081 Y87.936
X17.942 Y93.795
X17.991 Y93.841
X18.044 Y93.884
X18.169 Y93.979
X18.23 Y94.022
X18.295 Y94.061
X18.42 Y94.129
X18.497 Y94.167
X18.577 Y94.198
X18.765 Y94.263
X18.858 Y94.29
X18.954 Y94.307
X19.142 Y94.333
X19.209 Y94.34
X19.276 Y94.342
X137.136 Y94.341
X137.215 Y94.338
X137.293 Y94.329
X137.544 Y94.289
X137.591 Y94.28
X138.281 Y94.136
X138.382 Y94.109
X138.48 Y94.072
X138.668 Y93.99
X138.746 Y93.951
X138.82 Y93.906
X139.522 Y93.437
X139.583 Y93.393
X139.641 Y93.344
X139.761 Y93.235
X139.82 Y93.176
X139.874 Y93.112
X139.98 Y92.977
X140.025 Y92.915
X140.441 Y92.289
X140.483 Y92.22
X140.519 Y92.149
X140.604 Y91.961
X140.639 Y91.873
X140.666 Y91.783
X140.711 Y91.595
X140.721 Y91.552
X140.855 Y90.863
X140.868 Y90.781
X140.874 Y90.699
X140.882 Y90.386
X140.883 Y90.358
X140.88 Y10.992
X140.877 Y10.91
X140.867 Y10.828
X140.825 Y10.578
X140.819 Y10.543
X140.693 Y9.917
X140.674 Y9.84
X140.649 Y9.765
X140.579 Y9.577
X140.541 Y9.489
X140.494 Y9.405
X140.379 Y9.217
X140.354 Y9.178
X139.954 Y8.588
X139.9 Y8.515
X139.839 Y8.448
X139.718 Y8.324
X139.661 Y8.271
X139.601 Y8.222
X139.488 Y8.139
X139.444 Y8.108
X138.817 Y7.692
X138.744 Y7.648
X138.668 Y7.61
X138.48 Y7.528
X138.382 Y7.491
X138.281 Y7.464
X137.591 Y7.32
X137.544 Y7.311
X137.293 Y7.271
X137.215 Y7.262
X137.136 Y7.259
X19.276 Y7.258
X19.209 Y7.26
X19.142 Y7.267
X18.954 Y7.293
X18.858 Y7.31
X18.765 Y7.337
X18.577 Y7.402
X18.535 Y7.417
G3 X18.295 Y7.341 R0.2
G1 X17.333 Y5.887
G3 X17.358 Y5.635 R0.2
G1 X17.684 Y5.309
X136.955
X138.354 Y5.466
X139.581 Y5.898
X140.671 Y6.588
X141.565 Y7.481
X141.57 Y7.488
X142.248 Y8.567
X142.256 Y8.587
X142.672 Y9.776
X142.831 Y11.173
Y90.427
X142.672 Y91.824
X142.25 Y93.03
X141.566 Y94.118
X140.671 Y95.012
X139.581 Y95.702
X138.354 Y96.134
X136.955 Y96.291
X17.684
X9.569 Y88.179
Y13.421
X9.702 Y13.288
X17.358 Y5.635
X17.379 Y5.625
X17.403 Y5.63
X17.418 Y5.648
X17.419 Y5.672
X17.377 Y5.807
X17.28 Y5.89
X17.261 Y5.898
X17.241 Y5.894
X17.226 Y5.881
X17.22 Y5.861
X17.225 Y5.842
X17.3 Y5.736 Z-6.063
X17.388 Y5.64 Z-6.067
X17.486 Y5.555 Z-6.072
X17.594 Y5.483 Z-6.076
X17.71 Y5.424 Z-6.081
X17.832 Y5.38 Z-6.085
X17.958 Y5.351 Z-6.09
X18.087 Y5.337 Z-6.094
X18.217 Y5.339 Z-6.099
X18.346 Y5.357 Z-6.103
X18.471 Y5.39 Z-6.108
X18.592 Y5.438 Z-6.112
X18.706 Y5.5 Z-6.117
X18.811 Y5.576 Z-6.122
X18.907 Y5.664 Z-6.126
X18.991 Y5.763 Z-6.131
X19.063 Y5.871 Z-6.135
X19.121 Y5.987 Z-6.14
X19.164 Y6.109 Z-6.144
X19.193 Y6.236 Z-6.149
X19.206 Y6.365 Z-6.153
X19.203 Y6.495 Z-6.158
X19.184 Y6.623 Z-6.162
X19.151 Y6.749 Z-6.167
X19.102 Y6.869 Z-6.171
X19.039 Y6.982 Z-6.176
X18.963 Y7.087 Z-6.18
X18.874 Y7.183 Z-6.185
X18.775 Y7.266 Z-6.19
X18.666 Y7.337 Z-6.194
X18.55 Y7.395 Z-6.199
X18.427 Y7.438 Z-6.203
X18.301 Y7.465 Z-6.208
X18.171 Y7.478 Z-6.212
X18.042 Y7.474 Z-6.217
X17.913 Y7.455 Z-6.221
X17.788 Y7.42 Z-6.226
X17.668 Y7.371 Z-6.23
X17.555 Y7.307 Z-6.235
X17.45 Y7.23 Z-6.239
X17.356 Y7.142 Z-6.244
X17.273 Y7.042 Z-6.249
X17.202 Y6.933 Z-6.253
X17.145 Y6.816 Z-6.258
X17.103 Y6.693 Z-6.262
X17.076 Y6.566 Z-6.267
X17.065 Y6.437 Z-6.271
X17.069 Y6.307 Z-6.276
X17.089 Y6.179 Z-6.28
X17.124 Y6.054 Z-6.285
X17.174 Y5.934 Z-6.289
X17.238 Y5.822 Z-6.294
X17.316 Y5.717 Z-6.298
X17.405 Y5.623 Z-6.303
X17.505 Y5.541 Z-6.307
X17.615 Y5.471 Z-6.312
X17.732 Y5.415 Z-6.317
X17.855 Y5.373 Z-6.321
X17.982 Y5.347 Z-6.326
X18.111 Y5.336 Z-6.33
X18.241 Y5.341 Z-6.335
X18.369 Y5.362 Z-6.339
X18.494 Y5.398 Z-6.344
X18.613 Y5.448 Z-6.348
X18.726 Y5.513 Z-6.353
X18.83 Y5.591 Z-6.357
X18.923 Y5.681 Z-6.362
X19.005 Y5.782 Z-6.366
X19.074 Y5.892 Z-6.371
X19.13 Y6.009 Z-6.376
X19.171 Y6.132 Z-6.38
X19.196 Y6.26 Z-6.385
X19.206 Y6.389 Z-6.389
X19.201 Y6.519 Z-6.394
X19.179 Y6.647 Z-6.398
X19.143 Y6.771 Z-6.403
X19.091 Y6.89 Z-6.407
X19.026 Y7.002 Z-6.412
X18.947 Y7.106 Z-6.416
X18.857 Y7.199 Z-6.421
X18.756 Y7.28 Z-6.425
X18.645 Y7.349 Z-6.43
X18.528 Y7.404 Z-6.434
X18.404 Y7.444 Z-6.439
X18.277 Y7.469 Z-6.444
X18.147 Y7.478 Z-6.448
X18.018 Y7.472 Z-6.453
X17.89 Y7.45 Z-6.457
X17.765 Y7.412 Z-6.462
X17.647 Y7.36 Z-6.466
X17.535 Y7.294 Z-6.471
X17.432 Y7.215 Z-6.475
X17.339 Y7.124 Z-6.48
X17.259 Y7.022 Z-6.484
X17.191 Y6.912 Z-6.489
X17.136 Y6.794 Z-6.493
X17.097 Y6.67 Z-6.498
X17.073 Y6.543 Z-6.502
X17.064 Y6.413 Z-6.507
X17.071 Y6.283 Z-6.512
X17.094 Y6.156 Z-6.516
X17.132 Y6.032 Z-6.521
X17.185 Y5.913 Z-6.525
X17.252 Y5.802 Z-6.53
X17.331 Y5.699 Z-6.534
X17.423 Y5.607 Z-6.539
X17.525 Y5.527 Z-6.543
X17.636 Y5.459 Z-6.548
X17.754 Y5.406 Z-6.552
X17.878 Y5.367 Z-6.557
X18.006 Y5.344 Z-6.561
X18.135 Y5.336 Z-6.566
X136.955
X138.353 Y5.493
X139.571 Y5.923
X140.647 Y6.601
X141.534 Y7.488
X142.225 Y8.581
X142.229 Y8.59
X142.644 Y9.777
X142.804 Y11.174
Y90.426
X142.644 Y91.823
X142.226 Y93.017
X141.534 Y94.112
X140.647 Y94.999
X139.571 Y95.677
X138.353 Y96.107
X136.955 Y96.264
X17.692
X9.596 Y88.168
Y13.432
X17.692 Y5.336
X18.135
G3 X18.331 Y5.496 R0.2
G1 X18.67 Y7.17
G3 X18.55 Y7.395 R0.2
G1 X18.458 Y7.432
X18.378 Y7.469
X18.302 Y7.513
X18.177 Y7.592
X18.084 Y7.659
X18.021 Y7.71
X17.942 Y7.78
X12.057 Y13.664
X11.976 Y13.755
X11.878 Y13.88
X11.834 Y13.942
X11.794 Y14.006
X11.724 Y14.131
X11.686 Y14.205
X11.655 Y14.28
X11.592 Y14.454
X11.567 Y14.533
X11.549 Y14.613
X11.522 Y14.758
X11.51 Y14.845
X11.506 Y14.932
X11.5 Y15.741
Y15.749
Y86.583
X11.507 Y86.703
X11.528 Y86.876
X11.542 Y86.96
X11.563 Y87.042
X11.61 Y87.201
X11.634 Y87.273
X11.664 Y87.343
X11.724 Y87.468
X11.757 Y87.533
X11.795 Y87.594
X11.878 Y87.719
X11.928 Y87.788
X11.983 Y87.852
X12.16 Y88.04
X12.181 Y88.061
X17.942 Y93.82
X17.995 Y93.868
X18.051 Y93.913
X18.176 Y94.007
X18.252 Y94.059
X18.332 Y94.103
X18.521 Y94.196
X18.613 Y94.236
X18.71 Y94.266
X18.898 Y94.315
X18.976 Y94.333
X19.056 Y94.343
X19.181 Y94.355
X19.276 Y94.36
X137.136 Y94.359
X137.215 Y94.356
X137.293 Y94.346
X137.544 Y94.307
X137.59 Y94.298
X138.28 Y94.155
X138.378 Y94.129
X138.473 Y94.094
X138.661 Y94.013
X138.742 Y93.973
X138.819 Y93.927
X139.526 Y93.456
X139.587 Y93.412
X139.644 Y93.364
X139.772 Y93.248
X139.835 Y93.185
X139.893 Y93.118
X140.005 Y92.972
X140.046 Y92.914
X140.462 Y92.288
X140.505 Y92.217
X140.542 Y92.142
X140.626 Y91.954
X140.66 Y91.868
X140.685 Y91.779
X140.73 Y91.591
X140.739 Y91.549
X140.877 Y90.837
X140.89 Y90.746
X140.895 Y90.654
X140.9 Y89.865
Y89.857
Y11.025
X140.892 Y10.902
X140.87 Y10.724
X140.858 Y10.65
X140.711 Y9.918
X140.693 Y9.844
X140.67 Y9.772
X140.601 Y9.584
X140.563 Y9.494
X140.517 Y9.409
X140.403 Y9.221
X140.376 Y9.179
X139.971 Y8.581
X139.917 Y8.509
X139.856 Y8.441
X139.726 Y8.308
X139.655 Y8.243
X139.579 Y8.185
X139.185 Y7.914
X139.168 Y7.903
X138.814 Y7.67
X138.739 Y7.625
X138.661 Y7.587
X138.473 Y7.506
X138.377 Y7.47
X138.279 Y7.445
X137.464 Y7.277
X137.381 Y7.263
X137.255 Y7.248
X137.136 Y7.241
X19.214 Y7.244
X19.118 Y7.249
X19.024 Y7.262
X18.836 Y7.299
X18.74 Y7.322
X18.646 Y7.355
X18.55 Y7.395
X18.507 Y7.404
X18.463 Y7.4
X18.423 Y7.381
X18.391 Y7.35
X18.371 Y7.311
X18.365 Y7.267
X18.373 Y7.223
X18.584 Y6.665
X18.927 Y6.187
X18.959 Y6.156
X19. Y6.137
X19.045 Y6.132
X19.089 Y6.142
X19.127 Y6.167
X19.154 Y6.202
X19.169 Y6.245
X19.181 Y6.373 Z-6.57
X19.177 Y6.502 Z-6.575
X19.158 Y6.629 Z-6.579
X19.123 Y6.753 Z-6.584
X19.073 Y6.871 Z-6.588
X19.009 Y6.983 Z-6.593
X18.932 Y7.086 Z-6.597
X18.843 Y7.179 Z-6.602
X18.743 Y7.26 Z-6.606
X18.634 Y7.328 Z-6.611
X18.517 Y7.382 Z-6.615
X18.395 Y7.421 Z-6.62
X18.268 Y7.446 Z-6.624
X18.14 Y7.454 Z-6.629
X18.012 Y7.447 Z-6.633
X17.885 Y7.423 Z-6.638
X17.762 Y7.385 Z-6.642
X17.645 Y7.332 Z-6.647
X17.536 Y7.265 Z-6.651
X17.435 Y7.184 Z-6.656
X17.345 Y7.092 Z-6.66
X17.267 Y6.99 Z-6.665
X17.202 Y6.879 Z-6.669
X17.151 Y6.761 Z-6.674
X17.115 Y6.637 Z-6.678
X17.095 Y6.51 Z-6.683
X17.09 Y6.382 Z-6.687
X17.102 Y6.253 Z-6.692
X17.128 Y6.128 Z-6.696
X17.171 Y6.006 Z-6.701
X17.227 Y5.891 Z-6.705
X17.298 Y5.783 Z-6.71
X17.381 Y5.685 Z-6.714
X17.475 Y5.597 Z-6.719
X17.58 Y5.523 Z-6.723
X17.693 Y5.461 Z-6.728
X17.813 Y5.414 Z-6.732
X17.937 Y5.382 Z-6.737
X18.065 Y5.365 Z-6.741
X18.193 Y5.364 Z-6.746
X18.321 Y5.379 Z-6.75
X18.446 Y5.41 Z-6.755
X18.566 Y5.455 Z-6.759
X18.68 Y5.515 Z-6.764
X18.786 Y5.589 Z-6.768
X18.881 Y5.675 Z-6.773
X18.966 Y5.772 Z-6.777
X19.038 Y5.879 Z-6.782
X19.096 Y5.994 Z-6.786
X19.139 Y6.115 Z-6.791
X19.168 Y6.24 Z-6.795
X19.181 Y6.368 Z-6.8
X19.178 Y6.497 Z-6.804
X19.159 Y6.624 Z-6.809
X19.125 Y6.748 Z-6.813
X19.076 Y6.867 Z-6.818
X19.012 Y6.979 Z-6.822
X18.935 Y7.082 Z-6.827
X18.847 Y7.175 Z-6.831
X18.747 Y7.257 Z-6.836
X18.638 Y7.325 Z-6.84
X18.522 Y7.38 Z-6.845
X18.4 Y7.42 Z-6.849
X18.273 Y7.445 Z-6.854
X18.145 Y7.454 Z-6.858
X18.017 Y7.447 Z-6.863
X17.89 Y7.425 Z-6.867
X17.767 Y7.387 Z-6.872
X17.65 Y7.334 Z-6.876
X17.54 Y7.267 Z-6.881
X17.439 Y7.188 Z-6.885
X17.348 Y7.096 Z-6.89
X17.27 Y6.994 Z-6.894
X17.204 Y6.883 Z-6.899
X17.153 Y6.765 Z-6.903
X17.117 Y6.642 Z-6.908
X17.096 Y6.515 Z-6.912
X17.09 Y6.387 Z-6.917
X17.101 Y6.258 Z-6.921
X17.127 Y6.132 Z-6.926
X17.169 Y6.011 Z-6.93
X17.225 Y5.895 Z-6.935
X17.295 Y5.787 Z-6.939
X17.377 Y5.688 Z-6.944
X17.472 Y5.601 Z-6.948
X17.576 Y5.525 Z-6.953
X17.688 Y5.463 Z-6.957
X17.808 Y5.415 Z-6.962
X17.932 Y5.383 Z-6.966
X18.06 Y5.365 Z-6.971
X18.188 Y5.364 Z-6.975
X18.316 Y5.378 Z-6.98
X18.441 Y5.408 Z-6.984
X18.562 Y5.453 Z-6.989
X18.676 Y5.513 Z-6.993
X18.782 Y5.586 Z-6.998
X18.878 Y5.671 Z-7.002
X18.963 Y5.768 Z-7.007
X19.035 Y5.875 Z-7.011
X19.094 Y5.989 Z-7.016
X19.138 Y6.11 Z-7.02
X19.167 Y6.235 Z-7.025
X19.181 Y6.363 Z-7.029
X19.178 Y6.492 Z-7.034
X19.16 Y6.619 Z-7.038
X19.126 Y6.743 Z-7.043
X19.078 Y6.862 Z-7.047
X19.015 Y6.975 Z-7.052
X18.939 Y7.078 Z-7.056
X18.85 Y7.172 Z-7.061
X18.751 Y7.254 Z-7.065
X18.643 Y7.323 Z-7.07
X18.527 Y7.378 Z-7.074
X18.435 Y7.421
X18.31 Y7.486
X18.245 Y7.523
X18.184 Y7.565
X18.058 Y7.657
X17.998 Y7.704
X17.942 Y7.756
X12.032 Y13.664
X11.988 Y13.712
X11.946 Y13.763
X11.85 Y13.888
X11.806 Y13.949
X11.768 Y14.014
X11.698 Y14.139
X11.667 Y14.201
X11.64 Y14.264
X11.592 Y14.39
X11.559 Y14.492
X11.539 Y14.569
X11.515 Y14.687
X11.493 Y14.846
X11.486 Y14.914
X11.484 Y14.983
Y86.617
X11.486 Y86.686
X11.493 Y86.754
X11.515 Y86.913
X11.529 Y86.988
X11.548 Y87.063
X11.59 Y87.203
X11.613 Y87.27
X11.64 Y87.336
X11.698 Y87.461
X11.731 Y87.525
X11.768 Y87.587
X11.85 Y87.712
X11.9 Y87.782
X11.956 Y87.848
X12.132 Y88.036
X12.156 Y88.061
X17.942 Y93.844
X17.998 Y93.896
X18.058 Y93.943
X18.184 Y94.035
X18.26 Y94.085
X18.34 Y94.129
X18.528 Y94.22
X18.615 Y94.257
X18.704 Y94.285
X18.866 Y94.329
X18.956 Y94.348
X19.047 Y94.359
X19.248 Y94.375
X19.326 Y94.378
X137.164 Y94.375
X137.248 Y94.371
X137.331 Y94.36
X137.555 Y94.323
X137.589 Y94.316
X138.279 Y94.174
X138.374 Y94.149
X138.466 Y94.115
X138.654 Y94.036
X138.738 Y93.996
X138.818 Y93.948
X139.53 Y93.475
X139.59 Y93.432
X139.646 Y93.385
X139.784 Y93.261
X139.85 Y93.195
X139.91 Y93.124
X140.03 Y92.967
X140.068 Y92.913
X140.483 Y92.288
X140.527 Y92.213
X140.566 Y92.135
X140.648 Y91.947
X140.684 Y91.85
X140.71 Y91.75
X140.874 Y90.959
X140.888 Y90.873
X140.911 Y90.673
X140.918 Y90.557
X140.916 Y10.993
X140.913 Y10.911
X140.903 Y10.83
X140.861 Y10.578
X140.853 Y10.537
X140.71 Y9.849
X140.684 Y9.749
X140.648 Y9.653
X140.566 Y9.465
X140.526 Y9.385
X140.48 Y9.309
X139.991 Y8.578
X139.935 Y8.503
X139.874 Y8.434
X139.734 Y8.292
X139.661 Y8.224
X139.582 Y8.165
X138.952 Y7.737
X138.898 Y7.703
X138.71 Y7.592
X138.621 Y7.546
X138.528 Y7.508
X138.34 Y7.443
X138.274 Y7.423
X138.207 Y7.408
X137.404 Y7.249
X137.32 Y7.236
X137.237 Y7.231
X136.912 Y7.222
X136.885
X19.225 Y7.225
X19.149 Y7.228
X19.074 Y7.236
X18.923 Y7.259
X18.841 Y7.276
X18.76 Y7.299
X18.585 Y7.357
X18.527 Y7.378
G3 X18.286 Y7.304 R0.2
G1 X17.365 Y5.928
G3 X17.39 Y5.675 R0.2
G1 X17.703 Y5.363
X136.954
X138.353 Y5.521
X139.559 Y5.946
X140.623 Y6.614
X141.521 Y7.512
X142.191 Y8.577
X142.37 Y9.073
X142.616 Y9.777
X142.777 Y11.174
Y90.426
X142.616 Y91.823
X142.206 Y92.996
X142.174 Y93.05
X141.521 Y94.088
X140.623 Y94.986
X139.559 Y95.654
X138.353 Y96.079
X136.954 Y96.237
X19.326
X17.703
X9.623 Y88.157
Y13.443
X17.39 Y5.675
X17.421 Y5.655
X17.457 Y5.649
X17.493 Y5.659
X17.522 Y5.683
X17.538 Y5.716
X17.54 Y5.752
X17.479 Y6.11
X17.274 Y6.396
X17.251 Y6.418
X17.221 Y6.431
X17.188
X17.157 Y6.42
X17.133 Y6.399
X17.118 Y6.37
X17.114 Y6.337
X17.132 Y6.211 Z-7.078
X17.164 Y6.088 Z-7.083
X17.212 Y5.97 Z-7.087
X17.274 Y5.859 Z-7.092
X17.349 Y5.756 Z-7.096
X17.437 Y5.664 Z-7.101
X17.535 Y5.583 Z-7.105
X17.642 Y5.514 Z-7.11
X17.758 Y5.46 Z-7.114
X17.879 Y5.42 Z-7.118
X18.003 Y5.396 Z-7.123
X18.13 Y5.387 Z-7.127
X18.258 Y5.394 Z-7.132
X18.383 Y5.417 Z-7.136
X18.504 Y5.455 Z-7.141
X18.62 Y5.507 Z-7.145
X18.729 Y5.574 Z-7.15
X18.828 Y5.653 Z-7.154
X18.917 Y5.745 Z-7.159
X18.994 Y5.846 Z-7.163
X19.057 Y5.957 Z-7.167
X19.107 Y6.074 Z-7.172
X19.141 Y6.196 Z-7.176
X19.161 Y6.322 Z-7.181
X19.164 Y6.449 Z-7.185
X19.152 Y6.576 Z-7.19
X19.124 Y6.7 Z-7.194
X19.081 Y6.82 Z-7.199
X19.023 Y6.934 Z-7.203
X18.952 Y7.039 Z-7.207
X18.868 Y7.135 Z-7.212
X18.773 Y7.22 Z-7.216
X18.669 Y7.292 Z-7.221
X18.556 Y7.351 Z-7.225
X18.436 Y7.396 Z-7.23
X18.313 Y7.425 Z-7.234
X18.186 Y7.439 Z-7.239
X18.059 Y7.437 Z-7.243
X17.933 Y7.419 Z-7.247
X17.81 Y7.386 Z-7.252
X17.692 Y7.338 Z-7.256
X17.581 Y7.276 Z-7.261
X17.478 Y7.2 Z-7.265
X17.386 Y7.113 Z-7.27
X17.305 Y7.014 Z-7.274
X17.237 Y6.906 Z-7.279
X17.183 Y6.791 Z-7.283
X17.144 Y6.67 Z-7.288
X17.12 Y6.545 Z-7.292
X17.111 Y6.418 Z-7.296
X17.119 Y6.291 Z-7.301
X17.142 Y6.166 Z-7.305
X17.18 Y6.044 Z-7.31
X17.233 Y5.929 Z-7.314
X17.3 Y5.82 Z-7.319
X17.38 Y5.721 Z-7.323
X17.471 Y5.633 Z-7.328
X17.573 Y5.556 Z-7.332
X17.684 Y5.493 Z-7.336
X17.801 Y5.444 Z-7.341
X17.924 Y5.41 Z-7.345
X18.05 Y5.391 Z-7.35
X18.177 Y5.388 Z-7.354
X18.304 Y5.4 Z-7.359
X18.428 Y5.429 Z-7.363
X18.547 Y5.472 Z-7.368
X18.661 Y5.53 Z-7.372
X18.766 Y5.602 Z-7.377
X18.862 Y5.685 Z-7.381
X18.946 Y5.781 Z-7.385
X19.018 Y5.886 Z-7.39
X19.077 Y5.999 Z-7.394
X19.121 Y6.118 Z-7.399
X19.15 Y6.242 Z-7.403
X19.164 Y6.369 Z-7.408
X19.161 Y6.496 Z-7.412
X19.143 Y6.622 Z-7.417
X19.11 Y6.745 Z-7.421
X19.061 Y6.862 Z-7.425
X18.999 Y6.973 Z-7.43
X18.923 Y7.075 Z-7.434
X18.835 Y7.168 Z-7.439
X18.736 Y7.248 Z-7.443
X18.628 Y7.316 Z-7.448
X18.513 Y7.369 Z-7.452
X18.392 Y7.408 Z-7.457
X18.267 Y7.432 Z-7.461
X18.14 Y7.44 Z-7.465
X18.012 Y7.432 Z-7.47
X17.887 Y7.409 Z-7.474
X17.766 Y7.37 Z-7.479
X17.65 Y7.317 Z-7.483
X17.542 Y7.25 Z-7.488
X17.443 Y7.17 Z-7.492
X17.355 Y7.078 Z-7.497
X17.279 Y6.976 Z-7.501
X17.216 Y6.865 Z-7.506
X17.167 Y6.748 Z-7.51
X17.133 Y6.625 Z-7.514
X17.115 Y6.499 Z-7.519
X17.112 Y6.372 Z-7.523
X17.125 Y6.245 Z-7.528
X17.154 Y6.121 Z-7.532
X17.198 Y6.001 Z-7.537
X17.256 Y5.888 Z-7.541
X17.328 Y5.783 Z-7.546
X17.412 Y5.688 Z-7.55
X17.713 Y5.387
X136.954
X138.352 Y5.546
X139.548 Y5.968
X140.6 Y6.629
X141.508 Y7.535
X142.17 Y8.588
X142.344 Y9.073
X142.595 Y9.79
X142.606 Y9.867
X142.753 Y11.173
Y90.427
X142.599 Y91.794
X142.594 Y91.811
X142.182 Y92.989
X142.16 Y93.027
X141.508 Y94.065
X140.6 Y94.971
X139.548 Y95.632
X138.352 Y96.054
X136.954 Y96.213
X19.285
X17.713
X9.647 Y88.147
Y13.453
X17.412 Y5.688
G3 X17.695 R0.2
X17.72 Y5.719 R0.2
G1 X18.615 Y7.069
G3 X18.559 Y7.347 R0.2
X18.521 Y7.366 R0.2
G1 X18.472 Y7.385
X18.393 Y7.421
X18.316 Y7.463
X18.191 Y7.539
X18.098 Y7.604
X18.035 Y7.653
X17.942 Y7.734
X12.01 Y13.664
X11.962 Y13.715
X11.919 Y13.769
X11.824 Y13.895
X11.772 Y13.97
X11.728 Y14.05
X11.634 Y14.238
X11.605 Y14.303
X11.58 Y14.369
X11.557 Y14.439
X11.538 Y14.502
X11.523 Y14.566
X11.488 Y14.751
X11.475 Y14.845
X11.47 Y14.94
Y86.66
X11.475 Y86.757
X11.489 Y86.853
X11.526 Y87.045
X11.551 Y87.142
X11.584 Y87.236
X11.662 Y87.424
X11.699 Y87.504
X11.744 Y87.58
X11.824 Y87.705
X11.891 Y87.798
X11.942 Y87.861
X12.01 Y87.936
X17.942 Y93.866
X18.002 Y93.92
X18.065 Y93.97
X18.19 Y94.06
X18.266 Y94.11
X18.347 Y94.152
X18.535 Y94.242
X18.617 Y94.276
X18.701 Y94.303
X18.842 Y94.341
X18.923 Y94.359
X19.004 Y94.371
X19.185 Y94.389
X19.285 Y94.394
X137.169 Y94.39
X137.264 Y94.386
X137.358 Y94.372
X138.203 Y94.21
X138.269 Y94.195
X138.334 Y94.175
X138.522 Y94.112
X138.616 Y94.075
X138.705 Y94.028
X138.893 Y93.919
X138.951 Y93.883
X139.588 Y93.451
X139.654 Y93.402
X139.715 Y93.349
X139.816 Y93.254
X139.874 Y93.194
X139.926 Y93.13
X140.052 Y92.963
X140.087 Y92.913
X140.501 Y92.287
X140.548 Y92.21
X140.587 Y92.129
X140.667 Y91.941
X140.702 Y91.846
X140.727 Y91.749
X140.898 Y90.92
X140.911 Y90.837
X140.926 Y90.717
X140.933 Y90.598
Y11.002
X140.93 Y10.923
X140.92 Y10.845
X140.882 Y10.605
X140.874 Y10.559
X140.727 Y9.85
X140.702 Y9.753
X140.667 Y9.659
X140.587 Y9.471
X140.547 Y9.388
X140.499 Y9.31
X140.007 Y8.572
X139.961 Y8.509
X139.91 Y8.449
X139.807 Y8.338
X139.76 Y8.29
X139.71 Y8.246
X139.619 Y8.171
X139.534 Y8.108
X138.817 Y7.633
X138.734 Y7.584
X138.648 Y7.543
X138.46 Y7.465
X138.369 Y7.432
X138.275 Y7.409
X137.425 Y7.236
X137.315 Y7.22
X137.202 Y7.21
X137.112 Y7.206
X19.225 Y7.208
X19.139 Y7.212
X19.055 Y7.223
X18.855 Y7.257
X18.757 Y7.279
X18.661 Y7.311
X18.521 Y7.366
G3 X18.324 Y7.28 R0.153
X18.316 Y7.197 R0.153
G1 X18.445 Y6.491
X18.609 Y5.799
G3 X18.793 Y5.686 R0.153
X18.869 Y5.729 R0.153
G1 X18.949 Y5.827 Z-7.554
X19.017 Y5.933 Z-7.559
X19.071 Y6.048 Z-7.563
X19.11 Y6.168 Z-7.568
X19.133 Y6.292 Z-7.572
X19.141 Y6.419 Z-7.577
X19.132 Y6.545 Z-7.581
X19.108 Y6.669 Z-7.585
X19.069 Y6.789 Z-7.59
X19.014 Y6.903 Z-7.594
X18.946 Y7.009 Z-7.599
X18.865 Y7.106 Z-7.603
X18.772 Y7.192 Z-7.607
X18.669 Y7.266 Z-7.612
X18.558 Y7.326 Z-7.616
X18.44 Y7.371 Z-7.621
X18.317 Y7.401 Z-7.625
X18.192 Y7.416 Z-7.63
X18.065 Y7.415 Z-7.634
X17.94 Y7.398 Z-7.638
X17.818 Y7.365 Z-7.643
X17.701 Y7.317 Z-7.647
X17.591 Y7.254 Z-7.652
X17.49 Y7.179 Z-7.656
X17.399 Y7.091 Z-7.66
X17.32 Y6.992 Z-7.665
X17.254 Y6.884 Z-7.669
X17.202 Y6.769 Z-7.674
X17.165 Y6.648 Z-7.678
X17.143 Y6.524 Z-7.683
X17.137 Y6.397 Z-7.687
X17.148 Y6.271 Z-7.691
X17.174 Y6.148 Z-7.696
X17.215 Y6.028 Z-7.7
X17.271 Y5.915 Z-7.705
X17.341 Y5.81 Z-7.709
X17.424 Y5.714 Z-7.713
X17.518 Y5.63 Z-7.718
X17.622 Y5.558 Z-7.722
X17.734 Y5.5 Z-7.727
X17.853 Y5.456 Z-7.731
X17.976 Y5.427 Z-7.736
X18.102 Y5.415 Z-7.74
X18.228 Y5.418 Z-7.744
X18.353 Y5.437 Z-7.749
X18.475 Y5.472 Z-7.753
X18.591 Y5.522 Z-7.758
X18.7 Y5.586 Z-7.762
X18.8 Y5.663 Z-7.766
X18.889 Y5.752 Z-7.771
X18.967 Y5.852 Z-7.775
X19.031 Y5.961 Z-7.78
X19.082 Y6.077 Z-7.784
X19.117 Y6.198 Z-7.789
X19.136 Y6.323 Z-7.793
X19.14 Y6.45 Z-7.797
X19.128 Y6.575 Z-7.802
X19.1 Y6.699 Z-7.806
X19.057 Y6.817 Z-7.811
X18.999 Y6.93 Z-7.815
X18.927 Y7.034 Z-7.819
X18.843 Y7.128 Z-7.824
X18.748 Y7.211 Z-7.828
X18.643 Y7.282 Z-7.833
X18.529 Y7.338 Z-7.837
X18.41 Y7.38 Z-7.842
X18.287 Y7.407 Z-7.846
X18.161 Y7.417 Z-7.85
X18.034 Y7.412 Z-7.855
X17.91 Y7.391 Z-7.859
X17.789 Y7.354 Z-7.864
X17.673 Y7.303 Z-7.868
X17.565 Y7.237 Z-7.872
X17.466 Y7.158 Z-7.877
X17.378 Y7.068 Z-7.881
X17.302 Y6.967 Z-7.886
X17.24 Y6.857 Z-7.89
X17.191 Y6.74 Z-7.895
X17.158 Y6.618 Z-7.899
X17.14 Y6.493 Z-7.903
X17.138 Y6.366 Z-7.908
X17.153 Y6.241 Z-7.912
X17.183 Y6.118 Z-7.917
X17.228 Y6. Z-7.921
X17.287 Y5.888 Z-7.925
X17.36 Y5.785 Z-7.93
X17.446 Y5.692 Z-7.934
X17.543 Y5.611 Z-7.939
X17.649 Y5.542 Z-7.943
X17.763 Y5.487 Z-7.948
X17.883 Y5.447 Z-7.952
X18.007 Y5.423 Z-7.956
X18.133 Y5.414 Z-7.961
X18.259 Y5.421 Z-7.965
X18.383 Y5.444 Z-7.97
X18.504 Y5.483 Z-7.974
X18.618 Y5.536 Z-7.978
X18.725 Y5.604 Z-7.983
X18.823 Y5.684 Z-7.987
X18.91 Y5.776 Z-7.992
X18.984 Y5.878 Z-7.996
X19.045 Y5.989 Z-8.001
X19.092 Y6.106 Z-8.005
X19.123 Y6.229 Z-8.009
X19.139 Y6.354 Z-8.014
Y6.481 Z-8.018
X19.122 Y6.606 Z-8.023
X19.091 Y6.728 Z-8.027
X19.044 Y6.846 Z-8.031
X18.982 Y6.956 Z-8.036
X18.908 Y7.058 Z-8.04
X18.821 Y7.15 Z-8.045
X18.723 Y7.23 Z-8.049
X18.615 Y7.297 Z-8.054
X18.501 Y7.35 Z-8.058
X18.424 Y7.384
X18.35 Y7.423
X18.181 Y7.524
X18.098 Y7.579
X18.021 Y7.642
X17.852 Y7.796
X17.817 Y7.829
X11.997 Y13.651
X11.945 Y13.708
X11.897 Y13.768
X11.775 Y13.935
X11.721 Y14.017
X11.676 Y14.103
X11.599 Y14.27
X11.563 Y14.356
X11.536 Y14.445
X11.49 Y14.626
X11.474 Y14.702
X11.464 Y14.78
X11.452 Y14.905
X11.448 Y14.998
X11.452 Y86.665
X11.456 Y86.759
X11.469 Y86.852
X11.505 Y87.04
X11.527 Y87.13
X11.556 Y87.218
X11.622 Y87.385
X11.66 Y87.471
X11.707 Y87.553
X11.812 Y87.72
X11.866 Y87.797
X11.927 Y87.87
X12.083 Y88.036
X12.107 Y88.061
X17.93 Y93.879
X17.996 Y93.94
X18.068 Y93.994
X18.237 Y94.111
X18.32 Y94.163
X18.407 Y94.206
X18.576 Y94.28
X18.661 Y94.312
X18.749 Y94.337
X18.926 Y94.378
X19.001 Y94.392
X19.077 Y94.4
X19.203 Y94.41
X19.276 Y94.412
X137.136 Y94.411
X137.215 Y94.408
X137.293 Y94.398
X137.544 Y94.359
X137.587 Y94.351
X138.277 Y94.21
X138.366 Y94.187
X138.453 Y94.157
X138.641 Y94.08
X138.731 Y94.038
X138.816 Y93.988
X139.539 Y93.511
X139.62 Y93.451
X139.716 Y93.373
X139.769 Y93.326
X139.819 Y93.275
X139.928 Y93.157
X139.979 Y93.097
X140.024 Y93.034
X140.52 Y92.289
X140.569 Y92.208
X140.61 Y92.122
X140.689 Y91.934
X140.723 Y91.841
X140.747 Y91.745
X140.924 Y90.869
X140.937 Y90.784
X140.944 Y90.699
X140.952 Y90.386
Y90.358
X140.95 Y10.992
X140.947 Y10.91
X140.937 Y10.828
X140.895 Y10.578
X140.888 Y10.539
X140.746 Y9.851
X140.722 Y9.757
X140.689 Y9.666
X140.61 Y9.478
X140.569 Y9.392
X140.52 Y9.311
X140.025 Y8.566
X139.979 Y8.503
X139.928 Y8.444
X139.819 Y8.325
X139.769 Y8.274
X139.716 Y8.227
X139.62 Y8.149
X139.539 Y8.089
X138.816 Y7.612
X138.731 Y7.562
X138.641 Y7.52
X138.453 Y7.443
X138.364 Y7.412
X138.273 Y7.389
X137.395 Y7.214
X137.302 Y7.2
X137.208 Y7.195
X136.393 Y7.188
X136.384 Y7.187
X19.214 Y7.19
X19.129 Y7.194
X19.045 Y7.204
X18.857 Y7.237
X18.768 Y7.256
X18.681 Y7.284
X18.517 Y7.344
X18.501 Y7.35
G3 X18.262 Y7.274 R0.2
G1 X17.399 Y5.966
G3 X17.424 Y5.714 R0.2
G1 X17.724 Y5.414
X136.954
X138.352 Y5.575
X139.535 Y5.992
X140.575 Y6.645
X141.491 Y7.559
X142.162 Y8.634
X142.568 Y9.794
X142.579 Y9.871
X142.726 Y11.173
Y90.427
X142.573 Y91.789
X142.568 Y91.805
X142.144 Y93.002
X141.492 Y94.04
X140.575 Y94.955
X139.535 Y95.608
X138.352 Y96.025
X136.954 Y96.186
X17.724
X9.674 Y88.136
Y13.465
X9.706 Y13.432
X16.563 Y6.575
X17.424 Y5.714
G3 X17.707 R0.2
X17.755 Y5.919 R0.2
G1 X17.403 Y6.966
X17.382 Y7.009
X17.351 Y7.047
X10.636 Y14.544
X10.604 Y14.589
X10.582 Y14.639
X10.571 Y14.693
X10.564 Y14.733
X10.548 Y14.771
X10.075 Y15.649
G3 X9.805 Y15.731 R0.2
X9.699 Y15.554 R0.2
G1 Y13.475 Z-8.131
X9.705 Y13.469
X17.734 Y5.439 Z-8.527
X18.38 Z-8.55
X136.955
X138.323 Y5.592
X138.339 Y5.597
X139.524 Y6.014
X140.57 Y6.672
X140.596 Y6.695
X141.476 Y7.582
X142.122 Y8.61
X142.548 Y9.813
X142.701 Y11.173
Y90.427
X142.55 Y91.769
X142.46 Y92.038
X142.122 Y92.99
X141.476 Y94.018
X140.576 Y94.925
X139.524 Y95.586
X138.338 Y96.004
X138.262 Y96.015
X136.955 Y96.161
X17.735
X9.699 Y88.121
Y14.998
Y13.475
X9.705 Y13.469
X17.734 Y5.439
X18.38
G3 X18.58 Y5.632 R0.2
G1 X18.632 Y7.134
X18.628 Y7.183
X18.612 Y7.23
X18.585 Y7.271
X18.549 Y7.304
X18.506 Y7.327
X18.445 Y7.354
X18.385 Y7.384
X18.237 Y7.466
X18.174 Y7.505
X18.114 Y7.547
X18.014 Y7.623
X17.964 Y7.665
X17.916 Y7.71
X11.986 Y13.638
X11.939 Y13.688
X11.896 Y13.741
X11.784 Y13.889
X11.734 Y13.961
X11.691 Y14.037
X11.615 Y14.185
X11.579 Y14.263
X11.55 Y14.344
X11.498 Y14.514
X11.475 Y14.602
X11.46 Y14.693
X11.438 Y14.881
X11.431 Y14.998
X11.434 Y86.665
X11.438 Y86.755
X11.451 Y86.845
X11.485 Y87.033
X11.505 Y87.12
X11.533 Y87.205
X11.591 Y87.361
X11.625 Y87.439
X11.664 Y87.514
X11.75 Y87.661
X11.79 Y87.724
X11.835 Y87.784
X11.914 Y87.882
X11.986 Y87.962
X17.916 Y93.89
X17.975 Y93.945
X18.038 Y93.994
X18.187 Y94.102
X18.26 Y94.149
X18.336 Y94.191
X18.485 Y94.263
X18.563 Y94.296
X18.644 Y94.323
X18.811 Y94.372
X18.9 Y94.393
X18.99 Y94.406
X19.178 Y94.424
X19.276 Y94.429
X137.136 Y94.428
X137.215 Y94.425
X137.293 Y94.415
X137.544 Y94.375
X137.587 Y94.368
X138.276 Y94.227
X138.362 Y94.206
X138.446 Y94.177
X138.634 Y94.102
X138.726 Y94.06
X138.814 Y94.008
X139.441 Y93.597
X139.465 Y93.58
X139.616 Y93.475
X139.673 Y93.431
X139.728 Y93.384
X139.841 Y93.277
X139.903 Y93.213
X139.96 Y93.144
X140.099 Y92.956
X140.13 Y92.911
X140.542 Y92.285
X140.591 Y92.202
X140.632 Y92.115
X140.709 Y91.927
X140.741 Y91.837
X140.765 Y91.745
X140.941 Y90.868
X140.954 Y90.784
X140.96 Y90.699
X140.969 Y90.386
Y90.358
X140.967 Y10.992
X140.964 Y10.91
X140.954 Y10.828
X140.912 Y10.578
X140.905 Y10.54
X140.764 Y9.852
X140.741 Y9.761
X140.709 Y9.673
X140.632 Y9.485
X140.59 Y9.396
X140.54 Y9.312
X140.041 Y8.56
X139.996 Y8.497
X139.945 Y8.438
X139.83 Y8.313
X139.778 Y8.259
X139.721 Y8.21
X139.62 Y8.129
X139.548 Y8.075
X138.883 Y7.631
X138.823 Y7.594
X138.76 Y7.561
X138.572 Y7.471
X138.494 Y7.438
X138.414 Y7.411
X138.288 Y7.375
X138.206 Y7.356
X137.391 Y7.196
X137.3 Y7.183
X137.208 Y7.178
X136.393 Y7.171
X136.384
X19.214 Y7.173
X19.133 Y7.176
X19.052 Y7.186
X18.864 Y7.217
X18.777 Y7.235
X18.692 Y7.261
X18.538 Y7.315
X18.506 Y7.327
X18.446 Y7.345 Z-8.54
X18.385 Y7.354 Z-8.53
X18.33 Z-8.502
X18.275 Y7.346 Z-8.474
X18.232 Y7.334 Z-8.429
X18.191 Y7.318 Z-8.385
X18.141 Y7.29 Z-8.274
X18.125 Y7.279 Z-8.15
G0 Z5.
X11.416 Y66.145
G1 Z-7.617 F380.
Y66.153 Z-7.695 F1500.
Y66.176 Z-7.77
Y66.213 Z-7.839
Y66.262 Z-7.899
Y66.323 Z-7.949
Y66.392 Z-7.986
Y66.467 Z-8.009
Y66.545 Z-8.017
Y86.665 Z-8.041
X11.419 Y86.752
X11.431 Y86.837
X11.463 Y87.025
X11.483 Y87.112
X11.51 Y87.197
X11.567 Y87.353 Z-8.042
X11.597 Y87.426
X11.632 Y87.496
X11.704 Y87.625
X11.745 Y87.692
X11.791 Y87.755
X11.893 Y87.885
X11.972 Y87.975 Z-8.043
X17.903 Y93.904 Z-8.053
X17.955 Y93.952
X18.011 Y93.997
X18.14 Y94.094
X18.204 Y94.138
X18.27 Y94.177
X18.4 Y94.245
X18.47 Y94.279 Z-8.054
X18.543 Y94.308
X18.699 Y94.362
X18.784 Y94.387
X18.872 Y94.405
X19.06 Y94.434
X19.136 Y94.443
X19.214 Y94.446
X137.136 Z-8.196
X137.215 Y94.443 Z-8.197
X137.293 Y94.433
X137.544 Y94.394
X137.586 Y94.386
X138.275 Y94.246 Z-8.198
X138.358 Y94.226
X138.439 Y94.198
X138.627 Y94.125
X138.706 Y94.09
X138.781 Y94.049 Z-8.199
X138.906 Y93.974
X138.949 Y93.946
X139.61 Y93.501 Z-8.2
X139.674 Y93.454
X139.735 Y93.401
X139.854 Y93.29
X139.939 Y93.199
X139.994 Y93.133
X140.059 Y93.046
X140.561 Y92.287 Z-8.202
X140.613 Y92.2
X140.655 Y92.108
X140.731 Y91.92
X140.761 Y91.833
X140.783 Y91.744
X140.959 Y90.868 Z-8.203
X140.972 Y90.784
X140.978 Y90.699 Z-8.204
X140.987 Y90.386
Y90.358
X140.985 Y10.992 Z-8.3
X140.982 Y10.91
X140.972 Y10.828
X140.93 Y10.578
X140.923 Y10.541
X140.783 Y9.853 Z-8.301
X140.761 Y9.765
X140.731 Y9.68
X140.655 Y9.492
X140.613 Y9.4 Z-8.302
X140.561 Y9.313
X140.059 Y8.554 Z-8.303
X140.014 Y8.491
X139.964 Y8.432
X139.842 Y8.299
X139.787 Y8.243
X139.727 Y8.192
X139.621 Y8.107 Z-8.304
X139.552 Y8.057
X138.882 Y7.61 Z-8.305
X138.819 Y7.571
X138.753 Y7.537
X138.565 Y7.449
X138.47 Y7.41
X138.371 Y7.381
X138.12 Y7.321 Z-8.306
X138.079 Y7.312
X137.39 Y7.178
X137.299 Y7.165 Z-8.307
X137.208 Y7.16
X136.393 Y7.153 Z-8.308
X136.384
X19.214 Y7.154 Z-8.449
X19.136 Y7.157
X19.06 Y7.166
X18.872 Y7.195
X18.784 Y7.213
X18.699 Y7.238
X18.543 Y7.292 Z-8.45
X18.458 Y7.326
X18.377 Y7.367
X18.204 Y7.465
X18.139 Y7.505
X18.076 Y7.551
X17.99 Y7.619
X17.903 Y7.696 Z-8.451
X11.934 Y13.669 Z-8.461
X11.875 Y13.733
X11.823 Y13.802
X11.732 Y13.931
X11.697 Y13.985
X11.665 Y14.04
X11.62 Y14.127
X11.591 Y14.186 Z-8.462
X11.567 Y14.247
X11.51 Y14.403
X11.483 Y14.488
X11.463 Y14.575
X11.431 Y14.763
X11.419 Y14.848
X11.416 Y14.935
Y86.665 Z-8.549
X11.419 Y86.752
X11.431 Y86.837
X11.463 Y87.025
X11.483 Y87.112
X11.51 Y87.197
X11.567 Y87.353 Z-8.55
X11.597 Y87.426
X11.632 Y87.496
X11.704 Y87.625
X11.745 Y87.692
X11.791 Y87.755
X11.893 Y87.885
X11.972 Y87.975 Z-8.551
X17.903 Y93.904 Z-8.561
X17.955 Y93.952
X18.011 Y93.997
X18.14 Y94.094
X18.204 Y94.138
X18.27 Y94.177
X18.4 Y94.245
X18.47 Y94.279 Z-8.562
X18.543 Y94.308
X18.699 Y94.362
X18.784 Y94.387
X18.872 Y94.405
X19.06 Y94.434
X19.136 Y94.443
X19.214 Y94.446
X137.136 Z-8.704
X137.215 Y94.443 Z-8.705
X137.293 Y94.433
X137.544 Y94.394
X137.586 Y94.386
X138.275 Y94.246 Z-8.706
X138.358 Y94.226
X138.439 Y94.198
X138.627 Y94.125
X138.706 Y94.09
X138.781 Y94.049 Z-8.707
X138.906 Y93.974
X138.949 Y93.946
X139.61 Y93.501 Z-8.708
X139.674 Y93.454
X139.735 Y93.401
X139.854 Y93.29
X139.939 Y93.199
X139.994 Y93.133
X140.059 Y93.046
X140.561 Y92.287 Z-8.71
X140.613 Y92.2
X140.655 Y92.108
X140.731 Y91.92
X140.761 Y91.833
X140.783 Y91.744
X140.959 Y90.868 Z-8.711
X140.972 Y90.784
X140.978 Y90.699 Z-8.712
X140.987 Y90.386
Y90.358
X140.985 Y10.992 Z-8.808
X140.982 Y10.91
X140.972 Y10.828
X140.93 Y10.578
X140.923 Y10.541
X140.783 Y9.853 Z-8.809
X140.761 Y9.765
X140.731 Y9.68
X140.655 Y9.492
X140.613 Y9.4 Z-8.81
X140.561 Y9.313
X140.059 Y8.554 Z-8.811
X140.014 Y8.491
X139.964 Y8.432
X139.842 Y8.299
X139.787 Y8.243
X139.727 Y8.192
X139.621 Y8.107 Z-8.812
X139.552 Y8.057
X138.882 Y7.61 Z-8.813
X138.819 Y7.571
X138.753 Y7.537
X138.565 Y7.449
X138.47 Y7.41
X138.371 Y7.381
X138.12 Y7.321 Z-8.814
X138.079 Y7.312
X137.39 Y7.178
X137.299 Y7.165 Z-8.815
X137.208 Y7.16
X136.393 Y7.153 Z-8.816
X136.384
X19.214 Y7.154 Z-8.957
X19.136 Y7.157
X19.06 Y7.166
X18.872 Y7.195
X18.784 Y7.213
X18.699 Y7.238
X18.543 Y7.292 Z-8.958
X18.458 Y7.326
X18.377 Y7.367
X18.204 Y7.465
X18.139 Y7.505
X18.076 Y7.551
X17.99 Y7.619
X17.903 Y7.696 Z-8.959
X11.934 Y13.669 Z-8.969
X11.875 Y13.733
X11.823 Y13.802
X11.732 Y13.931
X11.697 Y13.985
X11.665 Y14.04
X11.62 Y14.127
X11.591 Y14.186 Z-8.97
X11.567 Y14.247
X11.51 Y14.403
X11.483 Y14.488
X11.463 Y14.575
X11.431 Y14.763
X11.419 Y14.848
X11.416 Y14.935
Y86.665 Z-9.057
X11.419 Y86.752
X11.431 Y86.837
X11.463 Y87.025
X11.483 Y87.112
X11.51 Y87.197
X11.567 Y87.353 Z-9.058
X11.597 Y87.426
X11.632 Y87.496
X11.682 Y87.585
X11.704 Y87.625
X11.745 Y87.692
X11.791 Y87.755
X11.893 Y87.885
X11.972 Y87.975
X17.903 Y93.904
X17.955 Y93.952
X18.011 Y93.997
X18.14 Y94.094
X18.204 Y94.138
X18.27 Y94.177
X18.4 Y94.245
X18.47 Y94.279
X18.543 Y94.308
X18.699 Y94.362
X18.784 Y94.387
X18.872 Y94.405
X19.06 Y94.434
X19.136 Y94.443
X19.214 Y94.446
X137.136
X137.215 Y94.443
X137.293 Y94.433
X137.544 Y94.394
X137.586 Y94.386
X138.275 Y94.246
X138.358 Y94.226
X138.439 Y94.198
X138.627 Y94.125
X138.706 Y94.09
X138.781 Y94.049
X138.906 Y93.974
X138.949 Y93.946
X139.61 Y93.501
X139.674 Y93.454
X139.735 Y93.401
X139.854 Y93.29
X139.939 Y93.199
X139.994 Y93.133
X140.059 Y93.046
X140.561 Y92.287
X140.613 Y92.2
X140.655 Y92.108
X140.731 Y91.92
X140.761 Y91.833
X140.783 Y91.744
X140.959 Y90.868
X140.972 Y90.784
X140.978 Y90.699
X140.987 Y90.386
Y90.358
X140.985 Y10.992
X140.982 Y10.91
X140.972 Y10.828
X140.93 Y10.578
X140.923 Y10.541
X140.783 Y9.853
X140.761 Y9.765
X140.731 Y9.68
X140.655 Y9.492
X140.613 Y9.4
X140.561 Y9.313
X140.059 Y8.554
X140.014 Y8.491
X139.964 Y8.432
X139.842 Y8.299
X139.787 Y8.243
X139.727 Y8.192
X139.621 Y8.107
X139.552 Y8.057
X138.882 Y7.61
X138.819 Y7.571
X138.753 Y7.537
X138.565 Y7.449
X138.47 Y7.41
X138.371 Y7.381
X138.12 Y7.321
X138.079 Y7.312
X137.39 Y7.178
X137.299 Y7.165
X137.208 Y7.16
X136.393 Y7.153
X136.384
X19.214 Y7.154
X19.136 Y7.157
X19.06 Y7.166
X18.872 Y7.195
X18.784 Y7.213
X18.699 Y7.238
X18.543 Y7.292
X18.458 Y7.326
X18.377 Y7.367
X18.204 Y7.465
X18.139 Y7.505
X18.076 Y7.551
X17.99 Y7.619
X17.903 Y7.696
X11.934 Y13.669
X11.875 Y13.733
X11.823 Y13.802
X11.732 Y13.931
X11.697 Y13.985
X11.665 Y14.04
X11.62 Y14.127
X11.591 Y14.186
X11.567 Y14.247
X11.51 Y14.403
X11.483 Y14.488
X11.463 Y14.575
X11.431 Y14.763
X11.419 Y14.848
X11.416 Y14.935
Y86.665
X11.419 Y86.752
X11.431 Y86.837
X11.463 Y87.025
X11.483 Y87.112
X11.51 Y87.197
X11.567 Y87.353
X11.597 Y87.426
X11.632 Y87.496
X11.682 Y87.585
G3 X11.697 Y87.747 R0.2
X11.586 Y87.867 R0.2
G1 X10.232 Y88.443
X10.186 Y88.456
X10.139 Y88.458
X10.093 Y88.449
X10.049 Y88.429
X10.012 Y88.4
X9.726 Y88.114
Y13.486
X17.746 Y5.466
X136.384
X136.955
X138.325 Y5.62
X139.511 Y6.038
X140.549 Y6.69
X140.588 Y6.725
X141.443 Y7.58
X142.098 Y8.622
X142.517 Y9.808
X142.674 Y11.174
Y90.426
X142.517 Y91.792
X142.098 Y92.978
X141.449 Y94.01
X141.413 Y94.05
X140.56 Y94.903
X139.511 Y95.562
X138.325 Y95.98
X136.955 Y96.133
X17.746
X10.012 Y88.4
X9.972 Y88.353 Z-9.048
X9.94 Y88.301 Z-9.038
X9.918 Y88.249 Z-9.01
X9.903 Y88.196 Z-8.982
X9.897 Y88.152 Z-8.937
X9.895 Y88.108 Z-8.893
X9.9 Y88.051 Z-8.782
X9.904 Y88.032 Z-8.658
G0 Z5.
X9.753 Y35.682
G1 Z-8.125 F380.
Y35.675 Z-8.203 F1500.
Y35.652 Z-8.278
Y35.615 Z-8.347
Y35.565 Z-8.407
Y35.505 Z-8.457
Y35.436 Z-8.494
Y35.361 Z-8.517
Y35.283 Z-8.525
Y13.497 Z-8.55
X17.757 Y5.493 Z-8.563
X136.955 Z-8.703
X138.297 Y5.643 Z-8.705
X139.5 Y6.062 Z-8.706
X140.527 Y6.707 Z-8.708
X140.77 Y6.945
X141.432 Y7.611 Z-8.709
X142.074 Y8.634 Z-8.711
X142.496 Y9.836 Z-8.712
X142.647 Y11.173 Z-8.714
Y90.427 Z-8.807
X142.496 Y91.764 Z-8.808
X142.074 Y92.966 Z-8.81
X141.432 Y93.988 Z-8.811
X140.542 Y94.883 Z-8.813
X139.5 Y95.538 Z-8.814
X138.297 Y95.957 Z-8.816
X136.955 Y96.107 Z-8.817
X17.757 Z-8.957
X9.753 Y88.103 Z-8.971
Y13.497 Z-9.058
X17.757 Y5.493 Z-9.071
X136.955 Z-9.211
X138.297 Y5.643 Z-9.213
X139.5 Y6.062 Z-9.214
X140.527 Y6.707 Z-9.216
X140.77 Y6.945
X141.432 Y7.611 Z-9.217
X142.074 Y8.634 Z-9.219
X142.496 Y9.836 Z-9.22
X142.647 Y11.173 Z-9.222
Y90.427 Z-9.315
X142.496 Y91.764 Z-9.316
X142.074 Y92.966 Z-9.318
X141.432 Y93.988 Z-9.319
X140.542 Y94.883 Z-9.321
X139.5 Y95.538 Z-9.322
X138.297 Y95.957 Z-9.324
X136.955 Y96.107 Z-9.325
X17.757 Z-9.465
X9.753 Y88.103 Z-9.479
Y13.644 Z-9.566
Y13.497
X17.757 Y5.493
X136.955
X138.297 Y5.643
X139.5 Y6.062
X140.527 Y6.707
X140.77 Y6.945
X141.432 Y7.611
X142.074 Y8.634
X142.496 Y9.836
X142.647 Y11.173
Y90.427
X142.496 Y91.764
X142.074 Y92.966
X141.432 Y93.988
X140.542 Y94.883
X139.5 Y95.538
X138.297 Y95.957
X136.955 Y96.107
X17.757
X9.753 Y88.103
Y13.644
G3 X9.953 Y13.444 R0.2
X10.021 Y13.456 R0.2
G1 X11.437 Y13.968
G3 X11.552 Y14.076 R0.2
X11.553 Y14.233 R0.2
G1 X11.52 Y14.313
X11.491 Y14.394
X11.468 Y14.476
X11.428 Y14.651
X11.414 Y14.726
X11.406 Y14.802
X11.397 Y14.927
X11.395 Y14.998
X11.397 Y86.665
X11.401 Y86.748
X11.411 Y86.83
X11.442 Y87.018
X11.461 Y87.103
X11.486 Y87.187
X11.539 Y87.336
X11.571 Y87.416
X11.611 Y87.494
X11.702 Y87.656
X11.746 Y87.727
X11.796 Y87.794
X11.887 Y87.907
X11.958 Y87.985
X17.892 Y93.918
X17.947 Y93.969
X18.005 Y94.015
X18.155 Y94.126
X18.234 Y94.179
X18.318 Y94.224
X18.494 Y94.308
X18.578 Y94.343
X18.665 Y94.371
X18.828 Y94.415
X18.916 Y94.434
X19.004 Y94.446
X19.193 Y94.462
X19.276 Y94.465
X137.136 Y94.464
X137.215 Y94.46
X137.293 Y94.451
X137.544 Y94.411
X137.585 Y94.404
X138.275 Y94.264
X138.355 Y94.245
X138.432 Y94.219
X138.62 Y94.147
X138.699 Y94.113
X138.775 Y94.072
X138.901 Y93.998
X138.949 Y93.968
X139.617 Y93.518
X139.681 Y93.471
X139.741 Y93.419
X139.866 Y93.302
X139.913 Y93.256
X139.956 Y93.206
X140.014 Y93.136
X140.073 Y93.057
X140.543 Y92.354
X140.582 Y92.292
X140.615 Y92.227
X140.705 Y92.039
X140.744 Y91.943
X140.774 Y91.844
X140.834 Y91.593
X140.843 Y91.552
X140.978 Y90.863
X140.99 Y90.781
X140.996 Y90.699
X141.005 Y90.386
Y90.358
X141.003 Y10.992
X140.999 Y10.91
X140.989 Y10.828
X140.948 Y10.578
X140.941 Y10.542
X140.801 Y9.853
X140.78 Y9.769
X140.752 Y9.686
X140.678 Y9.499
X140.636 Y9.406
X140.584 Y9.318
X140.23 Y8.776
X140.222 Y8.763
X140.07 Y8.539
X140.028 Y8.481
X139.981 Y8.426
X139.854 Y8.286
X139.796 Y8.227
X139.733 Y8.173
X139.622 Y8.086
X139.557 Y8.039
X138.882 Y7.589
X138.815 Y7.549
X138.746 Y7.514
X138.558 Y7.427
X138.464 Y7.389
X138.367 Y7.361
X138.117 Y7.302
X138.079 Y7.294
X137.39 Y7.16
X137.299 Y7.147
X137.208 Y7.142
X136.393 Y7.135
X136.384
X19.214 Y7.136
X19.14 Y7.139
X19.067 Y7.147
X18.879 Y7.175
X18.793 Y7.191
X18.709 Y7.215
X18.558 Y7.266
X18.477 Y7.297
X18.4 Y7.334
X18.237 Y7.422
X18.166 Y7.464
X18.1 Y7.511
X17.987 Y7.598
X17.938 Y7.639
X17.892 Y7.682
X11.924 Y13.652
X11.872 Y13.709
X11.824 Y13.769
X11.742 Y13.882
X11.68 Y13.977
X11.637 Y14.052
X11.582 Y14.164
X11.553 Y14.233
G3 X11.292 Y14.341 R0.2
X11.169 Y14.145 R0.2
G1 X11.22 Y13.27
X11.228 Y13.225
X11.246 Y13.183
X11.273 Y13.146
G3 X15.958 Y8.602 R60.655
X22.071 Y6.315 R9.31
G1 X22.117 Y6.32
X22.16 Y6.336
X22.964 Y6.739
G3 X23.053 Y7.008 R0.2
X22.874 Y7.118 R0.2
G1 X19.214 Z-9.694
X19.144 Y7.121 Z-9.696
X19.075 Y7.128 Z-9.699
X18.887 Y7.154 Z-9.705
X18.792 Y7.172 Z-9.709
X18.7 Y7.199 Z-9.712
X18.518 Y7.262 Z-9.719
X18.439 Y7.292 Z-9.722
X18.364 Y7.329 Z-9.725
X18.239 Y7.398 Z-9.73
X18.173 Y7.437 Z-9.732
X18.111 Y7.481 Z-9.735
X17.982 Y7.579 Z-9.741
X17.93 Y7.622 Z-9.743
X17.881 Y7.667 Z-9.745
X11.943 Y13.605 Z-10.039
X11.868 Y13.689 Z-10.042
X11.764 Y13.819 Z-10.048
X11.694 Y13.919 Z-10.053
X11.653 Y13.984 Z-10.055
X11.62 Y14.044 Z-10.058
X11.59 Y14.105 Z-10.06
X11.511 Y14.285 Z-10.067
X11.477 Y14.375 Z-10.07
X11.451 Y14.468 Z-10.074
X11.448 Y14.479
X11.409 Y14.653
X11.395 Y14.731
X11.387 Y14.809
X11.379 Y14.934
X11.377 Y14.998
X11.379 Y86.665
X11.382 Y86.744
X11.392 Y86.823
X11.422 Y87.011
X11.441 Y87.104
X11.469 Y87.195
X11.535 Y87.375
X11.567 Y87.452
X11.605 Y87.527
X11.676 Y87.652
X11.717 Y87.718
X11.764 Y87.781
X11.868 Y87.911
X11.943 Y87.996
X17.881 Y93.933
X17.93 Y93.978
X17.982 Y94.021
X18.111 Y94.119
X18.173 Y94.163
X18.239 Y94.202
X18.364 Y94.271
X18.439 Y94.308
X18.518 Y94.338
X18.7 Y94.401
X18.792 Y94.428
X18.887 Y94.446
X19.075 Y94.472
X19.144 Y94.479
X19.214 Y94.482
X137.136 Y94.481
X137.215 Y94.478
X137.293 Y94.469
X137.544 Y94.429
X137.585 Y94.422
X138.274 Y94.283
X138.351 Y94.264
X138.426 Y94.24
X138.614 Y94.17
X138.693 Y94.136
X138.769 Y94.096
X138.895 Y94.022
X138.948 Y93.989
X139.625 Y93.534
X139.688 Y93.488
X139.748 Y93.436
X139.879 Y93.314
X139.928 Y93.265
X139.973 Y93.214
X140.033 Y93.14
X140.09 Y93.064
X140.564 Y92.353
X140.604 Y92.288
X140.639 Y92.22
X140.727 Y92.032
X140.765 Y91.938
X140.793 Y91.84
X140.853 Y91.59
X140.861 Y91.552
X140.996 Y90.863
X141.008 Y90.781
X141.014 Y90.699
X141.023 Y90.386
Y90.358
X141.021 Y10.992
X141.017 Y10.91
X141.007 Y10.828
X140.966 Y10.578
X140.959 Y10.543
X140.82 Y9.854
X140.8 Y9.773
X140.773 Y9.693
X140.7 Y9.506
X140.666 Y9.427
X140.625 Y9.351
X140.55 Y9.226
X140.521 Y9.18
X140.058 Y8.495
X140.009 Y8.429
X139.955 Y8.367
X139.85 Y8.256
X139.796 Y8.204
X139.739 Y8.155
X139.622 Y8.065
X139.562 Y8.021
X138.881 Y7.568
X138.812 Y7.526
X138.739 Y7.49
X138.551 Y7.405
X138.459 Y7.369
X138.364 Y7.342
X138.113 Y7.284
X138.079 Y7.277
X137.39 Y7.143
X137.299 Y7.129
X137.208 Y7.124
X136.393 Y7.117
X136.384
X19.214 Y7.118
X19.144 Y7.121
X19.075 Y7.128
X18.887 Y7.154
X18.792 Y7.172
X18.7 Y7.199
X18.518 Y7.262
X18.439 Y7.292
X18.364 Y7.329
X18.239 Y7.398
X18.173 Y7.437
X18.111 Y7.481
X17.982 Y7.579
X17.93 Y7.622
X17.881 Y7.667
X11.943 Y13.605
X11.868 Y13.689
X11.764 Y13.819
X11.694 Y13.919
X11.653 Y13.984
X11.62 Y14.044
X11.59 Y14.105
X11.511 Y14.285
X11.477 Y14.375
X11.451 Y14.468
X11.448 Y14.479
G3 X11.21 Y14.63 R0.2
X11.175 Y14.619 R0.2
G1 X9.901 Y14.077
X9.861 Y14.054
X9.827 Y14.022
X9.801 Y13.983
X9.785 Y13.939
X9.78 Y13.893
Y13.508
X17.768 Y5.52
X136.955
X138.3 Y5.67
X139.46 Y6.074
X140.523 Y6.736
X141.401 Y7.613
X142.064 Y8.673
X142.469 Y9.833
X142.62 Y11.173
Y90.427
X142.469 Y91.767
X142.064 Y92.927
X141.401 Y93.987
X140.523 Y94.864
X139.46 Y95.526
X138.3 Y95.93
X136.955 Y96.08
X17.768
X9.78 Y88.092
Y13.893
X9.787 Y13.855
X9.809 Y13.824
X9.842 Y13.803
X9.88 Y13.797
X9.917 Y13.807
X9.948 Y13.83
X9.967 Y13.863
X10.061 Y14.151
X10.065 Y14.181
X10.052 Y15.939
X10.048 Y15.965
X9.965 Y16.21
X9.948 Y16.238
X9.922 Y16.257
X9.891 Y16.265
X9.859 Y16.26
X9.831 Y16.242
X9.813 Y16.216
X9.806 Y16.184
Y13.519 Z-10.167
X17.779 Y5.546 Z-10.561
X18.386 Z-10.582
X136.955
X138.306 Y5.697
X139.458 Y6.101
X140.521 Y6.77
X141.365 Y7.615
X142.036 Y8.674
X142.44 Y9.828
X142.594 Y11.174
Y90.426
X142.44 Y91.772
X142.037 Y92.926
X141.381 Y93.97
X140.521 Y94.83
X139.458 Y95.499
X138.305 Y95.903
X136.955 Y96.054
X17.779
X9.806 Y88.081
Y14.935
Y13.519
X17.779 Y5.546
X18.386
G3 X18.586 Y5.743 R0.2
G1 X18.606 Y7.067
X18.601 Y7.115
X18.585 Y7.161
X18.558 Y7.201
X18.522 Y7.233
X18.48 Y7.256
X18.447 Y7.27
X18.379 Y7.299
X18.313 Y7.334
X18.188 Y7.407
X18.127 Y7.445
X18.07 Y7.486
X17.96 Y7.573
X17.872 Y7.651
X11.927 Y13.595
X11.861 Y13.668
X11.769 Y13.78
X11.706 Y13.865
X11.67 Y13.921
X11.614 Y14.017
X11.544 Y14.156
X11.512 Y14.224
X11.486 Y14.295
X11.44 Y14.434
X11.417 Y14.514
X11.401 Y14.597
X11.372 Y14.785
X11.364 Y14.86
X11.361 Y14.935
Y86.665
X11.364 Y86.74
X11.372 Y86.815
X11.401 Y87.003
X11.417 Y87.086
X11.44 Y87.166
X11.486 Y87.305
X11.512 Y87.376
X11.544 Y87.444
X11.614 Y87.583
X11.649 Y87.647
X11.689 Y87.708
X11.769 Y87.82
X11.82 Y87.886
X11.877 Y87.949
X17.816 Y93.895
X17.852 Y93.929
X17.962 Y94.029
X18.015 Y94.073
X18.07 Y94.114
X18.18 Y94.189
X18.241 Y94.227
X18.305 Y94.261
X18.446 Y94.33
X18.516 Y94.361
X18.588 Y94.386
X18.729 Y94.43
X18.811 Y94.452
X18.894 Y94.466
X19.082 Y94.491
X19.148 Y94.498
X19.214 Y94.5
X137.136 Y94.499
X137.215 Y94.496
X137.293 Y94.487
X137.544 Y94.447
X137.584 Y94.44
X138.274 Y94.301
X138.347 Y94.283
X138.419 Y94.26
X138.607 Y94.192
X138.686 Y94.159
X138.763 Y94.119
X138.888 Y94.047
X138.948 Y94.01
X139.632 Y93.55
X139.695 Y93.505
X139.754 Y93.454
X139.892 Y93.326
X139.943 Y93.275
X139.99 Y93.221
X140.052 Y93.144
X140.106 Y93.07
X140.584 Y92.354
X140.625 Y92.288
X140.66 Y92.219
X140.744 Y92.036
X140.782 Y91.942
X140.81 Y91.845
X140.871 Y91.589
X140.879 Y91.552
X141.013 Y90.863
X141.026 Y90.781
X141.032 Y90.699
X141.04 Y90.386
X141.041 Y90.358
X141.038 Y10.992
X141.035 Y10.91
X141.025 Y10.828
X140.983 Y10.578
X140.977 Y10.543
X140.836 Y9.846
X140.816 Y9.765
X140.789 Y9.687
X140.719 Y9.504
X140.686 Y9.427
X140.646 Y9.353
X140.574 Y9.231
X140.542 Y9.18
X140.074 Y8.486
X140.025 Y8.42
X139.971 Y8.358
X139.861 Y8.242
X139.805 Y8.188
X139.745 Y8.138
X139.623 Y8.044
X139.567 Y8.003
X138.881 Y7.548
X138.808 Y7.504
X138.733 Y7.467
X138.545 Y7.383
X138.453 Y7.348
X138.359 Y7.322
X138.093 Y7.262
X138.064 Y7.256
X137.39 Y7.125
X137.299 Y7.111
X137.208 Y7.106
X136.393 Y7.099
X136.384
X19.151 Y7.104
X19.051 Y7.109
X18.952 Y7.124
X18.756 Y7.164
X18.671 Y7.185
X18.588 Y7.214
X18.48 Y7.256
X18.421 Y7.275 Z-10.572
X18.36 Y7.284 Z-10.562
X18.304 Y7.283 Z-10.534
X18.249 Y7.276 Z-10.506
X18.206 Y7.264 Z-10.461
X18.165 Y7.248 Z-10.417
X18.115 Y7.22 Z-10.306
X18.099 Y7.209 Z-10.182
G0 Z5.
X11.343 Y66.136
G1 Z-9.649 F380.
Y66.144 Z-9.727 F1500.
Y66.167 Z-9.802
Y66.204 Z-9.871
Y66.253 Z-9.931
Y66.314 Z-9.981
Y66.383 Z-10.018
Y66.458 Z-10.041
Y66.536 Z-10.049
Y86.665 Z-10.073
X11.345 Y86.737
X11.353 Y86.808
X11.38 Y86.996
X11.397 Y87.083
X11.421 Y87.168
X11.473 Y87.324 Z-10.074
X11.503 Y87.404
X11.54 Y87.482
X11.624 Y87.638
X11.67 Y87.715
X11.722 Y87.787
X11.834 Y87.928
X11.911 Y88.014 Z-10.075
X17.863 Y93.965 Z-10.085
X17.911 Y94.01
X17.963 Y94.052
X18.1 Y94.157
X18.172 Y94.207
X18.249 Y94.251
X18.408 Y94.333 Z-10.086
X18.486 Y94.37
X18.568 Y94.399
X18.727 Y94.449
X18.813 Y94.472
X18.901 Y94.487
X19.089 Y94.51
X19.214 Y94.518 Z-10.087
X137.136 Y94.517 Z-10.228
X137.215 Y94.514 Z-10.229
X137.293 Y94.504
X137.544 Y94.464
X137.588 Y94.457
X138.324 Y94.306 Z-10.23
X138.408 Y94.285
X138.49 Y94.256
X138.65 Y94.193
X138.718 Y94.163
X138.784 Y94.129
X138.891 Y94.067 Z-10.231
X138.947 Y94.031
X139.641 Y93.566 Z-10.232
X139.703 Y93.52
X139.762 Y93.471
X139.902 Y93.341
X139.954 Y93.29
X140.002 Y93.235
X140.065 Y93.156
X140.119 Y93.083 Z-10.233
X140.598 Y92.366 Z-10.234
X140.633 Y92.309
X140.664 Y92.25
X140.737 Y92.101
X140.765 Y92.039
X140.789 Y91.975
X140.822 Y91.876
X140.853 Y91.757
X141.03 Y90.867 Z-10.235
X141.043 Y90.783 Z-10.236
X141.049 Y90.699
X141.058 Y90.386
Y90.358
X141.056 Y10.992 Z-10.332
X141.053 Y10.91
X141.043 Y10.828
X141.001 Y10.578
X140.995 Y10.543
X140.852 Y9.84 Z-10.333
X140.835 Y9.769
X140.813 Y9.699
X140.759 Y9.549
X140.727 Y9.473
X140.69 Y9.399 Z-10.334
X140.606 Y9.25
X140.563 Y9.18
X140.086 Y8.474 Z-10.335
X140.037 Y8.407
X139.982 Y8.344
X139.87 Y8.227
X139.814 Y8.172
X139.753 Y8.121
X139.629 Y8.026 Z-10.336
X139.575 Y7.988
X138.89 Y7.533 Z-10.337
X138.825 Y7.493
X138.758 Y7.459
X138.597 Y7.384
X138.511 Y7.349
X138.421 Y7.322
X138.207 Y7.268 Z-10.338
X138.154 Y7.256
X137.39 Y7.107 Z-10.339
X137.299 Y7.094
X137.208 Y7.089
X136.393 Y7.082 Z-10.34
X136.384
X19.151 Y7.086 Z-10.481
X19.073 Y7.089
X18.996 Y7.098
X18.87 Y7.118
X18.798 Y7.132
X18.727 Y7.151
X18.568 Y7.201 Z-10.482
X18.486 Y7.23
X18.408 Y7.267
X18.248 Y7.349
X18.172 Y7.393
X18.1 Y7.443
X17.963 Y7.548
X17.911 Y7.59 Z-10.483
X17.862 Y7.636
X11.868 Y13.634 Z-10.493
X11.819 Y13.687
X11.773 Y13.744
X11.703 Y13.838
X11.661 Y13.899
X11.624 Y13.962
X11.54 Y14.118
X11.503 Y14.196 Z-10.494
X11.473 Y14.276
X11.421 Y14.432
X11.397 Y14.517
X11.38 Y14.604
X11.353 Y14.792
X11.345 Y14.863
X11.343 Y14.935 Z-10.495
Y86.665 Z-10.581
X11.345 Y86.737
X11.353 Y86.808
X11.38 Y86.996
X11.397 Y87.083
X11.421 Y87.168
X11.473 Y87.324 Z-10.582
X11.503 Y87.404
X11.54 Y87.482
X11.624 Y87.638
X11.67 Y87.715
X11.722 Y87.787
X11.834 Y87.928
X11.911 Y88.014 Z-10.583
X17.863 Y93.965 Z-10.593
X17.911 Y94.01
X17.963 Y94.052
X18.1 Y94.157
X18.172 Y94.207
X18.249 Y94.251
X18.408 Y94.333 Z-10.594
X18.486 Y94.37
X18.568 Y94.399
X18.727 Y94.449
X18.813 Y94.472
X18.901 Y94.487
X19.089 Y94.51
X19.214 Y94.518 Z-10.595
X137.136 Y94.517 Z-10.736
X137.215 Y94.514 Z-10.737
X137.293 Y94.504
X137.544 Y94.464
X137.588 Y94.457
X138.324 Y94.306 Z-10.738
X138.408 Y94.285
X138.49 Y94.256
X138.65 Y94.193
X138.718 Y94.163
X138.784 Y94.129
X138.891 Y94.067 Z-10.739
X138.947 Y94.031
X139.641 Y93.566 Z-10.74
X139.703 Y93.52
X139.762 Y93.471
X139.902 Y93.341
X139.954 Y93.29
X140.002 Y93.235
X140.065 Y93.156
X140.119 Y93.083 Z-10.741
X140.598 Y92.366 Z-10.742
X140.633 Y92.309
X140.664 Y92.25
X140.737 Y92.101
X140.765 Y92.039
X140.789 Y91.975
X140.822 Y91.876
X140.853 Y91.757
X141.03 Y90.867 Z-10.743
X141.043 Y90.783 Z-10.744
X141.049 Y90.699
X141.058 Y90.386
Y90.358
X141.056 Y10.992 Z-10.84
X141.053 Y10.91
X141.043 Y10.828
X141.001 Y10.578
X140.995 Y10.543
X140.852 Y9.84 Z-10.841
X140.835 Y9.769
X140.813 Y9.699
X140.759 Y9.549
X140.727 Y9.473
X140.69 Y9.399 Z-10.842
X140.606 Y9.25
X140.563 Y9.18
X140.086 Y8.474 Z-10.843
X140.037 Y8.407
X139.982 Y8.344
X139.87 Y8.227
X139.814 Y8.172
X139.753 Y8.121
X139.629 Y8.026 Z-10.844
X139.575 Y7.988
X138.89 Y7.533 Z-10.845
X138.825 Y7.493
X138.758 Y7.459
X138.597 Y7.384
X138.511 Y7.349
X138.421 Y7.322
X138.207 Y7.268 Z-10.846
X138.154 Y7.256
X137.39 Y7.107 Z-10.847
X137.299 Y7.094
X137.208 Y7.089
X136.393 Y7.082 Z-10.848
X136.384
X19.151 Y7.086 Z-10.989
X19.073 Y7.089
X18.996 Y7.098
X18.87 Y7.118
X18.798 Y7.132
X18.727 Y7.151
X18.568 Y7.201 Z-10.99
X18.486 Y7.23
X18.408 Y7.267
X18.248 Y7.349
X18.172 Y7.393
X18.1 Y7.443
X17.963 Y7.548
X17.911 Y7.59 Z-10.991
X17.862 Y7.636
X11.868 Y13.634 Z-11.001
X11.819 Y13.687
X11.773 Y13.744
X11.703 Y13.838
X11.661 Y13.899
X11.624 Y13.962
X11.54 Y14.118
X11.503 Y14.196 Z-11.002
X11.473 Y14.276
X11.421 Y14.432
X11.397 Y14.517
X11.38 Y14.604
X11.353 Y14.792
X11.345 Y14.863
X11.343 Y14.935 Z-11.003
Y86.665 Z-11.089
X11.345 Y86.737
X11.353 Y86.808
X11.38 Y86.996
X11.397 Y87.083
X11.421 Y87.168
X11.473 Y87.324 Z-11.09
X11.503 Y87.404
X11.54 Y87.482
X11.604 Y87.601
X11.624 Y87.638
X11.67 Y87.715
X11.722 Y87.787
X11.834 Y87.928
X11.911 Y88.014
X17.863 Y93.965
X17.911 Y94.01
X17.963 Y94.052
X18.1 Y94.157
X18.172 Y94.207
X18.249 Y94.251
X18.408 Y94.333
X18.486 Y94.37
X18.568 Y94.399
X18.727 Y94.449
X18.813 Y94.472
X18.901 Y94.487
X19.089 Y94.51
X19.214 Y94.518
X137.136 Y94.517
X137.215 Y94.514
X137.293 Y94.504
X137.544 Y94.464
X137.588 Y94.457
X138.324 Y94.306
X138.408 Y94.285
X138.49 Y94.256
X138.65 Y94.193
X138.718 Y94.163
X138.784 Y94.129
X138.891 Y94.067
X138.947 Y94.031
X139.641 Y93.566
X139.703 Y93.52
X139.762 Y93.471
X139.902 Y93.341
X139.954 Y93.29
X140.002 Y93.235
X140.065 Y93.156
X140.119 Y93.083
X140.598 Y92.366
X140.633 Y92.309
X140.664 Y92.25
X140.737 Y92.101
X140.765 Y92.039
X140.789 Y91.975
X140.822 Y91.876
X140.853 Y91.757
X141.03 Y90.867
X141.043 Y90.783
X141.049 Y90.699
X141.058 Y90.386
Y90.358
X141.056 Y10.992
X141.053 Y10.91
X141.043 Y10.828
X141.001 Y10.578
X140.995 Y10.543
X140.852 Y9.84
X140.835 Y9.769
X140.813 Y9.699
X140.759 Y9.549
X140.727 Y9.473
X140.69 Y9.399
X140.606 Y9.25
X140.563 Y9.18
X140.086 Y8.474
X140.037 Y8.407
X139.982 Y8.344
X139.87 Y8.227
X139.814 Y8.172
X139.753 Y8.121
X139.629 Y8.026
X139.575 Y7.988
X138.89 Y7.533
X138.825 Y7.493
X138.758 Y7.459
X138.597 Y7.384
X138.511 Y7.349
X138.421 Y7.322
X138.207 Y7.268
X138.154 Y7.256
X137.39 Y7.107
X137.299 Y7.094
X137.208 Y7.089
X136.393 Y7.082
X136.384
X19.151 Y7.086
X19.073 Y7.089
X18.996 Y7.098
X18.87 Y7.118
X18.798 Y7.132
X18.727 Y7.151
X18.568 Y7.201
X18.486 Y7.23
X18.408 Y7.267
X18.248 Y7.349
X18.172 Y7.393
X18.1 Y7.443
X17.963 Y7.548
X17.911 Y7.59
X17.862 Y7.636
X11.868 Y13.634
X11.819 Y13.687
X11.773 Y13.744
X11.703 Y13.838
X11.661 Y13.899
X11.624 Y13.962
X11.54 Y14.118
X11.503 Y14.196
X11.473 Y14.276
X11.421 Y14.432
X11.397 Y14.517
X11.38 Y14.604
X11.353 Y14.792
X11.345 Y14.863
X11.343 Y14.935
Y86.665
X11.345 Y86.737
X11.353 Y86.808
X11.38 Y86.996
X11.397 Y87.083
X11.421 Y87.168
X11.473 Y87.324
X11.503 Y87.404
X11.54 Y87.482
X11.604 Y87.601
G3 X11.616 Y87.763 R0.2
X11.504 Y87.88 R0.2
G1 X10.309 Y88.372
X10.264 Y88.385
X10.217 Y88.387
X10.171 Y88.377
X10.128 Y88.358
X10.091 Y88.329
X9.833 Y88.07
Y13.53
X17.79 Y5.573
X136.955
X138.289 Y5.722
X138.349 Y5.741
X139.472 Y6.138
X140.502 Y6.789
X141.347 Y7.633
X142.006 Y8.676
X142.418 Y9.851
X142.567 Y11.173
Y90.427
X142.418 Y91.749
X142.006 Y92.924
X141.347 Y93.967
X140.502 Y94.811
X139.457 Y95.471
X138.307 Y95.874
X138.257 Y95.882
X136.955 Y96.027
X17.79
X10.091 Y88.329
X10.062 Y88.291
X10.042 Y88.248
X10.033 Y88.201
X10.036 Y88.153
X10.928 Y83.004
G3 X11.159 Y82.841 R0.2
X11.325 Y83.038 R0.2
G1 Y86.665 Z-11.217
X11.327 Y86.733 Z-11.219
X11.334 Y86.801 Z-11.221
X11.36 Y86.988 Z-11.228
X11.376 Y87.08 Z-11.231
X11.402 Y87.169 Z-11.235
X11.46 Y87.342 Z-11.241
X11.494 Y87.431 Z-11.244
X11.537 Y87.517 Z-11.248
X11.634 Y87.69 Z-11.254
X11.687 Y87.774 Z-11.258
X11.749 Y87.852 Z-11.261
X11.882 Y88.007 Z-11.269
X11.932 Y88.061 Z-11.271
X17.892 Y94.014 Z-11.565
X17.963 Y94.078 Z-11.569
X18.039 Y94.136 Z-11.572
X18.202 Y94.245 Z-11.579
X18.285 Y94.296 Z-11.582
X18.372 Y94.338 Z-11.586
X18.549 Y94.412 Z-11.592
X18.625 Y94.441 Z-11.595
X18.703 Y94.463 Z-11.598
X18.714 Y94.465
X18.864 Y94.5
X18.947 Y94.515
X19.03 Y94.523
X19.218 Y94.534
X19.276 Y94.536
X137.136 Y94.535
X137.215 Y94.531
X137.293 Y94.522
X137.544 Y94.482
X137.589 Y94.474
X138.337 Y94.32
X138.427 Y94.297
X138.514 Y94.266
X138.684 Y94.197
X138.748 Y94.168
X138.81 Y94.135
X138.895 Y94.085
X138.948 Y94.052
X139.661 Y93.573
X139.724 Y93.527
X139.783 Y93.476
X139.914 Y93.354
X139.963 Y93.306
X140.008 Y93.255
X140.068 Y93.182
X140.127 Y93.101
X140.636 Y92.334
X140.681 Y92.26
X140.719 Y92.182
X140.788 Y92.024
X140.821 Y91.938
X140.846 Y91.849
X140.907 Y91.585
X140.914 Y91.552
X141.049 Y90.863
X141.061 Y90.781
X141.067 Y90.699
X141.076 Y90.386
Y90.358
X141.074 Y10.992
X141.07 Y10.91
X141.06 Y10.828
X141.019 Y10.578
X141.013 Y10.545
X140.875 Y9.858
X140.86 Y9.796
X140.842 Y9.734
X140.788 Y9.576
X140.757 Y9.496
X140.719 Y9.418
X140.633 Y9.26
X140.584 Y9.18
X140.094 Y8.455
X140.045 Y8.388
X139.99 Y8.326
X139.885 Y8.216
X139.832 Y8.164
X139.775 Y8.116
X139.659 Y8.026
X139.599 Y7.983
X138.901 Y7.519
X138.837 Y7.48
X138.769 Y7.445
X138.599 Y7.366
X138.526 Y7.336
X138.45 Y7.311
X138.323 Y7.275
X138.243 Y7.256
X137.391 Y7.09
X137.3 Y7.076
X137.208 Y7.071
X136.393 Y7.064
X136.384
X19.151 Y7.067
X19.065 Y7.071
X18.981 Y7.082
X18.811 Y7.111
X18.723 Y7.131
X18.637 Y7.158
X18.461 Y7.223
X18.372 Y7.26
X18.287 Y7.306
X18.117 Y7.409
X18.045 Y7.457
X17.978 Y7.511
X17.866 Y7.608
X17.817 Y7.655
X11.858 Y13.617
X11.777 Y13.71
X11.716 Y13.787
X11.673 Y13.847
X11.634 Y13.91
X11.537 Y14.083
X11.494 Y14.169
X11.46 Y14.258
X11.402 Y14.431
X11.376 Y14.52
X11.36 Y14.612
X11.334 Y14.8
X11.327 Y14.867
X11.325 Y14.935
Y86.665
X11.327 Y86.733
X11.334 Y86.801
X11.36 Y86.988
X11.376 Y87.08
X11.402 Y87.169
X11.46 Y87.342
X11.494 Y87.431
X11.537 Y87.517
X11.634 Y87.69
X11.687 Y87.774
X11.749 Y87.852
X11.882 Y88.007
X11.932 Y88.061
X17.892 Y94.014
X17.963 Y94.078
X18.039 Y94.136
X18.202 Y94.245
X18.285 Y94.296
X18.372 Y94.338
X18.549 Y94.412
X18.625 Y94.441
X18.703 Y94.463
G3 X18.851 Y94.704 R0.2
X18.84 Y94.737 R0.2
G1 X18.342 Y95.88
X18.318 Y95.92
X18.286 Y95.954
X18.248 Y95.979
X18.204 Y95.995
X18.158 Y96.
X17.802
X9.86 Y88.059
Y13.541
X17.802 Y5.6
X136.955
X138.291 Y5.749
X139.456 Y6.16
X140.483 Y6.807
X141.328 Y7.652
X141.989 Y8.697
X142.388 Y9.839
X142.54 Y11.174
Y90.426
X142.388 Y91.761
X141.989 Y92.903
X141.328 Y93.948
X140.483 Y94.793
X139.456 Y95.44
X138.291 Y95.851
X137.406 Y95.95
X136.955 Y96.
X18.158
X18.097 Y95.996 Z-11.588
X18.037 Y95.981 Z-11.578
X17.985 Y95.961 Z-11.55
X17.936 Y95.933 Z-11.522
X17.901 Y95.907 Z-11.477
X17.869 Y95.876 Z-11.433
X17.833 Y95.833 Z-11.322
X17.822 Y95.817 Z-11.198
G0 Z5.
X9.887 Y35.646
G1 Z-10.665 F380.
Y35.638 Z-10.743 F1500.
Y35.616 Z-10.818
Y35.579 Z-10.887
Y35.529 Z-10.947
Y35.468 Z-10.997
Y35.399 Z-11.034
Y35.324 Z-11.057
Y35.246 Z-11.065
Y13.551 Z-11.09
X17.812 Y5.626 Z-11.103
X136.955 Z-11.243
X138.292 Y5.777 Z-11.245
X139.432 Y6.176 Z-11.246
X140.465 Y6.826 Z-11.248
X141.309 Y7.67 Z-11.249
X141.961 Y8.703 Z-11.251
X141.971 Y8.726
X142.36 Y9.84 Z-11.252
X142.514 Y11.174 Z-11.254
Y90.426 Z-11.347
X142.36 Y91.76 Z-11.348
X141.964 Y92.891 Z-11.35
X141.309 Y93.93 Z-11.351
X140.465 Y94.774 Z-11.353
X139.437 Y95.421 Z-11.354
X139.413 Y95.431
X138.292 Y95.823 Z-11.356
X136.955 Y95.974 Z-11.357
X17.812 Z-11.497
X9.887 Y88.049 Z-11.51
Y13.551 Z-11.598
X17.812 Y5.626 Z-11.611
X136.955 Z-11.751
X138.292 Y5.777 Z-11.753
X139.432 Y6.176 Z-11.754
X140.465 Y6.826 Z-11.756
X141.309 Y7.67 Z-11.757
X141.961 Y8.703 Z-11.759
X141.971 Y8.726
X142.36 Y9.84 Z-11.76
X142.514 Y11.174 Z-11.762
Y90.426 Z-11.855
X142.36 Y91.76 Z-11.856
X141.964 Y92.891 Z-11.858
X141.309 Y93.93 Z-11.859
X140.465 Y94.774 Z-11.861
X139.437 Y95.421 Z-11.862
X139.413 Y95.431
X138.292 Y95.823 Z-11.864
X136.955 Y95.974 Z-11.865
X17.812 Z-12.005
X9.887 Y88.049 Z-12.018
Y13.65 Z-12.106
Y13.551
X17.812 Y5.626
X136.955
X138.292 Y5.777
X139.432 Y6.176
X140.465 Y6.826
X141.309 Y7.67
X141.961 Y8.703
X141.971 Y8.726
X142.36 Y9.84
X142.514 Y11.174
Y90.426
X142.36 Y91.76
X141.964 Y92.891
X141.309 Y93.93
X140.465 Y94.774
X139.437 Y95.421
X139.413 Y95.431
X138.292 Y95.823
X136.955 Y95.974
X17.812
X9.887 Y88.049
Y14.998
Y13.65
G3 X10.087 Y13.45 R0.2
X10.16 Y13.464 R0.2
G1 X11.353 Y13.935
G3 X11.464 Y14.043 R0.2
Y14.198 R0.2
G1 X11.436 Y14.265
X11.408 Y14.339
X11.386 Y14.415
X11.348 Y14.572
X11.331 Y14.656
X11.321 Y14.742
X11.308 Y14.93
X11.306 Y14.998
X11.311 Y86.728
X11.315 Y86.82
X11.328 Y86.911
X11.36 Y87.083
X11.378 Y87.163
X11.403 Y87.241
X11.454 Y87.382
X11.483 Y87.455
X11.518 Y87.525
X11.597 Y87.666
X11.635 Y87.73
X11.678 Y87.791
X11.761 Y87.9
X11.803 Y87.951
X11.848 Y87.999
X17.875 Y94.024
X17.94 Y94.084
X18.01 Y94.137
X18.165 Y94.245
X18.238 Y94.291
X18.315 Y94.331
X18.46 Y94.399
X18.531 Y94.428
X18.605 Y94.453
X18.749 Y94.494
X18.817 Y94.511
X18.885 Y94.523
X19.01 Y94.541
X19.08 Y94.548
X19.151 Y94.551
X137.136 Y94.552
X137.215 Y94.549
X137.293 Y94.54
X137.544 Y94.5
X137.586 Y94.492
X138.323 Y94.342
X138.395 Y94.325
X138.465 Y94.303
X138.598 Y94.254
X138.666 Y94.227
X138.731 Y94.195
X138.864 Y94.123
X138.948 Y94.072
X139.681 Y93.579
X139.745 Y93.533
X139.805 Y93.481
X139.926 Y93.368
X139.971 Y93.323
X140.014 Y93.275
X140.07 Y93.208
X140.133 Y93.123
X140.646 Y92.352
X140.693 Y92.274
X140.732 Y92.193
X140.813 Y92.005
X140.849 Y91.91
X140.874 Y91.812
X141.054 Y90.935
X141.066 Y90.865
X141.083 Y90.74
X141.089 Y90.674
X141.092 Y90.608
Y10.992
X141.088 Y10.91
X141.078 Y10.828
X141.037 Y10.578
X141.029 Y10.539
X140.874 Y9.787
X140.848 Y9.689
X140.813 Y9.595
X140.733 Y9.407
X140.693 Y9.326
X140.646 Y9.248
X140.133 Y8.477
X140.088 Y8.415
X140.038 Y8.356
X139.915 Y8.221
X139.858 Y8.164
X139.797 Y8.112
X139.689 Y8.026
X139.62 Y7.976
X138.875 Y7.484
X138.805 Y7.442
X138.731 Y7.405
X138.598 Y7.346
X138.498 Y7.307
X138.431 Y7.286
X138.32 Y7.257
X137.394 Y7.073
X137.301 Y7.059
X137.208 Y7.053
X136.393 Y7.046
X136.384
X19.151 Y7.049
X19.068 Y7.053
X18.986 Y7.063
X18.812 Y7.092
X18.732 Y7.109
X18.653 Y7.132
X18.508 Y7.182
X18.435 Y7.21
X18.363 Y7.245
X18.219 Y7.322
X18.155 Y7.359
X18.094 Y7.401
X17.987 Y7.479
X17.929 Y7.526
X17.875 Y7.576
X11.848 Y13.601
X11.779 Y13.677
X11.729 Y13.739
X11.658 Y13.839
X11.569 Y13.981
X11.529 Y14.05
X11.495 Y14.123
X11.464 Y14.198
G3 X11.202 Y14.305 R0.2
X11.08 Y14.099 R0.2
G1 X11.163 Y13.35
X11.172 Y13.31
X11.189 Y13.272
X11.213 Y13.238
G3 X15.914 Y8.634 R53.059
X22.08 Y6.338 R9.428
G1 X22.12 Y6.342
X22.158 Y6.353
X22.852 Y6.647
G3 X22.958 Y6.909 R0.2
X22.774 Y7.031 R0.2
G1 X19.151 Z-12.233
X19.071 Y7.034 Z-12.235
X18.991 Y7.044 Z-12.238
X18.814 Y7.072 Z-12.244
X18.729 Y7.09 Z-12.247
X18.647 Y7.114 Z-12.25
X18.49 Y7.169 Z-12.256
X18.41 Y7.2 Z-12.259
X18.333 Y7.238 Z-12.262
X18.177 Y7.325 Z-12.268
X18.101 Y7.371 Z-12.272
X18.03 Y7.424 Z-12.275
X17.893 Y7.536 Z-12.281
X17.817 Y7.604 Z-12.284
X11.837 Y13.586 Z-12.58
X11.781 Y13.647 Z-12.583
X11.742 Y13.693 Z-12.585
X11.669 Y13.791 Z-12.589
X11.569 Y13.944 Z-12.595
X11.524 Y14.019 Z-12.598
X11.486 Y14.098 Z-12.602
X11.421 Y14.251 Z-12.607
X11.391 Y14.33 Z-12.61
X11.368 Y14.411 Z-12.613
X11.362 Y14.433 Z-12.614
X11.328 Y14.575
X11.311 Y14.661
X11.302 Y14.748
X11.29 Y14.936
X11.288 Y14.998
X11.292 Y86.728
X11.296 Y86.817
X11.308 Y86.905
X11.34 Y87.082
X11.359 Y87.165
X11.385 Y87.247
X11.441 Y87.4
X11.473 Y87.478
X11.512 Y87.554
X11.6 Y87.707
X11.648 Y87.784
X11.704 Y87.856
X11.825 Y87.999
X11.882 Y88.061
X17.86 Y94.035
X17.919 Y94.09
X17.983 Y94.14
X18.13 Y94.245
X18.204 Y94.293
X18.282 Y94.335
X18.438 Y94.41
X18.515 Y94.443
X18.595 Y94.469
X18.751 Y94.514
X18.821 Y94.531
X18.892 Y94.543
X19.018 Y94.56
X19.084 Y94.567
X19.151 Y94.569
X137.136 Y94.57
X137.215 Y94.567
X137.293 Y94.558
X137.544 Y94.518
X137.584 Y94.51
X138.307 Y94.365
X138.38 Y94.347
X138.452 Y94.324
X138.629 Y94.26
X138.7 Y94.231
X138.768 Y94.197
X138.872 Y94.14
X138.949 Y94.093
X139.701 Y93.586
X139.766 Y93.539
X139.826 Y93.486
X139.939 Y93.381
X140.019 Y93.295
X140.072 Y93.233
X140.139 Y93.145
X140.658 Y92.367
X140.698 Y92.302
X140.733 Y92.233
X140.801 Y92.087
X140.832 Y92.013
X140.857 Y91.937
X140.9 Y91.784
X140.919 Y91.705
X141.084 Y90.864
X141.097 Y90.781
X141.103 Y90.699
X141.111 Y90.386
X141.112 Y90.358
X141.109 Y10.992
X141.106 Y10.91
X141.096 Y10.828
X141.054 Y10.578
X141.048 Y10.542
X140.9 Y9.812
X140.879 Y9.731
X140.853 Y9.652
X140.786 Y9.478
X140.756 Y9.409
X140.722 Y9.343
X140.666 Y9.245
X140.627 Y9.182
X140.137 Y8.453
X140.092 Y8.392
X140.043 Y8.334
X139.928 Y8.209
X139.876 Y8.156
X139.82 Y8.108
X139.719 Y8.027
X139.645 Y7.972
X138.891 Y7.473
X138.819 Y7.429
X138.743 Y7.392
X138.588 Y7.323
X138.514 Y7.294
X138.437 Y7.27
X138.29 Y7.232
X138.228 Y7.217
X137.391 Y7.054
X137.3 Y7.041
X137.208 Y7.036
X136.393 Y7.028
X136.384
X19.151 Y7.031
X19.071 Y7.034
X18.991 Y7.044
X18.814 Y7.072
X18.729 Y7.09
X18.647 Y7.114
X18.49 Y7.169
X18.41 Y7.2
X18.333 Y7.238
X18.177 Y7.325
X18.101 Y7.371
X18.03 Y7.424
X17.893 Y7.536
X17.817 Y7.604
X11.837 Y13.586
X11.781 Y13.647
X11.742 Y13.693
X11.669 Y13.791
X11.569 Y13.944
X11.524 Y14.019
X11.486 Y14.098
X11.421 Y14.251
X11.391 Y14.33
X11.368 Y14.411
X11.362 Y14.433
G3 X11.121 Y14.58 R0.2
X11.084 Y14.567 R0.2
G1 X10.029 Y14.082
X9.99 Y14.058
X9.958 Y14.027
X9.933 Y13.988
X9.918 Y13.945
X9.913 Y13.9
Y13.563
X17.823 Y5.653
X136.954
X138.291 Y5.805
X139.407 Y6.195
X140.447 Y6.846
X141.29 Y7.689
X141.943 Y8.727
X142.332 Y9.84
X142.487 Y11.175
Y90.425
X142.332 Y91.76
X141.943 Y92.873
X141.29 Y93.911
X140.447 Y94.754
X139.407 Y95.405
X138.291 Y95.795
X136.954 Y95.947
X17.823
X9.913 Y88.03
Y14.998
Y13.9
X9.918 Y13.839 Z-12.604
X9.932 Y13.779 Z-12.594
X9.952 Y13.727 Z-12.566
X9.98 Y13.678 Z-12.538
X10.007 Y13.643 Z-12.493
X10.037 Y13.611 Z-12.449
X10.081 Y13.575 Z-12.338
X10.097 Y13.564 Z-12.214
G0 Z5.
X39.893 Y95.921
G1 Z-11.681 F380.
X39.885 Z-11.759 F1500.
