(NMJPLATE0PT0PT2_BOTTOM_STEP1_332IN_SIDE1)
(T8  D=2.381 CR=0. - ZMIN=-2.35 - FLAT END MILL)
G0 G90 G94 G17
G21
G53 G0 Z0.

(POCKET2 5)
M5
T8
M3 S8000
G55
M8
G0 X69.279 Y59.535
Z15.
Z1.406
G1 Z0.665 F381.
X69.29 Y59.521 Z0.575 F333.
X69.321 Y59.483 Z0.499
X69.371 Y59.428 Z0.447
X69.436 Y59.367 Z0.427
X69.542 Y59.286 Z0.422
X69.657 Y59.217 Z0.417
X69.779 Y59.162 Z0.413
X69.907 Y59.122 Z0.408
X70.039 Y59.098 Z0.403
X70.172 Y59.089 Z0.399
X70.306 Y59.097 Z0.394
X70.438 Y59.12 Z0.389
X70.567 Y59.158 Z0.385
X70.689 Y59.211 Z0.38
X70.805 Y59.279 Z0.375
X70.912 Y59.359 Z0.371
X71.009 Y59.452 Z0.366
X71.094 Y59.556 Z0.361
X71.166 Y59.669 Z0.357
X71.224 Y59.789 Z0.352
X71.268 Y59.916 Z0.347
X71.296 Y60.047 Z0.342
X71.309 Y60.18 Z0.338
X71.306 Y60.314 Z0.333
X71.287 Y60.447 Z0.328
X71.252 Y60.576 Z0.324
X71.203 Y60.7 Z0.319
X71.139 Y60.818 Z0.314
X71.061 Y60.928 Z0.31
X70.972 Y61.027 Z0.305
X70.871 Y61.115 Z0.3
X70.76 Y61.191 Z0.296
X70.641 Y61.253 Z0.291
X70.516 Y61.3 Z0.286
X70.386 Y61.332 Z0.282
X70.253 Y61.349 Z0.277
X70.119 Y61.35 Z0.272
X69.986 Y61.335 Z0.268
X69.856 Y61.305 Z0.263
X69.73 Y61.259 Z0.258
X69.61 Y61.198 Z0.254
X69.499 Y61.124 Z0.249
X69.396 Y61.038 Z0.244
X69.305 Y60.939 Z0.24
X69.226 Y60.831 Z0.235
X69.161 Y60.714 Z0.23
X69.11 Y60.591 Z0.225
X69.073 Y60.462 Z0.221
X69.053 Y60.329 Z0.216
X69.048 Y60.195 Z0.211
X69.059 Y60.062 Z0.207
X69.085 Y59.931 Z0.202
X69.127 Y59.803 Z0.197
X69.184 Y59.682 Z0.193
X69.254 Y59.568 Z0.188
X69.338 Y59.464 Z0.183
X69.433 Y59.37 Z0.179
X69.539 Y59.287 Z0.174
X69.654 Y59.218 Z0.169
X69.776 Y59.163 Z0.165
X69.904 Y59.123 Z0.16
X70.036 Y59.098 Z0.155
X70.169 Y59.089 Z0.151
X70.303 Y59.096 Z0.146
X70.435 Y59.119 Z0.141
X70.563 Y59.157 Z0.137
X70.686 Y59.21 Z0.132
X70.802 Y59.277 Z0.127
X70.91 Y59.357 Z0.122
X71.006 Y59.45 Z0.118
X71.092 Y59.553 Z0.113
X71.164 Y59.666 Z0.108
X71.223 Y59.786 Z0.104
X71.267 Y59.913 Z0.099
X71.296 Y60.044 Z0.094
X71.309 Y60.177 Z0.09
X71.306 Y60.311 Z0.085
X71.287 Y60.443 Z0.08
X71.253 Y60.573 Z0.076
X71.204 Y60.698 Z0.071
X71.14 Y60.815 Z0.066
X71.063 Y60.925 Z0.062
X70.974 Y61.025 Z0.057
X70.873 Y61.113 Z0.052
X70.763 Y61.189 Z0.048
X70.644 Y61.251 Z0.043
X70.519 Y61.299 Z0.038
X70.389 Y61.332 Z0.034
X70.256 Y61.349 Z0.029
X70.122 Y61.35 Z0.024
X69.989 Y61.336 Z0.02
X69.859 Y61.305 Z0.015
X69.733 Y61.26 Z0.01
X69.613 Y61.2 Z0.005
X69.501 Y61.126 Z0.001
X69.399 Y61.04 Z-0.004
X69.307 Y60.942 Z-0.009
X69.228 Y60.834 Z-0.013
X69.162 Y60.717 Z-0.018
X69.111 Y60.594 Z-0.023
X69.074 Y60.465 Z-0.027
X69.053 Y60.333 Z-0.032
X69.048 Y60.199 Z-0.037
X69.058 Y60.065 Z-0.041
X69.084 Y59.934 Z-0.046
X69.126 Y59.806 Z-0.051
X69.182 Y59.685 Z-0.055
X69.253 Y59.571 Z-0.06
X69.336 Y59.466 Z-0.065
X69.431 Y59.372 Z-0.069
X69.536 Y59.289 Z-0.074
X69.651 Y59.22 Z-0.079
X69.773 Y59.165 Z-0.083
X69.901 Y59.124 Z-0.088
X70.032 Y59.099 Z-0.093
X70.166 Y59.089 Z-0.097
X70.3 Y59.096 Z-0.102
X70.432 Y59.118 Z-0.107
X70.56 Y59.156 Z-0.112
X70.684 Y59.208 Z-0.116
X70.8 Y59.275 Z-0.121
X70.907 Y59.355 Z-0.126
X71.004 Y59.447 Z-0.13
X71.09 Y59.55 Z-0.135
X71.163 Y59.663 Z-0.14
X71.222 Y59.783 Z-0.144
X71.266 Y59.91 Z-0.149
X71.295 Y60.04 Z-0.154
X71.309 Y60.174 Z-0.158
X71.306 Y60.308 Z-0.163
X71.288 Y60.44 Z-0.168
X71.254 Y60.57 Z-0.172
X71.205 Y60.695 Z-0.177
X71.142 Y60.813 Z-0.182
X71.065 Y60.922 Z-0.186
X70.976 Y61.022 Z-0.191
X70.876 Y61.111 Z-0.196
X70.766 Y61.187 Z-0.2
X70.647 Y61.25 Z-0.205
X70.522 Y61.298 Z-0.21
X70.392 Y61.331 Z-0.215
X70.26 Y61.349 Z-0.219
X70.126 Y61.35 Z-0.224
X69.993 Y61.336 Z-0.229
X69.862 Y61.306 Z-0.233
X69.736 Y61.261 Z-0.238
X69.616 Y61.202 Z-0.243
X69.504 Y61.128 Z-0.247
X69.401 Y61.042 Z-0.252
X69.31 Y60.944 Z-0.257
X69.23 Y60.837 Z-0.261
X69.164 Y60.72 Z-0.266
X69.112 Y60.597 Z-0.271
X69.075 Y60.468 Z-0.275
X69.053 Y60.336 Z-0.28
X69.048 Y60.202 Z-0.285
X69.058 Y60.068 Z-0.289
X69.084 Y59.937 Z-0.294
X69.125 Y59.81 Z-0.299
X69.181 Y59.688 Z-0.303
X69.251 Y59.574 Z-0.308
X69.334 Y59.468 Z-0.313
X69.428 Y59.374 Z-0.317
X69.534 Y59.291 Z-0.322
X69.648 Y59.221 Z-0.327
X69.77 Y59.166 Z-0.332
X69.898 Y59.125 Z-0.336
X70.029 Y59.099 Z-0.341
X70.163 Y59.089 Z-0.346
X70.296 Y59.096 Z-0.35
X70.429 Y59.117 Z-0.355
X70.557 Y59.155 Z-0.36
X70.681 Y59.207 Z-0.364
X70.797 Y59.273 Z-0.369
X70.905 Y59.353 Z-0.374
X71.002 Y59.445 Z-0.378
X71.088 Y59.548 Z-0.383
X71.161 Y59.66 Z-0.388
X71.22 Y59.78 Z-0.392
X71.265 Y59.906 Z-0.397
X71.295 Y60.037 Z-0.402
X71.308 Y60.17 Z-0.406
G3 X71.3 Y60.89 R6.471 F1499.
X71.249 Y61.253 R2.577
G1 X71.176 Y61.596
G3 X70.803 Y61.838 R0.314
X70.705 Y61.799 R0.314
X70.424 Y61.619 R8.104
G2 X70.132 Y61.457 R1.99
G1 X70.017 Y61.409
X69.901 Y61.362
G3 X69.406 Y60.596 R0.839
G1 Y60.136
G3 X69.901 Y59.369 R0.842
G1 X70.128 Y59.274
X70.24 Y59.225
X70.347 Y59.166
X70.528 Y59.047
X70.708 Y58.928
G3 X71.138 Y59.031 R0.313
X71.177 Y59.131 R0.313
X71.308 Y60.17 R6.471
G2 X71.914 Y61.079 R1.056
G3 X72.4 Y62.058 R0.878
G1 X72.353 Y62.276
X72.255 Y62.528
X71.836 Y63.48
X71.663 Y63.737
X71.287 Y64.261
X71.184 Y64.044
X71.142 Y63.968
X71.104 Y63.911
X71.051 Y63.843
X70.51 Y63.238
X70.472 Y63.199
X70.431 Y63.165
X70.354 Y63.104
X70.299 Y63.067
X69.665 Y62.678
X69.598 Y62.643
X68.113 Y61.975
Y58.757
X68.131 Y58.749
X68.149 Y58.742
X69.598 Y58.087
X69.664 Y58.052
X70.318 Y57.651
X70.395 Y57.595
X70.48 Y57.521
X70.537 Y57.465
X71.053 Y56.886
X71.092 Y56.836
X71.126 Y56.783
X71.207 Y56.639
X71.229 Y56.596
X71.287 Y56.47
X71.769 Y57.145
X71.837 Y57.253
X72.315 Y58.345
X72.366 Y58.497
X72.601 Y59.62
X72.62 Y59.799
X72.616 Y60.98
X72.591 Y61.16
X72.4 Y62.058
X72.39 Y62.078
X72.372 Y62.092
X72.35 Y62.096
X72.328 Y62.09
X72.118 Y61.975
X69.653 Y61.05
X69.637 Y61.047
X69.621 Y61.051
X69.502 Y61.108
X69.48 Y61.112
X69.458 Y61.103
X69.359 Y61.013 Z-0.411 F333.
X69.271 Y60.913 Z-0.416
X69.196 Y60.802 Z-0.42
X69.134 Y60.684 Z-0.425
X69.087 Y60.559 Z-0.43
X69.055 Y60.429 Z-0.434
X69.038 Y60.296 Z-0.439
X69.037 Y60.162 Z-0.444
X69.052 Y60.03 Z-0.448
X69.082 Y59.899 Z-0.453
X69.128 Y59.774 Z-0.458
X69.188 Y59.654 Z-0.462
X69.261 Y59.543 Z-0.467
X69.348 Y59.441 Z-0.472
X69.445 Y59.35 Z-0.476
X69.553 Y59.271 Z-0.481
X69.67 Y59.205 Z-0.486
X69.793 Y59.153 Z-0.49
X69.922 Y59.117 Z-0.495
X70.054 Y59.096 Z-0.5
X70.187 Y59.09 Z-0.504
X70.321 Y59.101 Z-0.509
X70.452 Y59.127 Z-0.514
X70.579 Y59.168 Z-0.519
X70.7 Y59.224 Z-0.523
X70.814 Y59.294 Z-0.528
X70.919 Y59.377 Z-0.533
X71.013 Y59.471 Z-0.537
X71.096 Y59.577 Z-0.542
X71.165 Y59.691 Z-0.547
X71.221 Y59.812 Z-0.551
X71.262 Y59.94 Z-0.556
X71.287 Y60.071 Z-0.561
X71.297 Y60.204 Z-0.565
X71.291 Y60.338 Z-0.57
X71.27 Y60.47 Z-0.575
X71.233 Y60.598 Z-0.579
X71.181 Y60.721 Z-0.584
X71.115 Y60.838 Z-0.589
X71.035 Y60.945 Z-0.593
X70.944 Y61.043 Z-0.598
X70.842 Y61.129 Z-0.603
X70.73 Y61.202 Z-0.607
X70.61 Y61.262 Z-0.612
X70.484 Y61.307 Z-0.617
X70.354 Y61.336 Z-0.621
X70.221 Y61.351 Z-0.626
X70.087 Y61.349 Z-0.631
X69.955 Y61.332 Z-0.635
X69.825 Y61.299 Z-0.64
X69.7 Y61.252 Z-0.645
X69.582 Y61.189 Z-0.649
X69.472 Y61.114 Z-0.654
X69.371 Y61.026 Z-0.659
X69.282 Y60.926 Z-0.663
X69.205 Y60.817 Z-0.668
X69.141 Y60.699 Z-0.673
X69.092 Y60.575 Z-0.677
X69.058 Y60.446 Z-0.682
X69.039 Y60.313 Z-0.687
X69.036 Y60.18 Z-0.691
X69.049 Y60.047 Z-0.696
X69.077 Y59.916 Z-0.701
X69.121 Y59.79 Z-0.705
X69.179 Y59.669 Z-0.71
X69.251 Y59.557 Z-0.715
X69.336 Y59.453 Z-0.719
X69.432 Y59.361 Z-0.724
X69.539 Y59.28 Z-0.729
X69.654 Y59.213 Z-0.733
X69.777 Y59.159 Z-0.738
X69.905 Y59.121 Z-0.743
X70.037 Y59.097 Z-0.747
X70.17 Y59.09 Z-0.752
X70.304 Y59.098 Z-0.757
X70.435 Y59.122 Z-0.761
X70.563 Y59.162 Z-0.766
X70.685 Y59.216 Z-0.771
X70.8 Y59.284 Z-0.775
X70.906 Y59.365 Z-0.78
X71.002 Y59.459 Z-0.785
X71.086 Y59.563 Z-0.789
X71.157 Y59.676 Z-0.794
X71.215 Y59.796 Z-0.799
X71.258 Y59.923 Z-0.803
X71.285 Y60.054 Z-0.808
X71.297 Y60.187 Z-0.813
G3 X71.176 Y61.571 R5.915 F1499.
X70.796 Y61.818 R0.32
X70.695 Y61.778 R0.32
X70.407 Y61.595 R8.924
G2 X70.109 Y61.43 R2.086
G1 X70.012 Y61.39
X69.915 Y61.35
G3 X69.42 Y60.585 R0.839
G1 Y60.144
G3 X69.915 Y59.378 R0.839
G1 X70.134 Y59.287
X70.243 Y59.239
X70.347 Y59.182
X70.519 Y59.068
X70.692 Y58.955
G3 X71.136 Y59.061 R0.323
X71.176 Y59.164 R0.323
X71.297 Y60.187 R5.915
G2 X71.898 Y61.111 R1.06
G3 X72.385 Y62.1 R0.892
G1 X72.373 Y62.159
X72.238 Y62.535
X71.841 Y63.436
X71.66 Y63.716
X71.291 Y64.236
X71.201 Y64.044
X71.155 Y63.964
X71.101 Y63.884
X71.051 Y63.819
X70.523 Y63.23
X70.452 Y63.164
X70.381 Y63.107
X70.318 Y63.063
X69.643 Y62.651
X69.577 Y62.616
X68.127 Y61.965
Y58.764
X69.597 Y58.104
X69.664 Y58.068
X70.327 Y57.661
X70.368 Y57.634
X70.407 Y57.603
X70.497 Y57.524
X70.553 Y57.469
X71.083 Y56.868
X71.13 Y56.807
X71.169 Y56.74
X71.291 Y56.494
X71.66 Y57.013
X71.849 Y57.307
X72.145 Y57.972
X72.358 Y58.532
X72.391 Y58.654
X72.562 Y59.476
X72.613 Y59.944
X72.609 Y60.84
X72.553 Y61.309
X72.385 Y62.1
X72.379 Y62.112
X72.366 Y62.117
X72.353 Y62.115
X72.258 Y62.064
X69.484 Y61.103
X69.458 Y61.11
X69.358 Y61.021 Z-0.817 F333.
X69.27 Y60.92 Z-0.822
X69.194 Y60.81 Z-0.827
X69.132 Y60.692 Z-0.831
X69.084 Y60.567 Z-0.836
X69.051 Y60.438 Z-0.841
X69.034 Y60.305 Z-0.845
X69.032 Y60.171 Z-0.85
X69.046 Y60.038 Z-0.855
X69.076 Y59.908 Z-0.86
X69.121 Y59.782 Z-0.864
X69.181 Y59.663 Z-0.869
X69.254 Y59.551 Z-0.874
X69.34 Y59.448 Z-0.878
X69.437 Y59.357 Z-0.883
X69.545 Y59.277 Z-0.888
X69.661 Y59.211 Z-0.892
X69.784 Y59.159 Z-0.897
X69.913 Y59.122 Z-0.902
X70.044 Y59.1 Z-0.906
X70.178 Y59.094 Z-0.911
X70.311 Y59.104 Z-0.916
X70.443 Y59.129 Z-0.92
X70.57 Y59.17 Z-0.925
X70.692 Y59.226 Z-0.93
X70.806 Y59.295 Z-0.934
X70.911 Y59.378 Z-0.939
X71.006 Y59.472 Z-0.944
X71.089 Y59.577 Z-0.948
X71.159 Y59.691 Z-0.953
X71.215 Y59.812 Z-0.958
X71.256 Y59.939 Z-0.962
X71.282 Y60.07 Z-0.967
X71.293 Y60.203 Z-0.972
X71.288 Y60.337 Z-0.976
X71.266 Y60.469 Z-0.981
X71.23 Y60.598 Z-0.986
X71.179 Y60.721 Z-0.99
X71.113 Y60.837 Z-0.995
X71.034 Y60.945 Z-1.
X70.943 Y61.043 Z-1.004
X70.841 Y61.13 Z-1.009
X70.73 Y61.203 Z-1.014
X70.61 Y61.264 Z-1.018
X70.484 Y61.309 Z-1.023
X70.354 Y61.34 Z-1.028
X70.221 Y61.355 Z-1.032
X70.088 Y61.354 Z-1.037
X69.955 Y61.337 Z-1.042
X69.825 Y61.305 Z-1.046
X69.7 Y61.258 Z-1.051
X69.582 Y61.196 Z-1.056
X69.471 Y61.121 Z-1.06
X69.37 Y61.033 Z-1.065
X69.281 Y60.934 Z-1.07
X69.203 Y60.825 Z-1.074
X69.139 Y60.708 Z-1.079
X69.089 Y60.584 Z-1.084
X69.054 Y60.454 Z-1.088
X69.035 Y60.322 Z-1.093
X69.031 Y60.189 Z-1.098
X69.044 Y60.055 Z-1.102
X69.072 Y59.925 Z-1.107
X69.115 Y59.798 Z-1.112
X69.172 Y59.678 Z-1.116
X69.244 Y59.565 Z-1.121
X69.328 Y59.461 Z-1.126
X69.424 Y59.368 Z-1.13
X69.53 Y59.287 Z-1.135
X69.646 Y59.219 Z-1.14
X69.768 Y59.165 Z-1.144
X69.896 Y59.126 Z-1.149
X70.027 Y59.102 Z-1.154
X70.161 Y59.094 Z-1.158
X70.294 Y59.102 Z-1.163
X70.426 Y59.125 Z-1.168
X70.554 Y59.164 Z-1.172
X70.676 Y59.218 Z-1.177
X70.792 Y59.285 Z-1.182
X70.898 Y59.366 Z-1.187
X70.994 Y59.459 Z-1.191
X71.079 Y59.563 Z-1.196
X71.151 Y59.675 Z-1.201
X71.208 Y59.796 Z-1.205
X71.252 Y59.922 Z-1.21
X71.28 Y60.053 Z-1.215
X71.292 Y60.186 Z-1.219
X71.296 Y60.369 F1499.
G3 X71.173 Y61.541 R5.455
X70.781 Y61.793 R0.33
X70.676 Y61.751 R0.33
G2 X70.31 Y61.533 R9.573
X69.929 Y61.341 R4.712
G3 X69.434 Y60.575 R0.84
G1 Y60.153
G3 X69.929 Y59.388 R0.839
G1 X70.141 Y59.299
X70.245 Y59.253
X70.346 Y59.198
X70.511 Y59.089
X70.676 Y58.981
G3 X71.132 Y59.09 R0.332
X71.174 Y59.196 R0.332
X71.292 Y60.186 R5.909
G2 X71.883 Y61.247 R1.332
G3 X72.263 Y62.4 R0.987
G1 X72.21 Y62.547
X72.068 Y62.912
X71.879 Y63.339
X71.476 Y63.962
X71.297 Y64.214
X71.217 Y64.044
X71.169 Y63.96
X71.098 Y63.858
X71.048 Y63.794
X70.501 Y63.192
X70.442 Y63.135
X70.376 Y63.087
X69.764 Y62.706
X69.747 Y62.695
X69.626 Y62.625
X69.573 Y62.598
X68.148 Y61.957
X68.141 Y61.954
Y58.774
X69.596 Y58.12
X69.664 Y58.085
X70.337 Y57.672
X70.382 Y57.641
X70.425 Y57.606
X70.53 Y57.511
X70.576 Y57.464
X71.086 Y56.888
X71.126 Y56.837
X71.161 Y56.782
X71.23 Y56.658
X71.249 Y56.62
X71.295 Y56.521
X71.575 Y56.921
X71.884 Y57.401
X72.132 Y57.966
X72.387 Y58.677
X72.522 Y59.332
X72.606 Y60.089
X72.603 Y60.696
X72.515 Y61.453
X72.381 Y62.07
X72.263 Y62.4
X72.251 Y62.417
X72.233 Y62.428
X72.212
X72.193 Y62.418
X72.033 Y62.281
X69.275 Y60.335
X69.07 Y60.304
X69.05 Y60.297
X69.036 Y60.281
X69.031 Y60.261
X69.034 Y60.13 Z-1.224 F333.
X69.053 Y60. Z-1.228
X69.087 Y59.873 Z-1.233
X69.135 Y59.751 Z-1.238
X69.197 Y59.635 Z-1.242
X69.272 Y59.527 Z-1.247
X69.359 Y59.429 Z-1.251
X69.457 Y59.341 Z-1.256
X69.564 Y59.265 Z-1.261
X69.68 Y59.202 Z-1.265
X69.802 Y59.154 Z-1.27
X69.928 Y59.119 Z-1.274
X70.058 Y59.1 Z-1.279
X70.19 Y59.095 Z-1.283
X70.321 Y59.106 Z-1.288
X70.449 Y59.132 Z-1.293
X70.574 Y59.173 Z-1.297
X70.694 Y59.228 Z-1.302
X70.806 Y59.297 Z-1.306
X70.909 Y59.378 Z-1.311
X71.003 Y59.47 Z-1.316
X71.084 Y59.573 Z-1.32
X71.154 Y59.684 Z-1.325
X71.21 Y59.803 Z-1.329
X71.252 Y59.927 Z-1.334
X71.279 Y60.056 Z-1.339
X71.292 Y60.187 Z-1.343
X71.295 Y60.365 F1499.
G3 X71.177 Y61.52 R5.47
X70.775 Y61.782 R0.339
X70.669 Y61.74 R0.339
X70.397 Y61.568 R8.839
G2 X70.115 Y61.414 R2.034
G1 X70.024 Y61.376
X69.933 Y61.338
G3 X69.438 Y60.572 R0.84
G1 Y60.156
G3 X69.933 Y59.391 R0.839
G1 X70.142 Y59.303
X70.246 Y59.257
X70.345 Y59.202
X70.507 Y59.096
X70.669 Y58.99
G3 X71.133 Y59.101 R0.338
X71.176 Y59.21 R0.338
X71.292 Y60.187 R5.896
G2 X71.921 Y61.086 R1.006
G3 X72.367 Y62.088 R0.788
G1 X72.063 Y62.916
X71.873 Y63.337
X71.469 Y63.963
X71.297 Y64.206
X71.222 Y64.046
X71.199 Y64.001
X71.173 Y63.959
X71.098 Y63.85
X71.049 Y63.789
X70.506 Y63.191
X70.45 Y63.137
X70.388 Y63.091
X70.158 Y62.942
X70.144 Y62.934
X69.646 Y62.632
X69.582 Y62.598
X68.149 Y61.953
X68.145 Y58.776
X69.596 Y58.124
X69.663 Y58.089
X70.339 Y57.675
X70.385 Y57.644
X70.428 Y57.608
X70.535 Y57.512
X70.58 Y57.466
X71.087 Y56.894
X71.127 Y56.844
X71.161 Y56.789
X71.232 Y56.663
X71.252 Y56.623
X71.298 Y56.523
X71.312 Y56.542
X71.809 Y57.293
X71.899 Y57.441
X72.125 Y57.964
X72.396 Y58.724
X72.511 Y59.284
X72.604 Y60.091
X72.602 Y60.648
X72.502 Y61.503
X72.394 Y62.016
X72.367 Y62.088
X72.347 Y62.123
X72.317 Y62.148
X72.28 Y62.161
X72.24
X72.203 Y62.147
X71.747 Y61.878
X71.724 Y61.868
X69.661 Y61.208
X69.643 Y61.206
X69.627 Y61.211
X69.502 Y61.277
X69.478 Y61.282
X69.455 Y61.273
X69.354 Y61.186 Z-1.348 F333.
X69.263 Y61.087 Z-1.352
X69.185 Y60.979 Z-1.357
X69.12 Y60.862 Z-1.362
X69.07 Y60.738 Z-1.367
X69.034 Y60.609 Z-1.371
X69.014 Y60.477 Z-1.376
X69.01 Y60.343 Z-1.381
X69.021 Y60.21 Z-1.385
X69.048 Y60.079 Z-1.39
X69.09 Y59.952 Z-1.395
X69.147 Y59.831 Z-1.399
X69.218 Y59.718 Z-1.404
X69.302 Y59.614 Z-1.409
X69.397 Y59.52 Z-1.413
X69.503 Y59.438 Z-1.418
X69.618 Y59.37 Z-1.423
X69.74 Y59.315 Z-1.427
X69.867 Y59.275 Z-1.432
X69.999 Y59.251 Z-1.437
X70.132 Y59.242 Z-1.441
X70.266 Y59.249 Z-1.446
X70.398 Y59.271 Z-1.451
X70.526 Y59.309 Z-1.455
X70.648 Y59.362 Z-1.46
X70.764 Y59.429 Z-1.465
X70.871 Y59.509 Z-1.469
X70.968 Y59.602 Z-1.474
X71.053 Y59.705 Z-1.479
X71.126 Y59.817 Z-1.483
X71.184 Y59.937 Z-1.488
X71.228 Y60.063 Z-1.493
X71.257 Y60.194 Z-1.497
X71.271 Y60.327 Z-1.502
X71.268 Y60.46 Z-1.507
X71.25 Y60.593 Z-1.511
X71.216 Y60.722 Z-1.516
X71.167 Y60.847 Z-1.521
X71.104 Y60.965 Z-1.525
X71.028 Y61.074 Z-1.53
X70.939 Y61.174 Z-1.535
X70.839 Y61.263 Z-1.539
X70.729 Y61.339 Z-1.544
X70.611 Y61.401 Z-1.549
X70.486 Y61.45 Z-1.553
X70.357 Y61.483 Z-1.558
X70.224 Y61.501 Z-1.563
X70.09 Y61.503 Z-1.567
X69.957 Y61.489 Z-1.572
X69.827 Y61.46 Z-1.577
X69.701 Y61.415 Z-1.581
X69.581 Y61.356 Z-1.586
X69.469 Y61.283 Z-1.591
X69.366 Y61.197 Z-1.595
X69.274 Y61.1 Z-1.6
X69.195 Y60.993 Z-1.605
X69.128 Y60.877 Z-1.609
X69.076 Y60.754 Z-1.614
X69.038 Y60.626 Z-1.619
X69.016 Y60.494 Z-1.623
X69.009 Y60.36 Z-1.628
X69.019 Y60.227 Z-1.633
X69.044 Y60.096 Z-1.637
X69.084 Y59.968 Z-1.642
X69.139 Y59.846 Z-1.647
X69.208 Y59.732 Z-1.651
X69.29 Y59.627 Z-1.656
X69.384 Y59.531 Z-1.661
X69.489 Y59.448 Z-1.665
X69.603 Y59.378 Z-1.67
X69.724 Y59.321 Z-1.675
X69.851 Y59.279 Z-1.679
X69.982 Y59.253 Z-1.684
X70.115 Y59.242 Z-1.689
X70.249 Y59.247 Z-1.693
X70.381 Y59.267 Z-1.698
X70.509 Y59.304 Z-1.703
X70.633 Y59.355 Z-1.708
X70.75 Y59.42 Z-1.712
X70.858 Y59.498 Z-1.717
X70.956 Y59.589 Z-1.722
X71.043 Y59.691 Z-1.726
X71.117 Y59.802 Z-1.731
X71.178 Y59.921 Z-1.736
X71.224 Y60.047 Z-1.74
X71.254 Y60.177 Z-1.745
X71.27 Y60.31 Z-1.75
X71.271 Y60.366 F1499.
X71.269 Y60.423
X71.236 Y60.97
G3 X71.178 Y61.469 R4.51
G1 X71.176 Y61.48
X71.174 Y61.491
G3 X70.754 Y61.753 R0.35
X70.65 Y61.711 R0.35
X70.402 Y61.553 R8.662
G2 X70.144 Y61.412 R1.822
G1 X70.046 Y61.371
X69.948 Y61.331
G3 X69.453 Y60.567 R0.838
G1 Y60.165
G3 X69.948 Y59.4 R0.839
G1 X70.148 Y59.316
X70.247 Y59.272
X70.343 Y59.219
X70.495 Y59.119
X70.647 Y59.02
G3 X71.133 Y59.137 R0.354
X71.177 Y59.25 R0.354
G1 X71.182 Y59.279
X71.186 Y59.299
G3 X71.243 Y59.826 R5.11
G1 X71.27 Y60.31
G2 X71.882 Y61.202 R1.042
G3 X72.305 Y62.198 R0.797
G1 X72.045 Y62.923
X71.907 Y63.246
X71.3 Y64.183
X71.219 Y64.011
X71.191 Y63.958
X71.157 Y63.908
X71.084 Y63.81
X71.049 Y63.768
X70.524 Y63.187
X70.48 Y63.143
X70.432 Y63.104
X70.348 Y63.044
X70.31 Y63.019
X69.68 Y62.633
X69.613 Y62.598
X68.16 Y61.947
Y58.786
X69.596 Y58.141
X69.663 Y58.106
X70.339 Y57.693
X70.414 Y57.639
X70.51 Y57.557
X70.57 Y57.499
X71.09 Y56.914
X71.128 Y56.866
X71.161 Y56.815
X71.239 Y56.68
X71.263 Y56.633
X71.302 Y56.548
X71.915 Y57.498
X71.986 Y57.66
X72.409 Y58.824
X72.465 Y59.093
X72.596 Y60.235
Y60.503
X72.454 Y61.69
X72.397 Y61.941
X72.305 Y62.198
X72.287 Y62.23
X72.26 Y62.256
X72.226 Y62.272
X72.188 Y62.276
X72.152 Y62.269
X69.394 Y61.248
X69.358 Y61.227
X69.262 Y61.135 Z-1.754 F333.
X69.177 Y61.031 Z-1.759
X69.105 Y60.919 Z-1.764
X69.046 Y60.799 Z-1.768
X69.003 Y60.672 Z-1.773
X68.974 Y60.542 Z-1.778
X68.961 Y60.408 Z-1.782
X68.964 Y60.275 Z-1.787
X68.983 Y60.142 Z-1.792
X69.017 Y60.013 Z-1.796
X69.066 Y59.889 Z-1.801
X69.13 Y59.771 Z-1.806
X69.207 Y59.662 Z-1.81
X69.296 Y59.562 Z-1.815
X69.397 Y59.474 Z-1.82
X69.507 Y59.398 Z-1.824
X69.625 Y59.336 Z-1.829
X69.75 Y59.288 Z-1.834
X69.879 Y59.255 Z-1.838
X70.012 Y59.238 Z-1.843
X70.146 Y59.237 Z-1.848
X70.279 Y59.251 Z-1.852
X70.409 Y59.281 Z-1.857
X70.535 Y59.326 Z-1.862
X70.655 Y59.385 Z-1.866
X70.766 Y59.459 Z-1.871
X70.869 Y59.545 Z-1.876
X70.96 Y59.642 Z-1.88
X71.04 Y59.749 Z-1.885
X71.106 Y59.866 Z-1.89
X71.158 Y59.989 Z-1.894
X71.195 Y60.117 Z-1.899
X71.217 Y60.249 Z-1.904
X71.223 Y60.383 Z-1.908
X71.213 Y60.516 Z-1.913
X71.187 Y60.647 Z-1.918
X71.147 Y60.775 Z-1.922
X71.091 Y60.896 Z-1.927
X71.022 Y61.01 Z-1.932
X70.939 Y61.116 Z-1.936
X70.845 Y61.21 Z-1.941
X70.74 Y61.293 Z-1.946
X70.626 Y61.363 Z-1.95
X70.505 Y61.419 Z-1.955
X70.378 Y61.461 Z-1.96
X70.246 Y61.487 Z-1.964
X70.113 Y61.497 Z-1.969
X69.98 Y61.492 Z-1.974
X69.848 Y61.471 Z-1.978
X69.719 Y61.434 Z-1.983
X69.596 Y61.383 Z-1.988
X69.479 Y61.317 Z-1.992
X69.371 Y61.238 Z-1.997
X69.273 Y61.147 Z-2.002
X69.187 Y61.045 Z-2.006
X69.113 Y60.934 Z-2.011
X69.053 Y60.814 Z-2.016
X69.007 Y60.689 Z-2.02
X68.977 Y60.559 Z-2.025
X68.962 Y60.426 Z-2.03
X68.963 Y60.292 Z-2.034
X68.98 Y60.159 Z-2.039
X69.012 Y60.03 Z-2.044
X69.059 Y59.905 Z-2.049
X69.121 Y59.786 Z-2.053
X69.196 Y59.675 Z-2.058
X69.284 Y59.575 Z-2.063
X69.383 Y59.485 Z-2.067
X69.492 Y59.407 Z-2.072
X69.609 Y59.343 Z-2.077
X69.733 Y59.294 Z-2.081
X69.863 Y59.259 Z-2.086
X69.995 Y59.24 Z-2.091
X70.129 Y59.236 Z-2.095
X70.262 Y59.248 Z-2.1
X70.392 Y59.276 Z-2.105
X70.519 Y59.319 Z-2.109
X70.64 Y59.377 Z-2.114
X70.752 Y59.448 Z-2.119
X70.856 Y59.533 Z-2.123
X70.949 Y59.629 Z-2.128
X71.03 Y59.735 Z-2.133
X71.098 Y59.85 Z-2.137
X71.152 Y59.973 Z-2.142
X71.191 Y60.1 Z-2.147
X71.215 Y60.232 Z-2.151
X71.223 Y60.366 Z-2.156
G3 X71.163 Y61.427 R9.238 F1499.
X70.774 Y61.734 R0.35
X70.633 Y61.685 R0.35
G2 X70.303 Y61.492 R10.583
X69.962 Y61.321 R4.198
G3 X69.467 Y60.557 R0.836
G1 Y60.173
G3 X69.962 Y59.405 R0.842
G1 X70.186 Y59.309
X70.296 Y59.258
X70.402 Y59.198
X70.519 Y59.12
X70.636 Y59.042
G3 X71.11 Y59.153 R0.344
X71.16 Y59.295 R0.344
X71.223 Y60.366 R9.238
G2 X71.807 Y61.321 R1.075
G3 X72.219 Y62.362 R0.849
G1 X71.936 Y63.156
X71.298 Y64.144
X71.233 Y64.005
X71.203 Y63.95
X71.168 Y63.898
X71.081 Y63.785
X71.051 Y63.749
X70.567 Y63.208
X70.498 Y63.143
X70.4 Y63.063
X70.336 Y63.018
X69.665 Y62.61
X69.598 Y62.574
X68.174 Y61.938
Y58.794
X69.646 Y58.129
X69.715 Y58.092
X70.391 Y57.672
X70.451 Y57.63
X70.505 Y57.58
X70.65 Y57.429
X70.666 Y57.412
X71.093 Y56.932
X71.148 Y56.86
X71.21 Y56.765
X71.251 Y56.69
X71.299 Y56.587
X71.937 Y57.577
X72.417 Y58.912
X72.586 Y60.351
X72.543 Y60.763
X72.421 Y61.8
X72.219 Y62.362
X72.198 Y62.399
X72.165 Y62.426
X72.124 Y62.44
X72.081 Y62.438
X72.042 Y62.422
X71.247 Y61.902
X70.404 Y61.395
X70.311 Y61.46
X70.18 Y61.479 Z-2.161 F333.
X70.048 Y61.483 Z-2.165
X69.917 Y61.471 Z-2.17
X69.787 Y61.444 Z-2.174
X69.662 Y61.402 Z-2.179
X69.542 Y61.345 Z-2.184
X69.43 Y61.275 Z-2.188
X69.327 Y61.193 Z-2.193
X69.234 Y61.099 Z-2.198
X69.153 Y60.994 Z-2.202
X69.084 Y60.881 Z-2.207
X69.029 Y60.761 Z-2.211
X68.989 Y60.635 Z-2.216
X68.963 Y60.505 Z-2.221
X68.953 Y60.373 Z-2.225
X68.958 Y60.241 Z-2.23
X68.979 Y60.111 Z-2.234
X69.015 Y59.983 Z-2.239
X69.065 Y59.861 Z-2.244
X69.13 Y59.746 Z-2.248
X69.207 Y59.638 Z-2.253
X69.296 Y59.541 Z-2.258
X69.396 Y59.454 Z-2.262
X69.506 Y59.38 Z-2.267
X69.623 Y59.319 Z-2.271
X69.747 Y59.273 Z-2.276
X69.875 Y59.241 Z-2.281
X70.006 Y59.224 Z-2.285
X70.139 Y59.223 Z-2.29
X70.27 Y59.237 Z-2.295
X70.399 Y59.266 Z-2.299
X70.524 Y59.31 Z-2.304
X70.642 Y59.369 Z-2.308
X70.753 Y59.441 Z-2.313
X70.855 Y59.525 Z-2.318
X70.946 Y59.621 Z-2.322
X71.026 Y59.726 Z-2.327
X71.093 Y59.84 Z-2.332
X71.145 Y59.962 Z-2.336
X71.184 Y60.088 Z-2.341
X71.207 Y60.218 Z-2.345
X71.215 Y60.35 Z-2.35
G3 X71.155 Y61.419 R9.19 F1499.
X70.772 Y61.724 R0.346
X70.631 Y61.676 R0.346
X70.39 Y61.524 R9.52
G2 X70.14 Y61.387 R1.806
G1 X70.054 Y61.352
X69.968 Y61.317
G3 X69.473 Y60.553 R0.837
G1 Y60.177
G3 X69.969 Y59.41 R0.842
G1 X70.189 Y59.314
X70.298 Y59.264
X70.403 Y59.205
X70.517 Y59.129
X70.631 Y59.053
G3 X71.104 Y59.164 R0.344
X71.154 Y59.306 R0.344
X71.215 Y60.35 R9.19
G2 X71.803 Y61.305 R1.073
G3 X72.217 Y62.347 R0.847
G1 X71.931 Y63.145
X71.298 Y64.13
X71.239 Y64.004
X71.209 Y63.947
X71.173 Y63.895
X71.08 Y63.774
X71.051 Y63.739
X70.573 Y63.205
X70.508 Y63.143
X70.416 Y63.067
X70.348 Y63.018
X69.677 Y62.608
X69.609 Y62.573
X68.18 Y61.933
Y58.799
X69.648 Y58.136
X69.716 Y58.099
X70.391 Y57.681
X70.45 Y57.639
X70.504 Y57.59
X70.648 Y57.441
X70.666 Y57.422
X71.098 Y56.937
X71.153 Y56.865
X71.216 Y56.768
X71.257 Y56.694
X71.298 Y56.604
X71.929 Y57.577
X72.411 Y58.922
X72.577 Y60.348
X72.413 Y61.801
X72.217 Y62.347
X72.198 Y62.388 Z-2.341
X72.171 Y62.425 Z-2.332
X72.143 Y62.451 Z-2.306
X72.111 Y62.473 Z-2.28
X72.064 Y62.494 Z-2.203
X72.047 Y62.498 Z-2.112
G0 Z5.
X63.227 Y61.074
Z0.665
G1 X63.216 Y61.087 Z0.575 F333.
X63.182 Y61.124 Z0.499
X63.13 Y61.176 Z0.447
X63.063 Y61.234 Z0.427
X62.953 Y61.311 Z0.422
X62.835 Y61.375 Z0.417
X62.711 Y61.424 Z0.413
X62.581 Y61.458 Z0.408
X62.448 Y61.476 Z0.403
X62.315 Y61.479 Z0.399
X62.181 Y61.466 Z0.394
X62.05 Y61.437 Z0.389
X61.924 Y61.393 Z0.385
X61.803 Y61.335 Z0.38
X61.691 Y61.262 Z0.375
X61.588 Y61.177 Z0.371
X61.495 Y61.08 Z0.366
X61.415 Y60.973 Z0.361
X61.348 Y60.857 Z0.357
X61.295 Y60.734 Z0.352
X61.257 Y60.605 Z0.347
X61.234 Y60.473 Z0.342
X61.227 Y60.34 Z0.338
X61.236 Y60.206 Z0.333
X61.261 Y60.074 Z0.328
X61.301 Y59.947 Z0.324
X61.356 Y59.824 Z0.319
X61.425 Y59.71 Z0.314
X61.507 Y59.604 Z0.31
X61.601 Y59.508 Z0.305
X61.706 Y59.425 Z0.3
X61.82 Y59.354 Z0.296
X61.941 Y59.298 Z0.291
X62.068 Y59.256 Z0.286
X62.2 Y59.229 Z0.282
X62.333 Y59.218 Z0.277
X62.467 Y59.223 Z0.272
X62.599 Y59.244 Z0.268
X62.728 Y59.28 Z0.263
X62.852 Y59.331 Z0.258
X62.969 Y59.397 Z0.254
X63.077 Y59.476 Z0.249
X63.175 Y59.567 Z0.244
X63.262 Y59.669 Z0.24
X63.336 Y59.781 Z0.235
X63.396 Y59.9 Z0.23
X63.442 Y60.026 Z0.225
X63.473 Y60.157 Z0.221
X63.488 Y60.29 Z0.216
X63.487 Y60.424 Z0.211
X63.47 Y60.557 Z0.207
X63.438 Y60.687 Z0.202
X63.39 Y60.812 Z0.197
X63.328 Y60.931 Z0.193
X63.253 Y61.041 Z0.188
X63.165 Y61.142 Z0.183
X63.065 Y61.232 Z0.179
X62.956 Y61.309 Z0.174
X62.838 Y61.373 Z0.169
X62.714 Y61.423 Z0.165
X62.584 Y61.457 Z0.16
X62.452 Y61.476 Z0.155
X62.318 Y61.479 Z0.151
X62.184 Y61.467 Z0.146
X62.054 Y61.438 Z0.141
X61.927 Y61.395 Z0.137
X61.806 Y61.336 Z0.132
X61.693 Y61.264 Z0.127
X61.59 Y61.179 Z0.122
X61.497 Y61.082 Z0.118
X61.416 Y60.976 Z0.113
X61.349 Y60.86 Z0.108
X61.296 Y60.737 Z0.104
X61.257 Y60.609 Z0.099
X61.234 Y60.477 Z0.094
X61.227 Y60.343 Z0.09
X61.236 Y60.209 Z0.085
X61.26 Y60.077 Z0.08
X61.3 Y59.95 Z0.076
X61.355 Y59.827 Z0.071
X61.423 Y59.712 Z0.066
X61.505 Y59.606 Z0.062
X61.599 Y59.511 Z0.057
X61.703 Y59.427 Z0.052
X61.817 Y59.356 Z0.048
X61.938 Y59.299 Z0.043
X62.065 Y59.256 Z0.038
X62.197 Y59.229 Z0.034
X62.33 Y59.218 Z0.029
X62.464 Y59.223 Z0.024
X62.596 Y59.243 Z0.02
X62.725 Y59.279 Z0.015
X62.849 Y59.33 Z0.01
X62.966 Y59.395 Z0.005
X63.075 Y59.474 Z0.001
X63.173 Y59.565 Z-0.004
X63.26 Y59.666 Z-0.009
X63.335 Y59.778 Z-0.013
X63.395 Y59.897 Z-0.018
X63.441 Y60.023 Z-0.023
X63.472 Y60.153 Z-0.027
X63.488 Y60.286 Z-0.032
X63.487 Y60.42 Z-0.037
X63.471 Y60.553 Z-0.041
X63.439 Y60.683 Z-0.046
X63.392 Y60.809 Z-0.051
X63.33 Y60.928 Z-0.055
X63.255 Y61.039 Z-0.06
X63.167 Y61.14 Z-0.065
X63.068 Y61.23 Z-0.069
X62.959 Y61.308 Z-0.074
X62.841 Y61.372 Z-0.079
X62.717 Y61.422 Z-0.083
X62.587 Y61.457 Z-0.088
X62.455 Y61.476 Z-0.093
X62.321 Y61.479 Z-0.097
X62.188 Y61.467 Z-0.102
X62.057 Y61.439 Z-0.107
X61.93 Y61.396 Z-0.112
X61.809 Y61.338 Z-0.116
X61.696 Y61.266 Z-0.121
X61.592 Y61.181 Z-0.126
X61.499 Y61.085 Z-0.13
X61.418 Y60.978 Z-0.135
X61.35 Y60.863 Z-0.14
X61.297 Y60.74 Z-0.144
X61.258 Y60.612 Z-0.149
X61.235 Y60.48 Z-0.154
X61.227 Y60.346 Z-0.158
X61.235 Y60.212 Z-0.163
X61.259 Y60.081 Z-0.168
X61.299 Y59.953 Z-0.172
X61.353 Y59.83 Z-0.177
X61.421 Y59.715 Z-0.182
X61.503 Y59.609 Z-0.186
X61.597 Y59.513 Z-0.191
X61.701 Y59.429 Z-0.196
X61.814 Y59.357 Z-0.2
X61.935 Y59.3 Z-0.205
X62.062 Y59.257 Z-0.21
X62.193 Y59.23 Z-0.215
X62.327 Y59.218 Z-0.219
X62.461 Y59.223 Z-0.224
X62.593 Y59.243 Z-0.229
X62.722 Y59.278 Z-0.233
X62.846 Y59.329 Z-0.238
X62.963 Y59.393 Z-0.243
X63.072 Y59.472 Z-0.247
X63.171 Y59.562 Z-0.252
X63.258 Y59.664 Z-0.257
X63.333 Y59.775 Z-0.261
X63.394 Y59.894 Z-0.266
X63.44 Y60.02 Z-0.271
X63.472 Y60.15 Z-0.275
X63.487 Y60.283 Z-0.28
Y60.417 Z-0.285
X63.471 Y60.55 Z-0.289
X63.44 Y60.68 Z-0.294
X63.393 Y60.806 Z-0.299
X63.332 Y60.925 Z-0.303
X63.257 Y61.036 Z-0.308
X63.169 Y61.137 Z-0.313
X63.07 Y61.228 Z-0.317
X62.961 Y61.306 Z-0.322
X62.844 Y61.37 Z-0.327
X62.72 Y61.421 Z-0.332
X62.591 Y61.456 Z-0.336
X62.458 Y61.476 Z-0.341
X62.324 Y61.48 Z-0.346
X62.191 Y61.468 Z-0.35
X62.06 Y61.44 Z-0.355
X61.933 Y61.397 Z-0.36
X61.812 Y61.339 Z-0.364
X61.699 Y61.268 Z-0.369
X61.595 Y61.184 Z-0.374
X61.501 Y61.087 Z-0.378
X61.42 Y60.981 Z-0.383
X61.352 Y60.866 Z-0.388
X61.298 Y60.743 Z-0.392
X61.259 Y60.615 Z-0.397
X61.235 Y60.483 Z-0.402
X61.227 Y60.349 Z-0.406
G3 X61.49 Y58.685 R5.382 F1499.
X61.866 Y58.494 R0.299
X61.962 Y58.546 R0.299
G2 X62.45 Y58.893 R4.696
X62.966 Y59.198 R15.667
G3 X63.41 Y59.961 R0.877
G1 Y60.777
G3 X62.956 Y61.538 R0.865
G2 X62.44 Y61.841 R8.238
X61.953 Y62.19 R5.495
G3 X61.543 Y62.145 R0.292
X61.492 Y62.051 R0.292
X61.227 Y60.368 R5.613
G1 Y60.349
G2 X60.651 Y59.403 R1.066
G3 X60.23 Y58.379 R0.856
G1 X60.409 Y57.828
X60.503 Y57.642
X61.054 Y56.68
X61.459 Y56.211
X61.722 Y55.916
X61.888 Y56.397
X61.908 Y56.449
X61.933 Y56.498
X61.98 Y56.579
X62.029 Y56.653
X62.594 Y57.372
X62.635 Y57.419
X62.68 Y57.461
X62.77 Y57.536
X62.831 Y57.581
X63.576 Y58.057
X63.652 Y58.098
X64.703 Y58.571
Y62.159
X63.606 Y62.658
X63.53 Y62.7
X62.813 Y63.162
X62.771 Y63.191
X62.733 Y63.224
X62.635 Y63.313
X62.6 Y63.349
X62.567 Y63.387
X62.007 Y64.11
X61.972 Y64.16
X61.943 Y64.214
X61.899 Y64.303
X61.871 Y64.372
X61.722 Y64.81
X61.257 Y64.292
X61.056 Y64.053
X60.591 Y63.241
X60.393 Y62.861
X60.034 Y61.734
X60.005 Y61.608
X59.885 Y60.419
X59.889 Y60.239
X59.999 Y59.184
X60.007 Y59.116
X60.055 Y58.92
X60.23 Y58.379
X60.25 Y58.341
X60.283 Y58.313
X60.323 Y58.298
X60.365
X60.405 Y58.314
X61.089 Y58.726
X62.905 Y59.615
X62.921 Y59.619
X62.937 Y59.616
X63.043 Y59.571
X63.064 Y59.568
X63.083 Y59.576
X63.181 Y59.667 Z-0.411 F333.
X63.268 Y59.769 Z-0.416
X63.342 Y59.88 Z-0.42
X63.402 Y59.999 Z-0.425
X63.448 Y60.125 Z-0.43
X63.479 Y60.255 Z-0.434
X63.494 Y60.388 Z-0.439
Y60.522 Z-0.444
X63.478 Y60.654 Z-0.448
X63.446 Y60.784 Z-0.453
X63.399 Y60.909 Z-0.458
X63.338 Y61.028 Z-0.462
X63.263 Y61.139 Z-0.467
X63.175 Y61.24 Z-0.472
X63.076 Y61.33 Z-0.476
X62.968 Y61.408 Z-0.481
X62.85 Y61.472 Z-0.486
X62.727 Y61.522 Z-0.49
X62.598 Y61.557 Z-0.495
X62.465 Y61.577 Z-0.5
X62.332 Y61.581 Z-0.504
X62.199 Y61.569 Z-0.509
X62.068 Y61.542 Z-0.514
X61.941 Y61.499 Z-0.519
X61.82 Y61.442 Z-0.523
X61.707 Y61.371 Z-0.528
X61.603 Y61.286 Z-0.533
X61.51 Y61.191 Z-0.537
X61.428 Y61.085 Z-0.542
X61.36 Y60.97 Z-0.547
X61.306 Y60.848 Z-0.551
X61.266 Y60.72 Z-0.556
X61.242 Y60.588 Z-0.561
X61.234 Y60.455 Z-0.565
X61.241 Y60.321 Z-0.57
X61.264 Y60.19 Z-0.575
X61.303 Y60.062 Z-0.579
X61.356 Y59.939 Z-0.584
X61.424 Y59.824 Z-0.589
X61.504 Y59.717 Z-0.593
X61.597 Y59.62 Z-0.598
X61.7 Y59.536 Z-0.603
X61.813 Y59.464 Z-0.607
X61.933 Y59.405 Z-0.612
X62.059 Y59.362 Z-0.617
X62.19 Y59.333 Z-0.621
X62.323 Y59.32 Z-0.626
X62.457 Y59.323 Z-0.631
X62.589 Y59.342 Z-0.635
X62.718 Y59.376 Z-0.64
X62.843 Y59.425 Z-0.645
X62.96 Y59.489 Z-0.649
X63.07 Y59.566 Z-0.654
X63.169 Y59.655 Z-0.659
X63.257 Y59.755 Z-0.663
X63.333 Y59.865 Z-0.668
X63.395 Y59.984 Z-0.673
X63.443 Y60.109 Z-0.677
X63.476 Y60.238 Z-0.682
X63.493 Y60.371 Z-0.687
X63.495 Y60.504 Z-0.691
X63.481 Y60.637 Z-0.696
X63.451 Y60.768 Z-0.701
X63.406 Y60.894 Z-0.705
X63.346 Y61.013 Z-0.71
X63.273 Y61.125 Z-0.715
X63.187 Y61.227 Z-0.719
X63.09 Y61.319 Z-0.724
X62.982 Y61.398 Z-0.729
X62.866 Y61.465 Z-0.733
X62.743 Y61.517 Z-0.738
X62.614 Y61.554 Z-0.743
X62.482 Y61.576 Z-0.747
X62.349 Y61.581 Z-0.752
X62.216 Y61.572 Z-0.757
X62.084 Y61.546 Z-0.761
X61.957 Y61.505 Z-0.766
X61.835 Y61.45 Z-0.771
X61.721 Y61.38 Z-0.775
X61.616 Y61.298 Z-0.78
X61.521 Y61.204 Z-0.785
X61.438 Y61.099 Z-0.789
X61.368 Y60.985 Z-0.794
X61.312 Y60.864 Z-0.799
X61.271 Y60.736 Z-0.803
X61.245 Y60.605 Z-0.808
X61.234 Y60.472 Z-0.813
G3 X61.493 Y58.706 R5.452 F1499.
X61.868 Y58.514 R0.298
X61.963 Y58.565 R0.298
G2 X62.446 Y58.905 R4.801
X62.954 Y59.207 R20.524
G3 X63.396 Y59.972 R0.883
G1 Y60.763
G3 X62.948 Y61.525 R0.872
G2 X62.438 Y61.828 R10.667
X61.954 Y62.171 R5.506
G3 X61.542 Y62.124 R0.293
X61.493 Y62.031 R0.293
X61.234 Y60.472 R5.452
G2 X60.631 Y59.548 R1.04
G3 X60.189 Y58.537 R0.832
G1 X60.387 Y57.92
X60.526 Y57.636
X60.947 Y56.884
X61.032 Y56.738
X61.476 Y56.207
X61.715 Y55.939
X61.872 Y56.397
X61.894 Y56.452
X61.921 Y56.504
X61.983 Y56.61
X62.029 Y56.677
X62.577 Y57.375
X62.617 Y57.42
X62.66 Y57.461
X62.758 Y57.544
X62.823 Y57.592
X63.577 Y58.073
X63.652 Y58.114
X64.689 Y58.581
Y62.15
X63.621 Y62.633
X63.544 Y62.675
X62.806 Y63.149
X62.765 Y63.178
X62.726 Y63.211
X62.624 Y63.305
X62.589 Y63.34
X62.556 Y63.378
X62.004 Y64.088
X61.972 Y64.134
X61.945 Y64.182
X61.894 Y64.28
X61.861 Y64.36
X61.714 Y64.789
X61.282 Y64.3
X61.013 Y63.962
X60.605 Y63.247
X60.374 Y62.777
X60.102 Y61.926
X59.996 Y61.447
X59.907 Y60.561
X59.911 Y60.091
X59.996 Y59.284
X60.099 Y58.816
X60.189 Y58.537
X60.202 Y58.514
X60.225 Y58.5
X60.252 Y58.497
X60.277 Y58.506
X60.518 Y58.665
X62.873 Y59.736
X62.89 Y59.74
X62.907 Y59.736
X63.015 Y59.686
X63.036 Y59.682
X63.056 Y59.69
X63.158 Y59.777 Z-0.817 F333.
X63.248 Y59.875 Z-0.822
X63.327 Y59.984 Z-0.827
X63.392 Y60.1 Z-0.831
X63.442 Y60.224 Z-0.836
X63.478 Y60.353 Z-0.841
X63.499 Y60.485 Z-0.845
X63.503 Y60.619 Z-0.85
X63.492 Y60.752 Z-0.855
X63.465 Y60.883 Z-0.86
X63.423 Y61.01 Z-0.864
X63.367 Y61.131 Z-0.869
X63.296 Y61.244 Z-0.874
X63.212 Y61.349 Z-0.878
X63.117 Y61.442 Z-0.883
X63.012 Y61.524 Z-0.888
X62.897 Y61.593 Z-0.892
X62.775 Y61.648 Z-0.897
X62.648 Y61.688 Z-0.902
X62.516 Y61.713 Z-0.906
X62.383 Y61.722 Z-0.911
X62.249 Y61.715 Z-0.916
X62.117 Y61.693 Z-0.92
X61.989 Y61.655 Z-0.925
X61.866 Y61.603 Z-0.93
X61.751 Y61.536 Z-0.934
X61.643 Y61.456 Z-0.939
X61.546 Y61.364 Z-0.944
X61.461 Y61.261 Z-0.948
X61.388 Y61.149 Z-0.953
X61.33 Y61.029 Z-0.958
X61.285 Y60.903 Z-0.962
X61.256 Y60.772 Z-0.967
X61.242 Y60.639 Z-0.972
X61.245 Y60.505 Z-0.976
X61.263 Y60.373 Z-0.981
X61.296 Y60.244 Z-0.986
X61.345 Y60.119 Z-0.99
X61.408 Y60.001 Z-0.995
X61.484 Y59.891 Z-1.
X61.573 Y59.791 Z-1.004
X61.673 Y59.703 Z-1.009
X61.782 Y59.626 Z-1.014
X61.9 Y59.563 Z-1.018
X62.025 Y59.515 Z-1.023
X62.154 Y59.481 Z-1.028
X62.287 Y59.463 Z-1.032
X62.421 Y59.461 Z-1.037
X62.554 Y59.475 Z-1.042
X62.684 Y59.504 Z-1.046
X62.81 Y59.548 Z-1.051
X62.93 Y59.607 Z-1.056
X63.042 Y59.68 Z-1.06
X63.145 Y59.765 Z-1.065
X63.237 Y59.862 Z-1.07
X63.317 Y59.969 Z-1.074
X63.384 Y60.085 Z-1.079
X63.437 Y60.208 Z-1.084
X63.475 Y60.336 Z-1.088
X63.497 Y60.468 Z-1.093
X63.504 Y60.601 Z-1.098
X63.494 Y60.735 Z-1.102
X63.47 Y60.866 Z-1.107
X63.43 Y60.994 Z-1.112
X63.375 Y61.116 Z-1.116
X63.306 Y61.23 Z-1.121
X63.224 Y61.336 Z-1.126
X63.13 Y61.431 Z-1.13
X63.026 Y61.515 Z-1.135
X62.912 Y61.585 Z-1.14
X62.791 Y61.642 Z-1.144
X62.664 Y61.684 Z-1.149
X62.533 Y61.711 Z-1.154
X62.4 Y61.722 Z-1.158
X62.266 Y61.717 Z-1.163
X62.134 Y61.697 Z-1.168
X62.005 Y61.661 Z-1.172
X61.882 Y61.61 Z-1.177
X61.765 Y61.545 Z-1.182
X61.657 Y61.467 Z-1.187
X61.558 Y61.376 Z-1.191
X61.471 Y61.275 Z-1.196
X61.397 Y61.164 Z-1.201
X61.336 Y61.045 Z-1.205
X61.29 Y60.919 Z-1.21
X61.259 Y60.789 Z-1.215
X61.243 Y60.656 Z-1.219
G3 X61.234 Y60.363 R5.466 F1499.
X61.49 Y58.734 R5.183
X61.876 Y58.538 R0.306
X61.97 Y58.588 R0.306
G2 X62.446 Y58.918 R5.068
X62.942 Y59.216 R29.284
G3 X63.382 Y59.983 R0.889
G1 Y60.757
G3 X62.931 Y61.519 R0.87
G2 X62.438 Y61.812 R8.697
X61.969 Y62.142 R6.356
G3 X61.539 Y62.087 R0.306
X61.49 Y61.992 R0.306
X61.243 Y60.656 R5.466
G2 X60.62 Y59.759 R1.045
G3 X60.132 Y58.782 R0.853
G1 X60.18 Y58.581
X60.363 Y58.019
X60.743 Y57.257
X61.018 Y56.786
X61.492 Y56.204
X61.709 Y55.96
X61.872 Y56.431
X61.899 Y56.496
X61.934 Y56.557
X61.996 Y56.654
X62.029 Y56.7
X62.561 Y57.378
X62.599 Y57.422
X62.641 Y57.462
X62.745 Y57.552
X62.814 Y57.603
X63.577 Y58.089
X63.652 Y58.13
X64.675 Y58.59
Y62.141
X63.594 Y62.632
X63.518 Y62.674
X62.802 Y63.135
X62.726 Y63.193
X62.62 Y63.289
X62.583 Y63.325
X62.549 Y63.365
X62.001 Y64.067
X61.972 Y64.108
X61.946 Y64.153
X61.889 Y64.26
X61.85 Y64.348
X61.708 Y64.765
X61.407 Y64.422
X60.994 Y63.912
X60.706 Y63.408
X60.348 Y62.669
X60.158 Y62.07
X59.992 Y61.34
X59.93 Y60.705
X59.934 Y59.946
X59.995 Y59.363
X60.132 Y58.782
X60.146 Y58.756
X60.17 Y58.739
X60.199 Y58.735
X60.227 Y58.746
X60.471 Y58.915
X63.281 Y60.509
X63.468 Y60.523
X63.486 Y60.529
X63.5 Y60.542
X63.506 Y60.561
Y60.692 Z-1.224 F333.
X63.492 Y60.823 Z-1.228
X63.462 Y60.951 Z-1.233
X63.418 Y61.074 Z-1.238
X63.36 Y61.192 Z-1.242
X63.288 Y61.302 Z-1.247
X63.204 Y61.404 Z-1.251
X63.109 Y61.494 Z-1.256
X63.004 Y61.574 Z-1.261
X62.891 Y61.64 Z-1.265
X62.771 Y61.693 Z-1.27
X62.645 Y61.731 Z-1.274
X62.516 Y61.755 Z-1.279
X62.385 Y61.764 Z-1.283
X62.254 Y61.757 Z-1.288
X62.124 Y61.735 Z-1.293
X61.998 Y61.698 Z-1.297
X61.877 Y61.647 Z-1.302
X61.763 Y61.582 Z-1.306
X61.657 Y61.505 Z-1.311
X61.56 Y61.415 Z-1.316
X61.475 Y61.315 Z-1.32
X61.402 Y61.206 Z-1.325
X61.342 Y61.089 Z-1.329
X61.296 Y60.966 Z-1.334
X61.265 Y60.839 Z-1.339
X61.248 Y60.708 Z-1.343
G3 X61.236 Y60.367 R5.436 F1499.
X61.487 Y58.748 R5.21
X61.879 Y58.546 R0.312
X61.975 Y58.597 R0.312
G2 X62.447 Y58.923 R5.244
X62.939 Y59.218 R32.562
G3 X63.378 Y59.986 R0.891
G1 Y60.75
G3 X62.933 Y61.513 R0.877
G2 X62.441 Y61.807 R12.022
X61.971 Y62.136 R6.058
G3 X61.539 Y62.08 R0.307
X61.49 Y61.985 R0.307
X61.248 Y60.708 R5.436
G2 X60.616 Y59.82 R1.04
G3 X60.123 Y58.848 R0.845
G1 X60.198 Y58.531
X60.347 Y58.07
X60.748 Y57.254
X60.987 Y56.836
X61.5 Y56.203
X61.708 Y55.968
X61.869 Y56.432
X61.896 Y56.498
X61.931 Y56.561
X61.997 Y56.662
X62.028 Y56.706
X62.556 Y57.379
X62.594 Y57.423
X62.635 Y57.462
X62.742 Y57.554
X62.812 Y57.606
X63.577 Y58.093
X63.653 Y58.134
X64.671 Y58.592
Y62.138
X63.618 Y62.614
X63.541 Y62.656
X62.803 Y63.13
X62.728 Y63.186
X62.622 Y63.281
X62.584 Y63.318
X62.549 Y63.359
X62.001 Y64.061
X61.972 Y64.102
X61.946 Y64.144
X61.887 Y64.254
X61.865 Y64.299
X61.847 Y64.346
X61.706 Y64.761
X61.633 Y64.68
X60.998 Y63.91
X60.706 Y63.398
X60.348 Y62.662
X60.175 Y62.117
X59.991 Y61.315
X59.936 Y60.753
X59.941 Y59.898
X59.995 Y59.391
X60.123 Y58.848
X60.136 Y58.823
X60.158 Y58.806
X60.186 Y58.8
X60.214 Y58.808
X60.484 Y58.952
X62.907 Y59.777
X62.924 Y59.779
X62.939 Y59.775
X63.049 Y59.716
X63.071 Y59.712
X63.091 Y59.719
X63.194 Y59.804 Z-1.348 F333.
X63.287 Y59.901 Z-1.352
X63.367 Y60.008 Z-1.357
X63.434 Y60.124 Z-1.362
X63.487 Y60.247 Z-1.367
X63.525 Y60.375 Z-1.371
X63.547 Y60.506 Z-1.376
X63.554 Y60.64 Z-1.381
X63.545 Y60.773 Z-1.385
X63.521 Y60.905 Z-1.39
X63.481 Y61.032 Z-1.395
X63.426 Y61.154 Z-1.399
X63.358 Y61.269 Z-1.404
X63.276 Y61.375 Z-1.409
X63.182 Y61.47 Z-1.413
X63.078 Y61.554 Z-1.418
X62.965 Y61.625 Z-1.423
X62.844 Y61.682 Z-1.427
X62.717 Y61.724 Z-1.432
X62.586 Y61.751 Z-1.437
X62.453 Y61.762 Z-1.441
X62.319 Y61.758 Z-1.446
X62.187 Y61.738 Z-1.451
X62.058 Y61.702 Z-1.455
X61.934 Y61.652 Z-1.46
X61.817 Y61.587 Z-1.465
X61.709 Y61.509 Z-1.469
X61.61 Y61.418 Z-1.474
X61.523 Y61.317 Z-1.479
X61.449 Y61.206 Z-1.483
X61.388 Y61.087 Z-1.488
X61.341 Y60.962 Z-1.493
X61.31 Y60.832 Z-1.497
X61.294 Y60.699 Z-1.502
Y60.565 Z-1.507
X61.31 Y60.433 Z-1.511
X61.341 Y60.303 Z-1.516
X61.388 Y60.177 Z-1.521
X61.448 Y60.058 Z-1.525
X61.523 Y59.947 Z-1.53
X61.61 Y59.846 Z-1.535
X61.708 Y59.755 Z-1.539
X61.817 Y59.677 Z-1.544
X61.934 Y59.612 Z-1.549
X62.057 Y59.561 Z-1.553
X62.186 Y59.526 Z-1.558
X62.318 Y59.506 Z-1.563
X62.452 Y59.501 Z-1.567
X62.585 Y59.512 Z-1.572
X62.716 Y59.539 Z-1.577
X62.843 Y59.581 Z-1.581
X62.964 Y59.638 Z-1.586
X63.077 Y59.709 Z-1.591
X63.182 Y59.793 Z-1.595
X63.275 Y59.888 Z-1.6
X63.357 Y59.994 Z-1.605
X63.426 Y60.108 Z-1.609
X63.481 Y60.23 Z-1.614
X63.521 Y60.358 Z-1.619
X63.545 Y60.489 Z-1.623
X63.554 Y60.623 Z-1.628
X63.547 Y60.756 Z-1.633
X63.525 Y60.888 Z-1.637
X63.487 Y61.016 Z-1.642
X63.434 Y61.139 Z-1.647
X63.367 Y61.255 Z-1.651
X63.287 Y61.362 Z-1.656
X63.195 Y61.459 Z-1.661
X63.092 Y61.544 Z-1.665
X62.98 Y61.617 Z-1.67
X62.86 Y61.675 Z-1.675
X62.733 Y61.719 Z-1.679
X62.603 Y61.748 Z-1.684
X62.47 Y61.762 Z-1.689
X62.336 Y61.76 Z-1.693
X62.204 Y61.741 Z-1.698
X62.074 Y61.708 Z-1.703
X61.95 Y61.659 Z-1.708
X61.832 Y61.596 Z-1.712
X61.722 Y61.52 Z-1.717
X61.623 Y61.431 Z-1.722
X61.534 Y61.331 Z-1.726
X61.458 Y61.221 Z-1.731
X61.395 Y61.103 Z-1.736
X61.346 Y60.978 Z-1.74
X61.313 Y60.849 Z-1.745
X61.295 Y60.716 Z-1.75
G3 X61.289 Y59.837 R6.504 F1499.
X61.368 Y59.3 R3.218
G1 X61.484 Y58.803
G3 X61.865 Y58.566 R0.317
X61.984 Y58.622 R0.317
G2 X62.447 Y58.937 R5.67
X62.927 Y59.227 R66.295
G3 X63.363 Y59.998 R0.898
G1 Y60.738
G3 X62.92 Y61.503 R0.882
G2 X62.445 Y61.796 R9.339
X61.984 Y62.109 R17.127
G3 X61.531 Y62.031 R0.325
X61.48 Y61.916 R0.325
X61.31 Y60.883 R8.414
G1 X61.295 Y60.716
G2 X60.651 Y59.815 R1.066
G3 X60.15 Y58.827 R0.862
G1 X60.253 Y58.388
X60.332 Y58.147
X60.771 Y57.249
X60.97 Y56.887
X61.702 Y55.996
X61.855 Y56.438
X61.884 Y56.507
X61.922 Y56.572
X62.001 Y56.691
X62.028 Y56.73
X62.54 Y57.383
X62.576 Y57.424
X62.616 Y57.463
X62.729 Y57.562
X62.803 Y57.618
X63.578 Y58.11
X63.653 Y58.15
X64.656 Y58.602
Y62.128
X63.616 Y62.598
X63.537 Y62.642
X62.747 Y63.154
X62.688 Y63.198
X62.634 Y63.249
X62.532 Y63.359
X62.498 Y63.399
X61.97 Y64.082
X61.938 Y64.127
X61.91 Y64.175
X61.87 Y64.254
X61.836 Y64.333
X61.699 Y64.735
X61.654 Y64.684
X60.95 Y63.811
X60.848 Y63.633
X60.327 Y62.573
X60.243 Y62.309
X59.985 Y61.182
X59.959 Y60.899
X59.963 Y59.757
X59.994 Y59.495
X60.15 Y58.827
X60.165 Y58.79
X60.191 Y58.761
X60.226 Y58.742
X60.264 Y58.735
X60.303 Y58.741
X61.256 Y59.051
X63.002 Y59.35
X63.017
X63.032 Y59.345
X63.183 Y59.264
X63.202 Y59.259
X63.221 Y59.261
X63.238 Y59.272
X63.329 Y59.369 Z-1.754 F333.
X63.409 Y59.476 Z-1.759
X63.475 Y59.592 Z-1.764
X63.527 Y59.715 Z-1.768
X63.565 Y59.844 Z-1.773
X63.586 Y59.976 Z-1.778
X63.593 Y60.109 Z-1.782
X63.583 Y60.243 Z-1.787
X63.558 Y60.374 Z-1.792
X63.517 Y60.501 Z-1.796
X63.462 Y60.623 Z-1.801
X63.392 Y60.737 Z-1.806
X63.31 Y60.843 Z-1.81
X63.216 Y60.938 Z-1.815
X63.111 Y61.021 Z-1.82
X62.997 Y61.091 Z-1.824
X62.876 Y61.147 Z-1.829
X62.749 Y61.189 Z-1.834
X62.618 Y61.215 Z-1.838
X62.485 Y61.226 Z-1.843
X62.351 Y61.22 Z-1.848
X62.219 Y61.199 Z-1.852
X62.09 Y61.163 Z-1.857
X61.967 Y61.112 Z-1.862
X61.85 Y61.046 Z-1.866
X61.742 Y60.968 Z-1.871
X61.644 Y60.877 Z-1.876
X61.558 Y60.775 Z-1.88
X61.484 Y60.663 Z-1.885
X61.424 Y60.544 Z-1.89
X61.378 Y60.418 Z-1.894
X61.347 Y60.288 Z-1.899
X61.332 Y60.155 Z-1.904
X61.333 Y60.022 Z-1.908
X61.349 Y59.889 Z-1.913
X61.381 Y59.759 Z-1.918
X61.429 Y59.634 Z-1.922
X61.49 Y59.516 Z-1.927
X61.565 Y59.405 Z-1.932
X61.653 Y59.304 Z-1.936
X61.752 Y59.214 Z-1.941
X61.861 Y59.136 Z-1.946
X61.978 Y59.072 Z-1.95
X62.102 Y59.022 Z-1.955
X62.231 Y58.987 Z-1.96
X62.363 Y58.968 Z-1.964
X62.497 Y58.964 Z-1.969
X62.63 Y58.976 Z-1.974
X62.761 Y59.004 Z-1.978
X62.887 Y59.047 Z-1.983
X63.008 Y59.104 Z-1.988
X63.121 Y59.176 Z-1.992
X63.225 Y59.26 Z-1.997
X63.318 Y59.356 Z-2.002
X63.399 Y59.462 Z-2.006
X63.467 Y59.577 Z-2.011
X63.521 Y59.699 Z-2.016
X63.561 Y59.827 Z-2.02
X63.585 Y59.959 Z-2.025
X63.593 Y60.092 Z-2.03
X63.585 Y60.226 Z-2.034
X63.562 Y60.357 Z-2.039
X63.523 Y60.485 Z-2.044
X63.47 Y60.608 Z-2.049
X63.402 Y60.723 Z-2.053
X63.321 Y60.83 Z-2.058
X63.229 Y60.926 Z-2.063
X63.125 Y61.011 Z-2.067
X63.013 Y61.083 Z-2.072
X62.892 Y61.141 Z-2.077
X62.766 Y61.184 Z-2.081
X62.635 Y61.212 Z-2.086
X62.502 Y61.225 Z-2.091
X62.368 Y61.222 Z-2.095
X62.236 Y61.203 Z-2.1
X62.107 Y61.169 Z-2.105
X61.983 Y61.119 Z-2.109
X61.865 Y61.056 Z-2.114
X61.756 Y60.978 Z-2.119
X61.656 Y60.889 Z-2.123
X61.568 Y60.788 Z-2.128
X61.493 Y60.678 Z-2.133
X61.431 Y60.56 Z-2.137
X61.383 Y60.435 Z-2.142
X61.35 Y60.305 Z-2.147
X61.333 Y60.173 Z-2.151
X61.332 Y60.039 Z-2.156
G3 X61.501 Y58.834 R6.768 F1499.
X61.884 Y58.597 R0.318
X61.993 Y58.646 R0.318
G2 X62.443 Y58.95 R18.072
X62.906 Y59.235 R9.499
G3 X63.349 Y60. R0.883
G1 Y60.733
G3 X62.903 Y61.497 R0.878
G2 X62.443 Y61.782 R6.957
X61.994 Y62.086 R88.643
G3 X61.544 Y62.001 R0.324
X61.496 Y61.891 R0.324
X61.332 Y60.039 R6.768
G2 X60.775 Y59.071 R1.032
G3 X60.424 Y58.01 R0.798
G1 X60.94 Y56.96
X61.697 Y56.027
X61.843 Y56.444
X61.873 Y56.516
X61.911 Y56.582
X62.003 Y56.718
X62.028 Y56.752
X62.524 Y57.386
X62.579 Y57.447
X62.66 Y57.526
X62.704 Y57.564
X62.751 Y57.598
X63.525 Y58.098
X63.603 Y58.141
X64.642 Y58.61
Y62.12
X63.587 Y62.599
X63.508 Y62.642
X62.733 Y63.147
X62.674 Y63.191
X62.621 Y63.241
X62.526 Y63.344
X62.493 Y63.383
X61.964 Y64.064
X61.934 Y64.106
X61.908 Y64.15
X61.864 Y64.235
X61.826 Y64.322
X61.698 Y64.7
X60.935 Y63.761
X60.316 Y62.501
X60.248 Y62.231
X59.987 Y61.097
X59.982 Y59.671
X59.992 Y59.604
X60.313 Y58.238
X60.424 Y58.01
X60.446 Y57.979
X60.477 Y57.957
X60.513 Y57.945
X60.551
X60.587 Y57.958
X60.618 Y57.981
X61.156 Y58.549
X62.126 Y59.575
X62.191 Y59.54
X62.321 Y59.515 Z-2.161 F333.
X62.453 Y59.505 Z-2.165
X62.585 Y59.511 Z-2.17
X62.715 Y59.532 Z-2.174
X62.842 Y59.568 Z-2.179
X62.964 Y59.619 Z-2.184
X63.08 Y59.684 Z-2.188
X63.187 Y59.762 Z-2.193
X63.284 Y59.851 Z-2.198
X63.37 Y59.952 Z-2.202
X63.444 Y60.062 Z-2.207
X63.504 Y60.179 Z-2.211
X63.55 Y60.303 Z-2.216
X63.582 Y60.432 Z-2.221
X63.598 Y60.563 Z-2.225
X63.599 Y60.695 Z-2.23
X63.584 Y60.826 Z-2.234
X63.554 Y60.955 Z-2.239
X63.51 Y61.08 Z-2.244
X63.451 Y61.198 Z-2.248
X63.379 Y61.309 Z-2.253
X63.294 Y61.41 Z-2.258
X63.198 Y61.501 Z-2.262
X63.092 Y61.58 Z-2.267
X62.977 Y61.647 Z-2.271
X62.856 Y61.699 Z-2.276
X62.729 Y61.737 Z-2.281
X62.599 Y61.76 Z-2.285
X62.467 Y61.767 Z-2.29
X62.335 Y61.759 Z-2.295
X62.205 Y61.736 Z-2.299
X62.078 Y61.698 Z-2.304
X61.957 Y61.645 Z-2.308
X61.843 Y61.578 Z-2.313
X61.737 Y61.499 Z-2.318
X61.642 Y61.407 Z-2.322
X61.557 Y61.305 Z-2.327
X61.485 Y61.194 Z-2.332
X61.427 Y61.076 Z-2.336
X61.383 Y60.951 Z-2.341
X61.354 Y60.822 Z-2.345
X61.339 Y60.691 Z-2.35
G3 X61.506 Y58.846 R6.725 F1499.
X61.888 Y58.608 R0.319
X61.997 Y58.656 R0.319
G2 X62.443 Y58.957 R23.064
X62.901 Y59.239 R9.786
G3 X63.343 Y60.006 R0.886
G1 Y60.724
G3 X62.901 Y61.491 R0.886
G2 X62. Y62.07 R11.635
G3 X61.555 Y61.995 R0.319
X61.505 Y61.882 R0.319
X61.339 Y60.691 R6.725
G2 X60.702 Y59.763 R1.07
G3 X60.199 Y58.757 R0.882
G1 X60.317 Y58.248
X60.949 Y56.96
X61.696 Y56.041
X61.837 Y56.447
X61.867 Y56.519
X61.907 Y56.586
X62.005 Y56.73
X62.028 Y56.762
X62.517 Y57.387
X62.57 Y57.447
X62.654 Y57.528
X62.698 Y57.567
X62.746 Y57.602
X63.525 Y58.106
X63.603 Y58.148
X64.636 Y58.615
Y62.115
X63.603 Y62.582
X63.526 Y62.624
X62.773 Y63.108
X62.699 Y63.164
X62.606 Y63.247
X62.567 Y63.285
X62.532 Y63.325
X61.962 Y64.055
X61.933 Y64.096
X61.907 Y64.139
X61.861 Y64.226
X61.839 Y64.271
X61.821 Y64.317
X61.696 Y64.685
X60.94 Y63.755
X60.311 Y62.46
X59.992 Y61.081
X59.994 Y59.639
X60.199 Y58.757
X60.213 Y58.714 Z-2.341
X60.236 Y58.674 Z-2.332
X60.261 Y58.644 Z-2.306
X60.29 Y58.619 Z-2.28
X60.334 Y58.593 Z-2.203
X60.351 Y58.586 Z-2.112
G0 Z5.
X49.779 Y59.535
Z0.665
G1 X49.789 Y59.521 Z0.575 F333.
X49.821 Y59.483 Z0.499
X49.871 Y59.428 Z0.447
X49.936 Y59.367 Z0.427
X50.042 Y59.286 Z0.422
X50.157 Y59.217 Z0.417
X50.279 Y59.162 Z0.413
X50.407 Y59.122 Z0.408
X50.539 Y59.098 Z0.403
X50.672 Y59.089 Z0.399
X50.806 Y59.097 Z0.394
X50.938 Y59.12 Z0.389
X51.066 Y59.158 Z0.385
X51.189 Y59.211 Z0.38
X51.305 Y59.279 Z0.375
X51.412 Y59.359 Z0.371
X51.508 Y59.452 Z0.366
X51.593 Y59.556 Z0.361
X51.666 Y59.668 Z0.357
X51.724 Y59.789 Z0.352
X51.768 Y59.916 Z0.347
X51.796 Y60.047 Z0.342
X51.809 Y60.18 Z0.338
X51.806 Y60.314 Z0.333
X51.787 Y60.446 Z0.328
X51.752 Y60.576 Z0.324
X51.703 Y60.7 Z0.319
X51.639 Y60.818 Z0.314
X51.561 Y60.927 Z0.31
X51.472 Y61.027 Z0.305
X51.371 Y61.115 Z0.3
X51.26 Y61.19 Z0.296
X51.141 Y61.252 Z0.291
X51.016 Y61.3 Z0.286
X50.886 Y61.332 Z0.282
X50.753 Y61.349 Z0.277
X50.619 Y61.35 Z0.272
X50.486 Y61.335 Z0.268
X50.356 Y61.305 Z0.263
X50.23 Y61.259 Z0.258
X50.11 Y61.198 Z0.254
X49.999 Y61.124 Z0.249
X49.896 Y61.038 Z0.244
X49.805 Y60.94 Z0.24
X49.726 Y60.831 Z0.235
X49.661 Y60.714 Z0.23
X49.61 Y60.591 Z0.225
X49.573 Y60.462 Z0.221
X49.553 Y60.329 Z0.216
X49.548 Y60.196 Z0.211
X49.558 Y60.062 Z0.207
X49.585 Y59.931 Z0.202
X49.627 Y59.804 Z0.197
X49.684 Y59.682 Z0.193
X49.754 Y59.568 Z0.188
X49.838 Y59.464 Z0.183
X49.933 Y59.37 Z0.179
X50.039 Y59.287 Z0.174
X50.154 Y59.218 Z0.169
X50.276 Y59.163 Z0.165
X50.404 Y59.123 Z0.16
X50.535 Y59.098 Z0.155
X50.669 Y59.089 Z0.151
X50.803 Y59.096 Z0.146
X50.935 Y59.119 Z0.141
X51.063 Y59.157 Z0.137
X51.186 Y59.21 Z0.132
X51.302 Y59.277 Z0.127
X51.409 Y59.357 Z0.122
X51.506 Y59.45 Z0.118
X51.592 Y59.553 Z0.113
X51.664 Y59.666 Z0.108
X51.723 Y59.786 Z0.104
X51.767 Y59.912 Z0.099
X51.796 Y60.043 Z0.094
X51.809 Y60.177 Z0.09
X51.806 Y60.311 Z0.085
X51.787 Y60.443 Z0.08
X51.753 Y60.573 Z0.076
X51.704 Y60.697 Z0.071
X51.64 Y60.815 Z0.066
X51.563 Y60.925 Z0.062
X51.474 Y61.024 Z0.057
X51.373 Y61.113 Z0.052
X51.263 Y61.189 Z0.048
X51.144 Y61.251 Z0.043
X51.019 Y61.299 Z0.038
X50.889 Y61.332 Z0.034
X50.756 Y61.349 Z0.029
X50.623 Y61.35 Z0.024
X50.489 Y61.336 Z0.02
X50.359 Y61.305 Z0.015
X50.233 Y61.26 Z0.01
X50.113 Y61.2 Z0.005
X50.001 Y61.126 Z0.001
X49.899 Y61.04 Z-0.004
X49.807 Y60.942 Z-0.009
X49.728 Y60.834 Z-0.013
X49.662 Y60.717 Z-0.018
X49.611 Y60.594 Z-0.023
X49.574 Y60.465 Z-0.027
X49.553 Y60.333 Z-0.032
X49.548 Y60.199 Z-0.037
X49.558 Y60.065 Z-0.041
X49.584 Y59.934 Z-0.046
X49.626 Y59.807 Z-0.051
X49.682 Y59.685 Z-0.055
X49.752 Y59.571 Z-0.06
X49.836 Y59.466 Z-0.065
X49.931 Y59.372 Z-0.069
X50.036 Y59.289 Z-0.074
X50.151 Y59.22 Z-0.079
X50.273 Y59.165 Z-0.083
X50.4 Y59.124 Z-0.088
X50.532 Y59.099 Z-0.093
X50.666 Y59.089 Z-0.097
X50.799 Y59.096 Z-0.102
X50.932 Y59.118 Z-0.107
X51.06 Y59.156 Z-0.112
X51.183 Y59.208 Z-0.116
X51.299 Y59.275 Z-0.121
X51.407 Y59.355 Z-0.126
X51.504 Y59.447 Z-0.13
X51.59 Y59.55 Z-0.135
X51.662 Y59.663 Z-0.14
X51.721 Y59.783 Z-0.144
X51.766 Y59.909 Z-0.149
X51.795 Y60.04 Z-0.154
X51.809 Y60.173 Z-0.158
X51.806 Y60.307 Z-0.163
X51.788 Y60.44 Z-0.168
X51.754 Y60.57 Z-0.172
X51.705 Y60.694 Z-0.177
X51.642 Y60.812 Z-0.182
X51.565 Y60.922 Z-0.186
X51.476 Y61.022 Z-0.191
X51.376 Y61.111 Z-0.196
X51.266 Y61.187 Z-0.2
X51.147 Y61.25 Z-0.205
X51.022 Y61.298 Z-0.21
X50.893 Y61.331 Z-0.215
X50.76 Y61.349 Z-0.219
X50.626 Y61.35 Z-0.224
X50.493 Y61.336 Z-0.229
X50.362 Y61.306 Z-0.233
X50.236 Y61.261 Z-0.238
X50.116 Y61.202 Z-0.243
X50.004 Y61.128 Z-0.247
X49.901 Y61.042 Z-0.252
X49.81 Y60.945 Z-0.257
X49.73 Y60.837 Z-0.261
X49.664 Y60.72 Z-0.266
X49.612 Y60.597 Z-0.271
X49.575 Y60.468 Z-0.275
X49.553 Y60.336 Z-0.28
X49.547 Y60.202 Z-0.285
X49.558 Y60.069 Z-0.289
X49.583 Y59.937 Z-0.294
X49.625 Y59.81 Z-0.299
X49.681 Y59.688 Z-0.303
X49.75 Y59.574 Z-0.308
X49.833 Y59.469 Z-0.313
X49.928 Y59.374 Z-0.317
X50.034 Y59.291 Z-0.322
X50.148 Y59.221 Z-0.327
X50.27 Y59.166 Z-0.332
X50.397 Y59.125 Z-0.336
X50.529 Y59.099 Z-0.341
X50.662 Y59.089 Z-0.346
X50.796 Y59.095 Z-0.35
X50.928 Y59.117 Z-0.355
X51.057 Y59.155 Z-0.36
X51.18 Y59.207 Z-0.364
X51.297 Y59.273 Z-0.369
X51.404 Y59.353 Z-0.374
X51.502 Y59.445 Z-0.378
X51.588 Y59.548 Z-0.383
X51.661 Y59.66 Z-0.388
X51.72 Y59.78 Z-0.392
X51.765 Y59.906 Z-0.397
X51.795 Y60.037 Z-0.402
X51.808 Y60.17 Z-0.406
G3 X51.8 Y60.891 R6.487 F1499.
X51.749 Y61.259 R2.661
G1 X51.678 Y61.598
G3 X51.307 Y61.84 R0.313
X51.208 Y61.801 R0.313
X50.925 Y61.619 R8.127
G2 X50.631 Y61.457 R2.004
G1 X50.516 Y61.409
X50.401 Y61.362
G3 X49.906 Y60.596 R0.839
G1 Y60.132
G3 X50.401 Y59.369 R0.837
G1 X50.627 Y59.275
X50.739 Y59.226
X50.846 Y59.166
X51.027 Y59.047
X51.208 Y58.927
G3 X51.637 Y59.029 R0.312
X51.677 Y59.129 R0.312
X51.808 Y60.17 R6.487
G2 X52.415 Y61.08 R1.057
G3 X52.903 Y62.058 R0.881
G1 X52.862 Y62.249
X52.755 Y62.527
X52.32 Y63.503
X51.969 Y64.008
X51.786 Y64.261
X51.685 Y64.044
X51.637 Y63.961
X51.589 Y63.891
X51.54 Y63.829
X51.009 Y63.237
X50.967 Y63.195
X50.921 Y63.157
X50.822 Y63.083
X50.778 Y63.053
X50.164 Y62.678
X50.098 Y62.643
X48.613 Y61.975
Y58.752
X50.091 Y58.091
X50.16 Y58.054
X50.836 Y57.638
X50.884 Y57.605
X50.928 Y57.568
X51.013 Y57.489
X51.053 Y57.448
X51.551 Y56.888
X51.583 Y56.848
X51.612 Y56.805
X51.672 Y56.709
X51.706 Y56.645
X51.787 Y56.468
X52.117 Y56.928
X52.341 Y57.262
X52.816 Y58.348
X52.863 Y58.483
X53.101 Y59.62
X53.12 Y59.799
X53.116 Y60.981
X53.092 Y61.158
X52.903 Y62.058
X52.893 Y62.079
X52.875 Y62.092
X52.853 Y62.097
X52.831 Y62.091
X52.622 Y61.976
X50.153 Y61.05
X50.137 Y61.047
X50.121 Y61.051
X50.002 Y61.108
X49.98 Y61.112
X49.958 Y61.103
X49.859 Y61.013 Z-0.411 F333.
X49.771 Y60.913 Z-0.416
X49.696 Y60.802 Z-0.42
X49.634 Y60.684 Z-0.425
X49.587 Y60.559 Z-0.43
X49.555 Y60.429 Z-0.434
X49.538 Y60.296 Z-0.439
X49.537 Y60.163 Z-0.444
X49.552 Y60.03 Z-0.448
X49.582 Y59.9 Z-0.453
X49.627 Y59.774 Z-0.458
X49.687 Y59.654 Z-0.462
X49.761 Y59.543 Z-0.467
X49.848 Y59.441 Z-0.472
X49.945 Y59.35 Z-0.476
X50.053 Y59.271 Z-0.481
X50.17 Y59.205 Z-0.486
X50.293 Y59.153 Z-0.49
X50.422 Y59.117 Z-0.495
X50.554 Y59.096 Z-0.5
X50.687 Y59.09 Z-0.504
X50.82 Y59.101 Z-0.509
X50.952 Y59.127 Z-0.514
X51.079 Y59.168 Z-0.519
X51.2 Y59.224 Z-0.523
X51.314 Y59.294 Z-0.528
X51.419 Y59.377 Z-0.533
X51.513 Y59.471 Z-0.537
X51.596 Y59.577 Z-0.542
X51.665 Y59.691 Z-0.547
X51.721 Y59.812 Z-0.551
X51.762 Y59.94 Z-0.556
X51.787 Y60.071 Z-0.561
X51.797 Y60.204 Z-0.565
X51.791 Y60.338 Z-0.57
X51.77 Y60.47 Z-0.575
X51.733 Y60.598 Z-0.579
X51.681 Y60.721 Z-0.584
X51.615 Y60.838 Z-0.589
X51.535 Y60.945 Z-0.593
X51.444 Y61.043 Z-0.598
X51.342 Y61.129 Z-0.603
X51.23 Y61.202 Z-0.607
X51.11 Y61.262 Z-0.612
X50.984 Y61.307 Z-0.617
X50.854 Y61.337 Z-0.621
X50.721 Y61.351 Z-0.626
X50.587 Y61.349 Z-0.631
X50.455 Y61.332 Z-0.635
X50.325 Y61.3 Z-0.64
X50.2 Y61.252 Z-0.645
X50.082 Y61.19 Z-0.649
X49.972 Y61.114 Z-0.654
X49.871 Y61.026 Z-0.659
X49.782 Y60.926 Z-0.663
X49.705 Y60.817 Z-0.668
X49.641 Y60.699 Z-0.673
X49.592 Y60.575 Z-0.677
X49.558 Y60.446 Z-0.682
X49.539 Y60.313 Z-0.687
X49.536 Y60.18 Z-0.691
X49.549 Y60.047 Z-0.696
X49.577 Y59.916 Z-0.701
X49.621 Y59.79 Z-0.705
X49.679 Y59.669 Z-0.71
X49.751 Y59.557 Z-0.715
X49.836 Y59.453 Z-0.719
X49.932 Y59.361 Z-0.724
X50.039 Y59.28 Z-0.729
X50.154 Y59.213 Z-0.733
X50.277 Y59.159 Z-0.738
X50.405 Y59.121 Z-0.743
X50.536 Y59.098 Z-0.747
X50.67 Y59.09 Z-0.752
X50.803 Y59.098 Z-0.757
X50.935 Y59.122 Z-0.761
X51.063 Y59.162 Z-0.766
X51.185 Y59.216 Z-0.771
X51.3 Y59.284 Z-0.775
X51.406 Y59.365 Z-0.78
X51.502 Y59.459 Z-0.785
X51.586 Y59.563 Z-0.789
X51.657 Y59.676 Z-0.794
X51.715 Y59.796 Z-0.799
X51.757 Y59.923 Z-0.803
X51.785 Y60.054 Z-0.808
X51.797 Y60.187 Z-0.813
G3 X51.675 Y61.572 R5.913 F1499.
X51.296 Y61.819 R0.32
X51.195 Y61.778 R0.32
X50.909 Y61.596 R8.942
G2 X50.612 Y61.432 R2.047
G1 X50.514 Y61.391
X50.415 Y61.351
G3 X49.92 Y60.586 R0.838
G1 Y60.142
G3 X50.415 Y59.378 R0.836
G1 X50.632 Y59.288
X50.74 Y59.241
X50.843 Y59.184
X51.017 Y59.069
X51.192 Y58.954
G3 X51.635 Y59.06 R0.322
X51.676 Y59.163 R0.322
X51.797 Y60.187 R5.913
G2 X52.398 Y61.111 R1.06
G3 X52.885 Y62.1 R0.892
G1 X52.873 Y62.159
X52.738 Y62.536
X52.354 Y63.414
X51.965 Y63.997
X51.79 Y64.241
X51.676 Y64.003
X51.635 Y63.931
X51.586 Y63.866
X51.053 Y63.261
X51. Y63.208
X50.918 Y63.135
X50.878 Y63.103
X50.834 Y63.074
X50.148 Y62.653
X50.08 Y62.618
X48.627 Y61.966
Y58.761
X50.091 Y58.107
X50.159 Y58.071
X50.835 Y57.656
X50.882 Y57.624
X50.925 Y57.588
X51.02 Y57.501
X51.064 Y57.456
X51.569 Y56.888
X51.604 Y56.844
X51.635 Y56.797
X51.692 Y56.701
X51.722 Y56.644
X51.792 Y56.492
X52.102 Y56.924
X52.349 Y57.306
X52.675 Y58.042
X52.877 Y58.585
X53.062 Y59.476
X53.113 Y59.944
X53.109 Y60.839
X53.051 Y61.317
X52.885 Y62.1
X52.871 Y62.096
X49.955 Y61.107
X49.856 Y61.017 Z-0.817 F333.
X49.768 Y60.916 Z-0.822
X49.693 Y60.806 Z-0.827
X49.631 Y60.687 Z-0.831
X49.583 Y60.562 Z-0.836
X49.551 Y60.433 Z-0.841
X49.534 Y60.3 Z-0.845
X49.533 Y60.166 Z-0.85
X49.548 Y60.033 Z-0.855
X49.578 Y59.903 Z-0.86
X49.624 Y59.778 Z-0.864
X49.684 Y59.658 Z-0.869
X49.757 Y59.546 Z-0.874
X49.844 Y59.444 Z-0.878
X49.941 Y59.353 Z-0.883
X50.049 Y59.274 Z-0.888
X50.166 Y59.208 Z-0.892
X50.289 Y59.157 Z-0.897
X50.417 Y59.12 Z-0.902
X50.549 Y59.099 Z-0.906
X50.683 Y59.093 Z-0.911
X50.816 Y59.104 Z-0.916
X50.947 Y59.13 Z-0.92
X51.075 Y59.171 Z-0.925
X51.196 Y59.227 Z-0.93
X51.31 Y59.297 Z-0.934
X51.415 Y59.38 Z-0.939
X51.509 Y59.474 Z-0.944
X51.592 Y59.579 Z-0.948
X51.662 Y59.694 Z-0.953
X51.717 Y59.815 Z-0.958
X51.758 Y59.942 Z-0.962
X51.784 Y60.074 Z-0.967
X51.794 Y60.207 Z-0.972
X51.788 Y60.34 Z-0.976
X51.766 Y60.472 Z-0.981
X51.729 Y60.601 Z-0.986
X51.677 Y60.724 Z-0.99
X51.611 Y60.84 Z-0.995
X51.532 Y60.948 Z-1.
X51.441 Y61.045 Z-1.004
X51.338 Y61.131 Z-1.009
X51.227 Y61.205 Z-1.014
X51.107 Y61.265 Z-1.018
X50.981 Y61.31 Z-1.023
X50.851 Y61.34 Z-1.028
X50.718 Y61.354 Z-1.032
X50.584 Y61.353 Z-1.037
X50.452 Y61.336 Z-1.042
X50.322 Y61.303 Z-1.046
X50.197 Y61.255 Z-1.051
X50.079 Y61.193 Z-1.056
X49.969 Y61.117 Z-1.06
X49.868 Y61.029 Z-1.065
X49.779 Y60.93 Z-1.07
X49.702 Y60.821 Z-1.074
X49.638 Y60.703 Z-1.079
X49.589 Y60.579 Z-1.084
X49.554 Y60.45 Z-1.088
X49.535 Y60.317 Z-1.093
X49.532 Y60.184 Z-1.098
X49.545 Y60.05 Z-1.102
X49.573 Y59.92 Z-1.107
X49.617 Y59.793 Z-1.112
X49.675 Y59.673 Z-1.116
X49.747 Y59.56 Z-1.121
X49.832 Y59.457 Z-1.126
X49.928 Y59.364 Z-1.13
X50.035 Y59.284 Z-1.135
X50.15 Y59.216 Z-1.14
X50.273 Y59.163 Z-1.144
X50.401 Y59.124 Z-1.149
X50.532 Y59.101 Z-1.154
X50.666 Y59.093 Z-1.158
X50.799 Y59.102 Z-1.163
X50.931 Y59.125 Z-1.168
X51.059 Y59.165 Z-1.172
X51.181 Y59.219 Z-1.177
X51.296 Y59.287 Z-1.182
X51.402 Y59.368 Z-1.187
X51.498 Y59.461 Z-1.191
X51.582 Y59.565 Z-1.196
X51.653 Y59.678 Z-1.201
X51.711 Y59.799 Z-1.205
X51.754 Y59.926 Z-1.21
X51.781 Y60.057 Z-1.215
X51.793 Y60.19 Z-1.219
G3 X51.675 Y61.534 R5.704 F1499.
X51.278 Y61.79 R0.334
X51.175 Y61.749 R0.334
G2 X50.809 Y61.534 R16.13
X50.429 Y61.341 R4.301
G3 X49.934 Y60.579 R0.835
G1 Y60.151
G3 X50.429 Y59.388 R0.836
G1 X50.638 Y59.301
X50.741 Y59.255
X50.84 Y59.201
X51.008 Y59.091
X51.175 Y58.981
G3 X51.633 Y59.091 R0.333
X51.675 Y59.197 R0.333
X51.793 Y60.19 R5.704
G2 X52.381 Y61.252 R1.329
G3 X52.761 Y62.406 R0.988
G1 X52.671 Y62.657
X52.569 Y62.909
X52.378 Y63.34
X51.963 Y63.983
X51.795 Y64.217
X51.691 Y64.001
X51.652 Y63.931
X51.604 Y63.867
X51.305 Y63.522
X51.294 Y63.509
X51.006 Y63.196
X50.959 Y63.15
X50.907 Y63.109
X50.804 Y63.038
X50.773 Y63.017
X50.137 Y62.632
X50.071 Y62.597
X48.641 Y61.96
Y58.771
X50.091 Y58.123
X50.158 Y58.087
X50.834 Y57.674
X50.876 Y57.645
X50.916 Y57.614
X51.012 Y57.529
X51.065 Y57.476
X51.587 Y56.887
X51.624 Y56.84
X51.657 Y56.79
X51.712 Y56.693
X51.736 Y56.647
X51.797 Y56.516
X51.962 Y56.745
X52.393 Y57.422
X52.632 Y57.966
X52.888 Y58.678
X53.02 Y59.309
X53.106 Y60.089
X53.103 Y60.697
X53.018 Y61.438
X52.884 Y62.062
X52.761 Y62.406
X52.749 Y62.423
X52.731 Y62.433
X52.71 Y62.434
X52.692 Y62.424
X52.532 Y62.287
X49.775 Y60.334
X49.57 Y60.304
X49.55 Y60.297
X49.536 Y60.281
X49.531 Y60.261
X49.534 Y60.13 Z-1.224 F333.
X49.553 Y59.999 Z-1.228
X49.587 Y59.873 Z-1.233
X49.635 Y59.75 Z-1.238
X49.697 Y59.635 Z-1.242
X49.772 Y59.527 Z-1.247
X49.859 Y59.428 Z-1.251
X49.957 Y59.341 Z-1.256
X50.064 Y59.265 Z-1.261
X50.18 Y59.202 Z-1.265
X50.302 Y59.153 Z-1.27
X50.429 Y59.119 Z-1.274
X50.559 Y59.1 Z-1.279
X50.69 Y59.095 Z-1.283
X50.821 Y59.106 Z-1.288
X50.95 Y59.132 Z-1.293
X51.075 Y59.173 Z-1.297
X51.194 Y59.228 Z-1.302
X51.306 Y59.297 Z-1.306
X51.409 Y59.378 Z-1.311
X51.503 Y59.47 Z-1.316
X51.585 Y59.573 Z-1.32
X51.654 Y59.684 Z-1.325
X51.71 Y59.803 Z-1.329
X51.752 Y59.928 Z-1.334
X51.779 Y60.056 Z-1.339
X51.791 Y60.187 Z-1.343
X51.795 Y60.365 F1499.
G3 X51.677 Y61.52 R5.501
X51.275 Y61.782 R0.339
X51.169 Y61.74 R0.339
X50.895 Y61.567 R9.268
G2 X50.61 Y61.411 R2.016
G1 X50.521 Y61.375
X50.433 Y61.339
G3 X49.938 Y60.576 R0.836
G1 Y60.154
G3 X50.433 Y59.391 R0.836
G1 X50.639 Y59.305
X50.741 Y59.259
X50.839 Y59.205
X51.004 Y59.098
X51.168 Y58.99
G3 X51.633 Y59.102 R0.338
X51.676 Y59.21 R0.338
X51.791 Y60.187 R5.886
G2 X52.42 Y61.087 R1.009
G3 X52.868 Y62.089 R0.793
G1 X52.669 Y62.643
X52.565 Y62.911
X52.376 Y63.333
X51.963 Y63.972
X51.794 Y64.207
X51.696 Y64.
X51.657 Y63.93
X51.608 Y63.866
X51.311 Y63.522
X51.299 Y63.509
X51.007 Y63.191
X50.96 Y63.145
X50.909 Y63.105
X50.812 Y63.038
X50.781 Y63.018
X50.147 Y62.632
X50.08 Y62.597
X48.645 Y61.957
Y58.773
X50.091 Y58.127
X50.158 Y58.092
X50.834 Y57.679
X50.876 Y57.651
X50.915 Y57.619
X51.013 Y57.533
X51.068 Y57.479
X51.592 Y56.887
X51.63 Y56.839
X51.663 Y56.788
X51.718 Y56.691
X51.741 Y56.647
X51.798 Y56.525
X51.961 Y56.755
X52.393 Y57.428
X52.625 Y57.964
X52.896 Y58.724
X53.011 Y59.284
X53.104 Y60.091
X53.102 Y60.648
X53.002 Y61.503
X52.894 Y62.015
X52.868 Y62.089
X52.847 Y62.125
X52.815 Y62.152
X52.776 Y62.166
X52.735 Y62.167
X52.696 Y62.152
X52.199 Y61.865
X52.175 Y61.855
X50.158 Y61.209
X50.141 Y61.207
X50.125 Y61.212
X50.002 Y61.277
X49.978 Y61.281
X49.955 Y61.273
X49.854 Y61.186 Z-1.348 F333.
X49.763 Y61.087 Z-1.352
X49.685 Y60.979 Z-1.357
X49.62 Y60.862 Z-1.362
X49.57 Y60.738 Z-1.367
X49.534 Y60.609 Z-1.371
X49.514 Y60.477 Z-1.376
X49.51 Y60.343 Z-1.381
X49.521 Y60.21 Z-1.385
X49.548 Y60.079 Z-1.39
X49.59 Y59.952 Z-1.395
X49.647 Y59.831 Z-1.399
X49.718 Y59.718 Z-1.404
X49.802 Y59.614 Z-1.409
X49.897 Y59.52 Z-1.413
X50.003 Y59.438 Z-1.418
X50.118 Y59.37 Z-1.423
X50.24 Y59.315 Z-1.427
X50.367 Y59.275 Z-1.432
X50.499 Y59.251 Z-1.437
X50.632 Y59.242 Z-1.441
X50.766 Y59.249 Z-1.446
X50.897 Y59.271 Z-1.451
X51.026 Y59.309 Z-1.455
X51.148 Y59.362 Z-1.46
X51.264 Y59.429 Z-1.465
X51.371 Y59.509 Z-1.469
X51.468 Y59.602 Z-1.474
X51.553 Y59.705 Z-1.479
X51.626 Y59.817 Z-1.483
X51.684 Y59.937 Z-1.488
X51.728 Y60.063 Z-1.493
X51.757 Y60.194 Z-1.497
X51.771 Y60.327 Z-1.502
X51.768 Y60.46 Z-1.507
X51.75 Y60.593 Z-1.511
X51.716 Y60.722 Z-1.516
X51.667 Y60.847 Z-1.521
X51.604 Y60.965 Z-1.525
X51.528 Y61.074 Z-1.53
X51.439 Y61.174 Z-1.535
X51.339 Y61.263 Z-1.539
X51.229 Y61.339 Z-1.544
X51.111 Y61.401 Z-1.549
X50.986 Y61.45 Z-1.553
X50.857 Y61.483 Z-1.558
X50.724 Y61.501 Z-1.563
X50.59 Y61.503 Z-1.567
X50.457 Y61.489 Z-1.572
X50.327 Y61.46 Z-1.577
X50.201 Y61.415 Z-1.581
X50.081 Y61.356 Z-1.586
X49.969 Y61.283 Z-1.591
X49.866 Y61.197 Z-1.595
X49.774 Y61.1 Z-1.6
X49.695 Y60.993 Z-1.605
X49.628 Y60.877 Z-1.609
X49.576 Y60.754 Z-1.614
X49.538 Y60.626 Z-1.619
X49.516 Y60.494 Z-1.623
X49.509 Y60.36 Z-1.628
X49.519 Y60.227 Z-1.633
X49.544 Y60.096 Z-1.637
X49.584 Y59.968 Z-1.642
X49.639 Y59.847 Z-1.647
X49.708 Y59.732 Z-1.651
X49.79 Y59.627 Z-1.656
X49.884 Y59.531 Z-1.661
X49.989 Y59.448 Z-1.665
X50.103 Y59.378 Z-1.67
X50.224 Y59.321 Z-1.675
X50.351 Y59.279 Z-1.679
X50.482 Y59.253 Z-1.684
X50.615 Y59.242 Z-1.689
X50.749 Y59.247 Z-1.693
X50.881 Y59.267 Z-1.698
X51.009 Y59.304 Z-1.703
X51.133 Y59.355 Z-1.708
X51.25 Y59.42 Z-1.712
X51.358 Y59.498 Z-1.717
X51.456 Y59.589 Z-1.722
X51.543 Y59.691 Z-1.726
X51.617 Y59.802 Z-1.731
X51.677 Y59.921 Z-1.736
X51.723 Y60.047 Z-1.74
X51.754 Y60.177 Z-1.745
X51.77 Y60.31 Z-1.75
G3 X51.75 Y60.883 R3.188 F1499.
G2 X51.68 Y61.453 R95.216
G3 X51.291 Y61.76 R0.35
X51.15 Y61.711 R0.35
X50.902 Y61.553 R8.662
G2 X50.644 Y61.412 R1.822
G1 X50.546 Y61.371
X50.448 Y61.331
G3 X49.953 Y60.567 R0.838
G1 Y60.164
G3 X50.448 Y59.4 R0.836
G1 X50.645 Y59.318
X50.743 Y59.274
X50.837 Y59.223
X50.993 Y59.12
X51.149 Y59.018
G3 X51.633 Y59.136 R0.352
X51.677 Y59.247 R0.352
G1 X51.682 Y59.278
X51.686 Y59.299
G3 X51.743 Y59.826 R5.11
G1 X51.77 Y60.31
G2 X52.382 Y61.202 R1.042
G3 X52.805 Y62.197 R0.797
G1 X52.545 Y62.923
X52.407 Y63.246
X51.94 Y63.968
X51.797 Y64.178
X51.712 Y63.998
X51.678 Y63.936
X51.636 Y63.878
X51.529 Y63.747
X51.511 Y63.724
X51.063 Y63.224
X51.027 Y63.187
X50.988 Y63.154
X50.868 Y63.059
X50.81 Y63.019
X50.18 Y62.633
X50.113 Y62.598
X48.66 Y61.947
Y58.783
X50.091 Y58.144
X50.158 Y58.108
X50.833 Y57.696
X50.911 Y57.64
X51.019 Y57.548
X51.078 Y57.49
X51.606 Y56.892
X51.644 Y56.845
X51.676 Y56.794
X51.728 Y56.703
X51.751 Y56.658
X51.802 Y56.548
X52.408 Y57.485
X52.599 Y57.957
X52.909 Y58.822
X52.965 Y59.093
X53.096 Y60.235
Y60.503
X52.954 Y61.694
X52.906 Y61.917
X52.805 Y62.197
X52.787 Y62.23
X52.759 Y62.256
X52.725 Y62.272
X52.688 Y62.276
X52.651 Y62.269
X49.894 Y61.242
X49.858 Y61.221
X49.762 Y61.128 Z-1.754 F333.
X49.678 Y61.025 Z-1.759
X49.606 Y60.912 Z-1.764
X49.548 Y60.792 Z-1.768
X49.504 Y60.665 Z-1.773
X49.476 Y60.535 Z-1.778
X49.463 Y60.402 Z-1.782
X49.466 Y60.268 Z-1.787
X49.485 Y60.136 Z-1.792
X49.52 Y60.006 Z-1.796
X49.569 Y59.882 Z-1.801
X49.633 Y59.765 Z-1.806
X49.71 Y59.655 Z-1.81
X49.799 Y59.556 Z-1.815
X49.9 Y59.468 Z-1.82
X50.01 Y59.392 Z-1.824
X50.129 Y59.33 Z-1.829
X50.253 Y59.283 Z-1.834
X50.383 Y59.25 Z-1.838
X50.516 Y59.233 Z-1.843
X50.649 Y59.232 Z-1.848
X50.782 Y59.246 Z-1.852
X50.913 Y59.276 Z-1.857
X51.038 Y59.321 Z-1.862
X51.158 Y59.381 Z-1.866
X51.27 Y59.455 Z-1.871
X51.372 Y59.541 Z-1.876
X51.463 Y59.638 Z-1.88
X51.543 Y59.746 Z-1.885
X51.609 Y59.862 Z-1.89
X51.66 Y59.985 Z-1.894
X51.697 Y60.114 Z-1.899
X51.719 Y60.246 Z-1.904
X51.725 Y60.379 Z-1.908
X51.714 Y60.513 Z-1.913
X51.689 Y60.644 Z-1.918
X51.648 Y60.771 Z-1.922
X51.592 Y60.893 Z-1.927
X51.522 Y61.007 Z-1.932
X51.44 Y61.112 Z-1.936
X51.345 Y61.207 Z-1.941
X51.24 Y61.289 Z-1.946
X51.126 Y61.359 Z-1.95
X51.005 Y61.415 Z-1.955
X50.878 Y61.456 Z-1.96
X50.747 Y61.482 Z-1.964
X50.613 Y61.492 Z-1.969
X50.48 Y61.487 Z-1.974
X50.348 Y61.465 Z-1.978
X50.219 Y61.429 Z-1.983
X50.096 Y61.377 Z-1.988
X49.979 Y61.311 Z-1.992
X49.872 Y61.232 Z-1.997
X49.774 Y61.141 Z-2.002
X49.688 Y61.039 Z-2.006
X49.614 Y60.927 Z-2.011
X49.554 Y60.808 Z-2.016
X49.509 Y60.682 Z-2.02
X49.479 Y60.552 Z-2.025
X49.464 Y60.419 Z-2.03
X49.465 Y60.285 Z-2.034
X49.482 Y60.152 Z-2.039
X49.514 Y60.023 Z-2.044
X49.562 Y59.898 Z-2.049
X49.624 Y59.779 Z-2.053
X49.699 Y59.669 Z-2.058
X49.787 Y59.568 Z-2.063
X49.886 Y59.479 Z-2.067
X49.995 Y59.401 Z-2.072
X50.113 Y59.338 Z-2.077
X50.237 Y59.288 Z-2.081
X50.366 Y59.253 Z-2.086
X50.499 Y59.234 Z-2.091
X50.632 Y59.231 Z-2.095
X50.765 Y59.243 Z-2.1
X50.896 Y59.271 Z-2.105
X51.022 Y59.315 Z-2.109
X51.143 Y59.373 Z-2.114
X51.256 Y59.444 Z-2.119
X51.359 Y59.529 Z-2.123
X51.452 Y59.625 Z-2.128
X51.533 Y59.732 Z-2.133
X51.601 Y59.847 Z-2.137
X51.654 Y59.969 Z-2.142
X51.693 Y60.097 Z-2.147
X51.717 Y60.229 Z-2.151
X51.725 Y60.362 Z-2.156
G3 X51.663 Y61.427 R9.279 F1499.
X51.274 Y61.733 R0.35
X51.132 Y61.684 R0.35
X50.888 Y61.53 R9.425
G2 X50.634 Y61.391 R1.832
G1 X50.548 Y61.356
X50.462 Y61.321
G3 X49.967 Y60.557 R0.836
G1 Y60.171
G3 X50.462 Y59.406 R0.839
G1 X50.68 Y59.312
X50.788 Y59.263
X50.891 Y59.205
X51.013 Y59.125
X51.135 Y59.044
G3 X51.615 Y59.158 R0.349
X51.665 Y59.302 R0.349
X51.725 Y60.362 R9.279
G2 X52.308 Y61.318 R1.073
G3 X52.72 Y62.359 R0.848
G1 X52.432 Y63.164
X51.797 Y64.144
X51.727 Y63.996
X51.693 Y63.934
X51.653 Y63.877
X51.54 Y63.737
X51.52 Y63.714
X51.07 Y63.211
X51.001 Y63.145
X50.898 Y63.062
X50.834 Y63.017
X50.171 Y62.612
X50.104 Y62.577
X48.674 Y61.938
Y58.792
X50.14 Y58.133
X50.208 Y58.097
X50.865 Y57.692
X50.909 Y57.662
X50.95 Y57.629
X51.038 Y57.55
X51.087 Y57.5
X51.617 Y56.901
X51.654 Y56.855
X51.685 Y56.806
X51.733 Y56.724
X51.759 Y56.675
X51.8 Y56.587
X52.429 Y57.56
X52.917 Y58.91
X52.93 Y58.986
X53.086 Y60.35
X53.043 Y60.763
X52.921 Y61.799
X52.72 Y62.359
X52.699 Y62.396
X52.666 Y62.423
X52.625 Y62.437
X52.582 Y62.435
X52.543 Y62.418
X51.745 Y61.898
X50.902 Y61.395
X50.812 Y61.459
X50.681 Y61.478 Z-2.161 F333.
X50.549 Y61.481 Z-2.165
X50.417 Y61.469 Z-2.17
X50.287 Y61.442 Z-2.174
X50.162 Y61.4 Z-2.179
X50.043 Y61.343 Z-2.184
X49.93 Y61.273 Z-2.188
X49.827 Y61.191 Z-2.193
X49.734 Y61.096 Z-2.198
X49.653 Y60.992 Z-2.202
X49.585 Y60.879 Z-2.207
X49.53 Y60.759 Z-2.211
X49.49 Y60.633 Z-2.216
X49.464 Y60.503 Z-2.221
X49.454 Y60.371 Z-2.225
X49.459 Y60.239 Z-2.23
X49.48 Y60.108 Z-2.234
X49.516 Y59.981 Z-2.239
X49.566 Y59.859 Z-2.244
X49.631 Y59.743 Z-2.248
X49.708 Y59.636 Z-2.253
X49.798 Y59.539 Z-2.258
X49.898 Y59.452 Z-2.262
X50.007 Y59.378 Z-2.267
X50.125 Y59.318 Z-2.271
X50.248 Y59.271 Z-2.276
X50.377 Y59.239 Z-2.281
X50.508 Y59.222 Z-2.285
X50.64 Y59.221 Z-2.29
X50.772 Y59.235 Z-2.295
X50.901 Y59.265 Z-2.299
X51.025 Y59.309 Z-2.304
X51.144 Y59.367 Z-2.308
X51.255 Y59.439 Z-2.313
X51.356 Y59.524 Z-2.318
X51.448 Y59.619 Z-2.322
X51.527 Y59.725 Z-2.327
X51.594 Y59.839 Z-2.332
X51.647 Y59.961 Z-2.336
X51.685 Y60.087 Z-2.341
X51.708 Y60.217 Z-2.345
X51.716 Y60.349 Z-2.35
G3 X51.655 Y61.418 R9.161 F1499.
X51.27 Y61.725 R0.348
X51.129 Y61.677 R0.348
G2 X50.804 Y61.486 R16.023
X50.468 Y61.316 R3.77
G3 X49.973 Y60.553 R0.835
G1 Y60.175
G3 X50.469 Y59.41 R0.839
G1 X50.683 Y59.318
X50.789 Y59.27
X50.891 Y59.213
X51.009 Y59.135
X51.128 Y59.056
G3 X51.606 Y59.17 R0.348
X51.656 Y59.313 R0.348
X51.716 Y60.349 R9.161
G2 X52.303 Y61.304 R1.072
G3 X52.718 Y62.345 R0.847
G1 X52.424 Y63.164
X51.799 Y64.132
X51.734 Y63.995
X51.7 Y63.934
X51.66 Y63.877
X51.545 Y63.733
X51.524 Y63.709
X51.08 Y63.212
X51.012 Y63.148
X50.9 Y63.056
X50.831 Y63.008
X50.138 Y62.589
X50.073 Y62.555
X48.68 Y61.934
Y58.796
X50.14 Y58.14
X50.208 Y58.104
X50.866 Y57.699
X50.909 Y57.67
X50.949 Y57.637
X51.041 Y57.556
X51.092 Y57.505
X51.622 Y56.905
X51.658 Y56.86
X51.689 Y56.812
X51.736 Y56.734
X51.763 Y56.68
X51.8 Y56.601
X52.422 Y57.564
X52.915 Y58.941
X53.077 Y60.347
X52.913 Y61.801
X52.718 Y62.345
X52.698 Y62.386 Z-2.341
X52.671 Y62.423 Z-2.332
X52.643 Y62.45 Z-2.306
X52.612 Y62.471 Z-2.28
X52.564 Y62.492 Z-2.203
X52.547 Y62.497 Z-2.112
G0 Z5.
X43.729 Y61.083
Z0.665
G1 X43.718 Y61.097 Z0.575 F333.
X43.685 Y61.133 Z0.499
X43.632 Y61.186 Z0.447
X43.565 Y61.244 Z0.427
X43.456 Y61.322 Z0.422
X43.339 Y61.386 Z0.417
X43.214 Y61.436 Z0.413
X43.085 Y61.47 Z0.408
X42.952 Y61.489 Z0.403
X42.818 Y61.493 Z0.399
X42.685 Y61.48 Z0.394
X42.554 Y61.452 Z0.389
X42.427 Y61.409 Z0.385
X42.307 Y61.35 Z0.38
X42.194 Y61.278 Z0.375
X42.09 Y61.194 Z0.371
X41.997 Y61.097 Z0.366
X41.916 Y60.99 Z0.361
X41.849 Y60.875 Z0.357
X41.795 Y60.752 Z0.352
X41.757 Y60.623 Z0.347
X41.734 Y60.492 Z0.342
X41.726 Y60.358 Z0.338
X41.735 Y60.224 Z0.333
X41.759 Y60.092 Z0.328
X41.799 Y59.964 Z0.324
X41.853 Y59.842 Z0.319
X41.922 Y59.727 Z0.314
X42.003 Y59.621 Z0.31
X42.097 Y59.525 Z0.305
X42.201 Y59.441 Z0.3
X42.315 Y59.37 Z0.296
X42.436 Y59.313 Z0.291
X42.563 Y59.27 Z0.286
X42.694 Y59.243 Z0.282
X42.828 Y59.232 Z0.277
X42.961 Y59.236 Z0.272
X43.094 Y59.256 Z0.268
X43.223 Y59.292 Z0.263
X43.347 Y59.343 Z0.258
X43.464 Y59.408 Z0.254
X43.573 Y59.486 Z0.249
X43.671 Y59.577 Z0.244
X43.758 Y59.679 Z0.24
X43.833 Y59.79 Z0.235
X43.894 Y59.909 Z0.23
X43.94 Y60.035 Z0.225
X43.971 Y60.165 Z0.221
X43.987 Y60.298 Z0.216
X43.986 Y60.432 Z0.211
X43.97 Y60.565 Z0.207
X43.938 Y60.695 Z0.202
X43.891 Y60.821 Z0.197
X43.83 Y60.94 Z0.193
X43.755 Y61.051 Z0.188
X43.667 Y61.152 Z0.183
X43.568 Y61.242 Z0.179
X43.459 Y61.32 Z0.174
X43.342 Y61.385 Z0.169
X43.217 Y61.435 Z0.165
X43.088 Y61.47 Z0.16
X42.956 Y61.489 Z0.155
X42.822 Y61.493 Z0.151
X42.688 Y61.481 Z0.146
X42.557 Y61.453 Z0.141
X42.43 Y61.41 Z0.137
X42.31 Y61.352 Z0.132
X42.196 Y61.28 Z0.127
X42.093 Y61.196 Z0.122
X41.999 Y61.099 Z0.118
X41.918 Y60.993 Z0.113
X41.85 Y60.877 Z0.108
X41.796 Y60.755 Z0.104
X41.757 Y60.627 Z0.099
X41.734 Y60.495 Z0.094
X41.726 Y60.361 Z0.09
X41.734 Y60.227 Z0.085
X41.758 Y60.096 Z0.08
X41.797 Y59.967 Z0.076
X41.851 Y59.845 Z0.071
X41.92 Y59.73 Z0.066
X42.001 Y59.623 Z0.062
X42.094 Y59.527 Z0.057
X42.199 Y59.443 Z0.052
X42.312 Y59.371 Z0.048
X42.433 Y59.314 Z0.043
X42.56 Y59.271 Z0.038
X42.691 Y59.244 Z0.034
X42.824 Y59.232 Z0.029
X42.958 Y59.236 Z0.024
X43.091 Y59.256 Z0.02
X43.22 Y59.291 Z0.015
X43.344 Y59.341 Z0.01
X43.461 Y59.406 Z0.005
X43.57 Y59.484 Z0.001
X43.669 Y59.575 Z-0.004
X43.756 Y59.676 Z-0.009
X43.831 Y59.787 Z-0.013
X43.892 Y59.906 Z-0.018
X43.939 Y60.032 Z-0.023
X43.971 Y60.162 Z-0.027
X43.986 Y60.295 Z-0.032
Y60.429 Z-0.037
X43.971 Y60.562 Z-0.041
X43.939 Y60.692 Z-0.046
X43.893 Y60.818 Z-0.051
X43.832 Y60.937 Z-0.055
X43.757 Y61.048 Z-0.06
X43.669 Y61.15 Z-0.065
X43.571 Y61.24 Z-0.069
X43.462 Y61.318 Z-0.074
X43.345 Y61.383 Z-0.079
X43.22 Y61.434 Z-0.083
X43.091 Y61.469 Z-0.088
X42.959 Y61.489 Z-0.093
X42.825 Y61.493 Z-0.097
X42.691 Y61.481 Z-0.102
X42.56 Y61.454 Z-0.107
X42.433 Y61.411 Z-0.112
X42.312 Y61.354 Z-0.116
X42.199 Y61.282 Z-0.121
X42.095 Y61.198 Z-0.126
X42.001 Y61.102 Z-0.13
X41.92 Y60.996 Z-0.135
X41.852 Y60.88 Z-0.14
X41.798 Y60.758 Z-0.144
X41.758 Y60.63 Z-0.149
X41.734 Y60.498 Z-0.154
X41.726 Y60.364 Z-0.158
X41.734 Y60.231 Z-0.163
X41.757 Y60.099 Z-0.168
X41.796 Y59.97 Z-0.172
X41.85 Y59.848 Z-0.177
X41.918 Y59.732 Z-0.182
X41.999 Y59.626 Z-0.186
X42.092 Y59.529 Z-0.191
X42.196 Y59.445 Z-0.196
X42.309 Y59.373 Z-0.2
X42.43 Y59.315 Z-0.205
X42.557 Y59.272 Z-0.21
X42.688 Y59.244 Z-0.215
X42.821 Y59.232 Z-0.219
X42.955 Y59.235 Z-0.224
X43.087 Y59.255 Z-0.229
X43.217 Y59.29 Z-0.233
X43.341 Y59.34 Z-0.238
X43.459 Y59.404 Z-0.243
X43.568 Y59.482 Z-0.247
X43.667 Y59.572 Z-0.252
X43.754 Y59.673 Z-0.257
X43.83 Y59.784 Z-0.261
X43.891 Y59.903 Z-0.266
X43.938 Y60.029 Z-0.271
X43.97 Y60.159 Z-0.275
X43.986 Y60.292 Z-0.28
X43.987 Y60.426 Z-0.285
X43.971 Y60.559 Z-0.289
X43.94 Y60.689 Z-0.294
X43.894 Y60.815 Z-0.299
X43.833 Y60.934 Z-0.303
X43.759 Y61.046 Z-0.308
X43.672 Y61.147 Z-0.313
X43.573 Y61.238 Z-0.317
X43.465 Y61.317 Z-0.322
X43.347 Y61.382 Z-0.327
X43.224 Y61.433 Z-0.332
X43.094 Y61.468 Z-0.336
X42.962 Y61.489 Z-0.341
X42.828 Y61.493 Z-0.346
X42.695 Y61.482 Z-0.35
X42.564 Y61.455 Z-0.355
X42.436 Y61.412 Z-0.36
X42.315 Y61.355 Z-0.364
X42.202 Y61.284 Z-0.369
X42.097 Y61.2 Z-0.374
X42.004 Y61.104 Z-0.378
X41.922 Y60.998 Z-0.383
X41.853 Y60.883 Z-0.388
X41.799 Y60.761 Z-0.392
X41.759 Y60.633 Z-0.397
X41.735 Y60.501 Z-0.402
X41.726 Y60.368 Z-0.406
G3 X41.989 Y58.687 R5.347 F1499.
X42.369 Y58.494 R0.301
X42.462 Y58.544 R0.301
G2 X42.951 Y58.89 R5.784
X43.465 Y59.198 R11.632
G3 X43.91 Y59.96 R0.875
G1 Y60.773
G3 X43.461 Y61.534 R0.87
G2 X42.944 Y61.843 R9.042
X42.451 Y62.191 R7.035
G3 X42.039 Y62.138 R0.294
X41.991 Y62.048 R0.294
X41.726 Y60.368 R5.622
G2 X41.145 Y59.425 R1.064
G3 X40.722 Y58.402 R0.852
G1 X40.909 Y57.829
X41.006 Y57.638
X41.55 Y56.687
X41.707 Y56.494
X42.223 Y55.915
X42.387 Y56.396
X42.408 Y56.448
X42.433 Y56.498
X42.479 Y56.579
X42.529 Y56.653
X43.104 Y57.382
X43.15 Y57.434
X43.202 Y57.481
X43.299 Y57.557
X43.347 Y57.591
X44.072 Y58.054
X44.147 Y58.095
X45.203 Y58.571
Y62.159
X44.13 Y62.644
X44.052 Y62.687
X43.282 Y63.186
X43.221 Y63.231
X43.166 Y63.284
X43.049 Y63.412
X43.018 Y63.448
X42.529 Y64.076
X42.48 Y64.151
X42.426 Y64.247
X42.402 Y64.295
X42.382 Y64.345
X42.221 Y64.814
X41.707 Y64.236
X41.548 Y64.041
X41.007 Y63.095
X40.896 Y62.869
X40.534 Y61.733
X40.505 Y61.601
X40.385 Y60.419
X40.389 Y60.24
X40.51 Y59.104
X40.569 Y58.874
X40.662 Y58.587
X40.722 Y58.402
X40.742 Y58.365
X40.774 Y58.337
X40.813 Y58.322
X40.855 Y58.321
X40.895 Y58.335
X41.713 Y58.804
X43.372 Y59.618
X43.391 Y59.622
X43.41 Y59.619
X43.531 Y59.566
X43.555 Y59.563
X43.577 Y59.573
X43.676 Y59.663 Z-0.411 F333.
X43.763 Y59.764 Z-0.416
X43.837 Y59.875 Z-0.42
X43.898 Y59.994 Z-0.425
X43.945 Y60.12 Z-0.43
X43.976 Y60.249 Z-0.434
X43.992 Y60.382 Z-0.439
X43.993 Y60.516 Z-0.444
X43.977 Y60.649 Z-0.448
X43.946 Y60.779 Z-0.453
X43.899 Y60.904 Z-0.458
X43.839 Y61.023 Z-0.462
X43.764 Y61.134 Z-0.467
X43.677 Y61.236 Z-0.472
X43.579 Y61.326 Z-0.476
X43.47 Y61.405 Z-0.481
X43.354 Y61.47 Z-0.486
X43.23 Y61.52 Z-0.49
X43.101 Y61.556 Z-0.495
X42.969 Y61.576 Z-0.5
X42.835 Y61.581 Z-0.504
X42.702 Y61.57 Z-0.509
X42.571 Y61.543 Z-0.514
X42.444 Y61.501 Z-0.519
X42.323 Y61.444 Z-0.523
X42.21 Y61.373 Z-0.528
X42.105 Y61.29 Z-0.533
X42.012 Y61.194 Z-0.537
X41.93 Y61.089 Z-0.542
X41.861 Y60.974 Z-0.547
X41.806 Y60.852 Z-0.551
X41.766 Y60.725 Z-0.556
X41.741 Y60.593 Z-0.561
X41.732 Y60.46 Z-0.565
X41.739 Y60.326 Z-0.57
X41.761 Y60.195 Z-0.575
X41.799 Y60.066 Z-0.579
X41.852 Y59.943 Z-0.584
X41.919 Y59.828 Z-0.589
X41.999 Y59.721 Z-0.593
X42.091 Y59.624 Z-0.598
X42.194 Y59.538 Z-0.603
X42.306 Y59.466 Z-0.607
X42.426 Y59.407 Z-0.612
X42.552 Y59.363 Z-0.617
X42.683 Y59.334 Z-0.621
X42.816 Y59.32 Z-0.626
X42.95 Y59.322 Z-0.631
X43.082 Y59.34 Z-0.635
X43.211 Y59.374 Z-0.64
X43.336 Y59.423 Z-0.645
X43.454 Y59.486 Z-0.649
X43.564 Y59.562 Z-0.654
X43.664 Y59.651 Z-0.659
X43.752 Y59.751 Z-0.663
X43.829 Y59.861 Z-0.668
X43.891 Y59.979 Z-0.673
X43.94 Y60.103 Z-0.677
X43.973 Y60.233 Z-0.682
X43.991 Y60.365 Z-0.687
X43.993 Y60.499 Z-0.691
X43.98 Y60.632 Z-0.696
X43.951 Y60.762 Z-0.701
X43.906 Y60.888 Z-0.705
X43.847 Y61.008 Z-0.71
X43.774 Y61.12 Z-0.715
X43.689 Y61.223 Z-0.719
X43.592 Y61.315 Z-0.724
X43.485 Y61.395 Z-0.729
X43.369 Y61.462 Z-0.733
X43.246 Y61.515 Z-0.738
X43.118 Y61.552 Z-0.743
X42.986 Y61.575 Z-0.747
X42.853 Y61.581 Z-0.752
X42.719 Y61.572 Z-0.757
X42.588 Y61.547 Z-0.761
X42.46 Y61.507 Z-0.766
X42.338 Y61.452 Z-0.771
X42.224 Y61.383 Z-0.775
X42.118 Y61.301 Z-0.78
X42.023 Y61.207 Z-0.785
X41.94 Y61.103 Z-0.789
X41.869 Y60.989 Z-0.794
X41.812 Y60.868 Z-0.799
X41.77 Y60.741 Z-0.803
X41.744 Y60.61 Z-0.808
X41.733 Y60.477 Z-0.813
X41.731 Y60.367 F1499.
G3 X41.991 Y58.706 R5.307
X42.371 Y58.512 R0.302
X42.469 Y58.565 R0.302
G2 X42.948 Y58.906 R4.495
X43.453 Y59.207 R17.969
G3 X43.896 Y59.971 R0.881
G1 Y60.759
G3 X43.453 Y61.523 R0.88
G2 X42.942 Y61.831 R13.357
X42.453 Y62.172 R6.59
G3 X42.039 Y62.117 R0.295
X41.992 Y62.027 R0.295
X41.733 Y60.477 R5.542
G2 X41.126 Y59.558 R1.037
G3 X40.682 Y58.55 R0.827
G1 X40.885 Y57.925
X41.026 Y57.636
X41.501 Y56.79
X41.529 Y56.741
X41.975 Y56.208
X42.216 Y55.94
X42.371 Y56.396
X42.391 Y56.446
X42.415 Y56.494
X42.464 Y56.581
X42.515 Y56.657
X43.073 Y57.371
X43.117 Y57.42
X43.166 Y57.465
X43.292 Y57.568
X43.348 Y57.608
X44.072 Y58.07
X44.148 Y58.111
X45.189 Y58.581
Y62.149
X44.145 Y62.62
X44.068 Y62.662
X43.28 Y63.169
X43.23 Y63.205
X43.185 Y63.246
X43.103 Y63.326
X43.051 Y63.385
X42.512 Y64.076
X42.477 Y64.127
X42.447 Y64.181
X42.376 Y64.325
X42.348 Y64.395
X42.215 Y64.787
X41.712 Y64.214
X41.514 Y63.963
X41.105 Y63.248
X40.873 Y62.774
X40.597 Y61.908
X40.497 Y61.456
X40.407 Y60.561
X40.411 Y60.091
X40.5 Y59.242
X40.61 Y58.772
X40.662 Y58.612
X40.682 Y58.55
X40.696 Y58.526
X40.719 Y58.512
X40.746 Y58.509
X40.771 Y58.518
X41.014 Y58.678
X43.374 Y59.736
X43.391 Y59.739
X43.408 Y59.735
X43.516 Y59.684
X43.537 Y59.681
X43.557 Y59.689
X43.659 Y59.776 Z-0.817 F333.
X43.75 Y59.874 Z-0.822
X43.828 Y59.982 Z-0.827
X43.893 Y60.099 Z-0.831
X43.944 Y60.222 Z-0.836
X43.98 Y60.351 Z-0.841
X44.001 Y60.483 Z-0.845
X44.005 Y60.617 Z-0.85
X43.994 Y60.75 Z-0.855
X43.968 Y60.881 Z-0.86
X43.926 Y61.008 Z-0.864
X43.869 Y61.129 Z-0.869
X43.799 Y61.243 Z-0.874
X43.715 Y61.347 Z-0.878
X43.62 Y61.441 Z-0.883
X43.515 Y61.523 Z-0.888
X43.4 Y61.592 Z-0.892
X43.278 Y61.647 Z-0.897
X43.151 Y61.688 Z-0.902
X43.019 Y61.712 Z-0.906
X42.886 Y61.722 Z-0.911
X42.753 Y61.715 Z-0.916
X42.621 Y61.693 Z-0.92
X42.492 Y61.655 Z-0.925
X42.369 Y61.603 Z-0.93
X42.254 Y61.536 Z-0.934
X42.146 Y61.456 Z-0.939
X42.049 Y61.364 Z-0.944
X41.964 Y61.261 Z-0.948
X41.891 Y61.149 Z-0.953
X41.832 Y61.029 Z-0.958
X41.788 Y60.903 Z-0.962
X41.758 Y60.773 Z-0.967
X41.745 Y60.64 Z-0.972
X41.747 Y60.506 Z-0.976
X41.765 Y60.374 Z-0.981
X41.798 Y60.244 Z-0.986
X41.846 Y60.12 Z-0.99
X41.909 Y60.002 Z-0.995
X41.985 Y59.892 Z-1.
X42.074 Y59.792 Z-1.004
X42.174 Y59.703 Z-1.009
X42.283 Y59.626 Z-1.014
X42.401 Y59.563 Z-1.018
X42.526 Y59.515 Z-1.023
X42.655 Y59.481 Z-1.028
X42.788 Y59.463 Z-1.032
X42.921 Y59.461 Z-1.037
X43.054 Y59.474 Z-1.042
X43.185 Y59.503 Z-1.046
X43.311 Y59.547 Z-1.051
X43.431 Y59.606 Z-1.056
X43.543 Y59.679 Z-1.06
X43.646 Y59.764 Z-1.065
X43.739 Y59.861 Z-1.07
X43.819 Y59.968 Z-1.074
X43.886 Y60.083 Z-1.079
X43.938 Y60.206 Z-1.084
X43.976 Y60.334 Z-1.088
X43.999 Y60.466 Z-1.093
X44.006 Y60.6 Z-1.098
X43.997 Y60.733 Z-1.102
X43.972 Y60.865 Z-1.107
X43.932 Y60.992 Z-1.112
X43.877 Y61.114 Z-1.116
X43.809 Y61.229 Z-1.121
X43.727 Y61.334 Z-1.126
X43.633 Y61.43 Z-1.13
X43.529 Y61.513 Z-1.135
X43.415 Y61.584 Z-1.14
X43.294 Y61.641 Z-1.144
X43.167 Y61.683 Z-1.149
X43.036 Y61.71 Z-1.154
X42.903 Y61.721 Z-1.158
X42.77 Y61.717 Z-1.163
X42.637 Y61.697 Z-1.168
X42.509 Y61.661 Z-1.172
X42.385 Y61.61 Z-1.177
X42.268 Y61.545 Z-1.182
X42.16 Y61.467 Z-1.187
X42.061 Y61.377 Z-1.191
X41.974 Y61.275 Z-1.196
X41.9 Y61.164 Z-1.201
X41.839 Y61.045 Z-1.205
X41.792 Y60.92 Z-1.21
X41.761 Y60.79 Z-1.215
X41.745 Y60.657 Z-1.219
G3 X41.736 Y60.363 R5.541 F1499.
X41.99 Y58.734 R5.162
X42.375 Y58.538 R0.305
X42.467 Y58.587 R0.305
G2 X42.944 Y58.917 R5.687
X43.441 Y59.216 R21.546
G3 X43.882 Y59.982 R0.887
G1 Y60.756
G3 X43.432 Y61.519 R0.871
G2 X42.464 Y62.145 R8.183
G3 X42.038 Y62.084 R0.305
X41.991 Y61.993 R0.305
X41.745 Y60.657 R5.541
G2 X41.12 Y59.759 R1.048
G3 X40.631 Y58.78 R0.856
G1 X40.669 Y58.614
X40.863 Y58.02
X41.243 Y57.258
X41.519 Y56.784
X41.992 Y56.204
X42.208 Y55.962
X42.356 Y56.395
X42.375 Y56.443
X42.398 Y56.49
X42.448 Y56.583
X42.501 Y56.663
X43.063 Y57.38
X43.098 Y57.422
X43.138 Y57.46
X43.226 Y57.537
X43.299 Y57.593
X44.072 Y58.086
X44.148 Y58.127
X45.175 Y58.59
Y62.141
X44.098 Y62.63
X44.02 Y62.672
X43.275 Y63.155
X43.229 Y63.188
X43.186 Y63.226
X43.101 Y63.307
X43.044 Y63.371
X42.495 Y64.076
X42.458 Y64.13
X42.427 Y64.187
X42.359 Y64.332
X42.333 Y64.395
X42.207 Y64.767
X42.092 Y64.638
X41.503 Y63.925
X41.128 Y63.252
X40.851 Y62.68
X40.652 Y62.047
X40.494 Y61.359
X40.43 Y60.705
X40.434 Y59.947
X40.5 Y59.339
X40.631 Y58.78
X40.644 Y58.754
X40.668 Y58.737
X40.697 Y58.734
X40.725 Y58.744
X40.968 Y58.912
X43.785 Y60.512
X43.973 Y60.527
X43.991 Y60.533
X44.005 Y60.547
X44.011 Y60.565
Y60.696 Z-1.224 F333.
X43.996 Y60.827 Z-1.228
X43.966 Y60.955 Z-1.233
X43.921 Y61.078 Z-1.238
X43.862 Y61.196 Z-1.242
X43.79 Y61.306 Z-1.247
X43.706 Y61.407 Z-1.251
X43.61 Y61.497 Z-1.256
X43.505 Y61.576 Z-1.261
X43.392 Y61.642 Z-1.265
X43.271 Y61.694 Z-1.27
X43.145 Y61.732 Z-1.274
X43.016 Y61.755 Z-1.279
X42.885 Y61.763 Z-1.283
X42.754 Y61.756 Z-1.288
X42.624 Y61.733 Z-1.293
X42.498 Y61.696 Z-1.297
X42.377 Y61.645 Z-1.302
X42.263 Y61.579 Z-1.306
X42.158 Y61.501 Z-1.311
X42.062 Y61.411 Z-1.316
X41.977 Y61.311 Z-1.32
X41.904 Y61.202 Z-1.325
X41.845 Y61.084 Z-1.329
X41.799 Y60.961 Z-1.334
X41.769 Y60.833 Z-1.339
X41.753 Y60.703 Z-1.343
G3 X41.99 Y58.747 R5.402 F1499.
X42.376 Y58.545 R0.308
X42.471 Y58.595 R0.308
G2 X42.945 Y58.922 R5.753
X43.438 Y59.218 R23.826
G3 X43.878 Y59.985 R0.889
G1 Y60.753
G3 X43.429 Y61.516 R0.872
G2 X42.936 Y61.808 R9.448
X42.468 Y62.138 R6.167
G3 X42.042 Y62.084 R0.304
X41.992 Y61.989 R0.304
X41.753 Y60.703 R5.402
G2 X41.121 Y59.807 R1.046
G3 X40.625 Y58.83 R0.854
G1 X40.67 Y58.634
X40.849 Y58.064
X41.248 Y57.254
X41.49 Y56.831
X42.092 Y56.096
X42.207 Y55.969
X42.351 Y56.395
X42.37 Y56.443
X42.393 Y56.489
X42.444 Y56.583
X42.498 Y56.664
X43.06 Y57.383
X43.096 Y57.425
X43.136 Y57.463
X43.227 Y57.543
X43.299 Y57.598
X44.072 Y58.091
X44.148 Y58.132
X45.171 Y58.592
Y62.139
X44.098 Y62.625
X44.022 Y62.667
X43.303 Y63.13
X43.225 Y63.189
X43.113 Y63.291
X43.076 Y63.327
X43.042 Y63.367
X42.49 Y64.076
X42.453 Y64.131
X42.421 Y64.189
X42.354 Y64.334
X42.329 Y64.395
X42.205 Y64.76
X42.093 Y64.635
X41.483 Y63.887
X41.333 Y63.624
X41.136 Y63.255
X40.854 Y62.678
X40.67 Y62.096
X40.491 Y61.311
X40.436 Y60.753
X40.441 Y59.898
X40.496 Y59.386
X40.625 Y58.83
X40.637 Y58.804
X40.66 Y58.787
X40.687 Y58.782
X40.715 Y58.789
X40.982 Y58.932
X43.407 Y59.775
X43.423 Y59.777
X43.438 Y59.772
X43.548 Y59.714
X43.57 Y59.71
X43.59 Y59.718
X43.693 Y59.803 Z-1.348 F333.
X43.786 Y59.899 Z-1.352
X43.866 Y60.006 Z-1.357
X43.933 Y60.122 Z-1.362
X43.986 Y60.245 Z-1.367
X44.024 Y60.373 Z-1.371
X44.047 Y60.504 Z-1.376
X44.054 Y60.638 Z-1.381
X44.045 Y60.771 Z-1.385
X44.021 Y60.903 Z-1.39
X43.981 Y61.03 Z-1.395
X43.927 Y61.152 Z-1.399
X43.858 Y61.267 Z-1.404
X43.776 Y61.373 Z-1.409
X43.683 Y61.469 Z-1.413
X43.579 Y61.552 Z-1.418
X43.465 Y61.623 Z-1.423
X43.345 Y61.68 Z-1.427
X43.218 Y61.723 Z-1.432
X43.087 Y61.75 Z-1.437
X42.954 Y61.762 Z-1.441
X42.82 Y61.757 Z-1.446
X42.688 Y61.737 Z-1.451
X42.559 Y61.702 Z-1.455
X42.435 Y61.651 Z-1.46
X42.318 Y61.587 Z-1.465
X42.21 Y61.509 Z-1.469
X42.111 Y61.418 Z-1.474
X42.024 Y61.317 Z-1.479
X41.949 Y61.206 Z-1.483
X41.888 Y61.087 Z-1.488
X41.841 Y60.962 Z-1.493
X41.81 Y60.832 Z-1.497
X41.794 Y60.699 Z-1.502
Y60.566 Z-1.507
X41.809 Y60.433 Z-1.511
X41.84 Y60.303 Z-1.516
X41.887 Y60.177 Z-1.521
X41.948 Y60.058 Z-1.525
X42.022 Y59.947 Z-1.53
X42.109 Y59.846 Z-1.535
X42.207 Y59.755 Z-1.539
X42.316 Y59.677 Z-1.544
X42.432 Y59.612 Z-1.549
X42.556 Y59.561 Z-1.553
X42.685 Y59.525 Z-1.558
X42.817 Y59.505 Z-1.563
X42.951 Y59.5 Z-1.567
X43.084 Y59.511 Z-1.572
X43.215 Y59.538 Z-1.577
X43.342 Y59.58 Z-1.581
X43.463 Y59.637 Z-1.586
X43.576 Y59.707 Z-1.591
X43.681 Y59.791 Z-1.595
X43.774 Y59.886 Z-1.6
X43.856 Y59.992 Z-1.605
X43.925 Y60.106 Z-1.609
X43.98 Y60.228 Z-1.614
X44.02 Y60.356 Z-1.619
X44.045 Y60.487 Z-1.623
X44.054 Y60.621 Z-1.628
X44.047 Y60.754 Z-1.633
X44.025 Y60.886 Z-1.637
X43.987 Y61.014 Z-1.642
X43.934 Y61.137 Z-1.647
X43.868 Y61.253 Z-1.651
X43.788 Y61.36 Z-1.656
X43.696 Y61.457 Z-1.661
X43.593 Y61.542 Z-1.665
X43.48 Y61.615 Z-1.67
X43.36 Y61.674 Z-1.675
X43.234 Y61.718 Z-1.679
X43.104 Y61.747 Z-1.684
X42.971 Y61.761 Z-1.689
X42.837 Y61.759 Z-1.693
X42.705 Y61.741 Z-1.698
X42.575 Y61.707 Z-1.703
X42.451 Y61.659 Z-1.708
X42.333 Y61.596 Z-1.712
X42.223 Y61.519 Z-1.717
X42.123 Y61.431 Z-1.722
X42.034 Y61.331 Z-1.726
X41.958 Y61.221 Z-1.731
X41.895 Y61.103 Z-1.736
X41.847 Y60.978 Z-1.74
X41.813 Y60.849 Z-1.745
X41.795 Y60.716 Z-1.75
G3 X41.789 Y59.84 R6.365 F1499.
X41.864 Y59.318 R3.307
X41.982 Y58.805 R44.093
X42.368 Y58.568 R0.32
X42.486 Y58.623 R0.32
G2 X42.947 Y58.938 R6.104
X43.425 Y59.227 R32.403
G3 X43.863 Y59.996 R0.894
G1 Y60.742
G3 X43.417 Y61.505 R0.876
G2 X42.943 Y61.796 R7.692
X42.484 Y62.11 R19.454
G3 X42.031 Y62.031 R0.325
X41.98 Y61.916 R0.325
X41.81 Y60.885 R8.622
G1 X41.795 Y60.716
G2 X41.15 Y59.816 R1.067
G3 X40.649 Y58.828 R0.862
G1 X40.675 Y58.715
X40.753 Y58.387
X40.826 Y58.161
X41.272 Y57.248
X41.453 Y56.915
X41.566 Y56.769
X42.096 Y56.118
X42.201 Y55.997
X42.336 Y56.395
X42.374 Y56.483
X42.425 Y56.579
X42.451 Y56.624
X42.482 Y56.666
X43.049 Y57.392
X43.087 Y57.436
X43.129 Y57.476
X43.231 Y57.564
X43.3 Y57.616
X44.069 Y58.105
X44.144 Y58.146
X45.156 Y58.602
Y62.129
X44.098 Y62.608
X44.019 Y62.652
X43.247 Y63.154
X43.198 Y63.189
X43.153 Y63.229
X43.088 Y63.294
X43.036 Y63.352
X42.473 Y64.076
X42.434 Y64.134
X42.401 Y64.196
X42.335 Y64.34
X42.314 Y64.395
X42.199 Y64.732
X42.097 Y64.614
X41.448 Y63.808
X41.348 Y63.632
X40.83 Y62.58
X40.743 Y62.309
X40.484 Y61.169
X40.459 Y60.899
X40.463 Y59.757
X40.496 Y59.486
X40.649 Y58.828
X40.664 Y58.792
X40.69 Y58.763
X40.724 Y58.743
X40.762 Y58.736
X40.801 Y58.742
X41.806 Y59.061
X43.487 Y59.349
X43.503
X43.518 Y59.344
X43.677 Y59.259
X43.696 Y59.253
X43.716 Y59.256
X43.734 Y59.266
X43.825 Y59.364 Z-1.754 F333.
X43.905 Y59.471 Z-1.759
X43.972 Y59.587 Z-1.764
X44.024 Y59.71 Z-1.768
X44.061 Y59.838 Z-1.773
X44.083 Y59.97 Z-1.778
X44.09 Y60.104 Z-1.782
X44.08 Y60.237 Z-1.787
X44.055 Y60.368 Z-1.792
X44.015 Y60.496 Z-1.796
X43.96 Y60.618 Z-1.801
X43.89 Y60.732 Z-1.806
X43.808 Y60.837 Z-1.81
X43.714 Y60.932 Z-1.815
X43.609 Y61.016 Z-1.82
X43.496 Y61.086 Z-1.824
X43.375 Y61.142 Z-1.829
X43.248 Y61.184 Z-1.834
X43.117 Y61.211 Z-1.838
X42.983 Y61.221 Z-1.843
X42.85 Y61.216 Z-1.848
X42.718 Y61.196 Z-1.852
X42.589 Y61.159 Z-1.857
X42.465 Y61.108 Z-1.862
X42.349 Y61.043 Z-1.866
X42.241 Y60.964 Z-1.871
X42.142 Y60.874 Z-1.876
X42.056 Y60.772 Z-1.88
X41.982 Y60.66 Z-1.885
X41.921 Y60.541 Z-1.89
X41.875 Y60.416 Z-1.894
X41.845 Y60.286 Z-1.899
X41.829 Y60.153 Z-1.904
X41.83 Y60.019 Z-1.908
X41.846 Y59.886 Z-1.913
X41.878 Y59.757 Z-1.918
X41.925 Y59.631 Z-1.922
X41.986 Y59.513 Z-1.927
X42.061 Y59.402 Z-1.932
X42.149 Y59.301 Z-1.936
X42.248 Y59.211 Z-1.941
X42.356 Y59.133 Z-1.946
X42.474 Y59.069 Z-1.95
X42.598 Y59.019 Z-1.955
X42.727 Y58.984 Z-1.96
X42.859 Y58.964 Z-1.964
X42.992 Y58.96 Z-1.969
X43.126 Y58.972 Z-1.974
X43.256 Y58.999 Z-1.978
X43.383 Y59.042 Z-1.983
X43.504 Y59.099 Z-1.988
X43.617 Y59.171 Z-1.992
X43.721 Y59.255 Z-1.997
X43.814 Y59.351 Z-2.002
X43.896 Y59.457 Z-2.006
X43.964 Y59.572 Z-2.011
X44.018 Y59.694 Z-2.016
X44.057 Y59.822 Z-2.02
X44.081 Y59.953 Z-2.025
X44.09 Y60.087 Z-2.03
X44.082 Y60.22 Z-2.034
X44.059 Y60.352 Z-2.039
X44.021 Y60.48 Z-2.044
X43.967 Y60.602 Z-2.049
X43.9 Y60.718 Z-2.053
X43.819 Y60.824 Z-2.058
X43.727 Y60.921 Z-2.063
X43.623 Y61.006 Z-2.067
X43.511 Y61.078 Z-2.072
X43.391 Y61.136 Z-2.077
X43.264 Y61.18 Z-2.081
X43.134 Y61.208 Z-2.086
X43. Y61.221 Z-2.091
X42.867 Y61.218 Z-2.095
X42.734 Y61.199 Z-2.1
X42.605 Y61.165 Z-2.105
X42.481 Y61.116 Z-2.109
X42.363 Y61.052 Z-2.114
X42.254 Y60.975 Z-2.119
X42.154 Y60.886 Z-2.123
X42.066 Y60.785 Z-2.128
X41.991 Y60.675 Z-2.133
X41.928 Y60.557 Z-2.137
X41.88 Y60.432 Z-2.142
X41.848 Y60.303 Z-2.147
X41.83 Y60.17 Z-2.151
X41.829 Y60.036 Z-2.156
G3 X42.001 Y58.829 R6.543 F1499.
X42.382 Y58.595 R0.316
X42.496 Y58.648 R0.316
G2 X42.947 Y58.953 R6.38
X43.413 Y59.236 R48.546
G3 X43.849 Y60.007 R0.899
G1 Y60.733
G3 X43.403 Y61.497 R0.878
G2 X42.941 Y61.78 R7.694
X42.493 Y62.084 R23.89
G3 X42.046 Y62.004 R0.321
X41.997 Y61.893 R0.321
X41.821 Y60.361 R6.877
X41.829 Y60.036 R6.543
G2 X41.272 Y59.071 R1.03
G3 X40.922 Y58.014 R0.795
G1 X41.441 Y56.958
X42.199 Y56.031
X42.344 Y56.447
X42.375 Y56.52
X42.415 Y56.589
X42.515 Y56.733
X42.537 Y56.764
X43.039 Y57.402
X43.078 Y57.448
X43.122 Y57.489
X43.234 Y57.584
X43.3 Y57.633
X44.065 Y58.119
X44.14 Y58.16
X45.142 Y58.611
Y62.12
X44.087 Y62.599
X44.009 Y62.642
X43.247 Y63.135
X43.202 Y63.168
X43.159 Y63.205
X43.087 Y63.274
X43.029 Y63.339
X42.456 Y64.077
X42.415 Y64.137
X42.382 Y64.202
X42.318 Y64.346
X42.299 Y64.395
X42.196 Y64.697
X41.562 Y63.924
X41.438 Y63.768
X40.816 Y62.501
X40.748 Y62.231
X40.487 Y61.097
X40.482 Y59.67
X40.494 Y59.594
X40.675 Y58.814
X40.813 Y58.237
X40.922 Y58.014
X40.941 Y57.991
X40.968 Y57.979
X40.997
X41.023 Y57.993
X41.267 Y58.198
X42.711 Y59.032
X42.8 Y58.972
X42.932 Y58.96 Z-2.161 F333.
X43.064 Y58.963 Z-2.165
X43.195 Y58.982 Z-2.17
X43.323 Y59.015 Z-2.174
X43.446 Y59.064 Z-2.179
X43.562 Y59.127 Z-2.184
X43.671 Y59.202 Z-2.188
X43.769 Y59.29 Z-2.193
X43.857 Y59.389 Z-2.198
X43.933 Y59.498 Z-2.202
X43.995 Y59.614 Z-2.207
X44.044 Y59.737 Z-2.211
X44.078 Y59.865 Z-2.216
X44.096 Y59.996 Z-2.221
X44.1 Y60.128 Z-2.225
X44.088 Y60.26 Z-2.23
X44.06 Y60.389 Z-2.234
X44.018 Y60.514 Z-2.239
X43.961 Y60.634 Z-2.244
X43.891 Y60.746 Z-2.248
X43.808 Y60.849 Z-2.253
X43.714 Y60.942 Z-2.258
X43.609 Y61.023 Z-2.262
X43.496 Y61.091 Z-2.267
X43.376 Y61.146 Z-2.271
X43.25 Y61.186 Z-2.276
X43.12 Y61.211 Z-2.281
X42.988 Y61.221 Z-2.285
X42.856 Y61.215 Z-2.29
X42.725 Y61.194 Z-2.295
X42.598 Y61.158 Z-2.299
X42.476 Y61.108 Z-2.304
X42.361 Y61.043 Z-2.308
X42.253 Y60.966 Z-2.313
X42.156 Y60.876 Z-2.318
X42.07 Y60.776 Z-2.322
X41.996 Y60.666 Z-2.327
X41.935 Y60.549 Z-2.332
X41.889 Y60.425 Z-2.336
X41.857 Y60.297 Z-2.341
X41.841 Y60.165 Z-2.345
X41.84 Y60.033 Z-2.35
G3 X42.009 Y58.838 R6.688 F1499.
X42.386 Y58.606 R0.313
X42.499 Y58.658 R0.313
G2 X42.946 Y58.959 R6.426
X43.407 Y59.24 R65.205
G3 X43.843 Y60.012 R0.902
G1 Y60.725
G3 X43.4 Y61.491 R0.884
G2 X42.945 Y61.772 R9.112
X42.501 Y62.071 R25.746
G3 X42.052 Y61.988 R0.323
X42.004 Y61.878 R0.323
X41.84 Y60.033 R6.688
G2 X41.284 Y59.067 R1.03
G3 X40.935 Y58.008 R0.797
G1 X41.447 Y56.962
X42.196 Y56.041
X42.337 Y56.447
X42.367 Y56.519
X42.407 Y56.587
X42.505 Y56.731
X42.529 Y56.764
X43.034 Y57.407
X43.074 Y57.452
X43.118 Y57.494
X43.236 Y57.593
X43.3 Y57.64
X44.063 Y58.126
X44.138 Y58.166
X45.136 Y58.615
Y62.115
X44.098 Y62.585
X44.021 Y62.627
X43.248 Y63.127
X43.204 Y63.158
X43.162 Y63.194
X43.087 Y63.265
X43.026 Y63.333
X42.449 Y64.077
X42.407 Y64.138
X42.373 Y64.204
X42.31 Y64.349
X42.293 Y64.395
X42.195 Y64.681
X41.439 Y63.752
X40.811 Y62.459
X40.496 Y61.097
X40.493 Y59.643
X40.675 Y58.859
X40.823 Y58.236
X40.935 Y58.008
X40.959 Y57.969 Z-2.341
X40.989 Y57.936 Z-2.332
X41.02 Y57.912 Z-2.306
X41.054 Y57.894 Z-2.28
X41.103 Y57.879 Z-2.203
X41.121 Y57.876 Z-2.112
G0 Z5.
X35.159 Y69.39
Z0.665
G1 X35.17 Y69.377 Z0.575 F333.
X35.203 Y69.34 Z0.499
X35.256 Y69.288 Z0.447
X35.323 Y69.23 Z0.427
X35.433 Y69.153 Z0.422
X35.55 Y69.089 Z0.417
X35.675 Y69.04 Z0.413
X35.805 Y69.006 Z0.408
X35.937 Y68.987 Z0.403
X36.071 Y68.985 Z0.399
X36.205 Y68.998 Z0.394
X36.335 Y69.027 Z0.389
X36.462 Y69.071 Z0.385
X36.582 Y69.129 Z0.38
X36.695 Y69.202 Z0.375
X36.798 Y69.287 Z0.371
X36.891 Y69.384 Z0.366
X36.971 Y69.491 Z0.361
X37.038 Y69.607 Z0.357
X37.091 Y69.73 Z0.352
X37.129 Y69.859 Z0.347
X37.151 Y69.991 Z0.342
X37.158 Y70.125 Z0.338
X37.149 Y70.258 Z0.333
X37.124 Y70.39 Z0.328
X37.084 Y70.518 Z0.324
X37.029 Y70.64 Z0.319
X36.96 Y70.755 Z0.314
X36.878 Y70.86 Z0.31
X36.784 Y70.956 Z0.305
X36.679 Y71.039 Z0.3
X36.565 Y71.11 Z0.296
X36.444 Y71.167 Z0.291
X36.316 Y71.208 Z0.286
X36.185 Y71.235 Z0.282
X36.052 Y71.246 Z0.277
X35.918 Y71.241 Z0.272
X35.785 Y71.22 Z0.268
X35.657 Y71.184 Z0.263
X35.533 Y71.132 Z0.258
X35.416 Y71.067 Z0.254
X35.308 Y70.988 Z0.249
X35.21 Y70.897 Z0.244
X35.123 Y70.795 Z0.24
X35.049 Y70.683 Z0.235
X34.989 Y70.563 Z0.23
X34.943 Y70.437 Z0.225
X34.912 Y70.307 Z0.221
X34.898 Y70.174 Z0.216
X34.899 Y70.04 Z0.211
X34.915 Y69.907 Z0.207
X34.948 Y69.777 Z0.202
X34.995 Y69.652 Z0.197
X35.057 Y69.533 Z0.193
X35.133 Y69.422 Z0.188
X35.221 Y69.322 Z0.183
X35.32 Y69.232 Z0.179
X35.43 Y69.154 Z0.174
X35.548 Y69.091 Z0.169
X35.672 Y69.041 Z0.165
X35.801 Y69.007 Z0.16
X35.934 Y68.988 Z0.155
X36.068 Y68.985 Z0.151
X36.201 Y68.997 Z0.146
X36.332 Y69.026 Z0.141
X36.459 Y69.069 Z0.137
X36.579 Y69.128 Z0.132
X36.692 Y69.2 Z0.127
X36.796 Y69.285 Z0.122
X36.888 Y69.382 Z0.118
X36.969 Y69.489 Z0.113
X37.036 Y69.605 Z0.108
X37.09 Y69.727 Z0.104
X37.128 Y69.856 Z0.099
X37.151 Y69.988 Z0.094
X37.158 Y70.121 Z0.09
X37.15 Y70.255 Z0.085
X37.125 Y70.387 Z0.08
X37.085 Y70.515 Z0.076
X37.031 Y70.637 Z0.071
X36.962 Y70.752 Z0.066
X36.88 Y70.858 Z0.062
X36.786 Y70.954 Z0.057
X36.682 Y71.037 Z0.052
X36.568 Y71.108 Z0.048
X36.447 Y71.165 Z0.043
X36.32 Y71.208 Z0.038
X36.188 Y71.235 Z0.034
X36.055 Y71.246 Z0.029
X35.921 Y71.241 Z0.024
X35.789 Y71.221 Z0.02
X35.66 Y71.185 Z0.015
X35.536 Y71.134 Z0.01
X35.419 Y71.069 Z0.005
X35.31 Y70.99 Z0.001
X35.212 Y70.899 Z-0.004
X35.125 Y70.797 Z-0.009
X35.051 Y70.686 Z-0.013
X34.99 Y70.566 Z-0.018
X34.944 Y70.44 Z-0.023
X34.913 Y70.31 Z-0.027
X34.898 Y70.177 Z-0.032
Y70.043 Z-0.037
X34.915 Y69.91 Z-0.041
X34.947 Y69.78 Z-0.046
X34.994 Y69.655 Z-0.051
X35.056 Y69.536 Z-0.055
X35.131 Y69.425 Z-0.06
X35.219 Y69.324 Z-0.065
X35.318 Y69.234 Z-0.069
X35.427 Y69.156 Z-0.074
X35.545 Y69.092 Z-0.079
X35.669 Y69.042 Z-0.083
X35.798 Y69.007 Z-0.088
X35.931 Y68.988 Z-0.093
X36.065 Y68.984 Z-0.097
X36.198 Y68.997 Z-0.102
X36.329 Y69.025 Z-0.107
X36.456 Y69.068 Z-0.112
X36.577 Y69.126 Z-0.116
X36.69 Y69.198 Z-0.121
X36.793 Y69.283 Z-0.126
X36.886 Y69.379 Z-0.13
X36.967 Y69.486 Z-0.135
X37.035 Y69.602 Z-0.14
X37.089 Y69.724 Z-0.144
X37.127 Y69.853 Z-0.149
X37.151 Y69.984 Z-0.154
X37.158 Y70.118 Z-0.158
X37.15 Y70.252 Z-0.163
X37.126 Y70.384 Z-0.168
X37.086 Y70.512 Z-0.172
X37.032 Y70.634 Z-0.177
X36.964 Y70.749 Z-0.182
X36.882 Y70.856 Z-0.186
X36.789 Y70.951 Z-0.191
X36.684 Y71.036 Z-0.196
X36.571 Y71.107 Z-0.2
X36.45 Y71.164 Z-0.205
X36.323 Y71.207 Z-0.21
X36.192 Y71.234 Z-0.215
X36.058 Y71.246 Z-0.219
X35.924 Y71.241 Z-0.224
X35.792 Y71.221 Z-0.229
X35.663 Y71.186 Z-0.233
X35.539 Y71.135 Z-0.238
X35.422 Y71.07 Z-0.243
X35.313 Y70.992 Z-0.247
X35.214 Y70.901 Z-0.252
X35.127 Y70.8 Z-0.257
X35.052 Y70.689 Z-0.261
X34.991 Y70.569 Z-0.266
X34.945 Y70.444 Z-0.271
X34.914 Y70.313 Z-0.275
X34.898 Y70.18 Z-0.28
Y70.046 Z-0.285
X34.914 Y69.913 Z-0.289
X34.946 Y69.783 Z-0.294
X34.993 Y69.658 Z-0.299
X35.054 Y69.539 Z-0.303
X35.129 Y69.428 Z-0.308
X35.216 Y69.326 Z-0.313
X35.315 Y69.236 Z-0.317
X35.424 Y69.158 Z-0.322
X35.542 Y69.093 Z-0.327
X35.666 Y69.043 Z-0.332
X35.795 Y69.008 Z-0.336
X35.928 Y68.988 Z-0.341
X36.061 Y68.984 Z-0.346
X36.195 Y68.996 Z-0.35
X36.326 Y69.024 Z-0.355
X36.453 Y69.067 Z-0.36
X36.574 Y69.125 Z-0.364
X36.687 Y69.196 Z-0.369
X36.791 Y69.281 Z-0.374
X36.884 Y69.377 Z-0.378
X36.965 Y69.483 Z-0.383
X37.034 Y69.599 Z-0.388
X37.088 Y69.721 Z-0.392
X37.127 Y69.849 Z-0.397
X37.15 Y69.981 Z-0.402
X37.158 Y70.115 Z-0.406
G3 X37.017 Y70.256 R0.141 F1499.
X36.876 Y70.115 R0.141
X37.731 Y69.259 R0.856
X38.587 Y70.115 R0.856
X37.017 Y71.685 R1.57
X35.447 Y70.115 R1.57
X37.017 Y68.545 R1.57
X38.587 Y70.115 R1.57
G2 X39.076 Y71. R1.045
G3 X39.389 Y71.45 R0.703
X39.284 Y71.988 R0.703
G1 X39.195 Y72.119
X38.948 Y72.322
X38.507 Y72.674
X38.328 Y72.748
X37.679 Y73.003
X36.808 Y73.069
X35.922 Y72.868
X35.161 Y72.425
X34.566 Y71.785
X34.187 Y70.997
X34.175 Y70.94
X34.052 Y70.125
X34.118 Y69.669
X34.182 Y69.244
X34.563 Y68.453
X35.16 Y67.805
X35.923 Y67.362
X36.809 Y67.16
X37.671 Y67.225
X37.682 Y67.228
X38.498 Y67.549
X39.188 Y68.099
X39.685 Y68.829
X39.945 Y69.669
X39.944 Y70.562
X39.689 Y71.39
X39.284 Y71.988
X39.26 Y72.012
X39.228 Y72.025
X39.195 Y72.024
X39.164 Y72.011
X38.848 Y71.791
X38.821 Y71.778
X35.5 Y70.906
X35.483 Y70.904
X35.467 Y70.909
X35.329 Y70.981
X35.302 Y70.986
X35.278 Y70.975
X35.181 Y70.882 Z-0.411 F333.
X35.097 Y70.779 Z-0.416
X35.025 Y70.666 Z-0.42
X34.967 Y70.546 Z-0.425
X34.923 Y70.42 Z-0.43
X34.895 Y70.289 Z-0.434
X34.882 Y70.156 Z-0.439
X34.885 Y70.022 Z-0.444
X34.904 Y69.89 Z-0.448
X34.938 Y69.761 Z-0.453
X34.987 Y69.636 Z-0.458
X35.051 Y69.519 Z-0.462
X35.128 Y69.41 Z-0.467
X35.217 Y69.31 Z-0.472
X35.318 Y69.222 Z-0.476
X35.428 Y69.146 Z-0.481
X35.546 Y69.084 Z-0.486
X35.671 Y69.036 Z-0.49
X35.801 Y69.004 Z-0.495
X35.933 Y68.986 Z-0.5
X36.067 Y68.985 Z-0.504
X36.2 Y68.999 Z-0.509
X36.33 Y69.029 Z-0.514
X36.456 Y69.074 Z-0.519
X36.576 Y69.134 Z-0.523
X36.688 Y69.207 Z-0.528
X36.79 Y69.294 Z-0.533
X36.881 Y69.391 Z-0.537
X36.961 Y69.499 Z-0.542
X37.027 Y69.615 Z-0.547
X37.079 Y69.738 Z-0.551
X37.116 Y69.867 Z-0.556
X37.137 Y69.998 Z-0.561
X37.143 Y70.132 Z-0.565
X37.133 Y70.265 Z-0.57
X37.108 Y70.397 Z-0.575
X37.067 Y70.524 Z-0.579
X37.011 Y70.645 Z-0.584
X36.942 Y70.76 Z-0.589
X36.859 Y70.865 Z-0.593
X36.765 Y70.959 Z-0.598
X36.66 Y71.042 Z-0.603
X36.546 Y71.112 Z-0.607
X36.424 Y71.168 Z-0.612
X36.297 Y71.209 Z-0.617
X36.166 Y71.235 Z-0.621
X36.033 Y71.246 Z-0.626
X35.899 Y71.24 Z-0.631
X35.767 Y71.219 Z-0.635
X35.639 Y71.182 Z-0.64
X35.515 Y71.131 Z-0.645
X35.399 Y71.065 Z-0.649
X35.291 Y70.986 Z-0.654
X35.193 Y70.895 Z-0.659
X35.107 Y70.793 Z-0.663
X35.033 Y70.681 Z-0.668
X34.973 Y70.562 Z-0.673
X34.928 Y70.436 Z-0.677
X34.897 Y70.306 Z-0.682
X34.883 Y70.173 Z-0.687
X34.884 Y70.039 Z-0.691
X34.9 Y69.907 Z-0.696
X34.933 Y69.777 Z-0.701
X34.98 Y69.652 Z-0.705
X35.042 Y69.533 Z-0.71
X35.117 Y69.423 Z-0.715
X35.205 Y69.322 Z-0.719
X35.304 Y69.233 Z-0.724
X35.413 Y69.155 Z-0.729
X35.531 Y69.091 Z-0.733
X35.655 Y69.042 Z-0.738
X35.784 Y69.007 Z-0.743
X35.916 Y68.988 Z-0.747
X36.05 Y68.984 Z-0.752
X36.183 Y68.997 Z-0.757
X36.314 Y69.025 Z-0.761
X36.44 Y69.068 Z-0.766
X36.561 Y69.126 Z-0.771
X36.674 Y69.197 Z-0.775
X36.777 Y69.282 Z-0.78
X36.87 Y69.378 Z-0.785
X36.951 Y69.484 Z-0.789
X37.019 Y69.599 Z-0.794
X37.073 Y69.722 Z-0.799
X37.112 Y69.85 Z-0.803
X37.135 Y69.981 Z-0.808
X37.143 Y70.115 Z-0.813
G3 X37.015 Y70.243 R0.128 F1499.
X36.887 Y70.115 R0.128
X37.729 Y69.272 R0.843
X38.572 Y70.115 R0.843
X37.015 Y71.672 R1.557
X35.458 Y70.115 R1.557
X37.015 Y68.558 R1.557
X38.572 Y70.115 R1.557
G2 X39.06 Y70.999 R1.046
G3 X39.372 Y71.451 R0.7
X39.263 Y71.989 R0.7
G1 X39.166 Y72.131
X38.492 Y72.668
X37.671 Y72.991
X36.808 Y73.056
X35.938 Y72.861
X35.165 Y72.409
X34.578 Y71.777
X34.196 Y70.984
X34.067 Y70.124
X34.118 Y69.763
X34.197 Y69.244
X34.577 Y68.456
X35.176 Y67.809
X35.923 Y67.377
X36.745 Y67.185
X36.8 Y67.174
X37.668 Y67.239
X37.679 Y67.242
X38.476 Y67.555
X39.177 Y68.109
X39.675 Y68.844
X39.932 Y69.686
Y70.54
X39.672 Y71.394
X39.263 Y71.989
X39.238 Y72.014
X39.204 Y72.027
X39.168 Y72.026
X39.135 Y72.012
X38.799 Y71.777
X38.77 Y71.763
X35.483 Y70.906
X35.466 Y70.905
X35.451 Y70.91
X35.314 Y70.981
X35.288 Y70.986
X35.264 Y70.975
X35.167 Y70.882 Z-0.817 F333.
X35.083 Y70.779 Z-0.822
X35.011 Y70.666 Z-0.827
X34.952 Y70.546 Z-0.831
X34.909 Y70.42 Z-0.836
X34.881 Y70.289 Z-0.841
X34.868 Y70.156 Z-0.845
X34.871 Y70.022 Z-0.85
X34.89 Y69.89 Z-0.855
X34.924 Y69.761 Z-0.86
X34.973 Y69.636 Z-0.864
X35.037 Y69.519 Z-0.869
X35.114 Y69.409 Z-0.874
X35.203 Y69.31 Z-0.878
X35.304 Y69.222 Z-0.883
X35.414 Y69.146 Z-0.888
X35.532 Y69.084 Z-0.892
X35.657 Y69.036 Z-0.897
X35.787 Y69.004 Z-0.902
X35.919 Y68.986 Z-0.906
X36.053 Y68.985 Z-0.911
X36.186 Y68.999 Z-0.916
X36.316 Y69.029 Z-0.92
X36.442 Y69.074 Z-0.925
X36.562 Y69.134 Z-0.93
X36.674 Y69.207 Z-0.934
X36.776 Y69.293 Z-0.939
X36.867 Y69.391 Z-0.944
X36.947 Y69.499 Z-0.948
X37.013 Y69.615 Z-0.953
X37.065 Y69.738 Z-0.958
X37.102 Y69.866 Z-0.962
X37.123 Y69.998 Z-0.967
X37.129 Y70.132 Z-0.972
X37.119 Y70.265 Z-0.976
X37.094 Y70.397 Z-0.981
X37.053 Y70.524 Z-0.986
X36.997 Y70.645 Z-0.99
X36.927 Y70.76 Z-0.995
X36.845 Y70.865 Z-1.
X36.751 Y70.959 Z-1.004
X36.646 Y71.042 Z-1.009
X36.532 Y71.112 Z-1.014
X36.41 Y71.168 Z-1.018
X36.283 Y71.209 Z-1.023
X36.152 Y71.235 Z-1.028
X36.019 Y71.246 Z-1.032
X35.885 Y71.24 Z-1.037
X35.753 Y71.219 Z-1.042
X35.625 Y71.182 Z-1.046
X35.501 Y71.131 Z-1.051
X35.385 Y71.065 Z-1.056
X35.277 Y70.986 Z-1.06
X35.179 Y70.895 Z-1.065
X35.093 Y70.793 Z-1.07
X35.019 Y70.681 Z-1.074
X34.959 Y70.562 Z-1.079
X34.914 Y70.436 Z-1.084
X34.883 Y70.306 Z-1.088
X34.869 Y70.173 Z-1.093
X34.87 Y70.039 Z-1.098
X34.886 Y69.907 Z-1.102
X34.919 Y69.777 Z-1.107
X34.966 Y69.652 Z-1.112
X35.028 Y69.533 Z-1.116
X35.103 Y69.423 Z-1.121
X35.191 Y69.322 Z-1.126
X35.29 Y69.233 Z-1.13
X35.399 Y69.155 Z-1.135
X35.517 Y69.091 Z-1.14
X35.641 Y69.042 Z-1.144
X35.77 Y69.007 Z-1.149
X35.902 Y68.988 Z-1.154
X36.036 Y68.984 Z-1.158
X36.169 Y68.997 Z-1.163
X36.3 Y69.025 Z-1.168
X36.426 Y69.068 Z-1.172
X36.547 Y69.126 Z-1.177
X36.66 Y69.197 Z-1.182
X36.763 Y69.282 Z-1.187
X36.856 Y69.378 Z-1.191
