(NMJPLATE0PT0PT2_TOP_STEP3_332IN_SIDE2)
(T8  D=2.381 CR=0. - ZMIN=-12. - FLAT END MILL)
G0 G90 G94 G17
G21
G53 G0 Z0.

(POCKET2 7)
M5
T8
M3 S12800
G55
M8
G0 X85.674 Y54.983
Z15.
Z1.5
G1 Z0.763 F381.
X85.679 Y54.966 Z0.674 F333.
X85.696 Y54.919 Z0.598
X85.727 Y54.852 Z0.545
X85.774 Y54.777 Z0.525
X85.84 Y54.7 Z0.521
X85.918 Y54.634 Z0.518
X86.005 Y54.581 Z0.514
X86.099 Y54.542 Z0.511
X86.198 Y54.518 Z0.507
X86.299 Y54.51 Z0.504
X86.401 Y54.517 Z0.5
X86.5 Y54.541 Z0.497
X86.594 Y54.58 Z0.493
X86.681 Y54.633 Z0.489
X86.759 Y54.699 Z0.486
X86.825 Y54.776 Z0.482
X86.879 Y54.862 Z0.479
X86.918 Y54.956 Z0.475
X86.942 Y55.055 Z0.472
X86.951 Y55.156 Z0.468
X86.944 Y55.258 Z0.464
X86.921 Y55.357 Z0.461
X86.882 Y55.451 Z0.457
X86.83 Y55.539 Z0.454
X86.765 Y55.617 Z0.45
X86.688 Y55.684 Z0.447
X86.601 Y55.738 Z0.443
X86.508 Y55.777 Z0.44
X86.409 Y55.802 Z0.436
X86.308 Y55.811 Z0.432
X86.206 Y55.805 Z0.429
X86.107 Y55.782 Z0.425
X86.012 Y55.744 Z0.422
X85.925 Y55.692 Z0.418
X85.846 Y55.627 Z0.415
X85.779 Y55.551 Z0.411
X85.725 Y55.465 Z0.408
X85.684 Y55.371 Z0.404
X85.659 Y55.273 Z0.4
X85.649 Y55.171 Z0.397
X85.656 Y55.07 Z0.393
X85.678 Y54.97 Z0.39
X85.715 Y54.876 Z0.386
X85.767 Y54.788 Z0.383
X85.831 Y54.709 Z0.379
X85.907 Y54.642 Z0.376
X85.993 Y54.587 Z0.372
X86.086 Y54.546 Z0.368
X86.185 Y54.52 Z0.365
X86.286 Y54.51 Z0.361
X86.388 Y54.516 Z0.358
X86.487 Y54.537 Z0.354
X86.582 Y54.574 Z0.351
X86.67 Y54.625 Z0.347
X86.749 Y54.689 Z0.343
X86.817 Y54.765 Z0.34
X86.873 Y54.851 Z0.336
X86.914 Y54.944 Z0.333
X86.94 Y55.042 Z0.329
X86.951 Y55.143 Z0.326
X86.946 Y55.245 Z0.322
X86.925 Y55.345 Z0.319
X86.888 Y55.44 Z0.315
X86.837 Y55.528 Z0.311
X86.774 Y55.607 Z0.308
X86.698 Y55.676 Z0.304
X86.613 Y55.731 Z0.301
X86.52 Y55.773 Z0.297
X86.422 Y55.8 Z0.294
X86.321 Y55.811 Z0.29
X86.219 Y55.806 Z0.287
X86.119 Y55.786 Z0.283
X86.024 Y55.75 Z0.279
X85.935 Y55.7 Z0.276
X85.856 Y55.636 Z0.272
X85.787 Y55.561 Z0.269
X85.731 Y55.476 Z0.265
X85.689 Y55.384 Z0.262
X85.661 Y55.285 Z0.258
X85.65 Y55.184 Z0.255
X85.654 Y55.083 Z0.251
X85.674 Y54.983 Z0.247
X85.709 Y54.887 Z0.244
X85.759 Y54.799 Z0.24
X85.822 Y54.719 Z0.237
X85.897 Y54.65 Z0.233
X85.982 Y54.593 Z0.23
X86.074 Y54.55 Z0.226
X86.172 Y54.522 Z0.222
X86.273 Y54.51 Z0.219
X86.375 Y54.514 Z0.215
X86.475 Y54.534 Z0.212
X86.57 Y54.568 Z0.208
X86.659 Y54.618 Z0.205
X86.74 Y54.68 Z0.201
X86.809 Y54.755 Z0.198
X86.866 Y54.839 Z0.194
X86.909 Y54.931 Z0.19
X86.938 Y55.029 Z0.187
X86.95 Y55.13 Z0.183
X86.947 Y55.232 Z0.18
X86.928 Y55.332 Z0.176
X86.894 Y55.428 Z0.173
X86.845 Y55.517 Z0.169
X86.782 Y55.598 Z0.166
X86.708 Y55.668 Z0.162
X86.624 Y55.725 Z0.158
X86.532 Y55.769 Z0.155
X86.435 Y55.797 Z0.151
X86.334 Y55.811 Z0.148
X86.232 Y55.808 Z0.144
X86.132 Y55.789 Z0.141
X86.036 Y55.755 Z0.137
X85.946 Y55.707 Z0.134
X85.865 Y55.645 Z0.13
X85.795 Y55.571 Z0.126
X85.737 Y55.488 Z0.123
X85.693 Y55.396 Z0.119
X85.664 Y55.298 Z0.116
X85.65 Y55.197 Z0.112
X85.653 Y55.096 Z0.109
X85.671 Y54.995 Z0.105
X85.704 Y54.899 Z0.101
X85.752 Y54.809 Z0.098
X85.814 Y54.728 Z0.094
X85.887 Y54.658 Z0.091
X85.97 Y54.599 Z0.087
X86.062 Y54.555 Z0.084
X86.159 Y54.525 Z0.08
X86.26 Y54.511 Z0.077
X86.362 Y54.513 Z0.073
X86.462 Y54.53 Z0.069
X86.559 Y54.563 Z0.066
X86.649 Y54.611 Z0.062
X86.73 Y54.672 Z0.059
X86.801 Y54.745 Z0.055
X86.86 Y54.828 Z0.052
X86.905 Y54.919 Z0.048
X86.935 Y55.016 Z0.045
X86.95 Y55.117 Z0.041
X86.948 Y55.219 Z0.037
X86.931 Y55.319 Z0.034
X86.899 Y55.416 Z0.03
X86.852 Y55.506 Z0.027
X86.791 Y55.588 Z0.023
X86.718 Y55.659 Z0.02
X86.636 Y55.718 Z0.016
X86.545 Y55.764 Z0.012
X86.447 Y55.795 Z0.009
X86.347 Y55.81 Z0.005
X86.245 Y55.809 Z0.002
X86.145 Y55.793 Z-0.002
X86.048 Y55.761 Z-0.005
X85.957 Y55.714 Z-0.009
X85.875 Y55.654 Z-0.012
X85.804 Y55.581 Z-0.016
X85.744 Y55.499 Z-0.02
X85.698 Y55.408 Z-0.023
X85.667 Y55.311 Z-0.027
X85.651 Y55.21 Z-0.03
Y55.109 Z-0.034
X85.667 Y55.008 Z-0.037
X85.699 Y54.911 Z-0.041
X85.745 Y54.821 Z-0.044
X85.805 Y54.738 Z-0.048
X85.877 Y54.666 Z-0.052
X85.959 Y54.606 Z-0.055
X86.05 Y54.56 Z-0.059
X86.147 Y54.528 Z-0.062
X86.247 Y54.512 Z-0.066
X86.349 Y54.511 Z-0.069
X86.45 Y54.527 Z-0.073
X86.546 Y54.558 Z-0.076
X86.637 Y54.604 Z-0.08
X86.72 Y54.663 Z-0.084
X86.793 Y54.735 Z-0.087
X86.853 Y54.817 Z-0.091
X86.9 Y54.907 Z-0.094
X86.932 Y55.004 Z-0.098
X86.949 Y55.104 Z-0.101
Y55.206 Z-0.105
X86.934 Y55.307 Z-0.109
X86.904 Y55.404 Z-0.112
X86.859 Y55.495 Z-0.116
X86.8 Y55.578 Z-0.119
X86.728 Y55.651 Z-0.123
X86.647 Y55.712 Z-0.126
X86.557 Y55.759 Z-0.13
X86.46 Y55.792 Z-0.133
X86.36 Y55.809 Z-0.137
X86.258 Y55.81 Z-0.141
X86.157 Y55.796 Z-0.144
X86.06 Y55.766 Z-0.148
X85.969 Y55.721 Z-0.151
X85.885 Y55.662 Z-0.155
X85.812 Y55.591 Z-0.158
X85.751 Y55.51 Z-0.162
X85.703 Y55.42 Z-0.165
X85.67 Y55.324 Z-0.169
X85.652 Y55.223 Z-0.173
X85.65 Y55.122 Z-0.176
X85.664 Y55.021 Z-0.18
X85.694 Y54.923 Z-0.183
X85.738 Y54.832 Z-0.187
X85.797 Y54.748 Z-0.19
X85.867 Y54.675 Z-0.194
X85.948 Y54.613 Z-0.197
X86.038 Y54.565 Z-0.201
X86.134 Y54.531 Z-0.205
X86.234 Y54.513 Z-0.208
X86.336 Y54.511 Z-0.212
X86.437 Y54.524 Z-0.215
X86.534 Y54.553 Z-0.219
X86.626 Y54.597 Z-0.222
X86.71 Y54.655 Z-0.226
X86.784 Y54.725 Z-0.23
X86.846 Y54.806 Z-0.233
X86.895 Y54.895 Z-0.237
X86.929 Y54.991 Z-0.24
X86.947 Y55.091 Z-0.244
X86.95 Y55.193 Z-0.247
X86.937 Y55.294 Z-0.251
X86.909 Y55.392 Z-0.254
X86.865 Y55.484 Z-0.258
X86.808 Y55.568 Z-0.262
X86.738 Y55.642 Z-0.265
X86.658 Y55.704 Z-0.269
X86.569 Y55.754 Z-0.272
X86.473 Y55.788 Z-0.276
X86.373 Y55.807 Z-0.279
X86.271 Y55.811 Z-0.283
X86.17 Y55.798 Z-0.286
X86.072 Y55.77 Z-0.29
X85.98 Y55.727 Z-0.294
X85.895 Y55.67 Z-0.297
X85.821 Y55.601 Z-0.301
X85.758 Y55.521 Z-0.304
X85.709 Y55.432 Z-0.308
X85.673 Y55.336 Z-0.311
X85.654 Y55.236 Z-0.315
X85.65 Y55.135 Z-0.318
X85.662 Y55.034 Z-0.322
X85.689 Y54.936 Z-0.326
X85.732 Y54.843 Z-0.329
X85.788 Y54.758 Z-0.333
X85.857 Y54.683 Z-0.336
X85.937 Y54.62 Z-0.34
X86.026 Y54.57 Z-0.343
X86.121 Y54.535 Z-0.347
X86.221 Y54.514 Z-0.351
X86.323 Y54.51 Z-0.354
X86.424 Y54.522 Z-0.358
X86.522 Y54.549 Z-0.361
X86.615 Y54.591 Z-0.365
X86.7 Y54.647 Z-0.368
X86.775 Y54.715 Z-0.372
X86.839 Y54.795 Z-0.375
X86.889 Y54.883 Z-0.379
X86.925 Y54.979 Z-0.383
X86.946 Y55.078 Z-0.386
X86.951 Y55.18 Z-0.39
X86.94 Y55.281 Z-0.393
X86.913 Y55.379 Z-0.397
X86.872 Y55.472 Z-0.4
X86.816 Y55.558 Z-0.404
X86.748 Y55.633 Z-0.407
X86.669 Y55.697 Z-0.411
X86.58 Y55.748 Z-0.415
X86.485 Y55.785 Z-0.418
X86.386 Y55.806 Z-0.422
X86.284 Y55.811 Z-0.425
X86.183 Y55.801 Z-0.429
X86.084 Y55.775 Z-0.432
X85.991 Y55.734 Z-0.436
X85.906 Y55.678 Z-0.439
X85.83 Y55.61 Z-0.443
X85.765 Y55.532 Z-0.447
X85.714 Y55.444 Z-0.45
X85.677 Y55.349 Z-0.454
X85.655 Y55.249 Z-0.457
X85.649 Y55.148 Z-0.461
X85.659 Y55.046 Z-0.464
X85.685 Y54.948 Z-0.468
X85.726 Y54.855 Z-0.472
X85.78 Y54.769 Z-0.475
X85.848 Y54.692 Z-0.479
X85.926 Y54.628 Z-0.482
X86.014 Y54.576 Z-0.486
X86.109 Y54.538 Z-0.489
X86.208 Y54.516 Z-0.493
X86.31 Y54.51 Z-0.496
X86.411 Y54.519 Z-0.5
X87.66 Y54.735 F1300.
X88.031 Y54.891
X88.012 Y54.954
X87.945 Y55.09
X87.929 Y55.11
X87.906 Y55.13
X87.786 Y55.206
X86.37 Y55.843
X86.307 Y55.861
X86.201 Y55.83
X84.799 Y55.195
X84.694 Y55.119
X84.665 Y55.094
X84.61 Y54.972
X84.587 Y54.893
X84.551 Y54.685
X84.937 Y54.574
X86.298 Y54.5
X86.411 Y54.519
X86.443 Y54.53
X86.469 Y54.55
X86.488 Y54.578
X86.497 Y54.61
X86.496 Y54.643
X86.4 Y55.103
X86.399 Y55.139
X86.41 Y55.172
X86.624 Y55.59
X86.634 Y55.621
Y55.654
X86.623 Y55.686
X86.603 Y55.712
X86.576 Y55.731
X86.482 Y55.767 Z-0.503 F333.
X86.385 Y55.788 Z-0.507
X86.285 Y55.793 Z-0.51
X86.185 Y55.783 Z-0.514
X86.089 Y55.757 Z-0.517
X85.998 Y55.716 Z-0.521
X85.914 Y55.661 Z-0.524
X85.84 Y55.593 Z-0.528
X85.778 Y55.515 Z-0.531
X85.728 Y55.428 Z-0.535
X85.693 Y55.335 Z-0.538
X85.673 Y55.236 Z-0.542
X85.669 Y55.137 Z-0.545
X85.681 Y55.037 Z-0.549
X85.708 Y54.941 Z-0.552
X85.75 Y54.85 Z-0.556
X85.806 Y54.767 Z-0.559
X85.874 Y54.694 Z-0.563
X85.953 Y54.632 Z-0.566
X86.04 Y54.584 Z-0.57
X86.134 Y54.55 Z-0.573
X86.232 Y54.531 Z-0.577
X86.332 Y54.528 Z-0.58
X86.432 Y54.541 Z-0.584
X86.528 Y54.569 Z-0.587
X86.618 Y54.612 Z-0.591
X86.7 Y54.668 Z-0.594
X86.773 Y54.737 Z-0.598
X86.834 Y54.817 Z-0.601
X86.881 Y54.905 Z-0.605
X86.914 Y54.999 Z-0.608
X86.932 Y55.097 Z-0.612
X86.934 Y55.197 Z-0.615
X86.921 Y55.296 Z-0.619
X86.891 Y55.392 Z-0.622
X86.848 Y55.482 Z-0.626
X86.79 Y55.564 Z-0.629
X86.72 Y55.636 Z-0.633
X86.64 Y55.696 Z-0.636
X86.552 Y55.742 Z-0.64
X86.457 Y55.774 Z-0.643
X86.359 Y55.791 Z-0.647
X86.259 Y55.792 Z-0.65
X86.16 Y55.777 Z-0.654
X86.064 Y55.747 Z-0.657
X85.975 Y55.703 Z-0.661
X85.894 Y55.644 Z-0.664
X85.822 Y55.574 Z-0.668
X85.763 Y55.493 Z-0.671
X85.718 Y55.404 Z-0.675
X85.687 Y55.309 Z-0.678
X85.671 Y55.21 Z-0.682
Y55.11 Z-0.685
X85.687 Y55.012 Z-0.689
X85.718 Y54.917 Z-0.692
X85.763 Y54.828 Z-0.696
X85.822 Y54.747 Z-0.699
X85.894 Y54.677 Z-0.703
X85.975 Y54.618 Z-0.706
X86.064 Y54.573 Z-0.71
X86.16 Y54.543 Z-0.713
X86.259 Y54.529 Z-0.717
X86.359 Y54.53 Z-0.72
X86.457 Y54.546 Z-0.724
X86.552 Y54.579 Z-0.727
X86.64 Y54.625 Z-0.731
X86.721 Y54.685 Z-0.734
X86.79 Y54.757 Z-0.738
X86.848 Y54.839 Z-0.741
X86.891 Y54.929 Z-0.745
X86.921 Y55.024 Z-0.748
X86.934 Y55.124 Z-0.752
X86.932 Y55.224 Z-0.755
X86.914 Y55.322 Z-0.759
X86.881 Y55.416 Z-0.762
X86.834 Y55.504 Z-0.766
X86.773 Y55.584 Z-0.769
X86.7 Y55.653 Z-0.773
X86.618 Y55.709 Z-0.776
X86.528 Y55.752 Z-0.78
X86.432 Y55.78 Z-0.783
X86.332 Y55.793 Z-0.787
X86.232 Y55.79 Z-0.79
X86.134 Y55.771 Z-0.794
X86.04 Y55.737 Z-0.797
X85.953 Y55.689 Z-0.801
X85.874 Y55.627 Z-0.804
X85.806 Y55.554 Z-0.808
X85.75 Y55.471 Z-0.811
X85.708 Y55.38 Z-0.815
X85.681 Y55.284 Z-0.818
X85.669 Y55.184 Z-0.822
X85.673 Y55.084 Z-0.825
X85.693 Y54.986 Z-0.829
X85.728 Y54.893 Z-0.832
X85.778 Y54.806 Z-0.836
X85.84 Y54.727 Z-0.839
X85.914 Y54.66 Z-0.843
X85.998 Y54.605 Z-0.846
X86.089 Y54.564 Z-0.85
X86.185 Y54.538 Z-0.853
X86.285 Y54.527 Z-0.857
X86.385 Y54.533 Z-0.86
X86.483 Y54.553 Z-0.864
X86.576 Y54.589 Z-0.867
X86.662 Y54.64 Z-0.871
X86.74 Y54.703 Z-0.874
X86.806 Y54.778 Z-0.878
X86.86 Y54.862 Z-0.881
X86.901 Y54.953 Z-0.885
X86.926 Y55.05 Z-0.888
X86.935 Y55.15 Z-0.892
X86.929 Y55.25 Z-0.895
X86.907 Y55.347 Z-0.899
X86.87 Y55.44 Z-0.902
X86.819 Y55.526 Z-0.906
X86.755 Y55.603 Z-0.909
X86.68 Y55.669 Z-0.913
X86.595 Y55.722 Z-0.916
X86.503 Y55.761 Z-0.92
X86.406 Y55.785 Z-0.923
X86.306 Y55.794 Z-0.927
X86.206 Y55.786 Z-0.93
X86.109 Y55.764 Z-0.934
X86.016 Y55.726 Z-0.937
X85.931 Y55.674 Z-0.941
X85.855 Y55.609 Z-0.944
X85.79 Y55.533 Z-0.948
X85.738 Y55.447 Z-0.951
X85.699 Y55.355 Z-0.955
X85.676 Y55.258 Z-0.958
X85.669 Y55.158 Z-0.962
X85.677 Y55.058 Z-0.965
X85.701 Y54.961 Z-0.969
X85.74 Y54.869 Z-0.972
X85.793 Y54.784 Z-0.976
X85.858 Y54.709 Z-0.979
X85.935 Y54.644 Z-0.983
X86.021 Y54.593 Z-0.986
X86.114 Y54.556 Z-0.99
X86.211 Y54.534 Z-0.993
X86.311 Y54.527 Z-0.997
X86.411 Y54.537 Z-1.
X87.661 Y54.754 F1300.
X88.01 Y54.9
X87.992 Y54.957
X87.933 Y55.082
X87.917 Y55.1
X87.782 Y55.188
X86.367 Y55.826
X86.303 Y55.844
X86.243 Y55.828
X84.815 Y55.187
X84.697 Y55.109
X84.663 Y55.066
X84.608 Y54.911
X84.57 Y54.696
X84.936 Y54.592
X86.298 Y54.517
X86.411 Y54.537
X86.44 Y54.55
X86.46 Y54.575
X86.466 Y54.607
X86.456 Y54.637
X86.433 Y54.66
X86.188 Y54.804
X85.913 Y54.848
X85.885 Y54.847
X85.861 Y54.834
X85.843 Y54.813
X85.836 Y54.786
X85.839 Y54.759
X85.854 Y54.736
X85.927 Y54.67 Z-1.003 F333.
X86.01 Y54.617 Z-1.007
X86.101 Y54.577 Z-1.01
X86.196 Y54.553 Z-1.014
X86.294 Y54.544 Z-1.017
X86.393 Y54.55 Z-1.021
X86.489 Y54.573 Z-1.024
X86.58 Y54.61 Z-1.028
X86.664 Y54.662 Z-1.031
X86.739 Y54.726 Z-1.034
X86.803 Y54.802 Z-1.038
X86.853 Y54.886 Z-1.041
X86.89 Y54.978 Z-1.045
X86.912 Y55.074 Z-1.048
X86.917 Y55.172 Z-1.052
X86.908 Y55.271 Z-1.055
X86.882 Y55.366 Z-1.059
X86.842 Y55.456 Z-1.062
X86.788 Y55.538 Z-1.066
X86.721 Y55.611 Z-1.069
X86.644 Y55.672 Z-1.072
X86.558 Y55.721 Z-1.076
X86.465 Y55.754 Z-1.079
X86.368 Y55.773 Z-1.083
X86.27 Y55.776 Z-1.086
X86.172 Y55.763 Z-1.09
X86.077 Y55.735 Z-1.093
X85.989 Y55.691 Z-1.097
X85.908 Y55.635 Z-1.1
X85.837 Y55.566 Z-1.103
X85.778 Y55.487 Z-1.107
X85.733 Y55.399 Z-1.11
X85.702 Y55.306 Z-1.114
X85.686 Y55.208 Z-1.117
X85.687 Y55.11 Z-1.121
X85.703 Y55.012 Z-1.124
X85.734 Y54.919 Z-1.128
X85.78 Y54.831 Z-1.131
X85.839 Y54.752 Z-1.134
X85.91 Y54.684 Z-1.138
X85.991 Y54.627 Z-1.141
X86.08 Y54.585 Z-1.145
X86.174 Y54.557 Z-1.148
X86.272 Y54.544 Z-1.152
X86.371 Y54.548 Z-1.155
X86.467 Y54.566 Z-1.159
X86.56 Y54.601 Z-1.162
X86.646 Y54.649 Z-1.166
X86.723 Y54.711 Z-1.169
X86.789 Y54.784 Z-1.172
X86.843 Y54.866 Z-1.176
X86.883 Y54.957 Z-1.179
X86.908 Y55.052 Z-1.183
X86.917 Y55.15 Z-1.186
X86.911 Y55.249 Z-1.19
X86.889 Y55.345 Z-1.193
X86.852 Y55.436 Z-1.197
X86.801 Y55.521 Z-1.2
X86.737 Y55.596 Z-1.203
X86.662 Y55.66 Z-1.207
X86.578 Y55.711 Z-1.21
X86.487 Y55.748 Z-1.214
X86.39 Y55.77 Z-1.217
X86.292 Y55.776 Z-1.221
X86.194 Y55.767 Z-1.224
X86.098 Y55.742 Z-1.228
X86.008 Y55.702 Z-1.231
X85.925 Y55.649 Z-1.234
X85.852 Y55.583 Z-1.238
X85.791 Y55.506 Z-1.241
X85.742 Y55.42 Z-1.245
X85.708 Y55.327 Z-1.248
X85.689 Y55.23 Z-1.252
X85.685 Y55.132 Z-1.255
X85.698 Y55.034 Z-1.259
X85.725 Y54.939 Z-1.262
X85.768 Y54.85 Z-1.266
X85.824 Y54.769 Z-1.269
X85.893 Y54.698 Z-1.272
X85.972 Y54.639 Z-1.276
X86.059 Y54.593 Z-1.279
X86.152 Y54.562 Z-1.283
X86.25 Y54.546 Z-1.286
X86.348 Y54.545 Z-1.29
X86.446 Y54.561 Z-1.293
X86.539 Y54.592 Z-1.297
X86.627 Y54.637 Z-1.3
X86.706 Y54.696 Z-1.303
X86.775 Y54.766 Z-1.307
X86.832 Y54.847 Z-1.31
X86.875 Y54.936 Z-1.314
X86.904 Y55.03 Z-1.317
X86.917 Y55.128 Z-1.321
X86.914 Y55.226 Z-1.324
X86.896 Y55.323 Z-1.328
X86.862 Y55.416 Z-1.331
X86.814 Y55.502 Z-1.334
X86.753 Y55.58 Z-1.338
X86.68 Y55.646 Z-1.341
X86.598 Y55.7 Z-1.345
X86.508 Y55.741 Z-1.348
X86.412 Y55.766 Z-1.352
X86.314 Y55.776 Z-1.355
X86.216 Y55.771 Z-1.359
X86.12 Y55.749 Z-1.362
X86.028 Y55.713 Z-1.366
X85.943 Y55.662 Z-1.369
X85.868 Y55.599 Z-1.372
X85.803 Y55.524 Z-1.376
X85.752 Y55.44 Z-1.379
X85.714 Y55.349 Z-1.383
X85.692 Y55.253 Z-1.386
X85.685 Y55.154 Z-1.39
X85.693 Y55.056 Z-1.393
X85.718 Y54.96 Z-1.397
X85.757 Y54.87 Z-1.4
X85.81 Y54.787 Z-1.403
X85.876 Y54.713 Z-1.407
X85.953 Y54.651 Z-1.41
X86.038 Y54.602 Z-1.414
X86.131 Y54.568 Z-1.417
X86.227 Y54.548 Z-1.421
X86.326 Y54.544 Z-1.424
X86.424 Y54.556 Z-1.428
X86.519 Y54.583 Z-1.431
X86.608 Y54.625 Z-1.434
X86.689 Y54.681 Z-1.438
X86.761 Y54.749 Z-1.441
X86.82 Y54.828 Z-1.445
X86.867 Y54.915 Z-1.448
X86.899 Y55.008 Z-1.452
X86.915 Y55.105 Z-1.455
X86.916 Y55.204 Z-1.459
X86.901 Y55.302 Z-1.462
X86.871 Y55.395 Z-1.466
X86.826 Y55.483 Z-1.469
X86.768 Y55.563 Z-1.472
X86.698 Y55.632 Z-1.476
X86.617 Y55.689 Z-1.479
X86.529 Y55.733 Z-1.483
X86.434 Y55.762 Z-1.486
X86.337 Y55.776 Z-1.49
X86.238 Y55.773 Z-1.493
X86.141 Y55.755 Z-1.497
X86.048 Y55.722 Z-1.5
X84.821 Y55.17 F1300.
X84.714 Y55.099
X84.672 Y55.046
X84.625 Y54.908
X84.59 Y54.709
X84.939 Y54.61
X85.307 Y54.586
X86.298 Y54.534
X87.624 Y54.761
X87.762 Y54.813
X87.988 Y54.907
X87.973 Y54.96
X87.923 Y55.067
X87.895 Y55.099
X87.787 Y55.167
X86.366 Y55.807
X86.302 Y55.826
X86.245 Y55.811
X86.048 Y55.722
X86.017 Y55.7
X85.997 Y55.666
X85.993 Y55.628
X86.004 Y55.591
X86.029 Y55.561
X86.385 Y55.284
X86.732 Y55.
X86.761 Y54.984
X86.793 Y54.979
X86.826 Y54.984
X86.854 Y55.001
X86.875 Y55.026
X86.886 Y55.057
X86.894 Y55.154 Z-1.503 F333.
X86.887 Y55.251 Z-1.507
X86.865 Y55.346 Z-1.51
X86.827 Y55.435 Z-1.514
X86.775 Y55.518 Z-1.517
X86.711 Y55.591 Z-1.52
X86.635 Y55.652 Z-1.524
X86.551 Y55.701 Z-1.527
X86.46 Y55.735 Z-1.531
X86.364 Y55.754 Z-1.534
X86.267 Y55.757 Z-1.537
X86.171 Y55.745 Z-1.541
X86.077 Y55.717 Z-1.544
X85.99 Y55.674 Z-1.548
X85.911 Y55.618 Z-1.551
X85.841 Y55.549 Z-1.554
X85.784 Y55.471 Z-1.558
X85.74 Y55.384 Z-1.561
X85.711 Y55.291 Z-1.565
X85.698 Y55.195 Z-1.568
X85.7 Y55.097 Z-1.571
X85.717 Y55.002 Z-1.575
X85.751 Y54.91 Z-1.578
X85.798 Y54.825 Z-1.582
X85.859 Y54.749 Z-1.585
X85.931 Y54.684 Z-1.588
X86.012 Y54.631 Z-1.592
X86.102 Y54.592 Z-1.595
X86.196 Y54.568 Z-1.599
X86.293 Y54.56 Z-1.602
X86.39 Y54.567 Z-1.605
X86.484 Y54.59 Z-1.609
X86.574 Y54.628 Z-1.612
X86.656 Y54.681 Z-1.616
X86.729 Y54.745 Z-1.619
X86.79 Y54.821 Z-1.622
X86.838 Y54.905 Z-1.626
X86.872 Y54.997 Z-1.629
X86.891 Y55.092 Z-1.633
X86.894 Y55.189 Z-1.636
X86.881 Y55.286 Z-1.639
X86.853 Y55.379 Z-1.643
X86.81 Y55.466 Z-1.646
X86.753 Y55.545 Z-1.65
X86.684 Y55.614 Z-1.653
X86.606 Y55.671 Z-1.656
X86.519 Y55.715 Z-1.66
X86.426 Y55.743 Z-1.663
X86.329 Y55.757 Z-1.667
X86.232 Y55.754 Z-1.67
X86.136 Y55.736 Z-1.673
X86.045 Y55.703 Z-1.677
X85.96 Y55.655 Z-1.68
X85.884 Y55.594 Z-1.684
X85.819 Y55.522 Z-1.687
X85.767 Y55.44 Z-1.69
X85.728 Y55.351 Z-1.694
X85.705 Y55.256 Z-1.697
X85.696 Y55.159 Z-1.701
X85.704 Y55.062 Z-1.704
X85.728 Y54.968 Z-1.707
X85.766 Y54.879 Z-1.711
X85.818 Y54.797 Z-1.714
X85.883 Y54.724 Z-1.718
X85.959 Y54.663 Z-1.721
X86.044 Y54.615 Z-1.724
X86.135 Y54.582 Z-1.728
X86.231 Y54.563 Z-1.731
X86.328 Y54.561 Z-1.735
X86.424 Y54.574 Z-1.738
X86.517 Y54.602 Z-1.741
X86.605 Y54.646 Z-1.745
X86.684 Y54.703 Z-1.748
X86.752 Y54.771 Z-1.752
X86.809 Y54.85 Z-1.755
X86.852 Y54.938 Z-1.759
X86.881 Y55.031 Z-1.762
X86.894 Y55.127 Z-1.765
X86.891 Y55.224 Z-1.769
X86.872 Y55.32 Z-1.772
X86.839 Y55.411 Z-1.776
X86.791 Y55.496 Z-1.779
X86.73 Y55.572 Z-1.782
X86.657 Y55.636 Z-1.786
X86.575 Y55.689 Z-1.789
X86.485 Y55.727 Z-1.793
X86.391 Y55.75 Z-1.796
X86.294 Y55.758 Z-1.799
X86.197 Y55.75 Z-1.803
X86.103 Y55.726 Z-1.806
X86.013 Y55.687 Z-1.81
X85.932 Y55.635 Z-1.813
X85.859 Y55.569 Z-1.816
X85.799 Y55.493 Z-1.82
X85.751 Y55.409 Z-1.823
X85.718 Y55.317 Z-1.827
X85.7 Y55.222 Z-1.83
X85.697 Y55.124 Z-1.833
X85.711 Y55.028 Z-1.837
X85.74 Y54.935 Z-1.84
X85.783 Y54.848 Z-1.844
X85.841 Y54.769 Z-1.847
X85.91 Y54.701 Z-1.85
X85.989 Y54.644 Z-1.854
X86.076 Y54.601 Z-1.857
X86.169 Y54.573 Z-1.861
X86.266 Y54.561 Z-1.864
X86.363 Y54.564 Z-1.867
X86.459 Y54.582 Z-1.871
X86.55 Y54.616 Z-1.874
X86.634 Y54.665 Z-1.878
X86.71 Y54.726 Z-1.881
X86.774 Y54.799 Z-1.884
X86.826 Y54.881 Z-1.888
X86.864 Y54.971 Z-1.891
X86.887 Y55.065 Z-1.895
X86.894 Y55.162 Z-1.898
X86.886 Y55.259 Z-1.901
X86.862 Y55.354 Z-1.905
X86.823 Y55.443 Z-1.908
X86.77 Y55.524 Z-1.912
X86.705 Y55.596 Z-1.915
X86.628 Y55.657 Z-1.918
X86.543 Y55.704 Z-1.922
X86.452 Y55.737 Z-1.925
X86.356 Y55.755 Z-1.929
X86.259 Y55.757 Z-1.932
X86.163 Y55.743 Z-1.935
X86.07 Y55.714 Z-1.939
X85.983 Y55.67 Z-1.942
X85.904 Y55.612 Z-1.946
X85.836 Y55.543 Z-1.949
X85.78 Y55.464 Z-1.952
X85.737 Y55.376 Z-1.956
X85.709 Y55.283 Z-1.959
X85.697 Y55.186 Z-1.963
X85.701 Y55.089 Z-1.966
X85.72 Y54.994 Z-1.969
X85.754 Y54.903 Z-1.973
X85.803 Y54.818 Z-1.976
X85.864 Y54.743 Z-1.98
X85.937 Y54.679 Z-1.983
X86.02 Y54.627 Z-1.986
X86.109 Y54.589 Z-1.99
X86.204 Y54.567 Z-1.993
X86.301 Y54.56 Z-1.997
X86.398 Y54.569 Z-2.
X87.641 Y54.785 F1300.
X87.966 Y54.918
X87.954 Y54.959
X87.913 Y55.047
X87.88 Y55.088
X87.787 Y55.147
X86.32 Y55.804
X86.303 Y55.809
X86.246 Y55.793
X84.826 Y55.153
X84.722 Y55.085
X84.688 Y55.043
X84.646 Y54.921
X84.61 Y54.72
X84.966 Y54.621
X86.297 Y54.551
X86.398 Y54.569
X86.424 Y54.579
X86.442 Y54.6
X86.45 Y54.627
X86.446 Y54.654
X86.43 Y54.677
X86.218 Y54.874
X85.75 Y55.25
X85.64 Y55.451
X85.624 Y55.469
X85.601 Y55.476
X85.577 Y55.472
X84.831 Y55.136 Z-2.029 F333.
X84.735 Y55.072 Z-2.033
X84.706 Y55.036 Z-2.034
X84.656 Y54.884 Z-2.04
X84.63 Y54.733 Z-2.045
X84.974 Y54.637 Z-2.058
X86.298 Y54.569 Z-2.104
X87.612 Y54.793 Z-2.15
X87.945 Y54.927 Z-2.163
X87.935 Y54.959 Z-2.164
X87.897 Y55.04 Z-2.167
X87.871 Y55.071 Z-2.169
X87.744 Y55.148 Z-2.174
X86.32 Y55.786 Z-2.228
X86.303 Y55.791 Z-2.229
X86.248 Y55.775 Z-2.231
X84.831 Y55.136 Z-2.285
X84.735 Y55.072 Z-2.289
X84.706 Y55.036 Z-2.291
X84.656 Y54.884 Z-2.297
X84.63 Y54.733 Z-2.302
X84.974 Y54.637 Z-2.314
X86.298 Y54.569 Z-2.361
X87.612 Y54.793 Z-2.407
X87.945 Y54.927 Z-2.42
X87.935 Y54.959 Z-2.421
X87.897 Y55.04 Z-2.424
X87.871 Y55.071 Z-2.425
X87.744 Y55.148 Z-2.431
X86.32 Y55.786 Z-2.485
X86.303 Y55.791 Z-2.486
X86.248 Y55.775 Z-2.488
X85.927 Y55.63 Z-2.5
X84.831 Y55.136 F1300.
X84.735 Y55.072
X84.706 Y55.036
X84.656 Y54.884
X84.63 Y54.733
X84.974 Y54.637
X86.298 Y54.569
X87.612 Y54.793
X87.945 Y54.927
X87.935 Y54.959
X87.897 Y55.04
X87.871 Y55.071
X87.744 Y55.148
X86.32 Y55.786
X86.303 Y55.791
X86.248 Y55.775
X85.927 Y55.63
X85.894 Y55.608
X85.87 Y55.576
X85.858 Y55.537
X85.86 Y55.497
X85.875 Y55.46
X85.901 Y55.43
X85.936 Y55.41
X85.975 Y55.403
X86.015 Y55.409
X86.05 Y55.428
X86.237 Y55.575
X86.257 Y55.595
X86.272 Y55.619
X86.304 Y55.715
X86.305 Y55.734
X86.296 Y55.751
X86.28 Y55.76
X86.261
X86.251 Y55.757 F333.
X84.836 Y55.119 Z-2.555
X84.742 Y55.056 Z-2.558
X84.727 Y55.039 Z-2.559
X84.681 Y54.915 Z-2.564
X84.677 Y54.9
X84.649 Y54.74 Z-2.57
X84.656 Y54.738
X84.977 Y54.655 Z-2.582
X86.298 Y54.586 Z-2.628
X87.61 Y54.811 Z-2.675
X87.923 Y54.938 Z-2.686
X87.919 Y54.952 Z-2.687
X87.884 Y55.027 Z-2.69
X87.857 Y55.06 Z-2.691
X87.741 Y55.13 Z-2.696
X86.32 Y55.768 Z-2.75
X86.303 Y55.772 Z-2.751
X86.251 Y55.757 Z-2.753
X84.836 Y55.119 Z-2.807
X84.742 Y55.056 Z-2.811
X84.727 Y55.039 Z-2.812
X84.681 Y54.915 Z-2.816
X84.677 Y54.9 Z-2.817
X84.649 Y54.74 Z-2.823
X84.656 Y54.738
X84.977 Y54.655 Z-2.835
X86.298 Y54.586 Z-2.881
X87.61 Y54.811 Z-2.927
X87.923 Y54.938 Z-2.939
X87.919 Y54.952 Z-2.94
X87.884 Y55.027 Z-2.942
X87.857 Y55.06 Z-2.944
X87.741 Y55.13 Z-2.949
X86.399 Y55.732 Z-3.
X86.32 Y55.768 F1300.
X86.303 Y55.772
X86.251 Y55.757
X84.836 Y55.119
X84.742 Y55.056
X84.727 Y55.039
X84.681 Y54.915
X84.677 Y54.9
X84.649 Y54.74
X84.656 Y54.738
X84.977 Y54.655
X86.298 Y54.586
X87.61 Y54.811
X87.923 Y54.938
X87.919 Y54.952
X87.884 Y55.027
X87.857 Y55.06
X87.741 Y55.13
X86.399 Y55.732
X86.375 Y55.736
X86.353 Y55.728
X86.338 Y55.71
X86.333 Y55.686
X86.353 Y55.467
X86.372 Y55.22
X86.329 Y54.736
X86.333 Y54.7
X86.349 Y54.667
X86.375 Y54.642
X86.409 Y54.629
X86.445
X87.583 Y54.822 Z-3.04 F333.
X87.758 Y54.886 Z-3.047
X87.902 Y54.945 Z-3.052
X87.86 Y55.032 Z-3.056
X87.849 Y55.045
X87.738 Y55.113 Z-3.061
X86.32 Y55.75 Z-3.115
X86.304 Y55.754 Z-3.116
X86.254 Y55.739 Z-3.117
X84.838 Y55.098 Z-3.172
X84.75 Y55.04 Z-3.175
X84.743 Y55.031 Z-3.176
X84.691 Y54.88 Z-3.181
X84.669 Y54.752 Z-3.186
X84.976 Y54.674 Z-3.197
X86.298 Y54.604 Z-3.243
X87.583 Y54.822 Z-3.289
X87.758 Y54.886 Z-3.295
X87.902 Y54.945 Z-3.301
X87.86 Y55.032 Z-3.304
X87.849 Y55.045 Z-3.305
X87.738 Y55.113 Z-3.309
X86.32 Y55.75 Z-3.364
X86.304 Y55.754
X86.254 Y55.739 Z-3.366
X84.838 Y55.098 Z-3.42
X84.75 Y55.04 Z-3.424
X84.743 Y55.031
X84.691 Y54.88 Z-3.43
X84.669 Y54.752 Z-3.434
X84.976 Y54.674 Z-3.445
X86.298 Y54.604 Z-3.492
X86.532 Y54.643 Z-3.5
X87.583 Y54.822 F1300.
X87.758 Y54.886
X87.902 Y54.945
X87.86 Y55.032
X87.849 Y55.045
X87.738 Y55.113
X86.32 Y55.75
X86.304 Y55.754
X86.254 Y55.739
X84.838 Y55.098
X84.75 Y55.04
X84.743 Y55.031
X84.691 Y54.88
X84.669 Y54.752
X84.976 Y54.674
X86.298 Y54.604
X86.532 Y54.643
X86.572 Y54.658
X86.604 Y54.685
X86.625 Y54.723
X86.631 Y54.765
X86.622 Y54.807
X86.34 Y55.481
X86.329 Y55.518
X86.313 Y55.693
X86.305 Y55.713
X86.288 Y55.724
X86.267
X86.256 Y55.721 F333.
X84.837 Y55.078 Z-3.555
X84.764 Y55.029 Z-3.558
X84.758 Y55.021
X84.719 Y54.918 Z-3.562
X84.691 Y54.764 Z-3.568
X85.019 Y54.685 Z-3.579
X86.297 Y54.621 Z-3.624
X87.595 Y54.844 Z-3.67
X87.879 Y54.957 Z-3.681
X87.856 Y55.007 Z-3.683
X87.829 Y55.037 Z-3.684
X87.735 Y55.095 Z-3.688
X86.309 Y55.735 Z-3.742
X86.304 Y55.736 Z-3.743
X86.256 Y55.721 Z-3.744
X84.837 Y55.078 Z-3.799
X84.764 Y55.029 Z-3.802
X84.758 Y55.021
X84.719 Y54.918 Z-3.806
X84.691 Y54.764 Z-3.811
X85.019 Y54.685 Z-3.823
X86.297 Y54.621 Z-3.868
X87.595 Y54.844 Z-3.914
X87.879 Y54.957 Z-3.925
X87.856 Y55.007 Z-3.926
X87.829 Y55.037 Z-3.928
X87.735 Y55.095 Z-3.932
X86.309 Y55.735 Z-3.986
X86.304 Y55.736
X86.256 Y55.721 Z-3.988
X85.95 Y55.582 Z-4.
X84.837 Y55.078 F1300.
X84.764 Y55.029
X84.758 Y55.021
X84.719 Y54.918
X84.691 Y54.764
X85.019 Y54.685
X86.297 Y54.621
X87.595 Y54.844
X87.879 Y54.957
X87.856 Y55.007
X87.829 Y55.037
X87.735 Y55.095
X86.309 Y55.735
X86.304 Y55.736
X86.256 Y55.721
X85.95 Y55.582
X85.93 Y55.566
X85.92 Y55.543
X85.922 Y55.517
X85.997 Y55.282
X85.957 Y54.93
X85.893 Y54.715
X85.892 Y54.695
X85.9 Y54.676
X85.915 Y54.662
X85.935 Y54.656
X86.298 Y54.638 Z-4.013 F333.
X87.558 Y54.851 Z-4.057
X87.854 Y54.965 Z-4.068
X87.832 Y55.01 Z-4.07
X87.819 Y55.023 Z-4.071
X87.731 Y55.077 Z-4.074
X86.304 Y55.717 Z-4.129
X86.257 Y55.702 Z-4.131
X84.881 Y55.083 Z-4.183
X84.776 Y55.015 Z-4.188
X84.767 Y55.004
X84.727 Y54.883 Z-4.193
X84.709 Y54.777 Z-4.196
X85.02 Y54.702 Z-4.208
X86.298 Y54.638 Z-4.252
X87.558 Y54.851 Z-4.297
X87.854 Y54.965 Z-4.308
X87.832 Y55.01 Z-4.31
X87.819 Y55.023
X87.731 Y55.077 Z-4.314
X86.304 Y55.717 Z-4.369
X86.257 Y55.702 Z-4.37
X84.881 Y55.083 Z-4.423
X84.776 Y55.015 Z-4.427
X84.767 Y55.004 Z-4.428
X84.727 Y54.883 Z-4.432
X84.709 Y54.777 Z-4.436
X85.02 Y54.702 Z-4.447
X86.298 Y54.638 Z-4.492
X86.524 Y54.676 Z-4.5
X87.558 Y54.851 F1300.
X87.854 Y54.965
X87.832 Y55.01
X87.819 Y55.023
X87.731 Y55.077
X86.304 Y55.717
X86.257 Y55.702
X84.881 Y55.083
X84.776 Y55.015
X84.767 Y55.004
X84.727 Y54.883
X84.709 Y54.777
X85.02 Y54.702
X86.298 Y54.638
X86.524 Y54.676
X86.547 Y54.687
X86.561 Y54.706
X86.565 Y54.731
X86.543 Y54.965
X86.635 Y55.26
X86.748 Y55.444
X86.755 Y55.468
X86.748 Y55.491
X86.729 Y55.507
X86.297 Y55.701 Z-4.517 F333.
X84.882 Y55.064 Z-4.571
X84.79 Y55.004 Z-4.575
X84.782 Y54.995
X84.745 Y54.882 Z-4.579
X84.729 Y54.791 Z-4.582
X85.021 Y54.718 Z-4.593
X86.297 Y54.656 Z-4.637
X87.571 Y54.873 Z-4.683
X87.831 Y54.975 Z-4.692
X87.82 Y54.999 Z-4.693
X87.723 Y55.062 Z-4.697
X86.297 Y55.701 Z-4.752
X84.882 Y55.064 Z-4.806
X84.79 Y55.004 Z-4.81
X84.782 Y54.995
X84.745 Y54.882 Z-4.814
X84.729 Y54.791 Z-4.818
X85.021 Y54.718 Z-4.828
X86.297 Y54.656 Z-4.873
X87.571 Y54.873 Z-4.918
X87.831 Y54.975 Z-4.928
X87.82 Y54.999 Z-4.929
X87.723 Y55.062 Z-4.933
X86.297 Y55.701 Z-4.987
X85.964 Y55.551 Z-5.
X84.882 Y55.064 F1300.
X84.79 Y55.004
X84.782 Y54.995
X84.745 Y54.882
X84.729 Y54.791
X85.021 Y54.718
X86.297 Y54.656
X87.571 Y54.873
X87.831 Y54.975
X87.82 Y54.999
X87.723 Y55.062
X86.297 Y55.701
X85.964 Y55.551
X85.94 Y55.532
X85.927 Y55.503
X85.929 Y55.472
X85.945 Y55.445
X85.972 Y55.429
X86.239 Y55.347
X86.783 Y55.275
X86.958 Y55.294
X86.979 Y55.303
X86.993 Y55.321
X86.997 Y55.344
X86.988 Y55.365
X86.971 Y55.38
X86.296 Y55.682 Z-5.026 F333.
X84.884 Y55.046 Z-5.08
X84.804 Y54.994 Z-5.083
X84.797 Y54.985 Z-5.084
X84.762 Y54.881 Z-5.087
X84.749 Y54.808 Z-5.09
X85.011 Y54.74 Z-5.099
X85.046 Y54.733 Z-5.101
X86.297 Y54.673 Z-5.144
X87.528 Y54.88 Z-5.188
X87.808 Y54.985 Z-5.198
X87.697 Y55.055 Z-5.203
X86.296 Y55.682 Z-5.257
X84.884 Y55.046 Z-5.311
X84.804 Y54.994 Z-5.314
X84.797 Y54.985
X84.762 Y54.881 Z-5.318
X84.749 Y54.808 Z-5.321
X85.011 Y54.74 Z-5.33
X85.046 Y54.733 Z-5.332
X86.297 Y54.673 Z-5.375
X87.528 Y54.88 Z-5.419
X87.808 Y54.985 Z-5.429
X87.697 Y55.055 Z-5.434
X86.296 Y55.682 Z-5.488
X85.97 Y55.535 Z-5.5
X84.884 Y55.046 F1300.
X84.804 Y54.994
X84.797 Y54.985
X84.762 Y54.881
X84.749 Y54.808
X85.011 Y54.74
X85.046 Y54.733
X86.297 Y54.673
X87.528 Y54.88
X87.808 Y54.985
X87.697 Y55.055
X86.296 Y55.682
X85.97 Y55.535
X85.94 Y55.515
X85.918 Y55.486
X85.906 Y55.451
X85.865 Y55.205
X85.851 Y55.168
X85.826 Y55.138
X85.791 Y55.118
X85.268 Y54.935
X85.107 Y54.835
X85.091 Y54.818
X85.085 Y54.796
X85.091 Y54.773
X85.107 Y54.756
X85.129 Y54.749
X86.071 Y54.699 Z-5.533 F333.
X86.295 Y54.69 Z-5.541
X87.526 Y54.896 Z-5.584
X87.771 Y54.991 Z-5.594
X87.697 Y55.036 Z-5.597
X86.296 Y55.662 Z-5.65
X84.888 Y55.028 Z-5.704
X84.812 Y54.977 Z-5.707
X84.78 Y54.881 Z-5.711
X84.769 Y54.821 Z-5.713
X85.025 Y54.755 Z-5.722
X86.071 Y54.699 Z-5.759
X86.295 Y54.69 Z-5.767
X87.526 Y54.896 Z-5.81
X87.771 Y54.991 Z-5.819
X87.697 Y55.036 Z-5.822
X86.296 Y55.662 Z-5.876
X84.888 Y55.028 Z-5.93
X84.812 Y54.977 Z-5.933
X84.78 Y54.881 Z-5.937
X84.769 Y54.821 Z-5.939
X85.025 Y54.755 Z-5.948
X86.071 Y54.699 Z-5.984
X86.295 Y54.69 Z-5.992
X86.513 Y54.727 Z-6.
X87.526 Y54.896 F1300.
X87.771 Y54.991
X87.697 Y55.036
X86.296 Y55.662
X84.888 Y55.028
X84.812 Y54.977
X84.78 Y54.881
X84.769 Y54.821
X85.025 Y54.755
X86.071 Y54.699
X86.295 Y54.69
X86.513 Y54.727
X86.544 Y54.737
X86.569 Y54.756
X86.588 Y54.783
X86.672 Y54.961
X86.695 Y54.992
X86.727 Y55.012
X86.765 Y55.018
X87.472 Y55.004
X87.547 Y54.938
X87.56 Y54.931
X87.574 Y54.932
X87.732 Y54.993 Z-6.006 F333.
X87.691 Y55.019 Z-6.008
X86.299 Y55.641 Z-6.061
X86.263 Y55.629 Z-6.062
X84.885 Y55.006 Z-6.115
X84.83 Y54.97 Z-6.117
X84.797 Y54.876 Z-6.121
X84.79 Y54.836 Z-6.122
X85.069 Y54.766 Z-6.132
X86.297 Y54.708 Z-6.175
X87.526 Y54.914 Z-6.219
X87.732 Y54.993 Z-6.226
X87.691 Y55.019 Z-6.228
X86.299 Y55.641 Z-6.281
X86.263 Y55.629 Z-6.283
X84.885 Y55.006 Z-6.335
X84.83 Y54.97 Z-6.338
X84.797 Y54.876 Z-6.341
X84.79 Y54.836 Z-6.343
X85.069 Y54.766 Z-6.353
X86.297 Y54.708 Z-6.396
X87.526 Y54.914 Z-6.439
X87.732 Y54.993 Z-6.447
X87.691 Y55.019 Z-6.449
X86.346 Y55.62 Z-6.5
X86.299 Y55.641 F1300.
X86.263 Y55.629
X84.885 Y55.006
X84.83 Y54.97
X84.797 Y54.876
X84.79 Y54.836
X85.069 Y54.766
X86.297 Y54.708
X87.526 Y54.914
X87.732 Y54.993
X87.691 Y55.019
X86.346 Y55.62
X86.323 Y55.623
X86.302 Y55.613
X86.289 Y55.593
Y55.57
X86.302 Y55.55
X86.412 Y55.46
X87.549 Y55.016
X87.602 Y54.961
X87.696 Y54.997 Z-6.504 F333.
X86.299 Y55.625 Z-6.557
X84.885 Y54.985 Z-6.611
X84.845 Y54.959 Z-6.613
X84.816 Y54.884 Z-6.616
X84.809 Y54.846 Z-6.617
X85.068 Y54.783 Z-6.626
X86.297 Y54.725 Z-6.669
X87.493 Y54.924 Z-6.712
X87.581 Y54.953 Z-6.715
X87.696 Y54.997 Z-6.719
X86.299 Y55.625 Z-6.773
X84.885 Y54.985 Z-6.827
X84.845 Y54.959 Z-6.829
X84.816 Y54.884 Z-6.831
X84.809 Y54.846 Z-6.833
X85.068 Y54.783 Z-6.842
X86.297 Y54.725 Z-6.885
X87.493 Y54.924 Z-6.927
X87.581 Y54.953 Z-6.931
X87.696 Y54.997 Z-6.935
X86.299 Y55.625 Z-6.988
X85.993 Y55.487 Z-7.
X84.885 Y54.985 F1300.
X84.845 Y54.959
X84.816 Y54.884
X84.809 Y54.846
X85.068 Y54.783
X86.297 Y54.725
X87.493 Y54.924
X87.581 Y54.953
X87.696 Y54.997
X86.299 Y55.625
X85.993 Y55.487
X85.962 Y55.464
X85.942 Y55.431
X85.935 Y55.393
X85.944 Y55.355
X85.967 Y55.324
X86. Y55.304
X86.405 Y55.158
X87.024 Y55.033
X87.039 Y55.027
X87.05 Y55.016
X87.124 Y54.905
X87.142 Y54.89
X87.165 Y54.887
X87.481 Y54.939 Z-7.011 F333.
X87.646 Y55.001 Z-7.017
X86.3 Y55.607 Z-7.069
X84.886 Y54.965 Z-7.123
X84.855 Y54.945 Z-7.124
X84.833 Y54.879 Z-7.127
X84.829 Y54.859 Z-7.128
X85.068 Y54.799 Z-7.136
X86.297 Y54.743 Z-7.179
X87.481 Y54.939 Z-7.221
X87.646 Y55.001 Z-7.227
X86.3 Y55.607 Z-7.279
X84.886 Y54.965 Z-7.333
X84.855 Y54.945 Z-7.334
X84.833 Y54.879 Z-7.337
X84.829 Y54.859
X85.068 Y54.799 Z-7.346
X86.297 Y54.743 Z-7.389
X87.481 Y54.939 Z-7.431
X87.646 Y55.001 Z-7.437
X86.3 Y55.607 Z-7.489
X86.001 Y55.471 Z-7.5
X84.886 Y54.965 F1300.
X84.855 Y54.945
X84.833 Y54.879
X84.829 Y54.859
X85.068 Y54.799
X86.297 Y54.743
X87.481 Y54.939
X87.646 Y55.001
X86.3 Y55.607
X86.001 Y55.471
X85.982 Y55.458
X85.968 Y55.44
X85.961 Y55.419
X85.935 Y55.268
X85.926 Y55.244
X85.909 Y55.225
X85.887 Y55.213
X85.882 Y55.211
X85.859 Y55.209
X85.837 Y55.218
X85.724 Y55.299
X85.699 Y55.308
X85.673 Y55.304
X84.896 Y54.951 Z-7.53 F333.
X84.87 Y54.934 Z-7.531
X84.85 Y54.878 Z-7.533
X84.849 Y54.872
X85.068 Y54.818 Z-7.541
X86.298 Y54.761 Z-7.584
X87.481 Y54.956 Z-7.626
X87.602 Y55.002 Z-7.63
X86.3 Y55.588 Z-7.68
X84.896 Y54.951 Z-7.734
X84.87 Y54.934 Z-7.735
X84.85 Y54.878 Z-7.737
X84.849 Y54.872
X85.068 Y54.818 Z-7.745
X86.298 Y54.761 Z-7.788
X87.481 Y54.956 Z-7.83
X87.602 Y55.002 Z-7.835
X86.3 Y55.588 Z-7.885
X84.896 Y54.951 Z-7.938
X84.87 Y54.934 Z-7.94
X84.85 Y54.878 Z-7.942
X84.849 Y54.872
X85.068 Y54.818 Z-7.95
X86.298 Y54.761 Z-7.993
X86.506 Y54.795 Z-8.
X87.481 Y54.956 F1300.
X87.602 Y55.002
X86.3 Y55.588
X84.896 Y54.951
X84.87 Y54.934
X84.85 Y54.878
X84.849 Y54.872
X85.068 Y54.818
X86.298 Y54.761
X86.506 Y54.795
X86.529 Y54.806
X86.544 Y54.828
X86.545 Y54.854
X86.533 Y54.877
X86.378 Y55.044
X86.208 Y55.213
X86.108 Y55.428
X86.091 Y55.447
X86.068 Y55.457
X86.042 Y55.452
X84.927 Y54.95 Z-8.043 F333.
X84.882 Y54.917 Z-8.045
X84.871 Y54.886 Z-8.046
X85.095 Y54.831 Z-8.054
X86.297 Y54.778 Z-8.096
X87.48 Y54.973 Z-8.138
X87.556 Y55.002 Z-8.141
X86.294 Y55.566 Z-8.189
X84.927 Y54.95 Z-8.241
X84.882 Y54.917 Z-8.243
X84.871 Y54.886 Z-8.244
X85.095 Y54.831 Z-8.252
X86.297 Y54.778 Z-8.294
X87.48 Y54.973 Z-8.336
X87.556 Y55.002 Z-8.339
X86.294 Y55.566 Z-8.387
X84.927 Y54.95 Z-8.44
X84.882 Y54.917 Z-8.442
X84.871 Y54.886 Z-8.443
X85.095 Y54.831 Z-8.451
X86.297 Y54.778 Z-8.493
X86.497 Y54.811 Z-8.5
X87.48 Y54.973 F1300.
X87.556 Y55.002
X86.294 Y55.566
X84.927 Y54.95
X84.882 Y54.917
X84.871 Y54.886
X85.095 Y54.831
X86.297 Y54.778
X86.497 Y54.811
X86.523 Y54.822
X86.542 Y54.844
X86.549 Y54.872
X86.542 Y54.9
X86.407 Y55.171
X86.396 Y55.201
X86.395 Y55.229
X86.44 Y55.436
Y55.46
X86.429 Y55.481
X86.41 Y55.496
X86.295 Y55.547 Z-8.504 F333.
X84.939 Y54.937 Z-8.556
X84.898 Y54.91 Z-8.558
X84.894 Y54.901
X85.115 Y54.847 Z-8.566
X86.297 Y54.796 Z-8.608
X87.48 Y54.992 Z-8.65
X87.509 Y55.003 Z-8.651
X86.295 Y55.547 Z-8.697
X84.939 Y54.937 Z-8.749
X84.898 Y54.91 Z-8.751
X84.894 Y54.901
X85.115 Y54.847 Z-8.759
X86.297 Y54.796 Z-8.8
X87.48 Y54.992 Z-8.842
X87.509 Y55.003 Z-8.843
X86.295 Y55.547 Z-8.89
X84.939 Y54.937 Z-8.942
X84.898 Y54.91 Z-8.943
X84.894 Y54.901 Z-8.944
X85.115 Y54.847 Z-8.952
X86.297 Y54.796 Z-8.993
X86.495 Y54.829 Z-9.
X87.48 Y54.992 F1300.
X87.509 Y55.003
X86.295 Y55.547
X84.939 Y54.937
X84.898 Y54.91
X84.894 Y54.901
X85.115 Y54.847
X86.297 Y54.796
X86.495 Y54.829
X86.516 Y54.836
X86.533 Y54.852
X86.542 Y54.872
X86.59 Y55.059
X86.6 Y55.079
X86.616 Y55.095
X86.664 Y55.123
X86.821 Y55.226
X86.835 Y55.242
X86.839 Y55.263
X86.832 Y55.283
X86.816 Y55.296
X86.297 Y55.529 Z-9.02 F333.
X84.931 Y54.913 Z-9.072
X84.926 Y54.909
X85.111 Y54.864 Z-9.079
X86.296 Y54.813 Z-9.12
X87.46 Y55.008 Z-9.162
X86.297 Y55.529 Z-9.206
X84.931 Y54.913 Z-9.258
X84.926 Y54.909 Z-9.259
X85.111 Y54.864 Z-9.265
X86.296 Y54.813 Z-9.307
X87.46 Y55.008 Z-9.348
X86.297 Y55.529 Z-9.392
X84.931 Y54.913 Z-9.445
X84.926 Y54.909
X85.111 Y54.864 Z-9.452
X86.296 Y54.813 Z-9.493
X86.494 Y54.846 Z-9.5
X87.46 Y55.008 F1300.
X86.297 Y55.529
X84.931 Y54.913
X84.926 Y54.909
X85.111 Y54.864
X86.296 Y54.813
X86.494 Y54.846
X86.531 Y54.86
X86.559 Y54.888
X86.575 Y54.924
Y54.963
X86.559 Y54.999
X86.531 Y55.027
X86.495 Y55.041
X86.184 Y55.094
X86.153 Y55.095
X85.541 Y55.004
X85.525 Y55.005
X85.511 Y55.012
X85.418 Y55.088
X85.398 Y55.096
X85.377 Y55.093
X84.981 Y54.914 Z-9.515 F333.
X85.115 Y54.88 Z-9.52
X86.297 Y54.831 Z-9.561
X87.409 Y55.012 Z-9.601
X86.298 Y55.51 Z-9.643
X84.981 Y54.914 Z-9.694
X85.115 Y54.88 Z-9.698
X86.297 Y54.831 Z-9.74
X87.409 Y55.012 Z-9.779
X86.298 Y55.51 Z-9.822
X84.981 Y54.914 Z-9.872
X85.115 Y54.88 Z-9.877
X86.297 Y54.831 Z-9.918
X87.409 Y55.012 Z-9.958
X86.3 Y55.509 Z-10.
X86.298 Y55.51 F1300.
X84.981 Y54.914
X85.115 Y54.88
X86.297 Y54.831
X87.409 Y55.012
X86.3 Y55.509
X86.302 Y55.501
X86.795 Y54.965
X86.811 Y54.932
X87.35 Y55.019 Z-10.019 F333.
X86.299 Y55.492 Z-10.059
X85.03 Y54.92 Z-10.108
X85.115 Y54.899 Z-10.111
X86.311 Y54.851 Z-10.153
X87.35 Y55.019 Z-10.19
X86.299 Y55.492 Z-10.23
X85.03 Y54.92 Z-10.278
X85.115 Y54.899 Z-10.281
X86.311 Y54.851 Z-10.323
X87.35 Y55.019 Z-10.36
X86.299 Y55.492 Z-10.4
X85.03 Y54.92 Z-10.449
X85.115 Y54.899 Z-10.452
X86.311 Y54.851 Z-10.494
X86.489 Y54.88 Z-10.5
X87.35 Y55.019 F1300.
X86.299 Y55.492
X85.03 Y54.92
X85.115 Y54.899
X86.311 Y54.851
X86.489 Y54.88
X86.518 Y54.892
X86.538 Y54.916
X86.544 Y54.947
X86.538 Y55.084
X86.54 Y55.107
X86.551 Y55.127
X86.568 Y55.143
X86.677 Y55.218
X86.695 Y55.238
X86.699 Y55.264
X86.69 Y55.29
X86.669 Y55.307
X86.3 Y55.473 Z-10.514 F333.
X85.086 Y54.925 Z-10.561
X85.116 Y54.917 Z-10.562
X86.297 Y54.866 Z-10.603
X87.289 Y55.028 Z-10.638
X86.3 Y55.473 Z-10.676
X85.086 Y54.925 Z-10.722
X85.116 Y54.917 Z-10.723
X86.297 Y54.866 Z-10.765
X87.289 Y55.028 Z-10.8
X86.3 Y55.473 Z-10.838
X85.086 Y54.925 Z-10.884
X85.116 Y54.917 Z-10.885
X86.297 Y54.866 Z-10.927
X87.289 Y55.028 Z-10.962
X86.3 Y55.473 Z-11.
X86.288 Y55.467
X85.086 Y54.925 F1300.
X85.116 Y54.917
X86.297 Y54.866
X87.289 Y55.028
X86.3 Y55.473
X86.288 Y55.467
X86.327 Y55.427
X87.032 Y55.076
X87.079 Y55.012
X87.228 Y55.036 Z-11.005 F333.
X86.302 Y55.453 Z-11.041
X85.147 Y54.932 Z-11.085
X85.161 Y54.928
X86.296 Y54.883 Z-11.125
X87.228 Y55.036 Z-11.158
X86.302 Y55.453 Z-11.194
X85.147 Y54.932 Z-11.238
X85.161 Y54.928
X86.296 Y54.883 Z-11.278
X87.228 Y55.036 Z-11.311
X86.302 Y55.453 Z-11.346
X85.147 Y54.932 Z-11.391
X85.161 Y54.928
X86.296 Y54.883 Z-11.431
X87.228 Y55.036 Z-11.464
X86.302 Y55.453 Z-11.499
X86.282 Y55.445 Z-11.5
X85.147 Y54.932 F1300.
X85.161 Y54.928
X86.296 Y54.883
X87.228 Y55.036
X86.302 Y55.453
X86.282 Y55.445
X86.274 Y55.436
Y55.425
X86.282 Y55.416
X86.345 Y55.383
X87.125 Y55.056
X87.156 Y55.068
X86.302 Y55.453 Z-11.533 F333.
X85.148 Y54.932 Z-11.577
X85.161 Y54.929
X86.296 Y54.884 Z-11.617
X87.227 Y55.037 Z-11.65
X86.302 Y55.453 Z-11.685
X85.148 Y54.932 Z-11.73
X85.161 Y54.929
X86.296 Y54.884 Z-11.77
X87.227 Y55.037 Z-11.803
X86.302 Y55.453 Z-11.838
X85.148 Y54.932 Z-11.882
X85.161 Y54.929 Z-11.883
X86.296 Y54.884 Z-11.922
X87.227 Y55.037 Z-11.955
X86.302 Y55.453 Z-11.991
X86.061 Y55.344 Z-12.
X85.148 Y54.932 F1300.
X85.161 Y54.929
X86.296 Y54.884
X87.227 Y55.037
X86.302 Y55.453
X86.061 Y55.344
X86.012 Y55.322 Z-11.994
X85.967 Y55.302 Z-11.976
X85.925 Y55.283 Z-11.948
X85.891 Y55.267 Z-11.91
X85.865 Y55.256 Z-11.865
X85.849 Y55.249 Z-11.815
X85.844 Y55.246 Z-11.762
G0 Z5.
X86.948 Y46.365
Z0.763
G1 X86.95 Y46.382 Z0.674 F333.
X86.953 Y46.432 Z0.598
X86.949 Y46.506 Z0.545
X86.934 Y46.593 Z0.525
X86.903 Y46.69 Z0.521
X86.856 Y46.78 Z0.518
X86.796 Y46.863 Z0.514
X86.724 Y46.935 Z0.511
X86.642 Y46.994 Z0.507
X86.551 Y47.041 Z0.504
X86.454 Y47.072 Z0.5
X86.354 Y47.088 Z0.497
X86.252 Z0.493
X86.151 Y47.072 Z0.489
X86.054 Y47.041 Z0.486
X85.964 Y46.995 Z0.482
X85.881 Y46.935 Z0.479
X85.809 Y46.863 Z0.475
X85.749 Y46.781 Z0.472
X85.703 Y46.69 Z0.468
X85.671 Y46.593 Z0.464
X85.655 Y46.493 Z0.461
X85.654 Y46.391 Z0.457
X85.67 Y46.291 Z0.454
X85.701 Y46.194 Z0.45
X85.747 Y46.103 Z0.447
X85.806 Y46.02 Z0.443
X85.878 Y45.948 Z0.44
X85.96 Y45.887 Z0.436
X86.05 Y45.841 Z0.432
X86.147 Y45.808 Z0.429
X86.247 Y45.792 Z0.425
X86.349 Y45.791 Z0.422
X86.45 Y45.806 Z0.418
X86.547 Y45.837 Z0.415
X86.638 Y45.883 Z0.411
X86.721 Y45.942 Z0.408
X86.793 Y46.013 Z0.404
X86.854 Y46.095 Z0.4
X86.901 Y46.185 Z0.397
X86.933 Y46.282 Z0.393
X86.95 Y46.382 Z0.39
X86.951 Y46.484 Z0.386
X86.936 Y46.585 Z0.383
X86.906 Y46.682 Z0.379
X86.861 Y46.773 Z0.376
X86.802 Y46.856 Z0.372
X86.731 Y46.929 Z0.368
X86.649 Y46.99 Z0.365
X86.559 Y47.037 Z0.361
X86.463 Y47.07 Z0.358
X86.362 Y47.087 Z0.354
X86.26 Y47.089 Z0.351
X86.16 Y47.074 Z0.347
X86.062 Y47.044 Z0.343
X85.971 Y46.999 Z0.34
X85.888 Y46.94 Z0.336
X85.815 Y46.87 Z0.333
X85.754 Y46.788 Z0.329
X85.706 Y46.698 Z0.326
X85.673 Y46.602 Z0.322
X85.655 Y46.502 Z0.319
X85.654 Y46.4 Z0.315
X85.668 Y46.299 Z0.311
X85.698 Y46.202 Z0.308
X85.742 Y46.11 Z0.304
X85.8 Y46.027 Z0.301
X85.871 Y45.953 Z0.297
X85.952 Y45.892 Z0.294
X86.042 Y45.844 Z0.29
X86.138 Y45.811 Z0.287
X86.239 Y45.793 Z0.283
X86.34 Y45.791 Z0.279
X86.441 Y45.804 Z0.276
X86.539 Y45.834 Z0.272
X86.63 Y45.878 Z0.269
X86.714 Y45.936 Z0.265
X86.788 Y46.007 Z0.262
X86.849 Y46.088 Z0.258
X86.897 Y46.177 Z0.255
X86.931 Y46.273 Z0.251
X86.949 Y46.374 Z0.247
X86.952 Y46.475 Z0.244
X86.938 Y46.576 Z0.24
X86.909 Y46.674 Z0.237
X86.865 Y46.766 Z0.233
X86.807 Y46.85 Z0.23
X86.737 Y46.923 Z0.226
X86.656 Y46.985 Z0.222
X86.567 Y47.034 Z0.219
X86.471 Y47.068 Z0.215
X86.371 Y47.086 Z0.212
X86.269 Y47.089 Z0.208
X86.168 Y47.076 Z0.205
X86.07 Y47.047 Z0.201
X85.978 Y47.003 Z0.198
X85.894 Y46.946 Z0.194
X85.82 Y46.876 Z0.19
X85.758 Y46.795 Z0.187
X85.709 Y46.706 Z0.183
X85.675 Y46.61 Z0.18
X85.656 Y46.51 Z0.176
X85.653 Y46.408 Z0.173
X85.666 Y46.307 Z0.169
X85.694 Y46.21 Z0.166
X85.738 Y46.117 Z0.162
X85.795 Y46.033 Z0.158
X85.865 Y45.959 Z0.155
X85.945 Y45.897 Z0.151
X86.034 Y45.847 Z0.148
X86.13 Y45.813 Z0.144
X86.23 Y45.794 Z0.141
X86.332 Y45.79 Z0.137
X86.433 Y45.803 Z0.134
X86.531 Y45.831 Z0.13
X86.623 Y45.874 Z0.126
X86.707 Y45.931 Z0.123
X86.782 Y46. Z0.119
X86.845 Y46.081 Z0.116
X86.894 Y46.17 Z0.112
X86.929 Y46.265 Z0.109
X86.948 Y46.365 Z0.105
X86.952 Y46.467 Z0.101
X86.94 Y46.568 Z0.098
X86.912 Y46.666 Z0.094
X86.869 Y46.758 Z0.091
X86.813 Y46.843 Z0.087
X86.744 Y46.918 Z0.084
X86.664 Y46.98 Z0.08
X86.575 Y47.03 Z0.077
X86.479 Y47.065 Z0.073
X86.379 Y47.085 Z0.069
X86.278 Y47.089 Z0.066
X86.177 Y47.078 Z0.062
X86.078 Y47.05 Z0.059
X85.986 Y47.008 Z0.055
X85.901 Y46.951 Z0.052
X85.826 Y46.882 Z0.048
X85.763 Y46.803 Z0.045
X85.713 Y46.714 Z0.041
X85.677 Y46.618 Z0.037
X85.657 Y46.519 Z0.034
X85.653 Y46.417 Z0.03
X85.664 Y46.316 Z0.027
X85.691 Y46.218 Z0.023
X85.734 Y46.125 Z0.02
X85.79 Y46.04 Z0.016
X85.858 Y45.965 Z0.012
X85.938 Y45.901 Z0.009
X86.027 Y45.851 Z0.005
X86.122 Y45.815 Z0.002
X86.221 Y45.795 Z-0.002
X86.323 Y45.79 Z-0.005
X86.424 Y45.801 Z-0.009
X86.523 Y45.828 Z-0.012
X86.615 Y45.87 Z-0.016
X86.701 Y45.926 Z-0.02
X86.776 Y45.994 Z-0.023
X86.84 Y46.073 Z-0.027
X86.89 Y46.162 Z-0.03
X86.927 Y46.257 Z-0.034
X86.947 Y46.357 Z-0.037
X86.952 Y46.458 Z-0.041
X86.942 Y46.559 Z-0.044
X86.915 Y46.658 Z-0.048
X86.874 Y46.751 Z-0.052
X86.818 Y46.836 Z-0.055
X86.75 Y46.912 Z-0.059
X86.671 Y46.976 Z-0.062
X86.583 Y47.027 Z-0.066
X86.487 Y47.063 Z-0.069
X86.388 Y47.084 Z-0.073
X86.286 Y47.09 Z-0.076
X86.185 Y47.079 Z-0.08
X86.087 Y47.053 Z-0.084
X85.993 Y47.012 Z-0.087
X85.908 Y46.957 Z-0.091
X85.832 Y46.889 Z-0.094
X85.768 Y46.81 Z-0.098
X85.717 Y46.722 Z-0.101
X85.68 Y46.627 Z-0.105
X85.658 Y46.527 Z-0.109
X85.653 Y46.426 Z-0.112
X85.663 Y46.324 Z-0.116
X85.689 Y46.226 Z-0.119
X85.73 Y46.133 Z-0.123
X85.784 Y46.047 Z-0.126
X85.852 Y45.971 Z-0.13
X85.931 Y45.906 Z-0.133
X86.019 Y45.855 Z-0.137
X86.114 Y45.818 Z-0.141
X86.213 Y45.796 Z-0.144
X86.315 Y45.79 Z-0.148
X86.416 Y45.799 Z-0.151
X86.514 Y45.825 Z-0.155
X86.608 Y45.866 Z-0.158
X86.694 Y45.92 Z-0.162
X86.77 Y45.988 Z-0.165
X86.835 Y46.066 Z-0.169
X86.887 Y46.154 Z-0.173
X86.924 Y46.249 Z-0.176
X86.946 Y46.348 Z-0.18
X86.953 Y46.45 Z-0.183
X86.943 Y46.551 Z-0.187
X86.918 Y46.65 Z-0.19
X86.878 Y46.743 Z-0.194
X86.823 Y46.829 Z-0.197
X86.756 Y46.906 Z-0.201
X86.678 Y46.971 Z-0.205
X86.59 Y47.023 Z-0.208
X86.496 Y47.061 Z-0.212
X86.396 Y47.083 Z-0.215
X86.295 Y47.09 Z-0.219
X86.193 Y47.081 Z-0.222
X86.095 Y47.056 Z-0.226
X86.001 Y47.016 Z-0.23
X85.915 Y46.962 Z-0.233
X85.838 Y46.895 Z-0.237
X85.773 Y46.817 Z-0.24
X85.72 Y46.729 Z-0.244
X85.682 Y46.635 Z-0.247
X85.659 Y46.536 Z-0.251
X85.652 Y46.434 Z-0.254
X85.661 Y46.333 Z-0.258
X85.686 Y46.234 Z-0.262
X85.725 Y46.14 Z-0.265
X85.779 Y46.054 Z-0.269
X85.846 Y45.977 Z-0.272
X85.924 Y45.911 Z-0.276
X86.011 Y45.859 Z-0.279
X86.105 Y45.82 Z-0.283
X86.204 Y45.797 Z-0.286
X86.306 Y45.79 Z-0.29
X86.407 Y45.798 Z-0.294
X86.506 Y45.822 Z-0.297
X86.6 Y45.862 Z-0.301
X86.687 Y45.915 Z-0.304
X86.764 Y45.982 Z-0.308
X86.83 Y46.059 Z-0.311
X86.883 Y46.146 Z-0.315
X86.921 Y46.24 Z-0.318
X86.945 Y46.339 Z-0.322
X86.953 Y46.441 Z-0.326
X86.945 Y46.542 Z-0.329
X86.921 Y46.641 Z-0.333
X86.882 Y46.735 Z-0.336
X86.828 Y46.822 Z-0.34
X86.762 Y46.9 Z-0.343
X86.685 Y46.966 Z-0.347
X86.598 Y47.019 Z-0.351
X86.504 Y47.058 Z-0.354
X86.405 Y47.082 Z-0.358
X86.303 Y47.09 Z-0.361
X86.202 Y47.082 Z-0.365
X86.103 Y47.058 Z-0.368
X86.009 Y47.02 Z-0.372
X85.922 Y46.967 Z-0.375
X85.844 Y46.901 Z-0.379
X85.778 Y46.824 Z-0.383
X85.724 Y46.737 Z-0.386
X85.685 Y46.643 Z-0.39
X85.661 Y46.544 Z-0.393
X85.652 Y46.443 Z-0.397
X85.66 Y46.341 Z-0.4
X85.683 Y46.242 Z-0.404
X85.722 Y46.148 Z-0.407
X85.774 Y46.061 Z-0.411
X85.84 Y45.983 Z-0.415
X85.917 Y45.916 Z-0.418
X86.003 Y45.862 Z-0.422
X86.097 Y45.823 Z-0.425
X86.196 Y45.798 Z-0.429
X86.297 Y45.79 Z-0.432
X86.399 Y45.797 Z-0.436
X86.498 Y45.82 Z-0.439
X86.593 Y45.858 Z-0.443
X86.68 Y45.91 Z-0.447
X86.758 Y45.976 Z-0.45
X86.825 Y46.052 Z-0.454
X86.879 Y46.139 Z-0.457
X86.919 Y46.232 Z-0.461
X86.944 Y46.331 Z-0.464
X86.953 Y46.432 Z-0.468
X86.946 Y46.534 Z-0.472
X86.923 Y46.633 Z-0.475
X86.885 Y46.728 Z-0.479
X86.833 Y46.815 Z-0.482
X86.768 Y46.894 Z-0.486
X86.692 Y46.961 Z-0.489
X86.606 Y47.015 Z-0.493
X86.512 Y47.055 Z-0.496
X86.413 Y47.08 Z-0.5
X86.298 Y47.1 F1300.
X84.937 Y47.026
X84.554 Y46.916
X84.599 Y46.662
X84.659 Y46.512
X84.76 Y46.429
X84.824 Y46.389
X86.242 Y45.754
X86.303 Y45.738
X86.37 Y45.757
X87.786 Y46.394
X87.906 Y46.47
X87.929 Y46.49
X87.945 Y46.51
X88.012 Y46.646
X88.031 Y46.709
X87.66 Y46.865
X86.413 Y47.08
X86.383 Y47.078
X86.356 Y47.061
X86.341 Y47.034
Y47.003
X86.355 Y46.976
X86.533 Y46.778
X86.767 Y46.67
X86.793 Y46.664
X86.819 Y46.67
X86.841 Y46.685
X86.854 Y46.708
X86.857 Y46.735
X86.848 Y46.76
X86.791 Y46.842 Z-0.503 F333.
X86.722 Y46.914 Z-0.507
X86.642 Y46.974 Z-0.51
X86.553 Y47.021 Z-0.514
X86.459 Y47.053 Z-0.517
X86.36 Y47.07 Z-0.521
X86.26 Y47.071 Z-0.524
X86.161 Y47.057 Z-0.528
X86.066 Y47.027 Z-0.531
X85.976 Y46.983 Z-0.535
X85.895 Y46.925 Z-0.538
X85.823 Y46.854 Z-0.542
X85.764 Y46.774 Z-0.545
X85.718 Y46.685 Z-0.549
X85.687 Y46.59 Z-0.552
X85.671 Y46.491 Z-0.556
Y46.391 Z-0.559
X85.686 Y46.292 Z-0.563
X85.717 Y46.197 Z-0.566
X85.762 Y46.108 Z-0.57
X85.821 Y46.027 Z-0.573
X85.892 Y45.957 Z-0.577
X85.973 Y45.898 Z-0.58
X86.063 Y45.853 Z-0.584
X86.158 Y45.823 Z-0.587
X86.257 Y45.808 Z-0.591
X86.357 Y45.809 Z-0.594
X86.456 Y45.825 Z-0.598
X86.55 Y45.857 Z-0.601
X86.639 Y45.903 Z-0.605
X86.719 Y45.963 Z-0.608
X86.789 Y46.035 Z-0.612
X86.847 Y46.117 Z-0.615
X86.891 Y46.206 Z-0.619
X86.92 Y46.302 Z-0.622
X86.934 Y46.401 Z-0.626
X86.932 Y46.501 Z-0.629
X86.915 Y46.599 Z-0.633
X86.882 Y46.694 Z-0.636
X86.835 Y46.782 Z-0.64
X86.774 Y46.862 Z-0.643
X86.702 Y46.931 Z-0.647
X86.619 Y46.988 Z-0.65
X86.529 Y47.031 Z-0.654
X86.433 Y47.059 Z-0.657
X86.334 Y47.072 Z-0.661
X86.234 Y47.069 Z-0.664
X86.136 Y47.051 Z-0.668
X86.042 Y47.017 Z-0.671
X85.954 Y46.969 Z-0.675
X85.875 Y46.907 Z-0.678
X85.807 Y46.834 Z-0.682
X85.751 Y46.751 Z-0.685
X85.709 Y46.661 Z-0.689
X85.681 Y46.564 Z-0.692
X85.669 Y46.465 Z-0.696
X85.673 Y46.365 Z-0.699
X85.693 Y46.267 Z-0.703
X85.727 Y46.173 Z-0.706
X85.777 Y46.086 Z-0.71
X85.839 Y46.008 Z-0.713
X85.913 Y45.94 Z-0.717
X85.996 Y45.885 Z-0.72
X86.087 Y45.844 Z-0.724
X86.184 Y45.818 Z-0.727
X86.283 Y45.807 Z-0.731
X86.383 Y45.812 Z-0.734
X86.481 Y45.832 Z-0.738
X86.574 Y45.868 Z-0.741
X86.661 Y45.918 Z-0.745
X86.739 Y45.981 Z-0.748
X86.805 Y46.055 Z-0.752
X86.86 Y46.139 Z-0.755
X86.9 Y46.231 Z-0.759
X86.925 Y46.328 Z-0.762
X86.935 Y46.427 Z-0.766
X86.929 Y46.527 Z-0.769
X86.908 Y46.625 Z-0.773
X86.871 Y46.718 Z-0.776
X86.82 Y46.804 Z-0.78
X86.756 Y46.881 Z-0.783
X86.681 Y46.947 Z-0.787
X86.597 Y47. Z-0.79
X86.505 Y47.04 Z-0.794
X86.408 Y47.064 Z-0.797
X86.308 Y47.073 Z-0.801
X86.208 Y47.066 Z-0.804
X86.111 Y47.043 Z-0.808
X86.018 Y47.006 Z-0.811
X85.932 Y46.954 Z-0.815
X85.856 Y46.889 Z-0.818
X85.791 Y46.813 Z-0.822
X85.738 Y46.728 Z-0.825
X85.7 Y46.636 Z-0.829
X85.677 Y46.539 Z-0.832
X85.669 Y46.439 Z-0.836
X85.677 Y46.339 Z-0.839
X85.7 Y46.242 Z-0.843
X85.739 Y46.15 Z-0.846
X85.792 Y46.065 Z-0.85
X85.857 Y45.989 Z-0.853
X85.933 Y45.925 Z-0.857
X86.019 Y45.873 Z-0.86
X86.112 Y45.836 Z-0.864
X86.209 Y45.813 Z-0.867
X86.309 Y45.806 Z-0.871
X86.409 Y45.815 Z-0.874
X86.506 Y45.84 Z-0.878
X86.598 Y45.88 Z-0.881
X86.682 Y45.933 Z-0.885
X86.757 Y45.999 Z-0.888
X86.821 Y46.076 Z-0.892
X86.871 Y46.163 Z-0.895
X86.908 Y46.256 Z-0.899
X86.929 Y46.353 Z-0.902
X86.935 Y46.453 Z-0.906
X86.925 Y46.553 Z-0.909
X86.899 Y46.649 Z-0.913
X86.859 Y46.741 Z-0.916
X86.805 Y46.825 Z-0.92
X86.738 Y46.899 Z-0.923
X86.66 Y46.962 Z-0.927
X86.573 Y47.012 Z-0.93
X86.48 Y47.047 Z-0.934
X86.382 Y47.068 Z-0.937
X86.282 Y47.073 Z-0.941
X86.182 Y47.061 Z-0.944
X86.086 Y47.035 Z-0.948
X85.995 Y46.993 Z-0.951
X85.912 Y46.938 Z-0.955
X85.838 Y46.87 Z-0.958
X85.776 Y46.792 Z-0.962
X85.727 Y46.705 Z-0.965
X85.692 Y46.611 Z-0.969
X85.673 Y46.513 Z-0.972
X85.669 Y46.413 Z-0.976
X85.681 Y46.314 Z-0.979
X85.709 Y46.217 Z-0.983
X85.751 Y46.127 Z-0.986
X85.808 Y46.044 Z-0.99
X85.876 Y45.971 Z-0.993
X85.955 Y45.91 Z-0.997
X86.043 Y45.862 Z-1.
X86.243 Y45.772 F1300.
X86.303 Y45.756
X86.367 Y45.774
X87.782 Y46.412
X87.917 Y46.5
X87.933 Y46.518
X87.992 Y46.643
X88.01 Y46.7
X87.661 Y46.846
X86.298 Y47.083
X84.936 Y47.008
X84.573 Y46.904
X84.618 Y46.654
X84.658 Y46.54
X84.694 Y46.495
X84.838 Y46.402
X86.043 Y45.862
X86.074 Y45.856
X86.105 Y45.866
X86.128 Y45.889
X86.137 Y45.92
X86.13 Y45.951
X86.008 Y46.207
X85.804 Y46.396
X85.781 Y46.41
X85.753 Y46.414
X85.727 Y46.406
X85.706 Y46.388
X85.694 Y46.363
X85.693 Y46.336
X85.718 Y46.24 Z-1.003 F333.
X85.757 Y46.15 Z-1.007
X85.81 Y46.067 Z-1.01
X85.876 Y45.993 Z-1.014
X85.953 Y45.931 Z-1.017
X86.038 Y45.882 Z-1.021
X86.13 Y45.847 Z-1.024
X86.227 Y45.828 Z-1.028
X86.326 Y45.824 Z-1.031
X86.424 Y45.836 Z-1.034
X86.518 Y45.863 Z-1.038
X86.608 Y45.905 Z-1.041
X86.689 Y45.961 Z-1.045
X86.76 Y46.029 Z-1.048
X86.82 Y46.107 Z-1.052
X86.866 Y46.194 Z-1.055
X86.898 Y46.288 Z-1.059
X86.915 Y46.385 Z-1.062
X86.916 Y46.484 Z-1.066
X86.901 Y46.581 Z-1.069
X86.871 Y46.675 Z-1.072
X86.826 Y46.763 Z-1.076
X86.768 Y46.842 Z-1.079
X86.698 Y46.912 Z-1.083
X86.617 Y46.969 Z-1.086
X86.529 Y47.013 Z-1.09
X86.435 Y47.042 Z-1.093
X86.337 Y47.055 Z-1.097
X86.238 Y47.053 Z-1.1
X86.141 Y47.035 Z-1.103
X86.048 Y47.002 Z-1.107
X85.962 Y46.955 Z-1.11
X85.884 Y46.894 Z-1.114
X85.817 Y46.822 Z-1.117
X85.762 Y46.74 Z-1.121
X85.721 Y46.65 Z-1.124
X85.695 Y46.555 Z-1.128
X85.685 Y46.457 Z-1.131
X85.69 Y46.359 Z-1.134
X85.711 Y46.262 Z-1.138
X85.747 Y46.17 Z-1.141
X85.797 Y46.085 Z-1.145
X85.86 Y46.009 Z-1.148
X85.934 Y45.945 Z-1.152
X86.018 Y45.892 Z-1.155
X86.109 Y45.854 Z-1.159
X86.205 Y45.831 Z-1.162
X86.303 Y45.823 Z-1.166
X86.401 Y45.832 Z-1.169
X86.497 Y45.855 Z-1.172
X86.588 Y45.894 Z-1.176
X86.671 Y45.947 Z-1.179
X86.745 Y46.012 Z-1.183
X86.807 Y46.088 Z-1.186
X86.857 Y46.174 Z-1.19
X86.892 Y46.266 Z-1.193
X86.913 Y46.362 Z-1.197
X86.917 Y46.461 Z-1.2
X86.906 Y46.559 Z-1.203
X86.879 Y46.654 Z-1.207
X86.838 Y46.743 Z-1.21
X86.782 Y46.825 Z-1.214
X86.715 Y46.897 Z-1.217
X86.637 Y46.957 Z-1.221
X86.55 Y47.004 Z-1.224
X86.457 Y47.036 Z-1.228
X86.36 Y47.054 Z-1.231
X86.261 Y47.055 Z-1.234
X86.163 Y47.041 Z-1.238
X86.069 Y47.011 Z-1.241
X85.981 Y46.967 Z-1.245
X85.901 Y46.909 Z-1.248
X85.832 Y46.84 Z-1.252
X85.774 Y46.76 Z-1.255
X85.73 Y46.671 Z-1.259
X85.7 Y46.577 Z-1.262
X85.686 Y46.48 Z-1.266
X85.687 Y46.381 Z-1.269
X85.704 Y46.284 Z-1.272
X85.737 Y46.191 Z-1.276
X85.784 Y46.104 Z-1.279
X85.844 Y46.026 Z-1.283
X85.916 Y45.958 Z-1.286
X85.998 Y45.903 Z-1.29
X86.087 Y45.862 Z-1.293
X86.182 Y45.835 Z-1.297
X86.28 Y45.824 Z-1.3
X86.379 Y45.828 Z-1.303
X86.475 Y45.849 Z-1.307
X86.567 Y45.884 Z-1.31
X86.653 Y45.933 Z-1.314
X86.729 Y45.996 Z-1.317
X86.794 Y46.07 Z-1.321
X86.847 Y46.153 Z-1.324
X86.886 Y46.244 Z-1.328
X86.909 Y46.34 Z-1.331
X86.918 Y46.438 Z-1.334
X86.91 Y46.536 Z-1.338
X86.887 Y46.632 Z-1.341
X86.849 Y46.723 Z-1.345
X86.796 Y46.807 Z-1.348
X86.731 Y46.881 Z-1.352
X86.656 Y46.944 Z-1.355
X86.571 Y46.994 Z-1.359
X86.479 Y47.03 Z-1.362
X86.382 Y47.051 Z-1.366
X86.284 Y47.056 Z-1.369
X86.186 Y47.046 Z-1.372
X86.091 Y47.019 Z-1.376
X86.001 Y46.979 Z-1.379
X85.919 Y46.924 Z-1.383
X85.847 Y46.857 Z-1.386
X85.786 Y46.779 Z-1.39
X85.738 Y46.692 Z-1.393
X85.705 Y46.599 Z-1.397
X85.688 Y46.502 Z-1.4
X85.685 Y46.404 Z-1.403
X85.699 Y46.306 Z-1.407
X85.728 Y46.212 Z-1.41
X85.772 Y46.123 Z-1.414
X85.829 Y46.043 Z-1.417
X85.898 Y45.973 Z-1.421
X85.978 Y45.915 Z-1.424
X86.066 Y45.87 Z-1.428
X86.16 Y45.84 Z-1.431
X86.257 Y45.825 Z-1.434
X86.356 Y45.826 Z-1.438
X86.453 Y45.843 Z-1.441
X86.547 Y45.874 Z-1.445
X86.634 Y45.921 Z-1.448
X86.712 Y45.981 Z-1.452
X86.78 Y46.052 Z-1.455
X86.836 Y46.133 Z-1.459
X86.878 Y46.223 Z-1.462
X86.905 Y46.317 Z-1.466
X86.917 Y46.415 Z-1.469
X86.913 Y46.514 Z-1.472
X86.893 Y46.611 Z-1.476
X86.859 Y46.703 Z-1.479
X86.81 Y46.788 Z-1.483
X86.747 Y46.865 Z-1.486
X86.674 Y46.931 Z-1.49
X86.591 Y46.984 Z-1.493
X86.5 Y47.023 Z-1.497
X86.405 Y47.048 Z-1.5
X86.298 Y47.066 F1300.
X84.971 Y46.996
X84.843 Y46.966
X84.592 Y46.894
X84.632 Y46.667
X84.671 Y46.556
X84.71 Y46.505
X84.848 Y46.417
X86.244 Y45.789
X86.302 Y45.774
X86.366 Y45.793
X87.787 Y46.433
X87.886 Y46.496
X87.915 Y46.525
X87.964 Y46.623
X87.983 Y46.672
X87.989 Y46.69
X87.655 Y46.829
X87.479 Y46.864
X86.405 Y47.048
X86.375 Y47.047
X86.348 Y47.035
X86.328 Y47.014
X86.317 Y46.987
Y46.957
X86.329 Y46.93
X86.517 Y46.65
X86.771 Y46.436
X86.798 Y46.422
X86.827 Y46.419
X86.856 Y46.427
X86.879 Y46.446
X86.893 Y46.473
X86.896 Y46.502
X86.878 Y46.598 Z-1.503 F333.
X86.845 Y46.69 Z-1.507
X86.798 Y46.774 Z-1.51
X86.737 Y46.85 Z-1.514
X86.665 Y46.916 Z-1.517
X86.583 Y46.968 Z-1.52
X86.494 Y47.007 Z-1.524
X86.399 Y47.031 Z-1.527
X86.302 Y47.039 Z-1.531
X86.205 Y47.032 Z-1.534
X86.111 Y47.009 Z-1.537
X86.021 Y46.971 Z-1.541
X85.939 Y46.919 Z-1.544
X85.866 Y46.854 Z-1.548
X85.805 Y46.778 Z-1.551
X85.757 Y46.694 Z-1.554
X85.723 Y46.603 Z-1.558
X85.704 Y46.507 Z-1.561
X85.701 Y46.41 Z-1.565
X85.714 Y46.314 Z-1.568
X85.742 Y46.22 Z-1.571
X85.785 Y46.133 Z-1.575
X85.841 Y46.054 Z-1.578
X85.91 Y45.985 Z-1.582
X85.988 Y45.928 Z-1.585
X86.075 Y45.884 Z-1.588
X86.168 Y45.855 Z-1.592
X86.265 Y45.841 Z-1.595
X86.362 Y45.843 Z-1.599
X86.458 Y45.861 Z-1.602
X86.549 Y45.894 Z-1.605
X86.634 Y45.942 Z-1.609
X86.71 Y46.002 Z-1.612
X86.775 Y46.075 Z-1.616
X86.828 Y46.156 Z-1.619
X86.867 Y46.245 Z-1.622
X86.891 Y46.34 Z-1.626
X86.9 Y46.437 Z-1.629
X86.892 Y46.534 Z-1.633
X86.869 Y46.628 Z-1.636
X86.831 Y46.718 Z-1.639
X86.779 Y46.8 Z-1.643
X86.715 Y46.873 Z-1.646
X86.639 Y46.934 Z-1.65
X86.555 Y46.983 Z-1.653
X86.464 Y47.017 Z-1.656
X86.368 Y47.035 Z-1.66
X86.271 Y47.039 Z-1.663
X86.174 Y47.026 Z-1.667
X86.081 Y46.998 Z-1.67
X85.994 Y46.955 Z-1.673
X85.914 Y46.899 Z-1.677
X85.845 Y46.831 Z-1.68
X85.788 Y46.752 Z-1.684
X85.744 Y46.665 Z-1.687
X85.715 Y46.572 Z-1.69
X85.702 Y46.476 Z-1.694
X85.704 Y46.379 Z-1.697
X85.721 Y46.283 Z-1.701
X85.754 Y46.191 Z-1.704
X85.802 Y46.106 Z-1.707
X85.862 Y46.03 Z-1.711
X85.934 Y45.965 Z-1.714
X86.016 Y45.912 Z-1.718
X86.105 Y45.873 Z-1.721
X86.199 Y45.849 Z-1.724
X86.296 Y45.84 Z-1.728
X86.393 Y45.848 Z-1.731
X86.488 Y45.87 Z-1.735
X86.577 Y45.908 Z-1.738
X86.66 Y45.96 Z-1.741
X86.733 Y46.025 Z-1.745
X86.794 Y46.1 Z-1.748
X86.842 Y46.184 Z-1.752
X86.877 Y46.276 Z-1.755
X86.896 Y46.371 Z-1.759
X86.899 Y46.468 Z-1.762
X86.886 Y46.565 Z-1.765
X86.858 Y46.658 Z-1.769
X86.816 Y46.745 Z-1.772
X86.76 Y46.825 Z-1.776
X86.691 Y46.894 Z-1.779
X86.613 Y46.951 Z-1.782
X86.526 Y46.995 Z-1.786
X86.433 Y47.024 Z-1.789
X86.337 Y47.038 Z-1.793
X86.239 Y47.036 Z-1.796
X86.144 Y47.019 Z-1.799
X86.052 Y46.986 Z-1.803
X85.967 Y46.939 Z-1.806
X85.891 Y46.878 Z-1.81
X85.825 Y46.806 Z-1.813
X85.772 Y46.725 Z-1.816
X85.733 Y46.636 Z-1.82
X85.709 Y46.541 Z-1.823
X85.7 Y46.444 Z-1.827
X85.708 Y46.347 Z-1.83
X85.73 Y46.253 Z-1.833
X85.768 Y46.163 Z-1.837
X85.82 Y46.081 Z-1.84
X85.884 Y46.008 Z-1.844
X85.96 Y45.946 Z-1.847
X86.044 Y45.898 Z-1.85
X86.135 Y45.863 Z-1.854
X86.23 Y45.844 Z-1.857
X86.328 Y45.841 Z-1.861
X86.424 Y45.853 Z-1.864
X86.517 Y45.881 Z-1.867
X86.605 Y45.924 Z-1.871
X86.684 Y45.98 Z-1.874
X86.754 Y46.048 Z-1.878
X86.811 Y46.126 Z-1.881
X86.855 Y46.213 Z-1.884
X86.884 Y46.306 Z-1.888
X86.898 Y46.402 Z-1.891
X86.897 Y46.5 Z-1.895
X86.879 Y46.595 Z-1.898
X86.846 Y46.687 Z-1.901
X86.799 Y46.772 Z-1.905
X86.739 Y46.848 Z-1.908
X86.667 Y46.914 Z-1.912
X86.585 Y46.967 Z-1.915
X86.496 Y47.006 Z-1.918
X86.402 Y47.031 Z-1.922
X86.305 Y47.039 Z-1.925
X86.208 Y47.032 Z-1.929
X86.114 Y47.01 Z-1.932
X86.024 Y46.972 Z-1.935
X85.941 Y46.92 Z-1.939
X85.868 Y46.856 Z-1.942
X85.807 Y46.781 Z-1.946
X85.758 Y46.697 Z-1.949
X85.724 Y46.605 Z-1.952
X85.705 Y46.51 Z-1.956
X85.701 Y46.413 Z-1.959
X85.713 Y46.316 Z-1.963
X85.741 Y46.223 Z-1.966
X85.783 Y46.136 Z-1.969
X85.839 Y46.056 Z-1.973
X85.908 Y45.987 Z-1.976
X85.986 Y45.929 Z-1.98
X86.073 Y45.885 Z-1.983
X86.165 Y45.856 Z-1.986
X86.262 Y45.841 Z-1.99
X86.359 Y45.843 Z-1.993
X86.455 Y45.861 Z-1.997
X86.546 Y45.893 Z-2.
X87.786 Y46.452 F1300.
X87.877 Y46.51
X87.906 Y46.542
X87.912 Y46.552
X87.968 Y46.681
X87.641 Y46.815
X86.297 Y47.049
X84.977 Y46.98
X84.657 Y46.896
X84.61 Y46.883
X84.646 Y46.679
X84.687 Y46.559
X84.698 Y46.543
X84.719 Y46.517
X84.826 Y46.447
X86.246 Y45.807
X86.3 Y45.792
X86.364 Y45.811
X86.546 Y45.893
X86.57 Y45.912
X86.582 Y45.939
X86.581 Y45.968
X86.567 Y45.994
X86.356 Y46.219
X85.98 Y46.729
X85.933 Y46.967
X85.923 Y46.989
X85.904 Y47.005
X85.879 Y47.01
X84.98 Y46.963 Z-2.031 F333.
X84.633 Y46.868 Z-2.044
X84.67 Y46.663 Z-2.051
X84.703 Y46.568 Z-2.055
X84.73 Y46.531 Z-2.056
X84.831 Y46.464 Z-2.061
X86.248 Y45.825 Z-2.115
X86.3 Y45.81 Z-2.117
X86.362 Y45.83 Z-2.119
X87.786 Y46.473 Z-2.174
X87.867 Y46.525 Z-2.177
X87.894 Y46.556 Z-2.178
X87.945 Y46.671 Z-2.183
X87.62 Y46.805 Z-2.195
X87.608 Y46.808 Z-2.196
X86.298 Y47.031 Z-2.242
X84.98 Y46.963 Z-2.288
X84.633 Y46.868 Z-2.301
X84.67 Y46.663 Z-2.308
X84.703 Y46.568 Z-2.311
X84.73 Y46.531 Z-2.313
X84.831 Y46.464 Z-2.317
X86.248 Y45.825 Z-2.372
X86.3 Y45.81 Z-2.373
X86.362 Y45.83 Z-2.376
X87.786 Y46.473 Z-2.43
X87.867 Y46.525 Z-2.434
X87.894 Y46.556 Z-2.435
X87.945 Y46.671 Z-2.439
X87.62 Y46.805 Z-2.452
X87.608 Y46.808
X86.298 Y47.031 Z-2.499
X86.256 Y47.029 Z-2.5
X84.98 Y46.963 F1300.
X84.633 Y46.868
X84.67 Y46.663
X84.703 Y46.568
X84.73 Y46.531
X84.831 Y46.464
X86.248 Y45.825
X86.3 Y45.81
X86.362 Y45.83
X87.786 Y46.473
X87.867 Y46.525
X87.894 Y46.556
X87.945 Y46.671
X87.62 Y46.805
X87.608 Y46.808
X86.298 Y47.031
X86.256 Y47.029
X86.175 Y47.001
X86.123 Y47.005
X84.98 Y46.945 Z-2.54 F333.
X84.65 Y46.855 Z-2.552
X84.679 Y46.688 Z-2.558
X84.721 Y46.569 Z-2.562
X84.739 Y46.546 Z-2.563
X84.836 Y46.482 Z-2.567
X86.294 Y45.829 Z-2.623
X86.361 Y45.848 Z-2.626
X87.782 Y46.491 Z-2.68
X87.853 Y46.536 Z-2.683
X87.881 Y46.569 Z-2.684
X87.922 Y46.662 Z-2.688
X87.61 Y46.789 Z-2.7
X86.298 Y47.014 Z-2.746
X84.98 Y46.945 Z-2.792
X84.65 Y46.855 Z-2.804
X84.679 Y46.688 Z-2.81
X84.721 Y46.569 Z-2.815
X84.739 Y46.546 Z-2.816
X84.836 Y46.482 Z-2.82
X86.294 Y45.829 Z-2.876
X86.361 Y45.848 Z-2.878
X87.782 Y46.491 Z-2.932
X87.853 Y46.536 Z-2.935
X87.881 Y46.569 Z-2.937
X87.922 Y46.662 Z-2.94
X87.61 Y46.789 Z-2.952
X86.298 Y47.014 Z-2.999
X86.259 Y47.012 Z-3.
X84.98 Y46.945 F1300.
X84.65 Y46.855
X84.679 Y46.688
X84.721 Y46.569
X84.739 Y46.546
X84.836 Y46.482
X86.294 Y45.829
X86.361 Y45.848
X87.782 Y46.491
X87.853 Y46.536
X87.881 Y46.569
X87.922 Y46.662
X87.61 Y46.789
X86.298 Y47.014
X86.259 Y47.012
X86.237 Y47.005
X86.22 Y46.989
X86.212 Y46.967
X86.216 Y46.944
X86.306 Y46.723
X86.401 Y46.38
X86.449 Y46.014
X86.458 Y45.988
X86.476 Y45.966
X86.5 Y45.952
X86.528 Y45.949
X86.555 Y45.955
X87.776 Y46.508 Z-3.047 F333.
X87.846 Y46.552 Z-3.05
X87.856 Y46.564
X87.898 Y46.655 Z-3.054
X87.614 Y46.768 Z-3.064
X87.477 Y46.797 Z-3.069
X86.298 Y46.996 Z-3.111
X84.979 Y46.926 Z-3.157
X84.672 Y46.845 Z-3.168
X84.703 Y46.675 Z-3.174
X84.739 Y46.573 Z-3.178
X84.746 Y46.565
X84.879 Y46.48 Z-3.184
X86.295 Y45.846 Z-3.238
X86.359 Y45.867 Z-3.241
X87.776 Y46.508 Z-3.295
X87.846 Y46.552 Z-3.298
X87.856 Y46.564
X87.898 Y46.655 Z-3.302
X87.614 Y46.768 Z-3.312
X87.477 Y46.797 Z-3.317
X86.298 Y46.996 Z-3.359
X84.979 Y46.926 Z-3.405
X84.672 Y46.845 Z-3.416
X84.703 Y46.675 Z-3.422
X84.739 Y46.573 Z-3.426
X84.746 Y46.565
X84.879 Y46.48 Z-3.432
X86.295 Y45.846 Z-3.486
X86.359 Y45.867 Z-3.489
X86.659 Y46.002 Z-3.5
X87.776 Y46.508 F1300.
X87.846 Y46.552
X87.856 Y46.564
X87.898 Y46.655
X87.614 Y46.768
X87.477 Y46.797
X86.298 Y46.996
X84.979 Y46.926
X84.672 Y46.845
X84.703 Y46.675
X84.739 Y46.573
X84.746 Y46.565
X84.879 Y46.48
X86.295 Y45.846
X86.359 Y45.867
X86.659 Y46.002
X86.679 Y46.018
X86.689 Y46.042
X86.687 Y46.068
X86.673 Y46.09
X86.65 Y46.102
X86.434 Y46.156
X86.109 Y46.175
X85.906 Y46.141
X85.882 Y46.13
X85.867 Y46.11
X85.864 Y46.084
X85.874 Y46.06
X85.894 Y46.044
X86.296 Y45.864 Z-3.515 F333.
X86.344 Y45.879 Z-3.517
X87.77 Y46.525 Z-3.572
X87.826 Y46.56 Z-3.574
X87.852 Y46.589 Z-3.575
X87.876 Y46.644 Z-3.578
X87.638 Y46.741 Z-3.587
X87.577 Y46.763 Z-3.589
X86.298 Y46.979 Z-3.634
X85.019 Y46.915 Z-3.679
X84.691 Y46.836 Z-3.691
X84.719 Y46.682 Z-3.696
X84.758 Y46.579 Z-3.7
X84.761 Y46.575
X84.88 Y46.498 Z-3.705
X86.296 Y45.864 Z-3.759
X86.344 Y45.879 Z-3.761
X87.77 Y46.525 Z-3.816
X87.826 Y46.56 Z-3.818
X87.852 Y46.589 Z-3.819
X87.876 Y46.644 Z-3.821
X87.638 Y46.741 Z-3.83
X87.577 Y46.763 Z-3.833
X86.298 Y46.979 Z-3.878
X85.019 Y46.915 Z-3.923
X84.691 Y46.836 Z-3.934
X84.719 Y46.682 Z-3.94
X84.758 Y46.579 Z-3.944
X84.761 Y46.575
X84.88 Y46.498 Z-3.949
X86.216 Y45.9 Z-4.
X86.296 Y45.864 F1300.
X86.344 Y45.879
X87.77 Y46.525
X87.826 Y46.56
X87.852 Y46.589
X87.876 Y46.644
X87.638 Y46.741
X87.577 Y46.763
X86.298 Y46.979
X85.019 Y46.915
X84.691 Y46.836
X84.719 Y46.682
X84.758 Y46.579
X84.761 Y46.575
X84.88 Y46.498
X86.216 Y45.9
X86.237 Y45.896
X86.256 Y45.904
X86.269 Y45.921
X86.272 Y45.941
X86.264 Y45.961
X86.168 Y46.079
X85.948 Y46.237
X85.924 Y46.249
X85.721 Y46.306
X85.689 Y46.307
X85.659 Y46.296
X85.637 Y46.273
X85.626 Y46.242
X85.628 Y46.21
X85.644 Y46.182
X85.67 Y46.163
X86.297 Y45.882 Z-4.024 F333.
X86.33 Y45.892 Z-4.025
X87.765 Y46.541 Z-4.08
X87.817 Y46.574 Z-4.082
X87.832 Y46.59 Z-4.083
X87.853 Y46.634 Z-4.085
X87.586 Y46.74 Z-4.095
X87.477 Y46.763 Z-4.099
X86.298 Y46.962 Z-4.141
X85.022 Y46.899 Z-4.185
X84.712 Y46.82 Z-4.196
X84.738 Y46.676 Z-4.201
X84.766 Y46.598 Z-4.204
X84.776 Y46.585 Z-4.205
X84.881 Y46.517 Z-4.209
X86.297 Y45.882 Z-4.263
X86.33 Y45.892 Z-4.265
X87.765 Y46.541 Z-4.32
X87.817 Y46.574 Z-4.322
X87.832 Y46.59 Z-4.323
X87.853 Y46.634 Z-4.324
X87.586 Y46.74 Z-4.334
X87.477 Y46.763 Z-4.338
X86.298 Y46.962 Z-4.38
X85.022 Y46.899 Z-4.425
X84.712 Y46.82 Z-4.436
X84.738 Y46.676 Z-4.441
X84.766 Y46.598 Z-4.444
X84.776 Y46.585
X84.881 Y46.517 Z-4.449
X86.222 Y45.915 Z-4.5
X86.297 Y45.882 F1300.
X86.33 Y45.892
X87.765 Y46.541
X87.817 Y46.574
X87.832 Y46.59
X87.853 Y46.634
X87.586 Y46.74
X87.477 Y46.763
X86.298 Y46.962
X85.022 Y46.899
X84.712 Y46.82
X84.738 Y46.676
X84.766 Y46.598
X84.776 Y46.585
X84.881 Y46.517
X86.222 Y45.915
X86.247 Y45.911
X86.272 Y45.921
X86.287 Y45.942
X86.29 Y45.969
X86.278 Y45.992
X86.157 Y46.127
X85.762 Y46.374
X85.736 Y46.385
X85.503 Y46.435
X85.469
X85.437 Y46.421
X85.414 Y46.396
X85.404 Y46.364
X85.407 Y46.329
X85.424 Y46.3
X85.452 Y46.28
X86.294 Y45.901 Z-4.532 F333.
X86.342 Y45.916 Z-4.534
X87.754 Y46.556 Z-4.588
X87.818 Y46.598 Z-4.591
X87.83 Y46.625 Z-4.592
X87.571 Y46.727 Z-4.602
X86.297 Y46.944 Z-4.647
X85.021 Y46.882 Z-4.691
X84.732 Y46.81 Z-4.702
X84.756 Y46.676 Z-4.706
X84.779 Y46.611 Z-4.709
X84.79 Y46.596 Z-4.71
X84.882 Y46.536 Z-4.713
X86.294 Y45.901 Z-4.767
X86.342 Y45.916 Z-4.769
X87.754 Y46.556 Z-4.823
X87.818 Y46.598 Z-4.826
X87.83 Y46.625 Z-4.827
X87.571 Y46.727 Z-4.837
X86.297 Y46.944 Z-4.882
X85.021 Y46.882 Z-4.926
X84.732 Y46.81 Z-4.937
X84.756 Y46.676 Z-4.942
X84.779 Y46.611 Z-4.944
X84.79 Y46.596 Z-4.945
X84.882 Y46.536 Z-4.949
X86.227 Y45.931 Z-5.
X86.294 Y45.901 F1300.
X86.342 Y45.916
X87.754 Y46.556
X87.818 Y46.598
X87.83 Y46.625
X87.571 Y46.727
X86.297 Y46.944
X85.021 Y46.882
X84.732 Y46.81
X84.756 Y46.676
X84.779 Y46.611
X84.79 Y46.596
X84.882 Y46.536
X86.227 Y45.931
X86.248 Y45.927
X86.268 Y45.933
X86.283 Y45.947
X86.4 Y46.118
X87.175 Y46.547
X87.343 Y46.669
X87.359 Y46.691
X87.361 Y46.718
X87.348 Y46.741
X87.324 Y46.754
X87.099 Y46.795 Z-5.008 F333.
X86.299 Y46.927 Z-5.036
X85.024 Y46.864 Z-5.081
X84.753 Y46.793 Z-5.091
X84.774 Y46.677 Z-5.095
X84.796 Y46.615 Z-5.097
X84.801 Y46.609
X84.884 Y46.554 Z-5.101
X86.296 Y45.918 Z-5.155
X87.753 Y46.575 Z-5.211
X87.802 Y46.606 Z-5.213
X87.807 Y46.612
X87.569 Y46.709 Z-5.222
X87.099 Y46.795 Z-5.239
X86.299 Y46.927 Z-5.267
X85.024 Y46.864 Z-5.312
X84.753 Y46.793 Z-5.321
X84.774 Y46.677 Z-5.325
X84.796 Y46.615 Z-5.328
X84.801 Y46.609
X84.884 Y46.554 Z-5.332
X86.296 Y45.918 Z-5.386
X87.753 Y46.575 Z-5.441
X87.802 Y46.606 Z-5.443
X87.807 Y46.612 Z-5.444
X87.569 Y46.709 Z-5.453
X87.099 Y46.795 Z-5.469
X86.299 Y46.927 Z-5.498
X86.232 Y46.924 Z-5.5
X85.024 Y46.864 F1300.
X84.753 Y46.793
X84.774 Y46.677
X84.796 Y46.615
X84.801 Y46.609
X84.884 Y46.554
X86.296 Y45.918
X87.753 Y46.575
X87.802 Y46.606
X87.807 Y46.612
X87.569 Y46.709
X87.099 Y46.795
X86.299 Y46.927
X86.232 Y46.924
X86.192 Y46.915
X86.157 Y46.892
X86.132 Y46.859
X86.12 Y46.819
X86.122 Y46.778
X86.138 Y46.74
X86.166 Y46.71
X86.203 Y46.691
X86.572 Y46.579
X86.61 Y46.574
X87.458 Y46.598
X87.577 Y46.628
X87.593 Y46.638
X87.599 Y46.655
X87.595 Y46.673
X87.58 Y46.685
X87.557 Y46.694 Z-5.501 F333.
X87.472 Y46.713 Z-5.504
X86.297 Y46.91 Z-5.546
X85.065 Y46.851 Z-5.589
X84.769 Y46.781 Z-5.599
X84.78 Y46.719 Z-5.601
X84.812 Y46.623 Z-5.605
X84.888 Y46.572 Z-5.608
X86.295 Y45.938 Z-5.662
X87.748 Y46.592 Z-5.718
X87.775 Y46.609 Z-5.719
X87.557 Y46.694 Z-5.727
X87.472 Y46.713 Z-5.73
X86.297 Y46.91 Z-5.772
X85.065 Y46.851 Z-5.815
X84.769 Y46.781 Z-5.825
X84.78 Y46.719 Z-5.827
X84.812 Y46.623 Z-5.831
X84.888 Y46.572 Z-5.834
X86.295 Y45.938 Z-5.888
X87.748 Y46.592 Z-5.944
X87.775 Y46.609 Z-5.945
X87.557 Y46.694 Z-5.953
X87.472 Y46.713 Z-5.956
X86.297 Y46.91 Z-5.998
X86.23 Y46.906 Z-6.
X85.065 Y46.851 F1300.
X84.769 Y46.781
X84.78 Y46.719
X84.812 Y46.623
X84.888 Y46.572
X86.295 Y45.938
X87.748 Y46.592
X87.775 Y46.609
X87.557 Y46.694
X87.472 Y46.713
X86.297 Y46.91
X86.23 Y46.906
X86.194 Y46.899
X86.162 Y46.88
X86.138 Y46.852
X86.009 Y46.639
X85.982 Y46.608
X85.947 Y46.589
X85.907 Y46.584
X85.271 Y46.616
X85.098 Y46.586
X85.078 Y46.576
X85.065 Y46.559
X85.062 Y46.537
X85.071 Y46.517
X85.088 Y46.503
X86.305 Y45.957 Z-6.047 F333.
X87.736 Y46.606 Z-6.101
X87.526 Y46.687 Z-6.109
X86.297 Y46.892 Z-6.153
X85.069 Y46.834 Z-6.196
X84.79 Y46.764 Z-6.206
X84.797 Y46.724 Z-6.207
X84.83 Y46.63 Z-6.211
X84.884 Y46.595 Z-6.213
X86.305 Y45.957 Z-6.267
X87.736 Y46.606 Z-6.322
X87.526 Y46.687 Z-6.33
X86.297 Y46.892 Z-6.374
X85.069 Y46.834 Z-6.416
X84.79 Y46.764 Z-6.426
X84.797 Y46.724 Z-6.428
X84.83 Y46.63 Z-6.431
X84.884 Y46.595 Z-6.434
X86.305 Y45.957 Z-6.488
X86.617 Y46.099 Z-6.5
X87.736 Y46.606 F1300.
X87.526 Y46.687
X86.297 Y46.892
X85.069 Y46.834
X84.79 Y46.764
X84.797 Y46.724
X84.83 Y46.63
X84.884 Y46.595
X86.305 Y45.957
X86.617 Y46.099
X86.643 Y46.116
X86.663 Y46.141
X86.674 Y46.171
X86.709 Y46.354
X86.723 Y46.39
X86.75 Y46.417
X86.786 Y46.433
X87.059 Y46.49
X87.077
X87.094 Y46.482
X87.194 Y46.404
X87.215 Y46.396
X87.237 Y46.399
X87.691 Y46.605 Z-6.517 F333.
X87.527 Y46.667 Z-6.524
X86.332 Y46.869 Z-6.566
X86.299 Y46.875 Z-6.567
X85.068 Y46.817 Z-6.61
X84.809 Y46.754 Z-6.619
X84.815 Y46.72 Z-6.621
X84.84 Y46.646 Z-6.623
X84.926 Y46.593 Z-6.627
X86.301 Y45.975 Z-6.679
X86.306 Y45.977 Z-6.68
X87.691 Y46.605 Z-6.733
X87.527 Y46.667 Z-6.739
X86.332 Y46.869 Z-6.781
X86.299 Y46.875 Z-6.782
X85.068 Y46.817 Z-6.825
X84.809 Y46.754 Z-6.835
X84.815 Y46.72 Z-6.836
X84.84 Y46.646 Z-6.839
X84.926 Y46.593 Z-6.842
X86.301 Y45.975 Z-6.895
X86.306 Y45.977
X87.691 Y46.605 Z-6.948
X87.527 Y46.667 Z-6.954
X86.332 Y46.869 Z-6.996
X86.299 Y46.875 Z-6.998
X86.23 Y46.871 Z-7.
X85.068 Y46.817 F1300.
X84.809 Y46.754
X84.815 Y46.72
X84.84 Y46.646
X84.926 Y46.593
X86.301 Y45.975
X86.306 Y45.977
X87.691 Y46.605
X87.527 Y46.667
X86.332 Y46.869
X86.299 Y46.875
X86.23 Y46.871
X86.203 Y46.864
X86.183 Y46.845
X86.174 Y46.819
X86.178 Y46.791
X86.194 Y46.769
X86.387 Y46.602
X86.69 Y46.411
X86.79 Y46.254
X86.804 Y46.241
X86.822 Y46.235
X86.841 Y46.238
X87.641 Y46.601 Z-7.031 F333.
X87.481 Y46.661 Z-7.037
X86.297 Y46.857 Z-7.079
X85.068 Y46.801 Z-7.122
X84.829 Y46.741 Z-7.13
X84.833 Y46.721 Z-7.131
X84.854 Y46.658 Z-7.133
X84.929 Y46.61 Z-7.136
X86.3 Y45.993 Z-7.189
X87.641 Y46.601 Z-7.24
X87.481 Y46.661 Z-7.246
X86.297 Y46.857 Z-7.288
X85.068 Y46.801 Z-7.331
X84.829 Y46.741 Z-7.34
X84.833 Y46.721
X84.854 Y46.658 Z-7.343
X84.929 Y46.61 Z-7.346
X86.3 Y45.993 Z-7.398
X87.641 Y46.601 Z-7.45
X87.481 Y46.661 Z-7.456
X86.297 Y46.857 Z-7.497
X86.225 Y46.854 Z-7.5
X85.068 Y46.801 F1300.
X84.829 Y46.741
X84.833 Y46.721
X84.854 Y46.658
X84.929 Y46.61
X86.3 Y45.993
X87.641 Y46.601
X87.481 Y46.661
X86.297 Y46.857
X86.225 Y46.854
X86.201 Y46.849
X86.18 Y46.836
X86.165 Y46.818
X86.081 Y46.682
X86.063 Y46.662
X86.039 Y46.65
X86.012 Y46.647
X85.648 Y46.675
X85.63 Y46.681
X85.617 Y46.693
X85.558 Y46.785
X85.543 Y46.799
X85.523 Y46.803
X85.068 Y46.782 Z-7.516 F333.
X84.849 Y46.728 Z-7.524
X84.85 Y46.722
X84.868 Y46.669 Z-7.526
X84.936 Y46.626 Z-7.529
X86.303 Y46.014 Z-7.581
X87.597 Y46.6 Z-7.631
X87.481 Y46.644 Z-7.635
X86.298 Y46.839 Z-7.677
X85.068 Y46.782 Z-7.72
X84.849 Y46.728 Z-7.728
X84.85 Y46.722
X84.868 Y46.669 Z-7.73
X84.936 Y46.626 Z-7.733
X86.303 Y46.014 Z-7.785
X87.597 Y46.6 Z-7.835
X87.481 Y46.644 Z-7.839
X86.298 Y46.839 Z-7.881
X85.068 Y46.782 Z-7.924
X84.849 Y46.728 Z-7.932
X84.85 Y46.722
X84.868 Y46.669 Z-7.934
X84.936 Y46.626 Z-7.937
X86.303 Y46.014 Z-7.989
X86.594 Y46.146 Z-8.
X87.597 Y46.6 F1300.
X87.481 Y46.644
X86.298 Y46.839
X85.068 Y46.782
X84.849 Y46.728
X84.85 Y46.722
X84.868 Y46.669
X84.936 Y46.626
X86.303 Y46.014
X86.594 Y46.146
X86.614 Y46.162
X86.622 Y46.186
X86.618 Y46.211
X86.601 Y46.231
X86.41 Y46.359
X86.006 Y46.619
X85.997 Y46.628
X85.991 Y46.639
X85.939 Y46.778
X85.924 Y46.798
X85.9 Y46.804
X85.095 Y46.769 Z-8.028 F333.
X84.871 Y46.714 Z-8.036
X84.882 Y46.683 Z-8.037
X84.927 Y46.65 Z-8.039
X86.301 Y46.032 Z-8.092
X87.557 Y46.598 Z-8.14
X87.48 Y46.627 Z-8.143
X86.297 Y46.822 Z-8.185
X85.095 Y46.769 Z-8.227
X84.871 Y46.714 Z-8.235
X84.882 Y46.683 Z-8.236
X84.927 Y46.65 Z-8.238
X86.301 Y46.032 Z-8.291
X87.557 Y46.598 Z-8.339
X87.48 Y46.627 Z-8.341
X86.297 Y46.822 Z-8.383
X85.095 Y46.769 Z-8.425
X84.871 Y46.714 Z-8.433
X84.882 Y46.683 Z-8.435
X84.927 Y46.65 Z-8.437
X86.301 Y46.032 Z-8.489
X86.585 Y46.16 Z-8.5
X87.557 Y46.598 F1300.
X87.48 Y46.627
X86.297 Y46.822
X85.095 Y46.769
X84.871 Y46.714
X84.882 Y46.683
X84.927 Y46.65
X86.301 Y46.032
X86.585 Y46.16
X86.61 Y46.179
X86.624 Y46.207
X86.625 Y46.239
X86.612 Y46.267
X86.403 Y46.539
X86.317 Y46.705
X86.302 Y46.803
X86.297 Y46.804 F333.
X85.083 Y46.749 Z-8.543
X84.894 Y46.702 Z-8.549
X84.898 Y46.69 Z-8.55
X84.939 Y46.663 Z-8.552
X86.3 Y46.051 Z-8.604
X87.51 Y46.597 Z-8.65
X87.48 Y46.608 Z-8.651
X86.297 Y46.804 Z-8.693
X85.083 Y46.749 Z-8.735
X84.894 Y46.702 Z-8.742
X84.898 Y46.69 Z-8.743
X84.939 Y46.663 Z-8.744
X86.3 Y46.051 Z-8.797
X87.51 Y46.597 Z-8.843
X87.48 Y46.608 Z-8.844
X86.297 Y46.804 Z-8.886
X85.083 Y46.749 Z-8.928
X84.894 Y46.702 Z-8.935
X84.898 Y46.69 Z-8.936
X84.939 Y46.663 Z-8.937
X86.3 Y46.051 Z-8.989
X86.577 Y46.176 Z-9.
X87.51 Y46.597 F1300.
X87.48 Y46.608
X86.297 Y46.804
X85.083 Y46.749
X84.894 Y46.702
X84.898 Y46.69
X84.939 Y46.663
X86.3 Y46.051
X86.577 Y46.176
X86.604 Y46.194
X86.625 Y46.22
X86.636 Y46.25
X86.67 Y46.419
X86.681 Y46.449
X86.701 Y46.475
X86.728 Y46.493
X86.759 Y46.502
X86.958 Y46.528
X87.1 Y46.583
X87.116 Y46.595
X87.123 Y46.613
X87.121 Y46.633
X87.11 Y46.649
X87.092 Y46.657
X86.297 Y46.787 Z-9.028 F333.
X85.111 Y46.736 Z-9.07
X84.93 Y46.692 Z-9.076
X84.959 Y46.673 Z-9.077
X86.3 Y46.07 Z-9.129
X87.456 Y46.593 Z-9.173
X87.434 Y46.601 Z-9.174
X86.297 Y46.787 Z-9.214
X85.111 Y46.736 Z-9.255
X84.93 Y46.692 Z-9.262
X84.959 Y46.673 Z-9.263
X86.3 Y46.07 Z-9.314
X87.456 Y46.593 Z-9.359
X87.434 Y46.601 Z-9.36
X86.297 Y46.787 Z-9.4
X85.111 Y46.736 Z-9.441
X84.93 Y46.692 Z-9.448
X84.959 Y46.673 Z-9.449
X86.29 Y46.074 Z-9.5
X86.3 Y46.07 F1300.
X87.456 Y46.593
X87.434 Y46.601
X86.297 Y46.787
X85.111 Y46.736
X84.93 Y46.692
X84.959 Y46.673
X86.29 Y46.074
X86.32 Y46.105
X87.286 Y46.564
X87.316 Y46.603
X86.297 Y46.769 Z-9.536 F333.
X85.115 Y46.72 Z-9.577
X84.976 Y46.685 Z-9.582
X86.305 Y46.091 Z-9.633
X87.403 Y46.589 Z-9.675
X86.297 Y46.769 Z-9.714
X85.115 Y46.72 Z-9.756
X84.976 Y46.685 Z-9.761
X86.305 Y46.091 Z-9.812
X87.403 Y46.589 Z-9.854
X86.297 Y46.769 Z-9.893
X85.115 Y46.72 Z-9.934
X84.976 Y46.685 Z-9.939
X86.305 Y46.091 Z-9.99
X86.566 Y46.21 Z-10.
X87.403 Y46.589 F1300.
X86.297 Y46.769
X85.115 Y46.72
X84.976 Y46.685
X86.305 Y46.091
X86.566 Y46.21
X86.59 Y46.227
X86.604 Y46.252
X86.64 Y46.367
X86.651 Y46.387
X86.667 Y46.403
X86.688 Y46.413
X86.704 Y46.414
X86.719 Y46.409
X86.813 Y46.357
X86.831 Y46.352
X86.85 Y46.356
X87.35 Y46.581 Z-10.019 F333.
X86.276 Y46.753 Z-10.057
X85.116 Y46.701 Z-10.098
X85.03 Y46.68 Z-10.101
X86.304 Y46.11 Z-10.149
X87.35 Y46.581 Z-10.19
X86.276 Y46.753 Z-10.228
X85.116 Y46.701 Z-10.268
X85.03 Y46.68 Z-10.271
X86.304 Y46.11 Z-10.32
X87.35 Y46.581 Z-10.36
X86.276 Y46.753 Z-10.398
X85.116 Y46.701 Z-10.438
X85.03 Y46.68 Z-10.442
X86.304 Y46.11 Z-10.49
X86.558 Y46.224 Z-10.5
X87.35 Y46.581 F1300.
X86.276 Y46.753
X85.116 Y46.701
X85.03 Y46.68
X86.304 Y46.11
X86.558 Y46.224
X86.583 Y46.244
X86.595 Y46.273
X86.592 Y46.305
X86.547 Y46.433
X86.543 Y46.455
X86.547 Y46.478
X86.558 Y46.497
X86.642 Y46.599
X86.653 Y46.623
X86.65 Y46.65
X86.635 Y46.672
X86.61 Y46.683
X86.297 Y46.734 Z-10.511 F333.
X85.116 Y46.683 Z-10.552
X85.084 Y46.675 Z-10.554
X86.302 Y46.128 Z-10.6
X87.289 Y46.572 Z-10.638
X86.297 Y46.734 Z-10.673
X85.116 Y46.683 Z-10.714
X85.084 Y46.675 Z-10.715
X86.302 Y46.128 Z-10.762
X87.289 Y46.572 Z-10.8
X86.297 Y46.734 Z-10.835
X85.116 Y46.683 Z-10.876
X85.084 Y46.675 Z-10.877
X86.302 Y46.128 Z-10.924
X87.289 Y46.572 Z-10.962
X86.297 Y46.734 Z-10.997
X86.206 Y46.73 Z-11.
X85.116 Y46.683 F1300.
X85.084 Y46.675
X86.302 Y46.128
X87.289 Y46.572
X86.297 Y46.734
X86.206 Y46.73
X86.178 Y46.724
X86.154 Y46.71
X86.135 Y46.689
X86.046 Y46.551
X86.021 Y46.526
X85.989 Y46.512
X85.954
X85.586 Y46.582
X85.478 Y46.575
X85.461 Y46.567
X85.452 Y46.551
X85.455 Y46.533
X85.468 Y46.521
X86.301 Y46.147 Z-11.032 F333.
X87.225 Y46.564 Z-11.067
X86.296 Y46.717 Z-11.1
X85.161 Y46.672 Z-11.14
X85.143 Y46.667
X86.301 Y46.147 Z-11.185
X87.225 Y46.564 Z-11.22
X86.296 Y46.717 Z-11.253
X85.161 Y46.672 Z-11.293
X85.143 Y46.667
X86.301 Y46.147 Z-11.338
X87.225 Y46.564 Z-11.373
X86.296 Y46.717 Z-11.406
X85.161 Y46.672 Z-11.446
X85.143 Y46.667
X86.301 Y46.147 Z-11.491
X86.542 Y46.255 Z-11.5
X87.225 Y46.564 F1300.
X86.296 Y46.717
X85.161 Y46.672
X85.143 Y46.667
X86.301 Y46.147
X86.542 Y46.255
X86.566 Y46.274
X86.578 Y46.301
X86.6 Y46.415
X86.61 Y46.438
X86.628 Y46.455
X86.651 Y46.465
X87.014 Y46.534
X87.08 Y46.499
X87.224 Y46.564 Z-11.506 F333.
X86.296 Y46.716 Z-11.538
X85.161 Y46.671 Z-11.578
X85.144 Y46.667 Z-11.579
X86.301 Y46.147 Z-11.623
X87.224 Y46.564 Z-11.658
X86.296 Y46.716 Z-11.691
X85.161 Y46.671 Z-11.731
X85.144 Y46.667
X86.301 Y46.147 Z-11.776
X87.224 Y46.564 Z-11.811
X86.296 Y46.716 Z-11.844
X85.161 Y46.671 Z-11.884
X85.144 Y46.667
X86.301 Y46.147 Z-11.929
X87.224 Y46.564 Z-11.964
X86.296 Y46.716 Z-11.997
X86.202 Y46.713 Z-12.
X85.161 Y46.671 F1300.
X85.144 Y46.667
X86.301 Y46.147
X87.224 Y46.564
X86.296 Y46.716
X86.202 Y46.713
X86.149 Y46.711 Z-11.994
X86.099 Y46.709 Z-11.976
X86.054 Y46.707 Z-11.948
X86.016 Y46.705 Z-11.91
X85.988 Y46.704 Z-11.865
X85.97 Y46.703 Z-11.815
X85.964 Z-11.762
G0 Z5.
X85.674 Y35.48
Z0.763
G1 X85.679 Y35.464 Z0.674 F333.
X85.696 Y35.417 Z0.598
X85.728 Y35.35 Z0.545
X85.775 Y35.275 Z0.525
X85.842 Y35.198 Z0.521
X85.919 Y35.132 Z0.518
X86.006 Y35.079 Z0.514
X86.101 Y35.041 Z0.511
X86.2 Y35.017 Z0.507
X86.301 Y35.009 Z0.504
X86.403 Y35.018 Z0.5
X86.502 Y35.041 Z0.497
X86.596 Y35.08 Z0.493
X86.683 Y35.134 Z0.489
X86.76 Y35.2 Z0.486
X86.826 Y35.277 Z0.482
X86.879 Y35.364 Z0.479
X86.919 Y35.458 Z0.475
X86.943 Y35.557 Z0.472
X86.951 Y35.658 Z0.468
X86.943 Y35.76 Z0.464
X86.92 Y35.859 Z0.461
X86.881 Y35.953 Z0.457
X86.829 Y36.04 Z0.454
X86.763 Y36.118 Z0.45
X86.686 Y36.185 Z0.447
X86.599 Y36.238 Z0.443
X86.506 Y36.278 Z0.44
X86.407 Y36.303 Z0.436
X86.305 Y36.311 Z0.432
X86.204 Y36.304 Z0.429
X86.105 Y36.281 Z0.425
X86.01 Y36.243 Z0.422
X85.923 Y36.191 Z0.418
X85.845 Y36.126 Z0.415
X85.778 Y36.049 Z0.411
X85.724 Y35.963 Z0.408
X85.683 Y35.869 Z0.404
X85.658 Y35.771 Z0.4
X85.649 Y35.669 Z0.397
X85.656 Y35.568 Z0.393
X85.678 Y35.468 Z0.39
X85.716 Y35.374 Z0.386
X85.767 Y35.286 Z0.383
X85.832 Y35.208 Z0.379
X85.909 Y35.14 Z0.376
X85.994 Y35.086 Z0.372
X86.088 Y35.045 Z0.368
X86.186 Y35.019 Z0.365
X86.288 Y35.01 Z0.361
X86.389 Y35.016 Z0.358
X86.489 Y35.037 Z0.354
X86.584 Y35.074 Z0.351
X86.672 Y35.126 Z0.347
X86.75 Y35.19 Z0.343
X86.818 Y35.266 Z0.34
X86.873 Y35.352 Z0.336
X86.914 Y35.445 Z0.333
X86.94 Y35.544 Z0.329
X86.951 Y35.645 Z0.326
X86.945 Y35.746 Z0.322
X86.924 Y35.846 Z0.319
X86.887 Y35.941 Z0.315
X86.836 Y36.029 Z0.311
X86.772 Y36.108 Z0.308
X86.697 Y36.177 Z0.304
X86.611 Y36.232 Z0.301
X86.518 Y36.274 Z0.297
X86.42 Y36.3 Z0.294
X86.319 Y36.311 Z0.29
X86.217 Y36.306 Z0.287
X86.118 Y36.285 Z0.283
X86.022 Y36.249 Z0.279
X85.934 Y36.199 Z0.276
X85.854 Y36.135 Z0.272
X85.786 Y36.06 Z0.269
X85.73 Y35.975 Z0.265
X85.688 Y35.882 Z0.262
X85.661 Y35.784 Z0.258
X85.649 Y35.683 Z0.255
X85.654 Y35.581 Z0.251
X85.674 Y35.481 Z0.247
X85.71 Y35.386 Z0.244
X85.76 Y35.297 Z0.24
X85.823 Y35.217 Z0.237
X85.898 Y35.148 Z0.233
X85.983 Y35.092 Z0.23
X86.075 Y35.049 Z0.226
X86.173 Y35.022 Z0.222
X86.274 Y35.01 Z0.219
X86.376 Y35.014 Z0.215
X86.476 Y35.034 Z0.212
X86.571 Y35.069 Z0.208
X86.66 Y35.118 Z0.205
X86.741 Y35.181 Z0.201
X86.81 Y35.256 Z0.198
X86.867 Y35.34 Z0.194
X86.91 Y35.432 Z0.19
X86.938 Y35.53 Z0.187
X86.95 Y35.631 Z0.183
X86.947 Y35.733 Z0.18
X86.928 Y35.833 Z0.176
X86.893 Y35.929 Z0.173
X86.844 Y36.018 Z0.169
X86.781 Y36.098 Z0.166
X86.707 Y36.168 Z0.162
X86.623 Y36.225 Z0.158
X86.531 Y36.269 Z0.155
X86.433 Y36.298 Z0.151
X86.332 Y36.311 Z0.148
X86.231 Y36.308 Z0.144
X86.13 Y36.289 Z0.141
X86.035 Y36.255 Z0.137
X85.945 Y36.206 Z0.134
X85.864 Y36.144 Z0.13
X85.794 Y36.07 Z0.126
X85.737 Y35.986 Z0.123
X85.693 Y35.895 Z0.119
X85.663 Y35.797 Z0.116
X85.65 Y35.696 Z0.112
X85.652 Y35.594 Z0.109
X85.671 Y35.494 Z0.105
X85.704 Y35.398 Z0.101
X85.752 Y35.308 Z0.098
X85.814 Y35.227 Z0.094
X85.887 Y35.157 Z0.091
X85.971 Y35.099 Z0.087
X86.063 Y35.054 Z0.084
X86.16 Y35.025 Z0.08
X86.261 Y35.011 Z0.077
X86.363 Y35.012 Z0.073
X86.463 Y35.03 Z0.069
X86.559 Y35.063 Z0.066
X86.649 Y35.111 Z0.062
X86.73 Y35.172 Z0.059
X86.801 Y35.245 Z0.055
X86.86 Y35.328 Z0.052
X86.905 Y35.42 Z0.048
X86.935 Y35.517 Z0.045
X86.95 Y35.618 Z0.041
X86.948 Y35.72 Z0.037
X86.931 Y35.82 Z0.034
X86.898 Y35.917 Z0.03
X86.851 Y36.007 Z0.027
X86.79 Y36.088 Z0.023
X86.718 Y36.16 Z0.02
X86.635 Y36.219 Z0.016
X86.544 Y36.264 Z0.012
X86.446 Y36.295 Z0.009
X86.346 Y36.31 Z0.005
X86.244 Y36.309 Z0.002
X86.144 Y36.292 Z-0.002
X86.047 Y36.26 Z-0.005
X85.957 Y36.213 Z-0.009
X85.874 Y36.153 Z-0.012
X85.803 Y36.081 Z-0.016
X85.743 Y35.998 Z-0.02
X85.698 Y35.907 Z-0.023
X85.666 Y35.81 Z-0.027
X85.651 Y35.71 Z-0.03
Y35.608 Z-0.034
X85.667 Y35.507 Z-0.037
X85.699 Y35.41 Z-0.041
X85.745 Y35.32 Z-0.044
X85.805 Y35.237 Z-0.048
X85.877 Y35.165 Z-0.052
X85.959 Y35.106 Z-0.055
X86.05 Y35.059 Z-0.059
X86.147 Y35.028 Z-0.062
X86.247 Y35.012 Z-0.066
X86.349 Y35.011 Z-0.069
X86.45 Y35.027 Z-0.073
X86.547 Y35.058 Z-0.076
X86.638 Y35.104 Z-0.08
X86.72 Y35.163 Z-0.084
X86.793 Y35.235 Z-0.087
X86.853 Y35.317 Z-0.091
X86.9 Y35.407 Z-0.094
X86.932 Y35.504 Z-0.098
X86.949 Y35.604 Z-0.101
Y35.706 Z-0.105
X86.934 Y35.807 Z-0.109
X86.904 Y35.904 Z-0.112
X86.858 Y35.995 Z-0.116
X86.799 Y36.078 Z-0.119
X86.728 Y36.151 Z-0.123
X86.646 Y36.212 Z-0.126
X86.556 Y36.259 Z-0.13
X86.46 Y36.291 Z-0.133
X86.359 Y36.309 Z-0.137
X86.257 Y36.31 Z-0.141
X86.157 Y36.295 Z-0.144
X86.059 Y36.265 Z-0.148
X85.968 Y36.22 Z-0.151
X85.885 Y36.162 Z-0.155
X85.812 Y36.091 Z-0.158
X85.751 Y36.01 Z-0.162
X85.703 Y35.92 Z-0.165
X85.67 Y35.823 Z-0.169
X85.652 Y35.723 Z-0.173
X85.65 Y35.621 Z-0.176
X85.664 Y35.52 Z-0.18
X85.694 Y35.423 Z-0.183
X85.738 Y35.331 Z-0.187
X85.796 Y35.248 Z-0.19
X85.867 Y35.174 Z-0.194
X85.948 Y35.113 Z-0.197
X86.038 Y35.065 Z-0.201
X86.134 Y35.031 Z-0.205
X86.234 Y35.013 Z-0.208
X86.336 Y35.01 Z-0.212
X86.437 Y35.024 Z-0.215
X86.534 Y35.053 Z-0.219
X86.626 Y35.097 Z-0.222
X86.71 Y35.155 Z-0.226
X86.784 Y35.225 Z-0.23
X86.846 Y35.306 Z-0.233
X86.894 Y35.395 Z-0.237
X86.928 Y35.491 Z-0.24
X86.947 Y35.591 Z-0.244
X86.95 Y35.693 Z-0.247
X86.937 Y35.794 Z-0.251
X86.909 Y35.892 Z-0.254
X86.865 Y35.984 Z-0.258
X86.808 Y36.068 Z-0.262
X86.738 Y36.142 Z-0.265
X86.658 Y36.204 Z-0.269
X86.568 Y36.253 Z-0.272
X86.473 Y36.288 Z-0.276
X86.373 Y36.307 Z-0.279
X86.271 Y36.311 Z-0.283
X86.17 Y36.298 Z-0.286
X86.072 Y36.27 Z-0.29
X85.98 Y36.227 Z-0.294
X85.895 Y36.17 Z-0.297
X85.821 Y36.101 Z-0.301
X85.758 Y36.021 Z-0.304
X85.708 Y35.932 Z-0.308
X85.673 Y35.836 Z-0.311
X85.653 Y35.736 Z-0.315
X85.649 Y35.635 Z-0.318
X85.661 Y35.534 Z-0.322
X85.689 Y35.436 Z-0.326
X85.732 Y35.343 Z-0.329
X85.788 Y35.258 Z-0.333
X85.857 Y35.183 Z-0.336
X85.937 Y35.12 Z-0.34
X86.025 Y35.07 Z-0.343
X86.121 Y35.035 Z-0.347
X86.221 Y35.014 Z-0.351
X86.322 Y35.01 Z-0.354
X86.423 Y35.021 Z-0.358
X86.522 Y35.048 Z-0.361
X86.614 Y35.09 Z-0.365
X86.699 Y35.146 Z-0.368
X86.775 Y35.215 Z-0.372
X86.838 Y35.294 Z-0.375
X86.889 Y35.383 Z-0.379
X86.925 Y35.478 Z-0.383
X86.946 Y35.578 Z-0.386
X86.951 Y35.679 Z-0.39
X86.94 Y35.781 Z-0.393
X86.913 Y35.879 Z-0.397
X86.872 Y35.972 Z-0.4
X86.816 Y36.057 Z-0.404
X86.748 Y36.133 Z-0.407
X86.669 Y36.197 Z-0.411
X86.581 Y36.248 Z-0.415
X86.486 Y36.284 Z-0.418
X86.386 Y36.306 Z-0.422
X86.284 Y36.311 Z-0.425
X86.183 Y36.301 Z-0.429
X86.085 Y36.275 Z-0.432
X85.991 Y36.234 Z-0.436
X85.906 Y36.179 Z-0.439
X85.83 Y36.111 Z-0.443
X85.765 Y36.032 Z-0.447
X85.714 Y35.944 Z-0.45
X85.677 Y35.849 Z-0.454
X85.655 Y35.75 Z-0.457
X85.649 Y35.648 Z-0.461
X85.659 Y35.547 Z-0.464
X85.684 Y35.448 Z-0.468
X85.725 Y35.355 Z-0.472
X85.78 Y35.269 Z-0.475
X85.847 Y35.193 Z-0.479
X85.926 Y35.128 Z-0.482
X86.013 Y35.076 Z-0.486
X86.108 Y35.038 Z-0.489
X86.207 Y35.016 Z-0.493
X86.309 Y35.009 Z-0.496
X86.41 Y35.019 Z-0.5
X87.652 Y35.232 F1300.
X88.031 Y35.391
X88.014 Y35.448
X87.944 Y35.592
X87.927 Y35.612
X87.8 Y35.698
X86.37 Y36.343
X86.307 Y36.361
X86.201 Y36.33
X84.801 Y35.696
X84.668 Y35.598
X84.601 Y35.449
X84.592 Y35.422
X84.551 Y35.185
X84.937 Y35.074
X86.298 Y35.
X86.41 Y35.019
X86.429 Y35.029
X86.437 Y35.048
X86.432 Y35.069
X86.416 Y35.082
X86.295 Y35.126
X86.178 Y35.104
X86.159 Y35.093
X86.151 Y35.072
X86.159 Y35.051
X86.178 Y35.04
X86.277 Y35.028 Z-0.503 F333.
X86.377 Y35.031 Z-0.507
X86.475 Y35.051 Z-0.51
X86.569 Y35.086 Z-0.514
X86.656 Y35.135 Z-0.517
X86.734 Y35.197 Z-0.521
X86.802 Y35.27 Z-0.524
X86.857 Y35.354 Z-0.528
X86.898 Y35.445 Z-0.531
X86.925 Y35.541 Z-0.535
X86.936 Y35.641 Z-0.538
X86.931 Y35.741 Z-0.542
X86.91 Y35.839 Z-0.545
X86.875 Y35.932 Z-0.549
X86.825 Y36.019 Z-0.552
X86.762 Y36.096 Z-0.556
X86.687 Y36.163 Z-0.559
X86.603 Y36.217 Z-0.563
X86.512 Y36.258 Z-0.566
X86.415 Y36.283 Z-0.57
X86.316 Y36.293 Z-0.573
X86.216 Y36.287 Z-0.577
X86.118 Y36.266 Z-0.58
X86.025 Y36.229 Z-0.584
X85.939 Y36.178 Z-0.587
X85.862 Y36.114 Z-0.591
X85.796 Y36.039 Z-0.594
X85.742 Y35.954 Z-0.598
X85.703 Y35.863 Z-0.601
X85.679 Y35.766 Z-0.605
X85.67 Y35.666 Z-0.608
X85.677 Y35.566 Z-0.612
X85.699 Y35.469 Z-0.615
X85.737 Y35.376 Z-0.619
X85.789 Y35.29 Z-0.622
X85.854 Y35.214 Z-0.626
X85.929 Y35.149 Z-0.629
X86.015 Y35.096 Z-0.633
X86.107 Y35.058 Z-0.636
X86.204 Y35.035 Z-0.64
X86.304 Y35.027 Z-0.643
X86.404 Y35.035 Z-0.647
X86.501 Y35.059 Z-0.65
X86.593 Y35.097 Z-0.654
X86.678 Y35.15 Z-0.657
X86.754 Y35.216 Z-0.661
X86.818 Y35.292 Z-0.664
X86.87 Y35.378 Z-0.668
X86.907 Y35.471 Z-0.671
X86.929 Y35.568 Z-0.675
X86.936 Y35.668 Z-0.678
X86.927 Y35.767 Z-0.682
X86.902 Y35.864 Z-0.685
X86.863 Y35.956 Z-0.689
X86.809 Y36.041 Z-0.692
X86.743 Y36.116 Z-0.696
X86.665 Y36.179 Z-0.699
X86.579 Y36.23 Z-0.703
X86.486 Y36.266 Z-0.706
X86.388 Y36.287 Z-0.71
X86.288 Y36.293 Z-0.713
X86.189 Y36.283 Z-0.717
X86.092 Y36.257 Z-0.72
X86.001 Y36.217 Z-0.724
X85.917 Y36.162 Z-0.727
X85.843 Y36.095 Z-0.731
X85.78 Y36.017 Z-0.734
X85.73 Y35.93 Z-0.738
X85.695 Y35.837 Z-0.741
X85.675 Y35.739 Z-0.745
X85.67 Y35.639 Z-0.748
X85.681 Y35.539 Z-0.752
X85.708 Y35.443 Z-0.755
X85.75 Y35.352 Z-0.759
X85.805 Y35.269 Z-0.762
X85.873 Y35.195 Z-0.766
X85.952 Y35.133 Z-0.769
X86.039 Y35.085 Z-0.773
X86.133 Y35.05 Z-0.776
X86.231 Y35.031 Z-0.78
X86.331 Y35.028 Z-0.783
X86.43 Y35.04 Z-0.787
X86.526 Y35.068 Z-0.79
X86.617 Y35.11 Z-0.794
X86.7 Y35.167 Z-0.797
X86.772 Y35.235 Z-0.801
X86.833 Y35.314 Z-0.804
X86.881 Y35.402 Z-0.808
X86.915 Y35.497 Z-0.811
X86.933 Y35.595 Z-0.815
X86.935 Y35.695 Z-0.818
X86.922 Y35.794 Z-0.822
X86.893 Y35.89 Z-0.825
X86.849 Y35.98 Z-0.829
X86.792 Y36.062 Z-0.832
X86.723 Y36.134 Z-0.836
X86.643 Y36.194 Z-0.839
X86.555 Y36.241 Z-0.843
X86.46 Y36.273 Z-0.846
X86.361 Y36.291 Z-0.85
X86.261 Y36.292 Z-0.853
X86.162 Y36.277 Z-0.857
X86.067 Y36.248 Z-0.86
X85.977 Y36.203 Z-0.864
X85.896 Y36.145 Z-0.867
X85.825 Y36.075 Z-0.871
X85.765 Y35.994 Z-0.874
X85.719 Y35.906 Z-0.878
X85.688 Y35.811 Z-0.881
X85.672 Y35.712 Z-0.885
Y35.612 Z-0.888
X85.687 Y35.513 Z-0.892
X85.718 Y35.418 Z-0.895
X85.763 Y35.329 Z-0.899
X85.822 Y35.248 Z-0.902
X85.893 Y35.177 Z-0.906
X85.974 Y35.119 Z-0.909
X86.064 Y35.074 Z-0.913
X86.159 Y35.044 Z-0.916
X86.258 Y35.029 Z-0.92
X86.358 Z-0.923
X86.457 Y35.046 Z-0.927
X86.551 Y35.078 Z-0.93
X86.64 Y35.124 Z-0.934
X86.72 Y35.184 Z-0.937
X86.79 Y35.256 Z-0.941
X86.848 Y35.337 Z-0.944
X86.892 Y35.427 Z-0.948
X86.921 Y35.523 Z-0.951
X86.935 Y35.622 Z-0.955
X86.933 Y35.722 Z-0.958
X86.915 Y35.82 Z-0.962
X86.883 Y35.915 Z-0.965
X86.835 Y36.003 Z-0.969
X86.775 Y36.082 Z-0.972
X86.702 Y36.151 Z-0.976
X86.62 Y36.208 Z-0.979
X86.53 Y36.251 Z-0.983
X86.434 Y36.28 Z-0.986
X86.334 Y36.292 Z-0.99
X86.235 Y36.29 Z-0.993
X86.136 Y36.271 Z-0.997
X86.042 Y36.237 Z-1.
X84.798 Y35.674 F1300.
X84.687 Y35.598
X84.658 Y35.558
X84.609 Y35.419
X84.571 Y35.197
X84.936 Y35.092
X86.298 Y35.017
X87.649 Y35.25
X88.01 Y35.4
X87.994 Y35.455
X87.938 Y35.575
X87.909 Y35.609
X87.759 Y35.699
X86.367 Y36.326
X86.303 Y36.344
X86.244 Y36.328
X86.042 Y36.237
X86.015 Y36.218
X85.995 Y36.19
X85.987 Y36.158
X85.991 Y36.125
X86.105 Y35.749
X86.109 Y35.719
X86.104 Y35.69
X86.089 Y35.664
X85.848 Y35.358
X85.833 Y35.329
X85.828 Y35.296
X85.836 Y35.263
X85.854 Y35.236
X85.927 Y35.17 Z-1.003 F333.
X86.01 Y35.116 Z-1.007
X86.101 Y35.077 Z-1.01
X86.196 Y35.053 Z-1.014
X86.295 Y35.044 Z-1.017
X86.393 Y35.051 Z-1.021
X86.489 Y35.073 Z-1.024
X86.58 Y35.11 Z-1.028
X86.664 Y35.162 Z-1.031
X86.739 Y35.226 Z-1.034
X86.803 Y35.302 Z-1.038
X86.853 Y35.386 Z-1.041
X86.89 Y35.478 Z-1.045
X86.911 Y35.574 Z-1.048
X86.917 Y35.673 Z-1.052
X86.907 Y35.771 Z-1.055
X86.882 Y35.866 Z-1.059
X86.842 Y35.956 Z-1.062
X86.788 Y36.039 Z-1.066
X86.721 Y36.111 Z-1.069
X86.644 Y36.173 Z-1.072
X86.557 Y36.221 Z-1.076
X86.465 Y36.254 Z-1.079
X86.368 Y36.273 Z-1.083
X86.269 Y36.276 Z-1.086
X86.172 Y36.263 Z-1.09
X86.077 Y36.234 Z-1.093
X85.988 Y36.191 Z-1.097
X85.908 Y36.135 Z-1.1
X85.837 Y36.066 Z-1.103
X85.778 Y35.987 Z-1.107
X85.733 Y35.899 Z-1.11
X85.702 Y35.805 Z-1.114
X85.686 Y35.708 Z-1.117
X85.687 Y35.609 Z-1.121
X85.703 Y35.512 Z-1.124
X85.734 Y35.419 Z-1.128
X85.78 Y35.331 Z-1.131
X85.839 Y35.252 Z-1.134
X85.91 Y35.184 Z-1.138
X85.991 Y35.127 Z-1.141
X86.08 Y35.085 Z-1.145
X86.174 Y35.057 Z-1.148
X86.272 Y35.044 Z-1.152
X86.371 Y35.048 Z-1.155
X86.467 Y35.067 Z-1.159
X86.56 Y35.101 Z-1.162
X86.646 Y35.149 Z-1.166
X86.723 Y35.211 Z-1.169
X86.789 Y35.284 Z-1.172
X86.843 Y35.366 Z-1.176
X86.883 Y35.457 Z-1.179
X86.908 Y35.552 Z-1.183
X86.917 Y35.65 Z-1.186
X86.911 Y35.749 Z-1.19
X86.889 Y35.845 Z-1.193
X86.852 Y35.936 Z-1.197
X86.801 Y36.021 Z-1.2
X86.737 Y36.096 Z-1.203
X86.662 Y36.16 Z-1.207
X86.578 Y36.211 Z-1.21
X86.486 Y36.248 Z-1.214
X86.39 Y36.27 Z-1.217
X86.292 Y36.277 Z-1.221
X86.194 Y36.267 Z-1.224
X86.098 Y36.242 Z-1.228
X86.008 Y36.202 Z-1.231
X85.925 Y36.149 Z-1.234
X85.852 Y36.083 Z-1.238
X85.79 Y36.006 Z-1.241
X85.742 Y35.92 Z-1.245
X85.708 Y35.827 Z-1.248
X85.689 Y35.73 Z-1.252
X85.685 Y35.632 Z-1.255
X85.698 Y35.534 Z-1.259
X85.725 Y35.439 Z-1.262
X85.768 Y35.35 Z-1.266
X85.824 Y35.269 Z-1.269
X85.893 Y35.198 Z-1.272
X85.971 Y35.139 Z-1.276
X86.059 Y35.093 Z-1.279
X86.152 Y35.062 Z-1.283
X86.25 Y35.046 Z-1.286
X86.348 Y35.045 Z-1.29
X86.446 Y35.061 Z-1.293
X86.539 Y35.092 Z-1.297
X86.627 Y35.137 Z-1.3
X86.706 Y35.196 Z-1.303
X86.775 Y35.266 Z-1.307
X86.832 Y35.347 Z-1.31
X86.875 Y35.436 Z-1.314
X86.904 Y35.53 Z-1.317
X86.917 Y35.628 Z-1.321
X86.914 Y35.726 Z-1.324
X86.895 Y35.823 Z-1.328
X86.862 Y35.916 Z-1.331
X86.814 Y36.002 Z-1.334
X86.753 Y36.08 Z-1.338
X86.68 Y36.146 Z-1.341
X86.598 Y36.201 Z-1.345
X86.508 Y36.241 Z-1.348
X86.412 Y36.266 Z-1.352
X86.314 Y36.276 Z-1.355
X86.216 Y36.271 Z-1.359
X86.12 Y36.249 Z-1.362
X86.028 Y36.213 Z-1.366
X85.943 Y36.162 Z-1.369
X85.868 Y36.099 Z-1.372
X85.803 Y36.024 Z-1.376
X85.752 Y35.94 Z-1.379
X85.714 Y35.849 Z-1.383
X85.691 Y35.753 Z-1.386
X85.685 Y35.654 Z-1.39
X85.693 Y35.556 Z-1.393
X85.718 Y35.46 Z-1.397
X85.757 Y35.37 Z-1.4
X85.81 Y35.287 Z-1.403
X85.876 Y35.213 Z-1.407
X85.953 Y35.151 Z-1.41
X86.038 Y35.102 Z-1.414
X86.131 Y35.068 Z-1.417
X86.227 Y35.048 Z-1.421
X86.326 Y35.044 Z-1.424
X86.424 Y35.056 Z-1.428
X86.519 Y35.083 Z-1.431
X86.608 Y35.125 Z-1.434
X86.689 Y35.181 Z-1.438
X86.761 Y35.249 Z-1.441
X86.82 Y35.328 Z-1.445
X86.867 Y35.415 Z-1.448
X86.898 Y35.508 Z-1.452
X86.915 Y35.605 Z-1.455
X86.916 Y35.704 Z-1.459
X86.901 Y35.801 Z-1.462
X86.871 Y35.895 Z-1.466
X86.826 Y35.983 Z-1.469
X86.768 Y36.063 Z-1.472
X86.698 Y36.132 Z-1.476
X86.617 Y36.189 Z-1.479
X86.529 Y36.233 Z-1.483
X86.434 Y36.262 Z-1.486
X86.337 Y36.276 Z-1.49
X86.238 Y36.273 Z-1.493
X86.141 Y36.256 Z-1.497
X86.048 Y36.222 Z-1.5
X84.828 Y35.674 F1300.
X84.697 Y35.583
X84.676 Y35.556
X84.624 Y35.402
X84.59 Y35.209
X84.939 Y35.11
X85.307 Y35.086
X86.298 Y35.034
X87.633 Y35.263
X87.989 Y35.41
X87.975 Y35.454
X87.924 Y35.565
X87.894 Y35.599
X87.784 Y35.669
X86.366 Y36.307
X86.302 Y36.326
X86.244 Y36.311
X86.048 Y36.222
X86.034 Y36.21
X86.028 Y36.193
X86.024 Y36.089
X86.017 Y36.07
X86.002 Y36.058
X85.982 Y36.057
X85.891 Y36.079
X85.874 Y36.078
X85.859 Y36.069
X85.798 Y35.993 Z-1.503 F333.
X85.751 Y35.908 Z-1.507
X85.717 Y35.816 Z-1.51
X85.7 Y35.721 Z-1.514
X85.697 Y35.623 Z-1.517
X85.711 Y35.527 Z-1.52
X85.74 Y35.434 Z-1.524
X85.784 Y35.347 Z-1.527
X85.841 Y35.268 Z-1.531
X85.91 Y35.2 Z-1.534
X85.989 Y35.144 Z-1.537
X86.077 Y35.101 Z-1.541
X86.17 Y35.073 Z-1.544
X86.266 Y35.06 Z-1.548
X86.364 Y35.063 Z-1.551
X86.459 Y35.082 Z-1.554
X86.55 Y35.116 Z-1.558
X86.635 Y35.165 Z-1.561
X86.71 Y35.226 Z-1.565
X86.775 Y35.299 Z-1.568
X86.827 Y35.381 Z-1.571
X86.864 Y35.471 Z-1.575
X86.887 Y35.565 Z-1.578
X86.895 Y35.662 Z-1.582
X86.886 Y35.759 Z-1.585
X86.862 Y35.853 Z-1.588
X86.823 Y35.942 Z-1.592
X86.77 Y36.024 Z-1.595
X86.705 Y36.096 Z-1.599
X86.629 Y36.157 Z-1.602
X86.544 Y36.204 Z-1.605
X86.452 Y36.237 Z-1.609
X86.357 Y36.255 Z-1.612
X86.259 Y36.257 Z-1.616
X86.163 Y36.243 Z-1.619
X86.07 Y36.214 Z-1.622
X85.983 Y36.17 Z-1.626
X85.905 Y36.113 Z-1.629
X85.836 Y36.043 Z-1.633
X85.78 Y35.964 Z-1.636
X85.737 Y35.877 Z-1.639
X85.71 Y35.783 Z-1.643
X85.697 Y35.687 Z-1.646
X85.7 Y35.59 Z-1.65
X85.719 Y35.494 Z-1.653
X85.754 Y35.403 Z-1.656
X85.802 Y35.319 Z-1.66
X85.864 Y35.243 Z-1.663
X85.936 Y35.179 Z-1.667
X86.019 Y35.127 Z-1.67
X86.108 Y35.089 Z-1.673
X86.203 Y35.067 Z-1.677
X86.3 Y35.059 Z-1.68
X86.397 Y35.068 Z-1.684
X86.491 Y35.092 Z-1.687
X86.58 Y35.131 Z-1.69
X86.662 Y35.184 Z-1.694
X86.734 Y35.25 Z-1.697
X86.794 Y35.326 Z-1.701
X86.841 Y35.411 Z-1.704
X86.874 Y35.503 Z-1.707
X86.892 Y35.599 Z-1.711
X86.894 Y35.696 Z-1.714
X86.88 Y35.792 Z-1.718
X86.85 Y35.885 Z-1.721
X86.806 Y35.972 Z-1.724
X86.749 Y36.05 Z-1.728
X86.68 Y36.119 Z-1.731
X86.6 Y36.175 Z-1.735
X86.513 Y36.217 Z-1.738
X86.419 Y36.245 Z-1.741
X86.323 Y36.257 Z-1.745
X86.226 Y36.254 Z-1.748
X86.13 Y36.235 Z-1.752
X86.039 Y36.2 Z-1.755
X85.955 Y36.152 Z-1.759
X85.88 Y36.09 Z-1.762
X85.815 Y36.017 Z-1.765
X85.764 Y35.935 Z-1.769
X85.726 Y35.845 Z-1.772
X85.703 Y35.75 Z-1.776
X85.696 Y35.653 Z-1.779
X85.705 Y35.556 Z-1.782
X85.73 Y35.462 Z-1.786
X85.769 Y35.373 Z-1.789
X85.822 Y35.292 Z-1.793
X85.888 Y35.22 Z-1.796
X85.964 Y35.16 Z-1.799
X86.049 Y35.112 Z-1.803
X86.141 Y35.08 Z-1.806
X86.236 Y35.062 Z-1.81
X86.334 Y35.061 Z-1.813
X86.43 Y35.075 Z-1.816
X86.523 Y35.104 Z-1.82
X86.61 Y35.148 Z-1.823
X86.688 Y35.206 Z-1.827
X86.756 Y35.275 Z-1.83
X86.812 Y35.355 Z-1.833
X86.854 Y35.442 Z-1.837
X86.882 Y35.536 Z-1.84
X86.894 Y35.632 Z-1.844
X86.891 Y35.729 Z-1.847
X86.871 Y35.825 Z-1.85
X86.837 Y35.916 Z-1.854
X86.788 Y36. Z-1.857
X86.726 Y36.075 Z-1.861
X86.653 Y36.139 Z-1.864
X86.571 Y36.191 Z-1.867
X86.481 Y36.228 Z-1.871
X86.386 Y36.251 Z-1.874
X86.289 Y36.258 Z-1.878
X86.192 Y36.249 Z-1.881
X86.098 Y36.224 Z-1.884
X86.009 Y36.185 Z-1.888
X85.928 Y36.132 Z-1.891
X85.856 Y36.066 Z-1.895
X85.796 Y35.989 Z-1.898
X85.749 Y35.904 Z-1.901
X85.716 Y35.812 Z-1.905
X85.699 Y35.717 Z-1.908
X85.698 Y35.619 Z-1.912
X85.712 Y35.523 Z-1.915
X85.741 Y35.431 Z-1.918
X85.786 Y35.344 Z-1.922
X85.843 Y35.265 Z-1.925
X85.913 Y35.197 Z-1.929
X85.993 Y35.142 Z-1.932
X86.08 Y35.099 Z-1.935
X86.174 Y35.072 Z-1.939
X86.27 Y35.06 Z-1.942
X86.367 Y35.064 Z-1.946
X86.463 Y35.083 Z-1.949
X86.554 Y35.118 Z-1.952
X86.638 Y35.167 Z-1.956
X86.713 Y35.229 Z-1.959
X86.777 Y35.302 Z-1.963
X86.828 Y35.384 Z-1.966
X86.866 Y35.474 Z-1.969
X86.888 Y35.569 Z-1.973
X86.895 Y35.666 Z-1.976
X86.886 Y35.763 Z-1.98
X86.861 Y35.857 Z-1.983
X86.821 Y35.946 Z-1.986
X86.768 Y36.027 Z-1.99
X86.702 Y36.099 Z-1.993
X86.626 Y36.159 Z-1.997
X86.54 Y36.206 Z-2.
X86.32 Y36.304 F1300.
X86.303 Y36.309
X86.246 Y36.293
X84.832 Y35.656
X84.707 Y35.57
X84.691 Y35.55
X84.643 Y35.413
X84.61 Y35.22
X84.966 Y35.121
X86.298 Y35.051
X87.624 Y35.278
X87.754 Y35.326
X87.968 Y35.416
X87.957 Y35.454
X87.91 Y35.553
X87.881 Y35.587
X87.784 Y35.649
X86.54 Y36.206
X86.511 Y36.211
X86.483 Y36.202
X86.461 Y36.182
X86.451 Y36.154
X86.456 Y36.124
X86.56 Y35.869
X86.826 Y35.42
X86.865 Y35.211
X86.875 Y35.19
X86.894 Y35.177
X86.917 Y35.175
X87.617 Y35.295 Z-2.025 F333.
X87.945 Y35.427 Z-2.037
X87.937 Y35.453 Z-2.038
X87.897 Y35.542 Z-2.042
X87.872 Y35.571 Z-2.043
X87.75 Y35.646 Z-2.048
X86.32 Y36.286 Z-2.103
X86.303 Y36.291
X86.249 Y36.275 Z-2.105
X84.818 Y35.627 Z-2.16
X84.736 Y35.573 Z-2.163
X84.706 Y35.536 Z-2.165
X84.658 Y35.392 Z-2.17
X84.63 Y35.233 Z-2.176
X84.974 Y35.137 Z-2.189
X86.298 Y35.069 Z-2.235
X87.617 Y35.295 Z-2.282
X87.945 Y35.427 Z-2.294
X87.937 Y35.453 Z-2.295
X87.897 Y35.542 Z-2.298
X87.872 Y35.571 Z-2.3
X87.75 Y35.646 Z-2.305
X86.32 Y36.286 Z-2.359
X86.303 Y36.291 Z-2.36
X86.249 Y36.275 Z-2.362
X84.818 Y35.627 Z-2.417
X84.736 Y35.573 Z-2.42
X84.706 Y35.536 Z-2.422
X84.658 Y35.392 Z-2.427
X84.63 Y35.233 Z-2.433
X84.974 Y35.137 Z-2.445
X86.298 Y35.069 Z-2.492
X86.536 Y35.11 Z-2.5
X87.617 Y35.295 F1300.
X87.945 Y35.427
X87.937 Y35.453
X87.897 Y35.542
X87.872 Y35.571
X87.75 Y35.646
X86.32 Y36.286
X86.303 Y36.291
X86.249 Y36.275
X84.818 Y35.627
X84.736 Y35.573
X84.706 Y35.536
X84.658 Y35.392
X84.63 Y35.233
X84.974 Y35.137
X86.298 Y35.069
X86.536 Y35.11
X86.559 Y35.119
X86.575 Y35.136
X86.583 Y35.16
X86.58 Y35.184
X86.568 Y35.205
X86.386 Y35.397
X85.979 Y35.799
X85.871 Y36.028
X85.854 Y36.049
X85.829 Y36.058
X85.802 Y36.054
X84.829 Y35.614 Z-2.537 F333.
X84.746 Y35.559 Z-2.541
X84.72 Y35.527 Z-2.542
X84.678 Y35.405 Z-2.547
X84.649 Y35.24 Z-2.553
X84.68 Y35.232 Z-2.554
X84.976 Y35.155 Z-2.564
X86.297 Y35.086 Z-2.611
X87.616 Y35.314 Z-2.657
X87.923 Y35.438 Z-2.669
X87.919 Y35.453
X87.883 Y35.53 Z-2.672
X87.865 Y35.551 Z-2.673
X87.739 Y35.632 Z-2.679
X86.32 Y36.268 Z-2.733
X86.303 Y36.272
X86.251 Y36.257 Z-2.735
X84.829 Y35.614 Z-2.79
X84.746 Y35.559 Z-2.793
X84.72 Y35.527 Z-2.795
X84.678 Y35.405 Z-2.799
X84.649 Y35.24 Z-2.805
X84.68 Y35.232 Z-2.806
X84.976 Y35.155 Z-2.817
X86.297 Y35.086 Z-2.863
X87.616 Y35.314 Z-2.91
X87.923 Y35.438 Z-2.921
X87.919 Y35.453 Z-2.922
X87.883 Y35.53 Z-2.925
X87.865 Y35.551 Z-2.926
X87.739 Y35.632 Z-2.931
X86.32 Y36.268 Z-2.985
X86.303 Y36.272 Z-2.986
X86.251 Y36.257 Z-2.988
X85.935 Y36.114 Z-3.
X84.829 Y35.614 F1300.
X84.746 Y35.559
X84.72 Y35.527
X84.678 Y35.405
X84.649 Y35.24
X84.68 Y35.232
X84.976 Y35.155
X86.297 Y35.086
X87.616 Y35.314
X87.923 Y35.438
X87.919 Y35.453
X87.883 Y35.53
X87.865 Y35.551
X87.739 Y35.632
X86.32 Y36.268
X86.303 Y36.272
X86.251 Y36.257
X85.935 Y36.114
X85.916 Y36.097
X85.911 Y36.073
X85.92 Y36.049
X86.051 Y35.889
X86.358 Y35.361
X86.393 Y35.163
X86.402 Y35.143
X86.42 Y35.13
X86.442 Y35.128
X87.58 Y35.321 Z-3.04 F333.
X87.758 Y35.385 Z-3.047
X87.902 Y35.445 Z-3.052
X87.858 Y35.536 Z-3.056
X87.832 Y35.556 Z-3.057
X87.744 Y35.61 Z-3.061
X86.32 Y36.25 Z-3.115
X86.304 Y36.254 Z-3.116
X86.253 Y36.239 Z-3.118
X84.84 Y35.6 Z-3.172
X84.758 Y35.546 Z-3.175
X84.737 Y35.52 Z-3.176
X84.692 Y35.387 Z-3.181
X84.669 Y35.252 Z-3.186
X84.735 Y35.234 Z-3.188
X85.017 Y35.168 Z-3.199
X86.298 Y35.103 Z-3.243
X87.58 Y35.321 Z-3.289
X87.758 Y35.385 Z-3.295
X87.902 Y35.445 Z-3.301
X87.858 Y35.536 Z-3.304
X87.832 Y35.556 Z-3.305
X87.744 Y35.61 Z-3.309
X86.32 Y36.25 Z-3.364
X86.304 Y36.254
X86.253 Y36.239 Z-3.366
X84.84 Y35.6 Z-3.42
X84.758 Y35.546 Z-3.424
X84.737 Y35.52 Z-3.425
X84.692 Y35.387 Z-3.43
X84.669 Y35.252 Z-3.434
X84.735 Y35.234 Z-3.437
X85.017 Y35.168 Z-3.447
X86.298 Y35.103 Z-3.492
X86.532 Y35.143 Z-3.5
X87.58 Y35.321 F1300.
X87.758 Y35.385
X87.902 Y35.445
X87.858 Y35.536
X87.832 Y35.556
X87.744 Y35.61
X86.32 Y36.25
X86.304 Y36.254
X86.253 Y36.239
X84.84 Y35.6
X84.758 Y35.546
X84.737 Y35.52
X84.692 Y35.387
X84.669 Y35.252
X84.735 Y35.234
X85.017 Y35.168
X86.298 Y35.103
X86.532 Y35.143
X86.572 Y35.158
X86.604 Y35.186
X86.625 Y35.223
X86.631 Y35.265
X86.621 Y35.307
X86.347 Y35.958
X86.328 Y36.024
X86.313 Y36.194
X86.305 Y36.213
X86.288 Y36.225
X86.268
X86.256 Y36.221 F333.
X84.85 Y35.586 Z-3.554
X84.769 Y35.532 Z-3.558
X84.756 Y35.517
X84.708 Y35.377 Z-3.564
X84.689 Y35.267 Z-3.567
X84.808 Y35.234 Z-3.572
X85.017 Y35.185 Z-3.579
X86.298 Y35.121 Z-3.624
X87.572 Y35.337 Z-3.669
X87.878 Y35.457 Z-3.681
X87.854 Y35.51 Z-3.683
X87.831 Y35.536 Z-3.684
X87.741 Y35.592 Z-3.688
X86.32 Y36.232 Z-3.742
X86.304 Y36.236 Z-3.743
X86.256 Y36.221 Z-3.744
X84.85 Y35.586 Z-3.798
X84.769 Y35.532 Z-3.802
X84.756 Y35.517
X84.708 Y35.377 Z-3.808
X84.689 Y35.267 Z-3.811
X84.808 Y35.234 Z-3.816
X85.017 Y35.185 Z-3.823
X86.298 Y35.121 Z-3.868
X87.572 Y35.337 Z-3.913
X87.878 Y35.457 Z-3.925
X87.854 Y35.51 Z-3.927
X87.831 Y35.536 Z-3.928
X87.741 Y35.592 Z-3.932
X86.32 Y36.232 Z-3.986
X86.304 Y36.236 Z-3.987
X86.256 Y36.221 Z-3.988
X85.952 Y36.084 Z-4.
X84.85 Y35.586 F1300.
X84.769 Y35.532
X84.756 Y35.517
X84.708 Y35.377
X84.689 Y35.267
X84.808 Y35.234
X85.017 Y35.185
X86.298 Y35.121
X87.572 Y35.337
X87.878 Y35.457
X87.854 Y35.51
X87.831 Y35.536
X87.741 Y35.592
X86.32 Y36.232
X86.304 Y36.236
X86.256 Y36.221
X85.952 Y36.084
X85.931 Y36.067
X85.921 Y36.041
X85.925 Y36.015
X85.942 Y35.993
X85.967 Y35.983
X86.174 Y35.96
X86.284 Y35.974
X86.492 Y36.038
X86.513 Y36.05
X86.526 Y36.071
X86.527 Y36.095
X86.517 Y36.118
X86.498 Y36.133
X86.318 Y36.214 Z-4.007 F333.
X86.305 Y36.218
X86.257 Y36.202 Z-4.009
X84.861 Y35.573 Z-4.063
X84.78 Y35.519 Z-4.066
X84.771 Y35.509
X84.74 Y35.426 Z-4.07
X84.728 Y35.386 Z-4.071
X84.709 Y35.277 Z-4.075
X85.02 Y35.202 Z-4.086
X86.297 Y35.138 Z-4.131
X87.571 Y35.354 Z-4.176
X87.855 Y35.466 Z-4.187
X87.839 Y35.501 Z-4.188
X87.825 Y35.52 Z-4.189
X87.738 Y35.574 Z-4.192
X86.318 Y36.214 Z-4.247
X86.305 Y36.218
X86.257 Y36.202 Z-4.249
X84.861 Y35.573 Z-4.302
X84.78 Y35.519 Z-4.306
X84.771 Y35.509
X84.74 Y35.426 Z-4.309
X84.728 Y35.386 Z-4.311
X84.709 Y35.277 Z-4.315
X85.02 Y35.202 Z-4.326
X86.297 Y35.138 Z-4.37
X87.571 Y35.354 Z-4.416
X87.855 Y35.466 Z-4.426
X87.839 Y35.501 Z-4.428
X87.825 Y35.52
X87.738 Y35.574 Z-4.432
X86.318 Y36.214 Z-4.486
X86.305 Y36.218 Z-4.487
X86.257 Y36.202 Z-4.489
X85.959 Y36.068 Z-4.5
X84.861 Y35.573 F1300.
X84.78 Y35.519
X84.771 Y35.509
X84.74 Y35.426
X84.728 Y35.386
X84.709 Y35.277
X85.02 Y35.202
X86.297 Y35.138
X87.571 Y35.354
X87.855 Y35.466
X87.839 Y35.501
X87.825 Y35.52
X87.738 Y35.574
X86.318 Y36.214
X86.305 Y36.218
X86.257 Y36.202
X85.959 Y36.068
X85.94 Y36.053
X85.93 Y36.03
X85.932 Y36.005
X85.945 Y35.984
X85.967 Y35.972
X86.174 Y35.919
X86.542 Y35.896
X86.719 Y35.925
X86.739 Y35.934
X86.752 Y35.952
X86.755 Y35.975
X86.747 Y35.995
X86.729 Y36.009
