(NMJPLATE0PT0PT2_BOTTOM_STEP1_332IN_SIDE1)
(T8  D=2.381 CR=0. - ZMIN=-5.262 - FLAT END MILL)
G0 G90 G94 G17
G21
G53 G0 Z0.

(POCKET2 5)
M5
T8
M3 S12800
G55
M8
G0 X19.672 Y94.408
Z15.
Z1.5
G1 Z0.763 F381.
X19.663 Y94.422 Z0.676 F333.
X19.635 Y94.459 Z0.602
X19.584 Y94.515 Z0.547
X19.516 Y94.575 Z0.525
X19.427 Y94.633 Z0.521
X19.33 Y94.678 Z0.518
X19.228 Y94.707 Z0.514
X19.123 Y94.72 Z0.51
X19.017 Y94.718 Z0.506
X18.912 Y94.7 Z0.503
X18.811 Y94.666 Z0.499
X18.717 Y94.618 Z0.495
X18.631 Y94.556 Z0.492
X18.555 Y94.481 Z0.488
X18.491 Y94.397 Z0.484
X18.44 Y94.303 Z0.48
X18.404 Y94.203 Z0.477
X18.384 Y94.099 Z0.473
X18.379 Y93.993 Z0.469
X18.39 Y93.887 Z0.466
X18.417 Y93.784 Z0.462
X18.459 Y93.687 Z0.458
X18.516 Y93.597 Z0.454
X18.585 Y93.516 Z0.451
X18.665 Y93.447 Z0.447
X18.755 Y93.39 Z0.443
X18.852 Y93.348 Z0.44
X18.955 Y93.32 Z0.436
X19.061 Y93.308 Z0.432
X19.167 Y93.313 Z0.428
X19.271 Y93.333 Z0.425
X19.371 Y93.368 Z0.421
X19.465 Y93.419 Z0.417
X19.55 Y93.482 Z0.414
X19.625 Y93.558 Z0.41
X19.687 Y93.644 Z0.406
X19.736 Y93.738 Z0.402
X19.77 Y93.839 Z0.399
X19.788 Y93.944 Z0.395
X19.791 Y94.05 Z0.391
X19.778 Y94.155 Z0.388
X19.749 Y94.257 Z0.384
X19.705 Y94.354 Z0.38
X19.647 Y94.443 Z0.376
X19.577 Y94.523 Z0.373
X19.495 Y94.591 Z0.369
X19.404 Y94.646 Z0.365
X19.306 Y94.686 Z0.362
X19.203 Y94.712 Z0.358
X19.097 Y94.721 Z0.354
X18.991 Y94.715 Z0.35
X18.887 Y94.693 Z0.347
X18.787 Y94.656 Z0.343
X18.695 Y94.604 Z0.339
X18.611 Y94.539 Z0.336
X18.538 Y94.462 Z0.332
X18.477 Y94.374 Z0.328
X18.43 Y94.279 Z0.324
X18.398 Y94.178 Z0.321
X18.381 Y94.073 Z0.317
X18.38 Y93.967 Z0.313
X18.395 Y93.862 Z0.31
X18.426 Y93.76 Z0.306
X18.472 Y93.664 Z0.302
X18.531 Y93.576 Z0.298
X18.603 Y93.498 Z0.295
X18.686 Y93.431 Z0.291
X18.778 Y93.378 Z0.287
X18.877 Y93.339 Z0.284
X18.981 Y93.316 Z0.28
X19.087 Y93.308 Z0.276
X19.193 Y93.316 Z0.272
X19.296 Y93.34 Z0.269
X19.395 Y93.379 Z0.265
X19.487 Y93.433 Z0.261
X19.569 Y93.5 Z0.258
X19.641 Y93.578 Z0.254
X19.7 Y93.666 Z0.25
X19.746 Y93.763 Z0.246
X19.776 Y93.864 Z0.243
X19.791 Y93.97 Z0.239
X19.789 Y94.076 Z0.235
X19.772 Y94.181 Z0.232
X19.74 Y94.282 Z0.228
X19.692 Y94.377 Z0.224
X19.631 Y94.464 Z0.22
X19.558 Y94.541 Z0.217
X19.473 Y94.605 Z0.213
X19.381 Y94.657 Z0.209
X19.281 Y94.694 Z0.206
X19.177 Y94.716 Z0.202
X19.071 Y94.721 Z0.198
X18.965 Y94.711 Z0.194
X18.862 Y94.685 Z0.191
X18.764 Y94.644 Z0.187
X18.673 Y94.589 Z0.183
X18.592 Y94.521 Z0.18
X18.522 Y94.441 Z0.176
X18.464 Y94.352 Z0.172
X18.421 Y94.255 Z0.168
X18.392 Y94.152 Z0.165
X18.379 Y94.047 Z0.161
X18.382 Y93.941 Z0.157
X18.402 Y93.836 Z0.154
X18.436 Y93.736 Z0.15
X18.485 Y93.641 Z0.146
X18.548 Y93.556 Z0.142
X18.623 Y93.48 Z0.139
X18.708 Y93.417 Z0.135
X18.802 Y93.367 Z0.131
X18.902 Y93.332 Z0.128
X19.007 Y93.312 Z0.124
X19.113 Y93.309 Z0.12
X19.218 Y93.321 Z0.116
X19.321 Y93.348 Z0.113
X19.418 Y93.391 Z0.109
X19.508 Y93.448 Z0.105
X19.588 Y93.518 Z0.102
X19.657 Y93.599 Z0.098
X19.713 Y93.689 Z0.094
X19.754 Y93.787 Z0.09
X19.781 Y93.89 Z0.087
X19.792 Y93.996 Z0.083
X19.787 Y94.102 Z0.079
X19.766 Y94.206 Z0.076
X19.729 Y94.306 Z0.072
X19.678 Y94.399 Z0.068
X19.614 Y94.484 Z0.064
X19.538 Y94.558 Z0.061
X19.451 Y94.619 Z0.057
X19.357 Y94.667 Z0.053
X19.256 Y94.701 Z0.05
X19.151 Y94.718 Z0.046
X19.045 Y94.72 Z0.042
X18.939 Y94.706 Z0.038
X18.837 Y94.677 Z0.035
X18.741 Y94.632 Z0.031
X18.652 Y94.573 Z0.027
X18.574 Y94.502 Z0.024
X18.506 Y94.42 Z0.02
X18.452 Y94.329 Z0.016
X18.412 Y94.23 Z0.012
X18.388 Y94.127 Z0.009
X18.379 Y94.021 Z0.005
X18.386 Y93.915 Z0.001
X18.409 Y93.811 Z-0.002
X18.447 Y93.712 Z-0.006
X18.499 Y93.62 Z-0.01
X18.565 Y93.536 Z-0.013
X18.643 Y93.464 Z-0.017
X18.73 Y93.404 Z-0.021
X18.826 Y93.357 Z-0.025
X18.928 Y93.326 Z-0.028
X19.033 Y93.31 Z-0.032
X19.139 Z-0.036
X19.244 Y93.326 Z-0.039
X19.345 Y93.358 Z-0.043
X19.441 Y93.404 Z-0.047
X19.529 Y93.464 Z-0.051
X19.606 Y93.537 Z-0.054
X19.672 Y93.62 Z-0.058
X19.724 Y93.713 Z-0.062
X19.762 Y93.812 Z-0.065
X19.785 Y93.916 Z-0.069
X19.792 Y94.022 Z-0.073
X19.783 Y94.128 Z-0.077
X19.758 Y94.231 Z-0.08
X19.718 Y94.329 Z-0.084
X19.664 Y94.421 Z-0.088
X19.596 Y94.503 Z-0.091
X19.518 Y94.574 Z-0.095
X19.429 Y94.632 Z-0.099
X19.332 Y94.677 Z-0.103
X19.23 Y94.706 Z-0.106
X19.125 Y94.72 Z-0.11
X19.019 Y94.718 Z-0.114
X18.914 Y94.7 Z-0.117
X18.813 Y94.667 Z-0.121
X18.718 Y94.619 Z-0.125
X18.632 Y94.557 Z-0.129
X18.556 Y94.483 Z-0.132
X18.492 Y94.398 Z-0.136
X18.441 Y94.305 Z-0.14
X18.405 Y94.205 Z-0.143
X18.384 Y94.101 Z-0.147
X18.379 Y93.995 Z-0.151
X18.39 Y93.889 Z-0.155
X18.417 Y93.786 Z-0.158
X18.458 Y93.689 Z-0.162
X18.514 Y93.598 Z-0.166
X18.583 Y93.517 Z-0.169
X18.664 Y93.448 Z-0.173
X18.753 Y93.391 Z-0.177
X18.851 Y93.348 Z-0.181
X18.953 Y93.321 Z-0.184
X19.059 Y93.309 Z-0.188
X19.165 Y93.313 Z-0.192
X19.269 Y93.332 Z-0.195
X19.369 Y93.368 Z-0.199
X19.463 Y93.418 Z-0.203
X19.549 Y93.481 Z-0.207
X19.623 Y93.556 Z-0.21
X19.686 Y93.642 Z-0.214
X19.735 Y93.737 Z-0.218
X19.769 Y93.837 Z-0.221
X19.788 Y93.942 Z-0.225
X19.791 Y94.048 Z-0.229
X19.778 Y94.153 Z-0.233
X19.75 Y94.256 Z-0.236
X19.706 Y94.352 Z-0.24
X19.649 Y94.442 Z-0.244
X19.578 Y94.521 Z-0.247
X19.497 Y94.589 Z-0.251
X19.406 Y94.645 Z-0.255
X19.308 Y94.686 Z-0.259
X19.205 Y94.711 Z-0.262
X19.099 Y94.721 Z-0.266
X18.993 Y94.715 Z-0.27
X18.889 Y94.694 Z-0.273
X18.789 Y94.656 Z-0.277
X18.696 Y94.605 Z-0.281
X18.612 Y94.54 Z-0.285
X18.539 Y94.463 Z-0.288
X18.478 Y94.376 Z-0.292
X18.431 Y94.281 Z-0.296
X18.398 Y94.18 Z-0.299
X18.381 Y94.075 Z-0.303
X18.38 Y93.969 Z-0.307
X18.395 Y93.863 Z-0.311
X18.425 Y93.762 Z-0.314
X18.471 Y93.666 Z-0.318
X18.53 Y93.577 Z-0.322
X18.602 Y93.499 Z-0.325
X18.685 Y93.433 Z-0.329
X18.777 Y93.379 Z-0.333
X18.875 Y93.34 Z-0.337
X18.979 Y93.316 Z-0.34
X19.085 Y93.308 Z-0.344
X19.191 Y93.316 Z-0.348
X19.294 Y93.34 Z-0.351
X19.393 Y93.379 Z-0.355
X19.485 Y93.432 Z-0.359
X19.568 Y93.498 Z-0.363
X19.64 Y93.577 Z-0.366
X19.699 Y93.665 Z-0.37
X19.745 Y93.761 Z-0.374
X19.775 Y93.862 Z-0.377
X19.79 Y93.968 Z-0.381
Y94.074 Z-0.385
X19.773 Y94.179 Z-0.389
X19.74 Y94.28 Z-0.392
X19.693 Y94.375 Z-0.396
X19.632 Y94.462 Z-0.4
X19.559 Y94.539 Z-0.403
X19.475 Y94.604 Z-0.407
X19.382 Y94.656 Z-0.411
X19.283 Y94.693 Z-0.415
X19.179 Y94.715 Z-0.418
X19.073 Y94.721 Z-0.422
X18.967 Y94.712 Z-0.426
X18.864 Y94.686 Z-0.429
X18.766 Y94.645 Z-0.433
X18.675 Y94.59 Z-0.437
X18.593 Y94.522 Z-0.441
X18.523 Y94.443 Z-0.444
X18.465 Y94.353 Z-0.448
X18.421 Y94.257 Z-0.452
X18.393 Y94.154 Z-0.455
X18.379 Y94.049 Z-0.459
X18.382 Y93.943 Z-0.463
X18.401 Y93.838 Z-0.467
X18.435 Y93.738 Z-0.47
X18.484 Y93.643 Z-0.474
X18.547 Y93.557 Z-0.478
X18.621 Y93.482 Z-0.481
X18.706 Y93.418 Z-0.485
X18.8 Y93.368 Z-0.489
X18.9 Y93.333 Z-0.493
X19.005 Y93.313 Z-0.496
X19.111 Y93.308 Z-0.5
X19.226 Y93.313 F1300.
X19.248
X136.934 Y93.311
X136.992 Y93.309
X137.05 Y93.3
X137.87 Y93.137
X137.944 Y93.117
X138.015 Y93.088
X138.16 Y93.018
X138.233 Y92.975
X138.873 Y92.542
X138.93 Y92.498
X138.981 Y92.447
X139.07 Y92.348
X139.124 Y92.279
X139.542 Y91.65
X139.574 Y91.597
X139.599 Y91.541
X139.657 Y91.396
X139.675 Y91.344
X139.689 Y91.29
X139.839 Y90.519
X139.848 Y90.462
X139.851 Y90.405
Y10.825
X139.848 Y10.768
X139.839 Y10.711
X139.689 Y9.94
X139.675 Y9.886
X139.657 Y9.834
X139.599 Y9.689
X139.574 Y9.633
X139.542 Y9.58
X139.124 Y8.951
X139.07 Y8.882
X138.981 Y8.783
X138.93 Y8.732
X138.873 Y8.688
X138.233 Y8.255
X138.16 Y8.212
X138.015 Y8.142
X137.944 Y8.113
X137.87 Y8.093
X137.05 Y7.93
X136.992 Y7.921
X136.934 Y7.918
X19.103
X19.047 Y7.921
X18.991 Y7.929
X18.855 Y7.955
X18.79 Y7.971
X18.727 Y7.995
X18.61 Y8.046
X18.552 Y8.075
X18.498 Y8.111
X18.393 Y8.187
X18.323 Y8.247
X12.485 Y14.089
X12.428 Y14.154
X12.399 Y14.194
X12.351 Y14.269
X12.291 Y14.382
X12.264 Y14.437
X12.244 Y14.495
X12.211 Y14.608
X12.196 Y14.675
X12.188 Y14.744
X12.178 Y14.936
X12.177 Y14.968
X12.18 Y86.406
X12.184 Y86.471
X12.194 Y86.536
X12.224 Y86.668
X12.241 Y86.731
X12.266 Y86.792
X12.319 Y86.904
X12.349 Y86.962
X12.387 Y87.016
X12.47 Y87.124
X12.521 Y87.181
X18.361 Y93.015
X18.417 Y93.064
X18.479 Y93.106
X18.604 Y93.18
X18.671 Y93.215
X18.742 Y93.24
X18.889 Y93.283
X18.96 Y93.299
X19.033 Y93.306
X19.111 Y93.308
X19.147 Y93.315
X19.179 Y93.333
X19.204 Y93.359
X19.22 Y93.392
X19.226 Y93.429
X19.214 Y94.604
X19.208 Y94.64
X19.191 Y94.673
X19.165 Y94.699
X19.132 Y94.716
X19.095 Y94.721
X19.069
X18.908 Y94.714
X18.752 Y94.697
X18.596 Y94.669
X18.441 Y94.632
X18.285 Y94.583
X18.134 Y94.525
X17.899 Y94.411
X17.66 Y94.262
X17.457 Y94.101
X16.316 Y92.969
X11.697 Y88.35
X11.353 Y87.992
X11.24 Y87.846
X11.079 Y87.592
X10.971 Y87.371
X10.911 Y87.219
X10.862 Y87.064
X10.823 Y86.908
X10.795 Y86.752
X10.777 Y86.597
X10.769 Y86.439
Y14.791
X10.777 Y14.633
X10.795 Y14.477
X10.823 Y14.322
X10.862 Y14.166
X10.911 Y14.011
X10.971 Y13.859
X11.079 Y13.638
X11.238 Y13.386
X11.39 Y13.195
X12.911 Y11.666
X17.153 Y7.423
X17.511 Y7.082
X17.657 Y6.97
X17.899 Y6.819
X18.134 Y6.705
X18.285 Y6.646
X18.441 Y6.598
X18.596 Y6.56
X18.752 Y6.533
X18.908 Y6.516
X19.069 Y6.508
X137.001 Y6.513
X137.537 Y6.565
X137.696 Y6.589
X137.852 Y6.622
X138.008 Y6.666
X138.158 Y6.72
X138.9 Y7.057
X139.254 Y7.23
X139.405 Y7.322
X139.557 Y7.432
X139.773 Y7.62
X139.868 Y7.717
X140.573 Y8.58
X140.693 Y8.758
X140.77 Y8.89
X140.847 Y9.047
X140.913 Y9.207
X140.962 Y9.354
X141.183 Y10.283
X141.219 Y10.452
X141.243 Y10.608
X141.257 Y10.756
X141.262 Y14.39
Y90.3
X141.258 Y90.464
X141.204 Y91.005
X141.18 Y91.163
X141.146 Y91.319
X141.102 Y91.474
X141.047 Y91.625
X140.71 Y92.366
X140.537 Y92.719
X140.445 Y92.869
X140.336 Y93.021
X140.148 Y93.236
X140.05 Y93.331
X139.184 Y94.036
X139.008 Y94.156
X138.874 Y94.233
X138.717 Y94.31
X138.56 Y94.374
X138.411 Y94.423
X137.479 Y94.645
X137.31 Y94.681
X137.154 Y94.704
X137.005 Y94.717
X19.095 Y94.721
X19.06 Y94.715
X19.029 Y94.696
X19.007 Y94.667
X18.998 Y94.632
X19.001 Y94.596
X19.017 Y94.564
X19.29 Y94.207
X19.613 Y93.898
X19.643 Y93.878
X19.679 Y93.871
X19.715 Y93.877
X19.746 Y93.896
X19.768 Y93.925
X19.778 Y93.96
X19.78 Y94.065 Z-0.504 F333.
X19.766 Y94.169 Z-0.507
X19.737 Y94.27 Z-0.511
X19.693 Y94.365 Z-0.515
X19.635 Y94.453 Z-0.518
X19.564 Y94.531 Z-0.522
X19.482 Y94.597 Z-0.526
X19.392 Y94.65 Z-0.529
X19.294 Y94.689 Z-0.533
X19.191 Y94.713 Z-0.537
X19.087 Y94.721 Z-0.54
X18.982 Y94.714 Z-0.544
X18.879 Y94.69 Z-0.548
X18.781 Y94.652 Z-0.551
X18.69 Y94.599 Z-0.555
X18.608 Y94.533 Z-0.559
X18.537 Y94.455 Z-0.563
X18.479 Y94.368 Z-0.566
X18.434 Y94.273 Z-0.57
X18.404 Y94.172 Z-0.574
X18.39 Y94.068 Z-0.577
X18.392 Y93.962 Z-0.581
X18.409 Y93.859 Z-0.585
X18.442 Y93.759 Z-0.588
X18.489 Y93.665 Z-0.592
X18.55 Y93.579 Z-0.596
X18.624 Y93.504 Z-0.599
X18.707 Y93.44 Z-0.603
X18.8 Y93.39 Z-0.607
X18.899 Y93.354 Z-0.61
X19.002 Y93.334 Z-0.614
X19.107 Y93.329 Z-0.618
X19.212 Y93.34 Z-0.621
X19.313 Y93.367 Z-0.625
X19.41 Y93.409 Z-0.629
X19.499 Y93.465 Z-0.632
X19.578 Y93.534 Z-0.636
X19.647 Y93.614 Z-0.64
X19.702 Y93.703 Z-0.643
X19.744 Y93.8 Z-0.647
X19.77 Y93.901 Z-0.651
X19.781 Y94.006 Z-0.654
X19.776 Y94.111 Z-0.658
X19.755 Y94.214 Z-0.662
X19.719 Y94.313 Z-0.665
X19.669 Y94.405 Z-0.669
X19.605 Y94.489 Z-0.673
X19.529 Y94.562 Z-0.676
X19.443 Y94.622 Z-0.68
X19.349 Y94.67 Z-0.684
X19.249 Y94.702 Z-0.688
X19.145 Y94.719 Z-0.691
X19.04 Y94.72 Z-0.695
X18.936 Y94.705 Z-0.699
X18.835 Y94.675 Z-0.702
X18.74 Y94.63 Z-0.706
X18.653 Y94.571 Z-0.71
X18.576 Y94.5 Z-0.713
X18.51 Y94.418 Z-0.717
X18.457 Y94.327 Z-0.721
X18.419 Y94.229 Z-0.724
X18.396 Y94.126 Z-0.728
X18.389 Y94.021 Z-0.732
X18.397 Y93.916 Z-0.735
X18.422 Y93.814 Z-0.739
X18.461 Y93.716 Z-0.743
X18.515 Y93.626 Z-0.746
X18.581 Y93.545 Z-0.75
X18.659 Y93.474 Z-0.754
X18.747 Y93.416 Z-0.757
X18.843 Y93.372 Z-0.761
X18.944 Y93.343 Z-0.765
X19.048 Y93.33 Z-0.768
X19.153 Y93.332 Z-0.772
X19.257 Y93.35 Z-0.776
X19.357 Y93.384 Z-0.779
X19.45 Y93.432 Z-0.783
X19.535 Y93.494 Z-0.787
X19.61 Y93.568 Z-0.79
X19.673 Y93.652 Z-0.794
X19.723 Y93.745 Z-0.798
X19.757 Y93.844 Z-0.801
X19.777 Y93.947 Z-0.805
X19.781 Y94.053 Z-0.809
X19.769 Y94.157 Z-0.813
X19.741 Y94.259 Z-0.816
X19.699 Y94.355 Z-0.82
X19.642 Y94.443 Z-0.824
X19.573 Y94.522 Z-0.827
X19.492 Y94.59 Z-0.831
X19.402 Y94.645 Z-0.835
X19.305 Y94.686 Z-0.838
X19.203 Y94.711 Z-0.842
X19.099 Y94.721 Z-0.846
X18.994 Y94.715 Z-0.849
X18.891 Y94.694 Z-0.853
X18.792 Y94.657 Z-0.857
X18.7 Y94.606 Z-0.86
X18.617 Y94.541 Z-0.864
X18.545 Y94.465 Z-0.868
X18.485 Y94.378 Z-0.871
X18.439 Y94.284 Z-0.875
X18.407 Y94.184 Z-0.879
X18.391 Y94.08 Z-0.882
Y93.975 Z-0.886
X18.406 Y93.871 Z-0.89
X18.437 Y93.77 Z-0.893
X18.483 Y93.675 Z-0.897
X18.543 Y93.589 Z-0.901
X18.614 Y93.512 Z-0.904
X18.697 Y93.447 Z-0.908
X18.789 Y93.395 Z-0.912
X18.887 Y93.358 Z-0.915
X18.99 Y93.335 Z-0.919
X19.095 Y93.329 Z-0.923
X19.2 Y93.338 Z-0.926
X19.302 Y93.363 Z-0.93
X19.399 Y93.404 Z-0.934
X19.489 Y93.458 Z-0.938
X19.57 Y93.525 Z-0.941
X19.64 Y93.604 Z-0.945
X19.697 Y93.692 Z-0.949
X19.74 Y93.788 Z-0.952
X19.768 Y93.889 Z-0.956
X19.781 Y93.994 Z-0.96
X19.778 Y94.099 Z-0.963
X19.758 Y94.202 Z-0.967
X19.724 Y94.302 Z-0.971
X19.675 Y94.395 Z-0.974
X19.613 Y94.48 Z-0.978
X19.538 Y94.554 Z-0.982
X19.453 Y94.616 Z-0.985
X19.36 Y94.665 Z-0.989
X19.261 Y94.699 Z-0.993
X19.157 Y94.718 Z-0.996
X19.052 Y94.721 Z-1.
X18.908 Y94.714 F1300.
X18.752 Y94.697
X18.596 Y94.669
X18.441 Y94.632
X18.285 Y94.583
X18.134 Y94.525
X17.899 Y94.411
X17.66 Y94.262
X17.457 Y94.101
X16.316 Y92.969
X11.697 Y88.35
X11.353 Y87.992
X11.24 Y87.846
X11.079 Y87.592
X10.971 Y87.371
X10.911 Y87.219
X10.862 Y87.064
X10.823 Y86.908
X10.795 Y86.752
X10.777 Y86.597
X10.769 Y86.439
Y14.791
X10.777 Y14.633
X10.795 Y14.477
X10.823 Y14.322
X10.862 Y14.166
X10.911 Y14.011
X10.971 Y13.859
X11.079 Y13.638
X11.238 Y13.386
X11.39 Y13.195
X12.911 Y11.666
X17.153 Y7.423
X17.511 Y7.082
X17.657 Y6.97
X17.899 Y6.819
X18.134 Y6.705
X18.285 Y6.646
X18.441 Y6.598
X18.596 Y6.56
X18.752 Y6.533
X18.908 Y6.516
X19.069 Y6.508
X137.001 Y6.513
X137.537 Y6.565
X137.696 Y6.589
X137.852 Y6.622
X138.008 Y6.666
X138.158 Y6.72
X138.9 Y7.057
X139.254 Y7.23
X139.405 Y7.322
X139.557 Y7.432
X139.773 Y7.62
X139.868 Y7.717
X140.573 Y8.58
X140.693 Y8.758
X140.77 Y8.89
X140.847 Y9.047
X140.913 Y9.207
X140.962 Y9.354
X141.183 Y10.283
X141.219 Y10.452
X141.243 Y10.608
X141.257 Y10.756
X141.262 Y14.39
Y90.3
X141.258 Y90.464
X141.204 Y91.005
X141.18 Y91.163
X141.146 Y91.319
X141.102 Y91.474
X141.047 Y91.625
X140.71 Y92.366
X140.537 Y92.719
X140.445 Y92.869
X140.336 Y93.021
X140.148 Y93.236
X140.05 Y93.331
X139.184 Y94.036
X139.008 Y94.156
X138.874 Y94.233
X138.717 Y94.31
X138.56 Y94.374
X138.411 Y94.423
X137.479 Y94.645
X137.31 Y94.681
X137.154 Y94.704
X137.005 Y94.717
X19.069 Y94.721
X19.052
X19.018 Y94.714
X18.987 Y94.697
X18.962 Y94.673
X18.946 Y94.642
X18.939 Y94.607
X18.886 Y93.445
X18.891 Y93.405
X18.909 Y93.369
X18.939 Y93.341
X18.975 Y93.324
X19.016 Y93.321
X19.098 Y93.328
X19.151 Y93.331
X136.934 Y93.329
X136.992 Y93.326
X137.05 Y93.317
X137.87 Y93.154
X137.942 Y93.135
X138.011 Y93.107
X138.156 Y93.038
X138.233 Y92.993
X138.881 Y92.554
X138.939 Y92.51
X138.991 Y92.458
X139.086 Y92.353
X139.138 Y92.285
X139.56 Y91.649
X139.592 Y91.595
X139.619 Y91.537
X139.675 Y91.393
X139.693 Y91.342
X139.705 Y91.29
X139.856 Y90.519
X139.865 Y90.462
X139.868 Y90.405
Y10.825
X139.865 Y10.766
X139.856 Y10.707
X139.69 Y9.889
X139.67 Y9.813
X139.639 Y9.74
X139.567 Y9.596
X139.527 Y9.528
X139.093 Y8.887
X139.05 Y8.832
X139.002 Y8.782
X138.907 Y8.696
X138.835 Y8.639
X138.18 Y8.205
X138.121 Y8.17
X138.059 Y8.143
X137.914 Y8.089
X137.867 Y8.074
X137.819 Y8.062
X137.047 Y7.912
X136.991 Y7.904
X136.934 Y7.901
X19.103 Y7.9
X19.047 Y7.903
X18.992 Y7.911
X18.844 Y7.939
X18.771 Y7.957
X18.701 Y7.985
X18.568 Y8.048
X18.509 Y8.079
X18.455 Y8.117
X18.362 Y8.189
X18.307 Y8.238
X12.481 Y14.065
X12.441 Y14.11
X12.414 Y14.142
X12.36 Y14.22
X12.286 Y14.349
X12.254 Y14.412
X12.23 Y14.479
X12.193 Y14.607
X12.177 Y14.677
X12.169 Y14.748
X12.16 Y14.94
X12.159 Y14.968
X12.162 Y86.406
X12.165 Y86.471
X12.176 Y86.534
X12.208 Y86.679
X12.228 Y86.749
X12.256 Y86.816
X12.32 Y86.945
X12.353 Y87.003
X12.393 Y87.057
X12.472 Y87.154
X12.511 Y87.197
X18.337 Y93.018
X18.385 Y93.062
X18.439 Y93.1
X18.569 Y93.183
X18.633 Y93.218
X18.702 Y93.245
X18.836 Y93.289
X18.901 Y93.307
X18.968 Y93.316
X19.016 Y93.321
X19.055 Y93.331
X19.088 Y93.354
X19.112 Y93.387
X19.123 Y93.426
X19.121 Y93.467
X19.105 Y93.504
X19.077 Y93.534
X18.668 Y93.842
X18.439 Y93.963
X18.314 Y94.029
X18.294 Y94.032
X18.277 Y94.022
X18.271 Y94.002
X18.282 Y93.898 Z-1.004 F333.
X18.308 Y93.797 Z-1.007
X18.349 Y93.702 Z-1.011
X18.405 Y93.613 Z-1.015
X18.473 Y93.534 Z-1.018
X18.552 Y93.466 Z-1.022
X18.641 Y93.41 Z-1.026
X18.736 Y93.369 Z-1.029
X18.837 Y93.342 Z-1.033
X18.941 Y93.331 Z-1.037
X19.046 Y93.336 Z-1.04
X19.148 Y93.356 Z-1.044
X19.246 Y93.392 Z-1.047
X19.338 Y93.441 Z-1.051
X19.421 Y93.505 Z-1.055
X19.494 Y93.579 Z-1.058
X19.555 Y93.664 Z-1.062
X19.602 Y93.758 Z-1.066
X19.635 Y93.857 Z-1.069
X19.652 Y93.96 Z-1.073
X19.654 Y94.064 Z-1.077
X19.64 Y94.168 Z-1.08
X19.61 Y94.268 Z-1.084
X19.566 Y94.362 Z-1.088
X19.508 Y94.449 Z-1.091
X19.438 Y94.527 Z-1.095
X19.357 Y94.592 Z-1.099
X19.267 Y94.645 Z-1.102
X19.17 Y94.684 Z-1.106
X19.068 Y94.708 Z-1.11
X18.964 Y94.716 Z-1.113
X18.86 Y94.708 Z-1.117
X18.758 Y94.685 Z-1.12
X18.661 Y94.647 Z-1.124
X18.571 Y94.594 Z-1.128
X18.489 Y94.529 Z-1.131
X18.419 Y94.452 Z-1.135
X18.36 Y94.365 Z-1.139
X18.316 Y94.27 Z-1.142
X18.286 Y94.17 Z-1.146
X18.272 Y94.067 Z-1.15
X18.273 Y93.963 Z-1.153
X18.29 Y93.859 Z-1.157
X18.322 Y93.76 Z-1.161
X18.369 Y93.667 Z-1.164
X18.429 Y93.582 Z-1.168
X18.502 Y93.506 Z-1.172
X18.585 Y93.443 Z-1.175
X18.676 Y93.393 Z-1.179
X18.774 Y93.357 Z-1.183
X18.877 Y93.336 Z-1.186
X18.981 Y93.331 Z-1.19
X19.085 Y93.342 Z-1.193
X19.186 Y93.368 Z-1.197
X19.282 Y93.409 Z-1.201
X19.371 Y93.464 Z-1.204
X19.45 Y93.532 Z-1.208
X19.519 Y93.611 Z-1.212
X19.574 Y93.699 Z-1.215
X19.616 Y93.795 Z-1.219
X19.643 Y93.896 Z-1.223
X19.655 Y93.999 Z-1.226
X19.65 Y94.104 Z-1.23
X19.63 Y94.206 Z-1.234
X19.595 Y94.305 Z-1.237
X19.546 Y94.397 Z-1.241
X19.483 Y94.48 Z-1.245
X19.408 Y94.553 Z-1.248
X19.324 Y94.614 Z-1.252
X19.231 Y94.662 Z-1.256
X19.132 Y94.695 Z-1.259
X19.029 Y94.713 Z-1.263
X18.924 Y94.715 Z-1.266
X18.821 Y94.701 Z-1.27
X18.72 Y94.672 Z-1.274
X18.626 Y94.628 Z-1.277
X18.538 Y94.571 Z-1.281
X18.461 Y94.501 Z-1.285
X18.395 Y94.42 Z-1.288
X18.342 Y94.33 Z-1.292
X18.303 Y94.233 Z-1.296
X18.279 Y94.131 Z-1.299
X18.27 Y94.027 Z-1.303
X18.277 Y93.923 Z-1.307
X18.3 Y93.821 Z-1.31
X18.338 Y93.724 Z-1.314
X18.39 Y93.633 Z-1.318
X18.456 Y93.552 Z-1.321
X18.532 Y93.481 Z-1.325
X18.619 Y93.422 Z-1.329
X18.713 Y93.377 Z-1.332
X18.813 Y93.347 Z-1.336
X18.916 Y93.332 Z-1.339
X19.021 Y93.333 Z-1.343
X19.101 Y93.34 F1300.
X19.151 Y93.342
X136.934 Y93.34
X136.992 Y93.337
X137.05 Y93.328
X137.871 Y93.165
X137.941 Y93.146
X138.009 Y93.119
X138.154 Y93.051
X138.233 Y93.006
X138.887 Y92.562
X138.945 Y92.518
X138.998 Y92.466
X139.096 Y92.356
X139.147 Y92.289
X139.572 Y91.649
X139.605 Y91.594
X139.631 Y91.535
X139.687 Y91.39
X139.704 Y91.341
X139.716 Y91.29
X139.868 Y90.519
X139.876 Y90.462
X139.879 Y90.405
Y10.825
X139.876 Y10.766
X139.867 Y10.707
X139.702 Y9.889
X139.682 Y9.814
X139.652 Y9.742
X139.58 Y9.598
X139.539 Y9.528
X139.101 Y8.881
X139.058 Y8.825
X139.009 Y8.775
X138.911 Y8.686
X138.839 Y8.63
X138.18 Y8.193
X138.12 Y8.158
X138.057 Y8.13
X137.912 Y8.077
X137.82 Y8.051
X137.047 Y7.901
X136.991 Y7.893
X136.934 Y7.89
X19.103 Y7.889
X19.012 Y7.896
X18.891 Y7.914
X18.833 Y7.926
X18.777 Y7.944
X18.669 Y7.984
X18.613 Y8.007
X18.56 Y8.037
X18.452 Y8.104
X18.397 Y8.143
X18.346 Y8.188
X12.455 Y14.078
X12.413 Y14.124
X12.377 Y14.174
X12.309 Y14.278
X12.276 Y14.337
X12.249 Y14.399
X12.199 Y14.537
X12.179 Y14.604
X12.167 Y14.673
X12.152 Y14.804
X12.148 Y14.872
X12.15 Y86.406
X12.152 Y86.461
X12.16 Y86.515
X12.182 Y86.633
X12.198 Y86.699
X12.222 Y86.762
X12.282 Y86.9
X12.308 Y86.953
X12.339 Y87.003
X12.388 Y87.072
X12.42 Y87.114
X12.455 Y87.152
X18.346 Y93.042
X18.397 Y93.087
X18.452 Y93.126
X18.56 Y93.193
X18.622 Y93.226
X18.686 Y93.252
X18.83 Y93.3
X18.899 Y93.319
X18.969 Y93.329
X19.021 Y93.333
X19.056 Y93.342
X19.088 Y93.361
X19.112 Y93.389
X19.126 Y93.422
X19.13 Y93.459
X19.064 Y94.603
X19.057 Y94.639
X19.038 Y94.671
X19.01 Y94.696
X18.977 Y94.711
X18.94 Y94.715
X18.908 Y94.714
X18.752 Y94.697
X18.596 Y94.669
X18.441 Y94.632
X18.285 Y94.583
X18.134 Y94.525
X17.899 Y94.411
X17.66 Y94.262
X17.457 Y94.101
X16.316 Y92.969
X11.697 Y88.35
X11.353 Y87.992
X11.24 Y87.846
X11.079 Y87.592
X10.971 Y87.371
X10.911 Y87.219
X10.862 Y87.064
X10.823 Y86.908
X10.795 Y86.752
X10.777 Y86.597
X10.769 Y86.439
Y14.791
X10.777 Y14.633
X10.795 Y14.477
X10.823 Y14.322
X10.862 Y14.166
X10.911 Y14.011
X10.971 Y13.859
X11.079 Y13.638
X11.238 Y13.386
X11.39 Y13.195
X12.911 Y11.666
X17.153 Y7.423
X17.511 Y7.082
X17.657 Y6.97
X17.899 Y6.819
X18.134 Y6.705
X18.285 Y6.646
X18.441 Y6.598
X18.596 Y6.56
X18.752 Y6.533
X18.908 Y6.516
X19.069 Y6.508
X137.001 Y6.513
X137.537 Y6.565
X137.696 Y6.589
X137.852 Y6.622
X138.008 Y6.666
X138.158 Y6.72
X138.9 Y7.057
X139.254 Y7.23
X139.405 Y7.322
X139.557 Y7.432
X139.773 Y7.62
X139.868 Y7.717
X140.573 Y8.58
X140.693 Y8.758
X140.77 Y8.89
X140.847 Y9.047
X140.913 Y9.207
X140.962 Y9.354
X141.183 Y10.283
X141.219 Y10.452
X141.243 Y10.608
X141.257 Y10.756
X141.262 Y14.39
Y90.3
X141.258 Y90.464
X141.204 Y91.005
X141.18 Y91.163
X141.146 Y91.319
X141.102 Y91.474
X141.047 Y91.625
X140.71 Y92.366
X140.537 Y92.719
X140.445 Y92.869
X140.336 Y93.021
X140.148 Y93.236
X140.05 Y93.331
X139.184 Y94.036
X139.008 Y94.156
X138.874 Y94.233
X138.717 Y94.31
X138.56 Y94.374
X138.411 Y94.423
X137.479 Y94.645
X137.31 Y94.681
X137.154 Y94.704
X137.005 Y94.717
X19.069 Y94.721
X18.94 Y94.715
X18.917 Y94.709
X18.898 Y94.693
X18.889 Y94.671
X18.849 Y94.46
X18.844 Y94.445
X18.835 Y94.432
X12.499 Y87.756
X12.462 Y87.71
X12.453 Y87.689
X12.458 Y87.666
X12.474 Y87.649
X12.497 Y87.644
X12.519 Y87.652
X12.533 Y87.67
X12.534 Y87.694
X12.504 Y87.793 Z-1.347 F333.
X12.459 Y87.886 Z-1.35
X12.401 Y87.972 Z-1.354
X12.33 Y88.047 Z-1.358
X12.248 Y88.111 Z-1.361
X12.158 Y88.162 Z-1.365
X12.061 Y88.199 Z-1.369
X11.96 Y88.221 Z-1.372
X11.856 Y88.227 Z-1.376
X11.753 Y88.217 Z-1.379
X11.653 Y88.191 Z-1.383
X11.557 Y88.151 Z-1.387
X11.469 Y88.097 Z-1.39
X11.39 Y88.03 Z-1.394
X11.322 Y87.951 Z-1.397
X11.267 Y87.864 Z-1.401
X11.225 Y87.769 Z-1.405
X11.199 Y87.668 Z-1.408
X11.188 Y87.565 Z-1.412
X11.193 Y87.462 Z-1.416
X11.213 Y87.36 Z-1.419
X11.249 Y87.263 Z-1.423
X11.299 Y87.172 Z-1.426
X11.362 Y87.09 Z-1.43
X11.437 Y87.018 Z-1.434
X11.522 Y86.959 Z-1.437
X11.615 Y86.913 Z-1.441
X11.713 Y86.882 Z-1.445
X11.816 Y86.866 Z-1.448
X11.92 Y86.865 Z-1.452
X12.022 Y86.881 Z-1.455
X12.121 Y86.912 Z-1.459
X12.214 Y86.957 Z-1.463
X12.299 Y87.016 Z-1.466
X12.374 Y87.088 Z-1.47
X12.438 Y87.17 Z-1.474
X12.488 Y87.26 Z-1.477
X12.524 Y87.357 Z-1.481
X12.545 Y87.459 Z-1.484
X12.551 Y87.562 Z-1.488
X12.54 Y87.666 Z-1.492
X12.514 Y87.766 Z-1.495
X12.473 Y87.861 Z-1.499
X12.418 Y87.949 Z-1.503
X12.351 Y88.028 Z-1.506
X12.272 Y88.095 Z-1.51
X12.184 Y88.15 Z-1.513
X12.089 Y88.19 Z-1.517
X11.988 Y88.216 Z-1.521
X11.885 Y88.227 Z-1.524
X11.781 Y88.221 Z-1.528
X11.68 Y88.2 Z-1.532
X11.583 Y88.164 Z-1.535
X11.492 Y88.113 Z-1.539
X11.411 Y88.049 Z-1.542
X11.339 Y87.974 Z-1.546
X11.281 Y87.889 Z-1.55
X11.235 Y87.796 Z-1.553
X11.205 Y87.696 Z-1.557
X11.189 Y87.594 Z-1.561
X11.19 Y87.49 Z-1.564
X11.206 Y87.388 Z-1.568
X11.237 Y87.289 Z-1.571
X11.284 Y87.196 Z-1.575
X11.343 Y87.112 Z-1.579
X11.415 Y87.037 Z-1.582
X11.497 Y86.974 Z-1.586
X11.588 Y86.924 Z-1.59
X11.686 Y86.889 Z-1.593
X11.787 Y86.868 Z-1.597
X11.891 Y86.864 Z-1.6
X11.994 Y86.875 Z-1.604
X12.094 Y86.902 Z-1.608
X12.189 Y86.943 Z-1.611
X12.277 Y86.999 Z-1.615
X12.355 Y87.067 Z-1.619
X12.422 Y87.146 Z-1.622
X12.476 Y87.234 Z-1.626
X12.516 Y87.33 Z-1.629
X12.541 Y87.431 Z-1.633
X12.551 Y87.534 Z-1.637
X12.544 Y87.637 Z-1.64
X12.523 Y87.739 Z-1.644
X12.486 Y87.835 Z-1.647
X12.435 Y87.926 Z-1.651
X12.37 Y88.007 Z-1.655
X12.295 Y88.078 Z-1.658
X12.209 Y88.136 Z-1.662
X12.115 Y88.181 Z-1.666
X12.016 Y88.211 Z-1.669
X11.914 Y88.225 Z-1.673
X11.81 Y88.224 Z-1.676
X11.708 Y88.207 Z-1.68
X11.609 Y88.175 Z-1.684
X11.517 Y88.128 Z-1.687
X11.432 Y88.068 Z-1.691
X11.358 Y87.996 Z-1.695
X11.295 Y87.913 Z-1.698
X11.246 Y87.822 Z-1.702
X11.212 Y87.724 Z-1.705
X11.192 Y87.622 Z-1.709
X11.188 Y87.519 Z-1.713
X11.2 Y87.416 Z-1.716
X11.227 Y87.316 Z-1.72
X11.269 Y87.221 Z-1.724
X11.325 Y87.134 Z-1.727
X11.394 Y87.056 Z-1.731
X11.474 Y86.99 Z-1.734
X11.562 Y86.936 Z-1.738
X11.658 Y86.897 Z-1.742
X11.759 Y86.872 Z-1.745
X11.862 Y86.864 Z-1.749
X11.966 Y86.87 Z-1.753
X12.067 Y86.893 Z-1.756
X12.164 Y86.93 Z-1.76
X12.253 Y86.982 Z-1.763
X12.334 Y87.047 Z-1.767
X12.404 Y87.123 Z-1.771
X12.462 Y87.209 Z-1.774
X12.506 Y87.303 Z-1.778
X12.536 Y87.402 Z-1.782
X12.55 Y87.505 Z-1.785
X12.548 Y87.609 Z-1.789
X12.53 Y87.711 Z-1.792
X12.497 Y87.809 Z-1.796
X12.45 Y87.902 Z-1.8
X12.389 Y87.986 Z-1.803
X12.317 Y88.059 Z-1.807
X12.233 Y88.121 Z-1.811
X12.142 Y88.17 Z-1.814
X12.044 Y88.204 Z-1.818
X11.942 Y88.223 Z-1.821
X11.838 Y88.226 Z-1.825
X11.736 Y88.213 Z-1.829
X11.636 Y88.186 Z-1.832
X11.541 Y88.143 Z-1.836
X11.455 Y88.086 Z-1.84
X11.377 Y88.017 Z-1.843
X11.353 Y87.992 F1300.
X11.24 Y87.846
X11.079 Y87.592
X10.971 Y87.371
X10.911 Y87.219
X10.862 Y87.064
X10.823 Y86.908
X10.795 Y86.752
X10.777 Y86.597
X10.769 Y86.439
X10.768 Y74.991
X12.13
X12.131 Y86.406
X12.134 Y86.459
X12.141 Y86.512
X12.163 Y86.636
X12.178 Y86.697
X12.198 Y86.756
X12.245 Y86.87
X12.273 Y86.93
X12.308 Y86.986
X12.388 Y87.1
X12.419 Y87.142
X12.455 Y87.18
X16.214 Y90.941
X15.251 Y91.904
X11.697 Y88.35
X11.377 Y88.017
X11.36 Y87.99
X11.355 Y87.959
X11.362 Y87.927
X11.381 Y87.902
X11.408 Y87.885
X11.44 Y87.881
X11.788 Y87.902
X12.112 Y88.029
X12.139 Y88.047
X12.157 Y88.073
X12.163 Y88.104
X12.156 Y88.136
X12.138 Y88.162
X12.112 Y88.179
X12.012 Y88.209 Z-1.847 F333.
X11.91 Y88.224 Z-1.85
X11.806 Y88.223 Z-1.854
X11.704 Y88.206 Z-1.858
X11.606 Y88.173 Z-1.861
X11.513 Y88.126 Z-1.865
X11.429 Y88.066 Z-1.868
X11.356 Y87.993 Z-1.872
X11.294 Y87.91 Z-1.876
X11.245 Y87.819 Z-1.879
X11.211 Y87.721 Z-1.883
X11.192 Y87.619 Z-1.887
X11.189 Y87.515 Z-1.89
X11.202 Y87.413 Z-1.894
X11.231 Y87.313 Z-1.897
X11.274 Y87.219 Z-1.901
X11.331 Y87.132 Z-1.905
X11.4 Y87.056 Z-1.908
X11.481 Y86.991 Z-1.912
X11.57 Y86.938 Z-1.916
X11.667 Y86.9 Z-1.919
X11.768 Y86.878 Z-1.923
X11.871 Y86.87 Z-1.926
X11.974 Y86.879 Z-1.93
X12.075 Y86.903 Z-1.934
X12.171 Y86.943 Z-1.937
X12.259 Y86.996 Z-1.941
X12.339 Y87.063 Z-1.945
X12.407 Y87.14 Z-1.948
X12.463 Y87.228 Z-1.952
X12.505 Y87.322 Z-1.955
X12.532 Y87.422 Z-1.959
X12.543 Y87.525 Z-1.963
X12.539 Y87.629 Z-1.966
X12.519 Y87.73 Z-1.97
X12.483 Y87.828 Z-1.973
X12.433 Y87.918 Z-1.977
X12.37 Y88.001 Z-1.981
X12.295 Y88.072 Z-1.984
X12.21 Y88.131 Z-1.988
X12.117 Y88.177 Z-1.992
X12.018 Y88.208 Z-1.995
X11.916 Y88.223 Z-1.999
X11.812 Z-2.002
X11.71 Y88.207 Z-2.006
X11.611 Y88.176 Z-2.01
X11.519 Y88.13 Z-2.013
X11.434 Y88.07 Z-2.017
X11.36 Y87.998 Z-2.021
X11.297 Y87.915 Z-2.024
X11.248 Y87.824 Z-2.028
X11.213 Y87.727 Z-2.031
X11.193 Y87.625 Z-2.035
X11.189 Y87.522 Z-2.039
X11.201 Y87.419 Z-2.042
X11.228 Y87.319 Z-2.046
X11.271 Y87.224 Z-2.05
X11.327 Y87.137 Z-2.053
X11.396 Y87.06 Z-2.057
X11.476 Y86.994 Z-2.06
X11.565 Y86.941 Z-2.064
X11.661 Y86.902 Z-2.068
X11.762 Y86.878 Z-2.071
X11.865 Y86.87 Z-2.075
X11.968 Y86.878 Z-2.078
X12.069 Y86.901 Z-2.082
X12.165 Y86.94 Z-2.086
X12.254 Y86.993 Z-2.089
X12.334 Y87.058 Z-2.093
X12.404 Y87.135 Z-2.097
X12.455 Y87.194 F1300.
X16.207 Y90.947
X15.251 Y91.904
X11.697 Y88.35
X11.353 Y87.992
X11.24 Y87.846
X11.079 Y87.592
X10.971 Y87.371
X10.911 Y87.219
X10.862 Y87.064
X10.823 Y86.908
X10.795 Y86.752
X10.777 Y86.597
X10.769 Y86.439
X10.768 Y74.991
X12.121
X12.122 Y86.406
X12.125 Y86.458
X12.131 Y86.51
X12.154 Y86.637
X12.169 Y86.701
X12.19 Y86.762
X12.24 Y86.881
X12.27 Y86.944
X12.307 Y87.002
X12.393 Y87.121
X12.404 Y87.135
X12.415 Y87.163
X12.413 Y87.192
X12.397 Y87.217
X12.372 Y87.232
X12.342 Y87.233
X12.085 Y87.179
X11.64 Y86.999
X11.577 Y86.968
X11.57 Y86.959
Y86.948
X11.578 Y86.94
X11.675 Y86.904 Z-2.1 F333.
X11.776 Y86.882 Z-2.104
X11.879 Y86.877 Z-2.107
X11.982 Y86.887 Z-2.111
X12.083 Y86.913 Z-2.115
X12.178 Y86.955 Z-2.118
X12.265 Y87.01 Z-2.122
X12.343 Y87.078 Z-2.126
X12.41 Y87.157 Z-2.129
X12.464 Y87.245 Z-2.133
X12.504 Y87.341 Z-2.136
X12.528 Y87.442 Z-2.14
X12.537 Y87.545 Z-2.144
X12.53 Y87.648 Z-2.147
X12.507 Y87.749 Z-2.151
X12.469 Y87.846 Z-2.155
X12.416 Y87.935 Z-2.158
X12.351 Y88.015 Z-2.162
X12.274 Y88.084 Z-2.165
X12.187 Y88.141 Z-2.169
X12.093 Y88.184 Z-2.173
X11.993 Y88.211 Z-2.176
X11.89 Y88.223 Z-2.18
X11.787 Y88.22 Z-2.183
X11.685 Y88.2 Z-2.187
X11.587 Y88.165 Z-2.191
X11.496 Y88.115 Z-2.194
X11.414 Y88.052 Z-2.198
X11.342 Y87.978 Z-2.202
X11.283 Y87.893 Z-2.205
X11.237 Y87.8 Z-2.209
X11.207 Y87.701 Z-2.212
X11.191 Y87.599 Z-2.216
X11.192 Y87.495 Z-2.22
X11.208 Y87.393 Z-2.223
X11.24 Y87.294 Z-2.227
X11.287 Y87.202 Z-2.231
X11.347 Y87.117 Z-2.234
X11.419 Y87.043 Z-2.238
X11.502 Y86.981 Z-2.241
X11.594 Y86.933 Z-2.245
X11.692 Y86.899 Z-2.249
X11.793 Y86.88 Z-2.252
X11.897 Y86.877 Z-2.256
X12. Y86.891 Z-2.259
X12.099 Y86.919 Z-2.263
X12.193 Y86.963 Z-2.267
X12.279 Y87.02 Z-2.27
X12.356 Y87.09 Z-2.274
X12.42 Y87.171 Z-2.278
X12.472 Y87.261 Z-2.281
X12.509 Y87.358 Z-2.285
X12.531 Y87.459 Z-2.288
X12.537 Y87.563 Z-2.292
X12.527 Y87.666 Z-2.296
X12.501 Y87.766 Z-2.299
X12.461 Y87.861 Z-2.303
X12.406 Y87.949 Z-2.307
X12.339 Y88.028 Z-2.31
X12.26 Y88.095 Z-2.314
X12.172 Y88.149 Z-2.317
X12.076 Y88.189 Z-2.321
X11.976 Y88.215 Z-2.325
X11.872 Y88.224 Z-2.328
X11.769 Y88.217 Z-2.332
X11.668 Y88.195 Z-2.336
X11.571 Y88.158 Z-2.339
X11.482 Y88.106 Z-2.343
X11.401 Y88.041 Z-2.346
X11.331 Y87.964 Z-2.35
X11.24 Y87.846 F1300.
X11.079 Y87.592
X10.971 Y87.371
X10.911 Y87.219
X10.862 Y87.064
X10.823 Y86.908
X10.795 Y86.752
X10.777 Y86.597
X10.769 Y86.439
X10.768 Y74.991
X12.113
X12.114 Y86.406
X12.116 Y86.457
X12.122 Y86.508
X12.145 Y86.639
X12.16 Y86.704
X12.182 Y86.767
X12.234 Y86.891
X12.266 Y86.956
X12.306 Y87.017
X12.398 Y87.141
X12.455 Y87.206
X16.201 Y90.953
X15.251 Y91.904
X11.697 Y88.35
X11.48 Y88.124
X11.353 Y87.992
X11.331 Y87.964
X11.312 Y87.926
X11.307 Y87.884
X11.316 Y87.843
X11.34 Y87.808
X11.374 Y87.783
X12.336 Y87.326
X12.377 Y87.315
X12.419 Y87.319
X12.457 Y87.337
X12.486 Y87.368
X12.503 Y87.407
X12.518 Y87.509 Z-2.354 F333.
Y87.611 Z-2.357
X12.501 Y87.713 Z-2.361
X12.47 Y87.811 Z-2.364
X12.423 Y87.903 Z-2.368
X12.363 Y87.986 Z-2.372
X12.29 Y88.059 Z-2.375
X12.207 Y88.12 Z-2.379
X12.116 Y88.168 Z-2.382
X12.019 Y88.2 Z-2.386
X11.917 Y88.218 Z-2.39
X11.814 Y88.219 Z-2.393
X11.712 Y88.205 Z-2.397
X11.614 Y88.175 Z-2.4
X11.521 Y88.13 Z-2.404
X11.437 Y88.072 Z-2.408
X11.362 Y88.001 Z-2.411
X11.299 Y87.919 Z-2.415
X11.25 Y87.829 Z-2.418
X11.215 Y87.732 Z-2.422
X11.196 Y87.631 Z-2.426
X11.192 Y87.528 Z-2.429
X11.205 Y87.426 Z-2.433
X11.233 Y87.327 Z-2.436
X11.276 Y87.233 Z-2.44
X11.333 Y87.148 Z-2.444
X11.402 Y87.072 Z-2.447
X11.482 Y87.007 Z-2.451
X11.572 Y86.956 Z-2.454
X11.668 Y86.92 Z-2.458
X11.769 Y86.898 Z-2.462
X11.871 Y86.893 Z-2.465
X11.974 Y86.903 Z-2.469
X12.073 Y86.929 Z-2.472
X12.168 Y86.97 Z-2.476
X12.254 Y87.025 Z-2.479
X12.332 Y87.093 Z-2.483
X12.398 Y87.172 Z-2.487
X12.45 Y87.26 Z-2.49
X12.489 Y87.356 Z-2.494
X12.513 Y87.456 Z-2.497
X12.52 Y87.559 Z-2.501
X12.512 Y87.661 Z-2.505
X12.488 Y87.761 Z-2.508
X12.449 Y87.856 Z-2.512
X12.395 Y87.944 Z-2.515
X12.329 Y88.023 Z-2.519
X12.251 Y88.09 Z-2.523
X12.164 Y88.145 Z-2.526
X12.069 Y88.186 Z-2.53
X11.97 Y88.211 Z-2.533
X11.867 Y88.221 Z-2.537
X11.764 Y88.214 Z-2.541
X11.664 Y88.192 Z-2.544
X11.568 Y88.155 Z-2.548
X11.479 Y88.103 Z-2.551
X11.399 Y88.039 Z-2.555
X11.33 Y87.962 Z-2.559
X11.274 Y87.876 Z-2.562
X11.231 Y87.782 Z-2.566
X11.204 Y87.683 Z-2.569
X11.192 Y87.581 Z-2.573
X11.196 Y87.478 Z-2.577
X11.216 Y87.377 Z-2.58
X11.252 Y87.281 Z-2.584
X11.302 Y87.19 Z-2.587
X11.365 Y87.109 Z-2.591
X11.44 Y87.039 Z-2.595
X11.525 Y86.981 Z-2.598
X11.618 Y86.937 Z-2.602
X11.716 Y86.907 Z-2.605
X11.818 Y86.893 Z-2.609
X11.921 Y86.896 Z-2.613
X12.023 Y86.914 Z-2.616
X12.12 Y86.947 Z-2.62
X12.211 Y86.995 Z-2.623
X12.293 Y87.057 Z-2.627
X12.365 Y87.13 Z-2.631
X12.425 Y87.214 Z-2.634
X12.471 Y87.306 Z-2.638
X12.502 Y87.404 Z-2.641
X12.518 Y87.506 Z-2.645
Y87.609 Z-2.649
X12.502 Y87.71 Z-2.652
X12.471 Y87.808 Z-2.656
X12.424 Y87.9 Z-2.659
X12.364 Y87.984 Z-2.663
X12.292 Y88.057 Z-2.667
X12.21 Y88.119 Z-2.67
X12.119 Y88.167 Z-2.674
X12.021 Y88.2 Z-2.677
X11.92 Y88.218 Z-2.681
X11.817 Y88.22 Z-2.685
X11.715 Y88.206 Z-2.688
X11.617 Y88.176 Z-2.692
X11.524 Y88.132 Z-2.695
X11.439 Y88.073 Z-2.699
X11.364 Y88.003 Z-2.703
X11.301 Y87.921 Z-2.706
X11.251 Y87.831 Z-2.71
X11.216 Y87.735 Z-2.713
X11.196 Y87.634 Z-2.717
X11.192 Y87.531 Z-2.721
X11.204 Y87.429 Z-2.724
X11.232 Y87.329 Z-2.728
X11.274 Y87.236 Z-2.731
X11.331 Y87.15 Z-2.735
X11.4 Y87.074 Z-2.738
X11.48 Y87.009 Z-2.742
X11.569 Y86.957 Z-2.746
X11.665 Y86.92 Z-2.749
X11.766 Y86.898 Z-2.753
X11.868 Y86.892 Z-2.756
X11.971 Y86.902 Z-2.76
X12.071 Y86.928 Z-2.764
X12.165 Y86.969 Z-2.767
X12.252 Y87.023 Z-2.771
X12.33 Y87.091 Z-2.774
X12.396 Y87.17 Z-2.778
X12.449 Y87.258 Z-2.782
X12.488 Y87.353 Z-2.785
X12.512 Y87.453 Z-2.789
X12.52 Y87.556 Z-2.792
X12.512 Y87.658 Z-2.796
X12.489 Y87.759 Z-2.8
X12.45 Y87.854 Z-2.803
X12.397 Y87.942 Z-2.807
X12.331 Y88.021 Z-2.81
X12.253 Y88.089 Z-2.814
X12.166 Y88.144 Z-2.818
X12.072 Y88.185 Z-2.821
X11.972 Y88.21 Z-2.825
X11.87 Y88.221 Z-2.828
X11.767 Y88.215 Z-2.832
X11.667 Y88.193 Z-2.836
X11.571 Y88.156 Z-2.839
X11.481 Y88.105 Z-2.843
X11.401 Y88.04 Z-2.846
X11.332 Y87.964 Z-2.85
X11.24 Y87.846 F1300.
X11.079 Y87.592
X10.971 Y87.371
X10.911 Y87.219
X10.862 Y87.064
X10.823 Y86.908
X10.795 Y86.752
X10.777 Y86.597
X10.769 Y86.439
X10.768 Y74.991
X12.095
X12.1 Y86.455
X12.104 Y86.527
X12.117 Y86.598
X12.151 Y86.732
X12.172 Y86.801
X12.202 Y86.867
X12.273 Y87.
X12.311 Y87.062
X12.356 Y87.119
X12.462 Y87.237
X12.484 Y87.261
X16.189 Y90.966
X15.251 Y91.904
X11.697 Y88.35
X11.353 Y87.992
X11.332 Y87.964
X11.313 Y87.93
X11.307 Y87.892
X11.313 Y87.854
X11.33 Y87.82
X11.358 Y87.793
X12.239 Y87.187
X12.274 Y87.17
X12.312 Y87.166
X12.35 Y87.174
X12.383 Y87.194
X12.408 Y87.223
X12.454 Y87.314 Z-2.854 F333.
X12.485 Y87.412 Z-2.857
X12.501 Y87.513 Z-2.861
Y87.615 Z-2.864
X12.485 Y87.716 Z-2.868
X12.454 Y87.813 Z-2.871
X12.407 Y87.904 Z-2.875
X12.347 Y87.987 Z-2.879
X12.275 Y88.059 Z-2.882
X12.193 Y88.119 Z-2.886
X12.102 Y88.166 Z-2.889
X12.005 Y88.198 Z-2.893
X11.904 Y88.215 Z-2.896
X11.802 Y88.216 Z-2.9
X11.701 Y88.201 Z-2.904
X11.604 Y88.17 Z-2.907
X11.512 Y88.124 Z-2.911
X11.429 Y88.065 Z-2.914
X11.356 Y87.994 Z-2.918
X11.295 Y87.912 Z-2.921
X11.247 Y87.821 Z-2.925
X11.214 Y87.725 Z-2.929
X11.197 Y87.624 Z-2.932
X11.195 Y87.522 Z-2.936
X11.21 Y87.421 Z-2.939
X11.24 Y87.323 Z-2.943
X11.284 Y87.231 Z-2.946
X11.343 Y87.147 Z-2.95
X11.414 Y87.074 Z-2.954
X11.495 Y87.012 Z-2.957
X11.585 Y86.964 Z-2.961
X11.682 Y86.93 Z-2.964
X11.782 Y86.912 Z-2.968
X11.884 Y86.909 Z-2.971
X11.986 Y86.923 Z-2.975
X12.084 Y86.952 Z-2.979
X12.176 Y86.996 Z-2.982
X12.26 Y87.054 Z-2.986
X12.334 Y87.124 Z-2.989
X12.397 Y87.205 Z-2.993
X12.446 Y87.294 Z-2.996
X12.48 Y87.391 Z-3.
X12.499 Y87.491 Z-3.004
X12.502 Y87.593 Z-3.007
X12.49 Y87.695 Z-3.011
X12.462 Y87.793 Z-3.014
X12.418 Y87.885 Z-3.018
X12.361 Y87.97 Z-3.021
X12.292 Y88.045 Z-3.025
X12.211 Y88.108 Z-3.029
X12.122 Y88.158 Z-3.032
X12.026 Y88.193 Z-3.036
X11.926 Y88.213 Z-3.039
X11.824 Y88.217 Z-3.043
X11.722 Y88.205 Z-3.046
X11.624 Y88.178 Z-3.05
X11.531 Y88.135 Z-3.054
X11.446 Y88.079 Z-3.057
X11.37 Y88.01 Z-3.061
X11.307 Y87.93 Z-3.064
X11.256 Y87.841 Z-3.068
X11.22 Y87.745 Z-3.071
X11.199 Y87.645 Z-3.075
X11.194 Y87.543 Z-3.079
X11.205 Y87.442 Z-3.082
X11.232 Y87.343 Z-3.086
X11.274 Y87.25 Z-3.089
X11.33 Y87.164 Z-3.093
X11.398 Y87.088 Z-3.096
X11.477 Y87.024 Z-3.1
X11.566 Y86.973 Z-3.104
X11.661 Y86.936 Z-3.107
X11.761 Y86.914 Z-3.111
X11.863 Y86.908 Z-3.114
X11.964 Y86.919 Z-3.118
X12.063 Y86.945 Z-3.121
X12.157 Y86.985 Z-3.125
X12.243 Y87.04 Z-3.129
X12.319 Y87.108 Z-3.132
X12.384 Y87.187 Z-3.136
X12.436 Y87.275 Z-3.139
X12.474 Y87.37 Z-3.143
X12.497 Y87.47 Z-3.146
X12.503 Y87.572 Z-3.15
X12.494 Y87.673 Z-3.154
X12.469 Y87.772 Z-3.157
X12.429 Y87.866 Z-3.161
X12.374 Y87.953 Z-3.164
X12.307 Y88.03 Z-3.168
X12.229 Y88.096 Z-3.171
X12.141 Y88.148 Z-3.175
X12.047 Y88.187 Z-3.179
X11.947 Y88.21 Z-3.182
X11.845 Y88.217 Z-3.186
X11.744 Y88.209 Z-3.189
X11.644 Y88.185 Z-3.193
X11.55 Y88.145 Z-3.196
X11.463 Y88.092 Z-3.2
X11.385 Y88.025 Z-3.204
X11.319 Y87.948 Z-3.207
X11.266 Y87.86 Z-3.211
X11.226 Y87.766 Z-3.214
X11.202 Y87.667 Z-3.218
X11.194 Y87.565 Z-3.221
X11.202 Y87.463 Z-3.225
X11.225 Y87.364 Z-3.229
X11.264 Y87.269 Z-3.232
X11.317 Y87.182 Z-3.236
X11.382 Y87.103 Z-3.239
X11.46 Y87.036 Z-3.243
X11.546 Y86.982 Z-3.246
X11.64 Y86.942 Z-3.25
X11.739 Y86.918 Z-3.254
X11.841 Y86.908 Z-3.257
X11.943 Y86.915 Z-3.261
X12.043 Y86.938 Z-3.264
X12.138 Y86.976 Z-3.268
X12.226 Y87.028 Z-3.271
X12.304 Y87.093 Z-3.275
X12.372 Y87.169 Z-3.279
X12.427 Y87.256 Z-3.282
X12.467 Y87.349 Z-3.286
X12.493 Y87.448 Z-3.289
X12.503 Y87.55 Z-3.293
X12.497 Y87.652 Z-3.296
X12.475 Y87.752 Z-3.3
X12.438 Y87.847 Z-3.304
X12.387 Y87.935 Z-3.307
X12.322 Y88.015 Z-3.311
X12.246 Y88.083 Z-3.314
X12.161 Y88.138 Z-3.318
X12.067 Y88.18 Z-3.321
X11.969 Y88.206 Z-3.325
X11.867 Y88.217 Z-3.329
X11.765 Y88.212 Z-3.332
X11.665 Y88.191 Z-3.336
X11.569 Y88.155 Z-3.339
X11.481 Y88.104 Z-3.343
X11.401 Y88.04 Z-3.346
X11.332 Y87.965 Z-3.35
X11.24 Y87.846 F1300.
X11.079 Y87.592
X10.971 Y87.371
X10.911 Y87.219
X10.862 Y87.064
X10.823 Y86.908
X10.795 Y86.752
X10.777 Y86.597
X10.769 Y86.439
X10.768 Y74.991
X12.078
X12.081 Y86.455
X12.086 Y86.526
X12.099 Y86.596
X12.133 Y86.739
X12.152 Y86.799
X12.176 Y86.858
X12.223 Y86.953
X12.25 Y87.002
X12.281 Y87.049
X12.352 Y87.144
X12.408 Y87.209
X16.177 Y90.978
X15.251 Y91.904
X11.697 Y88.35
X11.353 Y87.992
X11.332 Y87.965
X11.339 Y87.918
X11.293 Y87.908
X11.246 Y87.817 Z-3.354 F333.
X11.213 Y87.72 Z-3.357
X11.197 Y87.619 Z-3.361
X11.196 Y87.517 Z-3.364
X11.211 Y87.416 Z-3.368
X11.241 Y87.319 Z-3.371
X11.287 Y87.227 Z-3.375
X11.346 Y87.144 Z-3.379
X11.417 Y87.071 Z-3.382
X11.499 Y87.01 Z-3.386
X11.589 Y86.962 Z-3.389
X11.686 Y86.929 Z-3.393
X11.787 Y86.911 Z-3.396
X11.889 Y86.91 Z-3.4
X11.99 Y86.924 Z-3.404
X12.088 Y86.954 Z-3.407
X12.18 Y86.998 Z-3.411
X12.264 Y87.057 Z-3.414
X12.337 Y87.127 Z-3.418
X12.399 Y87.209 Z-3.421
X12.447 Y87.299 Z-3.425
X12.481 Y87.395 Z-3.429
X12.5 Y87.496 Z-3.432
X12.502 Y87.598 Z-3.436
X12.489 Y87.699 Z-3.439
X12.46 Y87.797 Z-3.443
X12.416 Y87.889 Z-3.446
X12.358 Y87.974 Z-3.45
X12.288 Y88.048 Z-3.454
X12.207 Y88.11 Z-3.457
X12.118 Y88.16 Z-3.461
X12.021 Y88.194 Z-3.464
X11.921 Y88.213 Z-3.468
X11.819 Y88.217 Z-3.471
X11.718 Y88.204 Z-3.475
X11.619 Y88.176 Z-3.479
X11.527 Y88.133 Z-3.482
X11.442 Y88.076 Z-3.486
X11.367 Y88.006 Z-3.489
X11.304 Y87.926 Z-3.493
X11.254 Y87.837 Z-3.496
X11.219 Y87.741 Z-3.5
X11.199 Y87.641 Z-3.504
X11.195 Y87.539 Z-3.507
X11.206 Y87.437 Z-3.511
X11.234 Y87.339 Z-3.514
X11.276 Y87.246 Z-3.518
X11.333 Y87.16 Z-3.521
X11.401 Y87.085 Z-3.525
X11.481 Y87.021 Z-3.529
X11.57 Y86.971 Z-3.532
X11.666 Y86.935 Z-3.536
X11.766 Y86.914 Z-3.539
X11.868 Y86.909 Z-3.543
X11.969 Y86.92 Z-3.546
X12.068 Y86.946 Z-3.55
X12.161 Y86.988 Z-3.554
X12.247 Y87.044 Z-3.557
X12.323 Y87.112 Z-3.561
X12.387 Y87.191 Z-3.564
X12.439 Y87.28 Z-3.568
X12.475 Y87.375 Z-3.571
X12.497 Y87.475 Z-3.575
X12.503 Y87.577 Z-3.579
X12.493 Y87.678 Z-3.582
X12.467 Y87.777 Z-3.586
X12.426 Y87.871 Z-3.589
X12.371 Y87.957 Z-3.593
X12.303 Y88.033 Z-3.596
X12.225 Y88.099 Z-3.6
X12.137 Y88.151 Z-3.604
X12.042 Y88.188 Z-3.607
X11.942 Y88.211 Z-3.611
X11.84 Y88.217 Z-3.614
X11.738 Y88.208 Z-3.618
X11.639 Y88.183 Z-3.621
X11.545 Y88.143 Z-3.625
X11.459 Y88.089 Z-3.629
X11.382 Y88.022 Z-3.632
X11.316 Y87.943 Z-3.636
X11.263 Y87.856 Z-3.639
X11.225 Y87.761 Z-3.643
X11.202 Y87.662 Z-3.646
X11.194 Y87.56 Z-3.65
X11.203 Y87.458 Z-3.654
X11.227 Y87.359 Z-3.657
X11.266 Y87.264 Z-3.661
X11.32 Y87.177 Z-3.664
X11.386 Y87.1 Z-3.668
X11.464 Y87.033 Z-3.671
X11.551 Y86.98 Z-3.675
X11.645 Y86.941 Z-3.679
X11.745 Y86.917 Z-3.682
X11.846 Y86.908 Z-3.686
X11.948 Y86.916 Z-3.689
X12.048 Y86.939 Z-3.693
X12.142 Y86.978 Z-3.696
X12.23 Y87.031 Z-3.7
X12.308 Y87.097 Z-3.704
X12.375 Y87.174 Z-3.707
X12.429 Y87.261 Z-3.711
X12.469 Y87.355 Z-3.714
X12.494 Y87.454 Z-3.718
X12.503 Y87.555 Z-3.721
X12.496 Y87.657 Z-3.725
X12.474 Y87.757 Z-3.729
X12.436 Y87.852 Z-3.732
X12.384 Y87.94 Z-3.736
X12.319 Y88.018 Z-3.739
X12.242 Y88.086 Z-3.743
X12.156 Y88.141 Z-3.746
X12.062 Y88.182 Z-3.75
X11.963 Y88.207 Z-3.754
X11.861 Y88.217 Z-3.757
X11.759 Y88.211 Z-3.761
X11.66 Y88.189 Z-3.764
X11.564 Y88.152 Z-3.768
X11.476 Y88.101 Z-3.771
X11.397 Y88.036 Z-3.775
X11.329 Y87.96 Z-3.779
X11.273 Y87.875 Z-3.782
X11.232 Y87.781 Z-3.786
X11.205 Y87.683 Z-3.789
X11.194 Y87.581 Z-3.793
X11.2 Y87.479 Z-3.796
X11.221 Y87.379 Z-3.8
X11.257 Y87.283 Z-3.804
X11.307 Y87.195 Z-3.807
X11.371 Y87.115 Z-3.811
X11.447 Y87.046 Z-3.814
X11.532 Y86.99 Z-3.818
X11.625 Y86.948 Z-3.821
X11.724 Y86.92 Z-3.825
X11.825 Y86.909 Z-3.829
X11.927 Y86.913 Z-3.832
X12.027 Y86.933 Z-3.836
X12.123 Y86.969 Z-3.839
X12.212 Y87.019 Z-3.843
X12.293 Y87.082 Z-3.846
X12.362 Y87.157 Z-3.85
X12.408 Y87.209 F1300.
X16.177 Y90.978
X15.251 Y91.904
X11.697 Y88.35
X11.353 Y87.992
X11.24 Y87.846
X11.079 Y87.592
X10.971 Y87.371
X10.911 Y87.219
X10.862 Y87.064
X10.823 Y86.908
X10.795 Y86.752
X10.777 Y86.597
X10.769 Y86.439
X10.768 Y74.991
X12.078
X12.081 Y86.455
X12.086 Y86.526
X12.098 Y86.596
X12.133 Y86.739
X12.152 Y86.799
X12.176 Y86.858
X12.223 Y86.953
X12.249 Y87.002
X12.281 Y87.049
X12.352 Y87.144
X12.362 Y87.157
X12.38 Y87.192
X12.385 Y87.231
X12.376 Y87.269
X12.354 Y87.301
X12.322 Y87.324
X11.838 Y87.548
X11.463 Y87.927
X11.431 Y87.949
X11.393 Y87.959
X11.354 Y87.955
X11.319 Y87.937
X11.293 Y87.908
X11.246 Y87.817 Z-3.854 F333.
X11.213 Y87.72 Z-3.857
X11.197 Y87.619 Z-3.861
X11.196 Y87.517 Z-3.864
X11.211 Y87.416 Z-3.868
X11.241 Y87.319 Z-3.871
X11.287 Y87.227 Z-3.875
X11.346 Y87.144 Z-3.879
X11.417 Y87.071 Z-3.882
X11.499 Y87.01 Z-3.886
X11.589 Y86.962 Z-3.889
X11.686 Y86.929 Z-3.893
X11.787 Y86.911 Z-3.896
X11.889 Y86.91 Z-3.9
X11.99 Y86.924 Z-3.904
X12.088 Y86.954 Z-3.907
X12.18 Y86.998 Z-3.911
X12.264 Y87.057 Z-3.914
X12.337 Y87.127 Z-3.918
X12.399 Y87.209 Z-3.921
X12.447 Y87.299 Z-3.925
X12.481 Y87.395 Z-3.929
X12.5 Y87.496 Z-3.932
X12.502 Y87.598 Z-3.936
X12.489 Y87.699 Z-3.939
X12.46 Y87.797 Z-3.943
X12.416 Y87.889 Z-3.946
X12.358 Y87.974 Z-3.95
X12.288 Y88.048 Z-3.954
X12.207 Y88.11 Z-3.957
X12.118 Y88.16 Z-3.961
X12.021 Y88.194 Z-3.964
X11.921 Y88.213 Z-3.968
X11.819 Y88.217 Z-3.971
X11.718 Y88.204 Z-3.975
X11.619 Y88.176 Z-3.979
X11.527 Y88.133 Z-3.982
X11.442 Y88.076 Z-3.986
X11.367 Y88.006 Z-3.989
X11.304 Y87.926 Z-3.993
X11.254 Y87.837 Z-3.996
X11.219 Y87.741 Z-4.
X11.199 Y87.641 Z-4.004
X11.195 Y87.539 Z-4.007
X11.206 Y87.437 Z-4.011
X11.234 Y87.339 Z-4.014
X11.276 Y87.246 Z-4.018
X11.333 Y87.16 Z-4.021
X11.401 Y87.085 Z-4.025
X11.481 Y87.021 Z-4.029
X11.57 Y86.971 Z-4.032
X11.666 Y86.935 Z-4.036
X11.766 Y86.914 Z-4.039
X11.868 Y86.909 Z-4.043
X11.969 Y86.92 Z-4.046
X12.068 Y86.946 Z-4.05
X12.161 Y86.988 Z-4.054
X12.247 Y87.044 Z-4.057
X12.323 Y87.112 Z-4.061
X12.387 Y87.191 Z-4.064
X12.439 Y87.28 Z-4.068
X12.475 Y87.375 Z-4.071
X12.497 Y87.475 Z-4.075
X12.503 Y87.577 Z-4.079
X12.493 Y87.678 Z-4.082
X12.467 Y87.777 Z-4.086
X12.426 Y87.871 Z-4.089
X12.371 Y87.957 Z-4.093
X12.303 Y88.033 Z-4.096
X12.225 Y88.099 Z-4.1
X12.137 Y88.151 Z-4.104
X12.042 Y88.188 Z-4.107
X11.942 Y88.211 Z-4.111
X11.84 Y88.217 Z-4.114
X11.738 Y88.208 Z-4.118
X11.639 Y88.183 Z-4.121
X11.545 Y88.143 Z-4.125
X11.459 Y88.089 Z-4.129
X11.382 Y88.022 Z-4.132
X11.316 Y87.943 Z-4.136
X11.263 Y87.856 Z-4.139
X11.225 Y87.761 Z-4.143
X11.202 Y87.662 Z-4.146
X11.194 Y87.56 Z-4.15
X11.203 Y87.458 Z-4.154
X11.227 Y87.359 Z-4.157
X11.266 Y87.264 Z-4.161
X11.32 Y87.177 Z-4.164
X11.386 Y87.1 Z-4.168
X11.464 Y87.033 Z-4.171
X11.551 Y86.98 Z-4.175
X11.645 Y86.941 Z-4.179
X11.745 Y86.917 Z-4.182
X11.846 Y86.908 Z-4.186
X11.948 Y86.916 Z-4.189
X12.048 Y86.939 Z-4.193
X12.142 Y86.978 Z-4.196
X12.23 Y87.031 Z-4.2
X12.308 Y87.097 Z-4.204
X12.375 Y87.174 Z-4.207
X12.429 Y87.261 Z-4.211
X12.469 Y87.355 Z-4.214
X12.494 Y87.454 Z-4.218
X12.503 Y87.555 Z-4.221
X12.496 Y87.657 Z-4.225
X12.474 Y87.757 Z-4.229
X12.436 Y87.852 Z-4.232
X12.384 Y87.94 Z-4.236
X12.319 Y88.018 Z-4.239
X12.242 Y88.086 Z-4.243
X12.156 Y88.141 Z-4.246
X12.062 Y88.182 Z-4.25
X11.963 Y88.207 Z-4.254
X11.861 Y88.217 Z-4.257
X11.759 Y88.211 Z-4.261
X11.66 Y88.189 Z-4.264
X11.564 Y88.152 Z-4.268
X11.476 Y88.101 Z-4.271
X11.397 Y88.036 Z-4.275
X11.329 Y87.96 Z-4.279
X11.273 Y87.875 Z-4.282
X11.232 Y87.781 Z-4.286
X11.205 Y87.683 Z-4.289
X11.194 Y87.581 Z-4.293
X11.2 Y87.479 Z-4.296
X11.221 Y87.379 Z-4.3
X11.257 Y87.283 Z-4.304
X11.307 Y87.195 Z-4.307
X11.371 Y87.115 Z-4.311
X11.447 Y87.046 Z-4.314
X11.532 Y86.99 Z-4.318
X11.625 Y86.948 Z-4.321
X11.724 Y86.92 Z-4.325
X11.825 Y86.909 Z-4.329
X11.927 Y86.913 Z-4.332
X12.027 Y86.933 Z-4.336
X12.123 Y86.969 Z-4.339
X12.212 Y87.019 Z-4.343
X12.293 Y87.082 Z-4.346
X12.362 Y87.157 Z-4.35
X12.408 Y87.209 F1300.
X16.177 Y90.978
X15.251 Y91.904
X11.697 Y88.35
X11.353 Y87.992
X11.24 Y87.846
X11.079 Y87.592
X10.971 Y87.371
X10.911 Y87.219
X10.862 Y87.064
X10.823 Y86.908
X10.795 Y86.752
X10.777 Y86.597
X10.769 Y86.439
X10.768 Y74.991
X12.078
X12.081 Y86.455
X12.086 Y86.526
X12.098 Y86.596
X12.133 Y86.739
X12.152 Y86.799
X12.176 Y86.858
X12.223 Y86.953
X12.249 Y87.002
X12.281 Y87.049
X12.352 Y87.144
X12.362 Y87.157
X12.38 Y87.192
X12.385 Y87.231
X12.376 Y87.269
X12.354 Y87.301
X12.322 Y87.324
X11.838 Y87.548
X11.463 Y87.927
X11.431 Y87.949
X11.393 Y87.959
X11.354 Y87.955
X11.319 Y87.937
X11.293 Y87.908
X11.246 Y87.817 Z-4.354 F333.
X11.213 Y87.72 Z-4.357
X11.197 Y87.619 Z-4.361
X11.196 Y87.517 Z-4.364
X11.211 Y87.416 Z-4.368
X11.241 Y87.319 Z-4.371
X11.287 Y87.227 Z-4.375
X11.346 Y87.144 Z-4.379
X11.417 Y87.071 Z-4.382
X11.499 Y87.01 Z-4.386
X11.589 Y86.962 Z-4.389
X11.686 Y86.929 Z-4.393
X11.787 Y86.911 Z-4.396
X11.889 Y86.91 Z-4.4
X11.99 Y86.924 Z-4.404
X12.088 Y86.954 Z-4.407
X12.18 Y86.998 Z-4.411
X12.264 Y87.057 Z-4.414
X12.337 Y87.127 Z-4.418
X12.399 Y87.209 Z-4.421
X12.447 Y87.299 Z-4.425
X12.481 Y87.395 Z-4.429
X12.5 Y87.496 Z-4.432
X12.502 Y87.598 Z-4.436
X12.489 Y87.699 Z-4.439
X12.46 Y87.797 Z-4.443
X12.416 Y87.889 Z-4.446
X12.358 Y87.974 Z-4.45
X12.288 Y88.048 Z-4.454
X12.207 Y88.11 Z-4.457
X12.118 Y88.16 Z-4.461
X12.021 Y88.194 Z-4.464
X11.921 Y88.213 Z-4.468
X11.819 Y88.217 Z-4.471
X11.718 Y88.204 Z-4.475
X11.619 Y88.176 Z-4.479
X11.527 Y88.133 Z-4.482
X11.442 Y88.076 Z-4.486
X11.367 Y88.006 Z-4.489
X11.304 Y87.926 Z-4.493
X11.254 Y87.837 Z-4.496
X11.219 Y87.741 Z-4.5
X11.199 Y87.641 Z-4.504
X11.195 Y87.539 Z-4.507
X11.206 Y87.437 Z-4.511
X11.234 Y87.339 Z-4.514
X11.276 Y87.246 Z-4.518
X11.333 Y87.16 Z-4.521
X11.401 Y87.085 Z-4.525
X11.481 Y87.021 Z-4.529
X11.57 Y86.971 Z-4.532
X11.666 Y86.935 Z-4.536
X11.766 Y86.914 Z-4.539
X11.868 Y86.909 Z-4.543
X11.969 Y86.92 Z-4.546
X12.068 Y86.946 Z-4.55
X12.161 Y86.988 Z-4.554
X12.247 Y87.044 Z-4.557
X12.323 Y87.112 Z-4.561
X12.387 Y87.191 Z-4.564
X12.439 Y87.28 Z-4.568
X12.475 Y87.375 Z-4.571
X12.497 Y87.475 Z-4.575
X12.503 Y87.577 Z-4.579
X12.493 Y87.678 Z-4.582
X12.467 Y87.777 Z-4.586
X12.426 Y87.871 Z-4.589
X12.371 Y87.957 Z-4.593
X12.303 Y88.033 Z-4.596
X12.225 Y88.099 Z-4.6
X12.137 Y88.151 Z-4.604
X12.042 Y88.188 Z-4.607
X11.942 Y88.211 Z-4.611
X11.84 Y88.217 Z-4.614
X11.738 Y88.208 Z-4.618
X11.639 Y88.183 Z-4.621
X11.545 Y88.143 Z-4.625
X11.459 Y88.089 Z-4.629
X11.382 Y88.022 Z-4.632
X11.316 Y87.943 Z-4.636
X11.263 Y87.856 Z-4.639
X11.225 Y87.761 Z-4.643
X11.202 Y87.662 Z-4.646
X11.194 Y87.56 Z-4.65
X11.203 Y87.458 Z-4.654
X11.227 Y87.359 Z-4.657
X11.266 Y87.264 Z-4.661
X11.32 Y87.177 Z-4.664
X11.386 Y87.1 Z-4.668
X11.464 Y87.033 Z-4.671
X11.551 Y86.98 Z-4.675
X11.645 Y86.941 Z-4.679
X11.745 Y86.917 Z-4.682
X11.846 Y86.908 Z-4.686
X11.948 Y86.916 Z-4.689
X12.048 Y86.939 Z-4.693
X12.142 Y86.978 Z-4.696
X12.23 Y87.031 Z-4.7
X12.308 Y87.097 Z-4.704
X12.375 Y87.174 Z-4.707
X12.429 Y87.261 Z-4.711
X12.469 Y87.355 Z-4.714
X12.494 Y87.454 Z-4.718
X12.503 Y87.555 Z-4.721
X12.496 Y87.657 Z-4.725
X12.474 Y87.757 Z-4.729
X12.436 Y87.852 Z-4.732
X12.384 Y87.94 Z-4.736
X12.319 Y88.018 Z-4.739
X12.242 Y88.086 Z-4.743
X12.156 Y88.141 Z-4.746
X12.062 Y88.182 Z-4.75
X11.963 Y88.207 Z-4.754
X11.861 Y88.217 Z-4.757
X11.759 Y88.211 Z-4.761
X11.66 Y88.189 Z-4.764
X11.564 Y88.152 Z-4.768
X11.476 Y88.101 Z-4.771
X11.397 Y88.036 Z-4.775
X11.329 Y87.96 Z-4.779
X11.273 Y87.875 Z-4.782
X11.232 Y87.781 Z-4.786
X11.205 Y87.683 Z-4.789
X11.194 Y87.581 Z-4.793
X11.2 Y87.479 Z-4.796
X11.221 Y87.379 Z-4.8
X11.257 Y87.283 Z-4.804
X11.307 Y87.195 Z-4.807
X11.371 Y87.115 Z-4.811
X11.447 Y87.046 Z-4.814
X11.532 Y86.99 Z-4.818
X11.625 Y86.948 Z-4.821
X11.724 Y86.92 Z-4.825
X11.825 Y86.909 Z-4.829
X11.927 Y86.913 Z-4.832
X12.027 Y86.933 Z-4.836
X12.123 Y86.969 Z-4.839
X12.212 Y87.019 Z-4.843
X12.293 Y87.082 Z-4.846
X12.362 Y87.157 Z-4.85
X12.408 Y87.209 F1300.
X16.177 Y90.978
X15.251 Y91.904
X11.697 Y88.35
X11.353 Y87.992
X11.24 Y87.846
X11.079 Y87.592
X10.971 Y87.371
X10.911 Y87.219
X10.862 Y87.064
X10.823 Y86.908
X10.795 Y86.752
X10.777 Y86.597
X10.769 Y86.439
X10.768 Y74.991
X12.078
X12.081 Y86.455
X12.086 Y86.526
X12.098 Y86.596
X12.133 Y86.739
X12.152 Y86.799
X12.176 Y86.858
X12.223 Y86.953
X12.249 Y87.002
X12.281 Y87.049
X12.352 Y87.144
X12.362 Y87.157
X12.373 Y87.178
X12.375 Y87.201
X12.368 Y87.224
X12.272 Y87.403
X12.265 Y87.432
X12.273 Y87.462
X12.294 Y87.484
X12.468 Y87.588
X12.486 Y87.604
X12.496 Y87.625
X12.497 Y87.649
X12.476 Y87.748 Z-4.854 F333.
X12.44 Y87.843 Z-4.857
X12.389 Y87.932 Z-4.861
X12.326 Y88.011 Z-4.864
X12.251 Y88.079 Z-4.868
X12.166 Y88.135 Z-4.871
X12.073 Y88.178 Z-4.875
X11.975 Y88.205 Z-4.878
X11.874 Y88.217 Z-4.882
X11.772 Y88.213 Z-4.886
X11.673 Y88.193 Z-4.889
X11.577 Y88.158 Z-4.893
X11.488 Y88.109 Z-4.896
X11.408 Y88.047 Z-4.9
X11.338 Y87.972 Z-4.903
X11.281 Y87.888 Z-4.907
X11.237 Y87.796 Z-4.91
X11.208 Y87.699 Z-4.914
X11.195 Y87.598 Z-4.918
X11.198 Y87.496 Z-4.921
X11.216 Y87.396 Z-4.925
X11.249 Y87.3 Z-4.928
X11.297 Y87.21 Z-4.932
X11.358 Y87.129 Z-4.935
X11.432 Y87.059 Z-4.939
X11.515 Y87. Z-4.942
X11.606 Y86.955 Z-4.946
X11.703 Y86.925 Z-4.95
X11.804 Y86.91 Z-4.953
X11.906 Y86.911 Z-4.957
X12.006 Y86.928 Z-4.96
X12.102 Y86.96 Z-4.964
X12.193 Y87.006 Z-4.967
X12.275 Y87.066 Z-4.971
X12.347 Y87.138 Z-4.974
X12.407 Y87.221 Z-4.978
X12.453 Y87.311 Z-4.982
X12.484 Y87.408 Z-4.985
X12.501 Y87.508 Z-4.989
Y87.61 Z-4.992
X12.486 Y87.711 Z-4.996
X12.456 Y87.808 Z-4.999
X12.41 Y87.899 Z-5.003
X12.351 Y87.982 Z-5.006
X12.28 Y88.055 Z-5.01
X12.199 Y88.116 Z-5.014
X12.109 Y88.163 Z-5.017
X12.013 Y88.196 Z-5.021
X11.913 Y88.214 Z-5.024
X11.811 Y88.216 Z-5.028
X11.71 Y88.203 Z-5.031
X11.613 Y88.173 Z-5.035
X11.521 Y88.13 Z-5.038
X11.437 Y88.072 Z-5.042
X11.363 Y88.002 Z-5.046
X11.301 Y87.921 Z-5.049
X11.252 Y87.832 Z-5.053
X11.218 Y87.737 Z-5.056
X11.198 Y87.637 Z-5.06
X11.195 Y87.535 Z-5.063
X11.207 Y87.434 Z-5.067
X11.235 Y87.336 Z-5.07
X11.277 Y87.244 Z-5.074
X11.334 Y87.159 Z-5.078
X11.402 Y87.084 Z-5.081
X11.482 Y87.021 Z-5.085
X11.57 Y86.971 Z-5.088
X11.666 Y86.935 Z-5.092
X11.765 Y86.914 Z-5.095
X11.867 Y86.909 Z-5.099
X11.968 Y86.919 Z-5.102
X12.066 Y86.946 Z-5.106
X12.159 Y86.987 Z-5.11
X12.245 Y87.042 Z-5.113
X12.321 Y87.11 Z-5.117
X12.385 Y87.188 Z-5.12
X12.437 Y87.276 Z-5.124
X12.474 Y87.37 Z-5.127
X12.496 Y87.47 Z-5.131
X12.503 Y87.571 Z-5.134
X12.494 Y87.673 Z-5.138
X12.469 Y87.771 Z-5.142
X12.429 Y87.865 Z-5.145
X12.375 Y87.951 Z-5.149
X12.309 Y88.028 Z-5.152
X12.231 Y88.094 Z-5.156
X12.144 Y88.147 Z-5.159
X12.05 Y88.186 Z-5.163
X11.951 Y88.209 Z-5.166
X11.85 Y88.217 Z-5.17
X11.749 Y88.21 Z-5.174
X11.65 Y88.186 Z-5.177
X11.555 Y88.148 Z-5.181
X11.468 Y88.095 Z-5.184
X11.39 Y88.03 Z-5.188
X11.323 Y87.953 Z-5.191
X11.269 Y87.867 Z-5.195
X11.229 Y87.774 Z-5.198
X11.204 Y87.675 Z-5.202
X11.194 Y87.574 Z-5.206
X11.2 Y87.472 Z-5.209
X11.222 Y87.373 Z-5.213
X11.259 Y87.278 Z-5.216
X11.31 Y87.19 Z-5.22
X11.375 Y87.112 Z-5.223
X11.45 Y87.044 Z-5.227
X11.536 Y86.988 Z-5.23
X11.629 Y86.947 Z-5.234
X11.727 Y86.92 Z-5.238
X11.828 Y86.909 Z-5.241
X11.929 Y86.913 Z-5.245
X12.029 Y86.934 Z-5.248
X12.124 Y86.969 Z-5.252
X12.213 Y87.019 Z-5.255
X12.293 Y87.082 Z-5.259
X12.362 Y87.157 Z-5.262
X12.408 Y87.209 F1300.
X16.177 Y90.978
X15.251 Y91.904
X11.697 Y88.35
X11.353 Y87.992
X11.24 Y87.846
X11.079 Y87.592
X10.971 Y87.371
X10.911 Y87.219
X10.862 Y87.064
X10.823 Y86.908
X10.795 Y86.752
X10.777 Y86.597
X10.769 Y86.439
X10.768 Y74.991
X12.078
X12.081 Y86.455
X12.086 Y86.526
X12.098 Y86.596
X12.133 Y86.739
X12.152 Y86.799
X12.176 Y86.858
X12.223 Y86.953
X12.249 Y87.002
X12.281 Y87.049
X12.352 Y87.144
X12.362 Y87.157
X12.387 Y87.195 Z-5.253
X12.404 Y87.237 Z-5.244
X12.412 Y87.275 Z-5.219
X12.413 Y87.314 Z-5.193
X12.406 Y87.365 Z-5.116
X12.4 Y87.382 Z-5.024
G0 Z5.
X36.751 Y93.457
G1 Z-0.58 F381.
X36.766 Y93.466 Z-0.669 F333.
X36.806 Y93.494 Z-0.746
X36.864 Y93.542 Z-0.798
X36.924 Y93.606 Z-0.818
X36.984 Y93.691 Z-0.822
X37.031 Y93.784 Z-0.825
X37.063 Y93.883 Z-0.829
X37.079 Y93.986 Z-0.833
X37.08 Y94.09 Z-0.836
X37.064 Y94.193 Z-0.84
X37.033 Y94.292 Z-0.844
X36.988 Y94.385 Z-0.847
X36.928 Y94.471 Z-0.851
X36.857 Y94.546 Z-0.854
X36.775 Y94.61 Z-0.858
X36.684 Y94.66 Z-0.862
X36.586 Y94.696 Z-0.865
X36.484 Y94.717 Z-0.869
X36.38 Y94.722 Z-0.873
X36.277 Y94.711 Z-0.876
X36.176 Y94.684 Z-0.88
X36.081 Y94.642 Z-0.884
X35.993 Y94.587 Z-0.887
X35.915 Y94.518 Z-0.891
X35.848 Y94.439 Z-0.894
X35.794 Y94.35 Z-0.898
X35.754 Y94.254 Z-0.902
X35.729 Y94.153 Z-0.905
X35.719 Y94.05 Z-0.909
X35.726 Y93.946 Z-0.913
X35.748 Y93.844 Z-0.916
X35.786 Y93.747 Z-0.92
X35.838 Y93.657 Z-0.924
X35.903 Y93.576 Z-0.927
X35.979 Y93.506 Z-0.931
X36.066 Y93.448 Z-0.934
X36.16 Y93.404 Z-0.938
X36.26 Y93.375 Z-0.942
X36.363 Y93.361 Z-0.945
X36.467 Y93.363 Z-0.949
X36.569 Y93.381 Z-0.953
X36.668 Y93.415 Z-0.956
X36.76 Y93.463 Z-0.96
X36.844 Y93.524 Z-0.964
X36.917 Y93.598 Z-0.967
X36.979 Y93.681 Z-0.971
X37.027 Y93.774 Z-0.974
X37.06 Y93.872 Z-0.978
X37.078 Y93.975 Z-0.982
X37.08 Y94.079 Z-0.985
X37.067 Y94.182 Z-0.989
X37.037 Y94.281 Z-0.993
X36.993 Y94.376 Z-0.996
X36.935 Y94.462 Z-1.
X36.865 Y94.539 Z-1.004
X36.784 Y94.604 Z-1.007
X36.694 Y94.655 Z-1.011
X36.597 Y94.693 Z-1.014
X36.495 Y94.715 Z-1.018
X36.391 Y94.722 Z-1.022
X36.288 Y94.713 Z-1.025
X36.187 Y94.688 Z-1.029
X36.091 Y94.648 Z-1.033
X36.002 Y94.593 Z-1.036
X35.923 Y94.526 Z-1.04
X35.854 Y94.448 Z-1.044
X35.799 Y94.36 Z-1.047
X35.757 Y94.265 Z-1.051
X35.731 Y94.164 Z-1.054
X35.72 Y94.061 Z-1.058
X35.725 Y93.957 Z-1.062
X35.745 Y93.855 Z-1.065
X35.781 Y93.757 Z-1.069
X35.832 Y93.666 Z-1.073
X35.895 Y93.584 Z-1.076
X35.971 Y93.513 Z-1.08
X36.056 Y93.453 Z-1.083
X36.15 Y93.408 Z-1.087
X36.249 Y93.377 Z-1.091
X36.352 Y93.362 Z-1.094
X36.456 Z-1.098
X36.558 Y93.379 Z-1.102
X36.657 Y93.41 Z-1.105
X36.75 Y93.457 Z-1.109
X36.835 Y93.517 Z-1.113
X36.91 Y93.589 Z-1.116
X36.973 Y93.672 Z-1.12
X37.022 Y93.764 Z-1.123
X37.057 Y93.862 Z-1.127
X37.077 Y93.964 Z-1.131
X37.081 Y94.068 Z-1.134
X37.069 Y94.171 Z-1.138
X37.041 Y94.271 Z-1.142
X36.999 Y94.366 Z-1.145
X36.942 Y94.453 Z-1.149
X36.873 Y94.531 Z-1.153
X36.793 Y94.597 Z-1.156
X36.704 Y94.651 Z-1.16
X36.607 Y94.69 Z-1.163
X36.506 Y94.714 Z-1.167
X36.402 Y94.722 Z-1.171
X36.299 Y94.714 Z-1.174
X36.197 Y94.691 Z-1.178
X36.101 Y94.652 Z-1.182
X36.011 Y94.6 Z-1.185
X35.931 Y94.534 Z-1.189
X35.861 Y94.457 Z-1.193
X35.804 Y94.37 Z-1.196
X35.761 Y94.275 Z-1.2
X35.733 Y94.175 Z-1.203
X35.72 Y94.072 Z-1.207
X35.723 Y93.968 Z-1.211
X35.742 Y93.866 Z-1.214
X35.777 Y93.768 Z-1.218
X35.826 Y93.676 Z-1.222
X35.888 Y93.593 Z-1.225
X35.962 Y93.52 Z-1.229
X36.047 Y93.459 Z-1.233
X36.139 Y93.412 Z-1.236
X36.238 Y93.38 Z-1.24
X36.341 Y93.363 Z-1.243
X36.445 Y93.361 Z-1.247
X36.548 Y93.376 Z-1.251
X36.647 Y93.406 Z-1.254
X36.741 Y93.451 Z-1.258
X36.827 Y93.51 Z-1.262
X36.903 Y93.581 Z-1.265
X36.967 Y93.663 Z-1.269
X37.018 Y93.754 Z-1.272
X37.054 Y93.851 Z-1.276
X37.076 Y93.953 Z-1.28
X37.081 Y94.056 Z-1.283
X37.071 Y94.16 Z-1.287
X37.045 Y94.261 Z-1.291
X37.004 Y94.356 Z-1.294
X36.949 Y94.444 Z-1.298
X36.881 Y94.523 Z-1.302
X36.802 Y94.591 Z-1.305
X36.714 Y94.646 Z-1.309
X36.618 Y94.686 Z-1.312
X36.517 Y94.712 Z-1.316
X36.414 Y94.722 Z-1.32
X36.31 Y94.716 Z-1.323
X36.208 Y94.694 Z-1.327
X36.111 Y94.657 Z-1.331
X36.02 Y94.606 Z-1.334
X35.939 Y94.542 Z-1.338
X35.868 Y94.465 Z-1.342
X35.809 Y94.379 Z-1.345
X35.765 Y94.286 Z-1.349
X35.735 Y94.186 Z-1.352
X35.721 Y94.083 Z-1.356
X35.722 Y93.979 Z-1.36
X35.74 Y93.876 Z-1.363
X35.772 Y93.778 Z-1.367
X35.82 Y93.685 Z-1.371
X35.881 Y93.601 Z-1.374
X35.954 Y93.527 Z-1.378
X36.037 Y93.465 Z-1.382
X36.129 Y93.416 Z-1.385
X36.227 Y93.382 Z-1.389
X36.33 Y93.364 Z-1.392
X36.434 Y93.361 Z-1.396
X36.537 Y93.374 Z-1.4
X36.637 Y93.402 Z-1.403
X36.731 Y93.446 Z-1.407
X36.818 Y93.503 Z-1.411
X36.895 Y93.573 Z-1.414
X36.96 Y93.654 Z-1.418
X37.013 Y93.743 Z-1.422
X37.051 Y93.84 Z-1.425
X37.074 Y93.942 Z-1.429
X37.081 Y94.045 Z-1.432
X37.073 Y94.149 Z-1.436
X37.048 Y94.25 Z-1.44
X37.009 Y94.346 Z-1.443
X36.955 Y94.435 Z-1.447
X36.889 Y94.515 Z-1.451
X36.811 Y94.584 Z-1.454
X36.723 Y94.64 Z-1.458
X36.628 Y94.683 Z-1.462
X36.528 Y94.71 Z-1.465
X36.425 Y94.721 Z-1.469
X36.321 Y94.717 Z-1.472
X36.219 Y94.697 Z-1.476
X36.121 Y94.662 Z-1.48
X36.03 Y94.612 Z-1.483
X35.947 Y94.549 Z-1.487
X35.875 Y94.474 Z-1.491
X35.815 Y94.389 Z-1.494
X35.769 Y94.296 Z-1.498
X35.737 Y94.197 Z-1.501
X35.721 Y94.094 Z-1.505
Y93.99 Z-1.509
X35.737 Y93.887 Z-1.512
X35.768 Y93.788 Z-1.516
X35.814 Y93.695 Z-1.52
X35.873 Y93.609 Z-1.523
X35.945 Y93.534 Z-1.527
X36.028 Y93.471 Z-1.531
X36.119 Y93.421 Z-1.534
X36.217 Y93.385 Z-1.538
X36.319 Y93.365 Z-1.541
X36.422 Y93.36 Z-1.545
X36.526 Y93.372 Z-1.549
X36.626 Y93.399 Z-1.552
X36.721 Y93.44 Z-1.556
X36.809 Y93.496 Z-1.56
X36.887 Y93.565 Z-1.563
X36.954 Y93.645 Z-1.567
X37.008 Y93.734 Z-1.571
X37.048 Y93.83 Z-1.574
X37.072 Y93.931 Z-1.578
X37.081 Y94.034 Z-1.581
X37.074 Y94.138 Z-1.585
X37.052 Y94.24 Z-1.589
X37.014 Y94.336 Z-1.592
X36.962 Y94.426 Z-1.596
X36.896 Y94.507 Z-1.6
X36.82 Y94.577 Z-1.603
X36.733 Y94.635 Z-1.607
X36.639 Y94.679 Z-1.611
X36.539 Y94.708 Z-1.614
X36.436 Y94.721 Z-1.618
X36.332 Y94.718 Z-1.621
X36.229 Y94.7 Z-1.625
X36.131 Y94.666 Z-1.629
X36.039 Y94.618 Z-1.632
X35.955 Y94.556 Z-1.636
X35.882 Y94.483 Z-1.64
X35.821 Y94.398 Z-1.643
X35.773 Y94.306 Z-1.647
X35.74 Y94.208 Z-1.651
X35.722 Y94.105 Z-1.654
X35.721 Y94.001 Z-1.658
X35.735 Y93.898 Z-1.661
X35.764 Y93.798 Z-1.665
X35.808 Y93.704 Z-1.669
X35.867 Y93.618 Z-1.672
X35.937 Y93.542 Z-1.676
X36.019 Y93.477 Z-1.68
X36.109 Y93.425 Z-1.683
X36.206 Y93.388 Z-1.687
X36.308 Y93.366 Z-1.69
X36.411 Y93.36 Z-1.694
X36.515 Y93.37 Z-1.698
X36.616 Y93.395 Z-1.701
X36.712 Y93.435 Z-1.705
X36.8 Y93.49 Z-1.709
X36.879 Y93.557 Z-1.712
X36.948 Y93.636 Z-1.716
X37.003 Y93.724 Z-1.72
X37.044 Y93.819 Z-1.723
X37.07 Y93.92 Z-1.727
X37.081 Y94.023 Z-1.73
X37.076 Y94.127 Z-1.734
X37.055 Y94.229 Z-1.738
X37.019 Y94.326 Z-1.741
X36.968 Y94.417 Z-1.745
X36.904 Y94.499 Z-1.749
X36.828 Y94.571 Z-1.752
X36.743 Y94.63 Z-1.756
X36.649 Y94.675 Z-1.76
X36.55 Y94.705 Z-1.763
X36.447 Y94.72 Z-1.767
X36.343 Y94.719 Z-1.77
X36.24 Y94.703 Z-1.774
X36.141 Y94.671 Z-1.778
X36.048 Y94.624 Z-1.781
X35.964 Y94.564 Z-1.785
X35.889 Y94.491 Z-1.789
X35.827 Y94.408 Z-1.792
X35.778 Y94.316 Z-1.796
X35.743 Y94.218 Z-1.8
X35.724 Y94.116 Z-1.803
X35.72 Y94.012 Z-1.807
X35.732 Y93.909 Z-1.81
X35.76 Y93.809 Z-1.814
X35.803 Y93.714 Z-1.818
X35.86 Y93.627 Z-1.821
X35.929 Y93.549 Z-1.825
X36.009 Y93.483 Z-1.829
X36.099 Y93.43 Z-1.832
X36.195 Y93.392 Z-1.836
X36.297 Y93.368 Z-1.84
X36.4 Y93.36 Z-1.843
X37.081 F1300.
Y94.722
X19.069
X18.908 Y94.714
X18.752 Y94.697
X18.669 Y94.682
X19.992 Y93.36
X36.4
X36.419 Y93.364
X36.433 Y93.377
X36.44 Y93.394
X36.474 Y93.578
X36.868 Y94.097
X37.035 Y94.178
X37.05 Y94.189
X37.058 Y94.206
X37.057 Y94.225
X37.022 Y94.322 Z-1.847 F333.
X36.972 Y94.413 Z-1.85
X36.91 Y94.496 Z-1.854
X36.835 Y94.567 Z-1.858
X36.75 Y94.627 Z-1.861
X36.657 Y94.673 Z-1.865
X36.559 Y94.704 Z-1.868
X36.456 Y94.72 Z-1.872
X36.353 Z-1.876
X36.25 Y94.704 Z-1.879
X36.152 Y94.673 Z-1.883
X36.059 Y94.627 Z-1.887
X35.974 Y94.567 Z-1.89
X35.9 Y94.495 Z-1.894
X35.837 Y94.413 Z-1.897
X35.787 Y94.322 Z-1.901
X35.752 Y94.224 Z-1.905
X35.733 Y94.123 Z-1.908
X35.729 Y94.019 Z-1.912
X35.741 Y93.916 Z-1.916
X35.768 Y93.816 Z-1.919
X35.81 Y93.722 Z-1.923
X35.867 Y93.635 Z-1.926
X35.936 Y93.558 Z-1.93
X36.016 Y93.492 Z-1.934
X36.105 Y93.439 Z-1.937
X36.201 Y93.4 Z-1.941
X36.302 Y93.377 Z-1.945
X36.405 Y93.369 Z-1.948
X36.508 Y93.377 Z-1.952
X36.609 Y93.4 Z-1.955
X36.705 Y93.439 Z-1.959
X36.794 Y93.492 Z-1.963
X36.874 Y93.558 Z-1.966
X36.943 Y93.635 Z-1.97
X36.999 Y93.722 Z-1.973
X37.041 Y93.817 Z-1.977
X37.069 Y93.917 Z-1.981
X37.081 Y94.02 Z-1.984
X37.077 Y94.123 Z-1.988
X37.057 Y94.225 Z-1.992
X37.022 Y94.322 Z-1.995
X36.973 Y94.413 Z-1.999
X36.91 Y94.496 Z-2.002
X36.835 Y94.567 Z-2.006
X36.75 Y94.627 Z-2.01
X36.658 Y94.673 Z-2.013
X36.559 Y94.704 Z-2.017
X36.456 Y94.72 Z-2.021
X36.353 Z-2.024
X36.251 Y94.704 Z-2.028
X36.152 Y94.673 Z-2.031
X36.059 Y94.627 Z-2.035
X35.974 Y94.567 Z-2.039
X35.9 Y94.495 Z-2.042
X35.837 Y94.413 Z-2.046
X35.787 Y94.322 Z-2.05
X35.752 Y94.225 Z-2.053
X35.733 Y94.123 Z-2.057
X35.729 Y94.019 Z-2.06
X35.741 Y93.916 Z-2.064
X35.768 Y93.817 Z-2.068
X35.81 Y93.722 Z-2.071
X35.867 Y93.635 Z-2.075
X35.936 Y93.558 Z-2.078
X36.016 Y93.492 Z-2.082
X36.105 Y93.439 Z-2.086
X36.201 Y93.4 Z-2.089
X36.301 Y93.377 Z-2.093
X36.405 Y93.369 Z-2.097
X37.081 F1300.
Y94.722
X19.069
X18.908 Y94.714
X18.752 Y94.697
X18.668 Y94.682
X19.982 Y93.369
X36.405
X36.423 Y93.373
X36.437 Y93.385
X36.444 Y93.402
X36.481 Y93.583
X36.875 Y94.067
X37.043 Y94.139
X37.058 Y94.149
X37.067 Y94.165
X37.068 Y94.184
X37.039 Y94.283 Z-2.1 F333.
X36.996 Y94.377 Z-2.104
X36.939 Y94.464 Z-2.107
X36.869 Y94.54 Z-2.111
X36.788 Y94.605 Z-2.115
X36.698 Y94.656 Z-2.118
X36.602 Y94.694 Z-2.122
X36.5 Y94.716 Z-2.126
X36.397 Y94.722 Z-2.129
X36.294 Y94.712 Z-2.133
X36.193 Y94.686 Z-2.136
X36.098 Y94.646 Z-2.14
X36.01 Y94.591 Z-2.144
X35.932 Y94.523 Z-2.147
X35.865 Y94.444 Z-2.151
X35.811 Y94.356 Z-2.155
X35.771 Y94.261 Z-2.158
X35.746 Y94.16 Z-2.162
X35.737 Y94.057 Z-2.165
X35.744 Y93.953 Z-2.169
X35.766 Y93.852 Z-2.173
X35.804 Y93.756 Z-2.176
X35.856 Y93.667 Z-2.18
X35.922 Y93.586 Z-2.183
X35.999 Y93.517 Z-2.187
X36.085 Y93.46 Z-2.191
X36.18 Y93.418 Z-2.194
X36.28 Y93.39 Z-2.198
X36.382 Y93.378 Z-2.202
X36.486 Y93.382 Z-2.205
X36.588 Y93.401 Z-2.209
X36.685 Y93.437 Z-2.212
X36.776 Y93.486 Z-2.216
X36.858 Y93.549 Z-2.22
X36.93 Y93.624 Z-2.223
X36.989 Y93.709 Z-2.227
X37.034 Y93.802 Z-2.231
X37.065 Y93.901 Z-2.234
X37.08 Y94.004 Z-2.238
X37.079 Y94.107 Z-2.241
X37.062 Y94.21 Z-2.245
X37.03 Y94.308 Z-2.249
X36.983 Y94.4 Z-2.252
X36.922 Y94.484 Z-2.256
X36.849 Y94.558 Z-2.259
X36.766 Y94.619 Z-2.263
X36.674 Y94.667 Z-2.267
X36.576 Y94.701 Z-2.27
X36.474 Y94.719 Z-2.274
X36.37 Y94.721 Z-2.278
X36.268 Y94.707 Z-2.281
X36.169 Y94.677 Z-2.285
X36.075 Y94.633 Z-2.288
X35.989 Y94.575 Z-2.292
X35.914 Y94.504 Z-2.296
X35.85 Y94.423 Z-2.299
X35.799 Y94.332 Z-2.303
X35.763 Y94.235 Z-2.307
X35.742 Y94.134 Z-2.31
X35.737 Y94.03 Z-2.314
X35.748 Y93.927 Z-2.317
X35.775 Y93.827 Z-2.321
X35.816 Y93.732 Z-2.325
X35.872 Y93.645 Z-2.328
X35.94 Y93.567 Z-2.332
X36.02 Y93.501 Z-2.336
X36.109 Y93.448 Z-2.339
X36.205 Y93.409 Z-2.343
X36.306 Y93.385 Z-2.346
X36.409 Y93.377 Z-2.35
X37.081 F1300.
Y94.722
X19.069
X18.908 Y94.714
X18.752 Y94.697
X18.668 Y94.682
X19.973 Y93.377
X36.409
X36.433 Y93.383
X36.452 Y93.399
X36.462 Y93.422
X36.459 Y93.447
X36.379 Y93.694
X36.249 Y94.369
X36.23 Y94.624
X36.223 Y94.648
X36.205 Y94.665
X36.182 Y94.673
X36.158 Y94.669
X36.066 Y94.621 Z-2.354 F333.
X35.984 Y94.56 Z-2.357
X35.911 Y94.487 Z-2.361
X35.851 Y94.403 Z-2.364
X35.805 Y94.311 Z-2.368
X35.773 Y94.213 Z-2.372
X35.757 Y94.112 Z-2.375
Y94.009 Z-2.379
X35.772 Y93.907 Z-2.382
X35.803 Y93.809 Z-2.386
X35.849 Y93.717 Z-2.39
X35.909 Y93.633 Z-2.393
X35.981 Y93.56 Z-2.397
X36.064 Y93.498 Z-2.4
X36.155 Y93.45 Z-2.404
X36.252 Y93.416 Z-2.408
X36.353 Y93.399 Z-2.411
X36.456 Y93.396 Z-2.415
X36.558 Y93.41 Z-2.418
X36.657 Y93.44 Z-2.422
X36.749 Y93.484 Z-2.426
X36.834 Y93.542 Z-2.429
X36.909 Y93.613 Z-2.433
X36.972 Y93.694 Z-2.436
X37.022 Y93.784 Z-2.44
X37.057 Y93.881 Z-2.444
X37.077 Y93.982 Z-2.447
X37.081 Y94.085 Z-2.451
X37.069 Y94.187 Z-2.454
X37.041 Y94.286 Z-2.458
X36.998 Y94.38 Z-2.462
X36.942 Y94.466 Z-2.465
X36.872 Y94.542 Z-2.469
X36.792 Y94.606 Z-2.472
X36.703 Y94.658 Z-2.476
X36.607 Y94.694 Z-2.479
X36.506 Y94.716 Z-2.483
X36.403 Y94.722 Z-2.487
X36.301 Y94.711 Z-2.49
X36.201 Y94.686 Z-2.494
X36.107 Y94.644 Z-2.497
X36.02 Y94.589 Z-2.501
X35.943 Y94.521 Z-2.505
X35.877 Y94.442 Z-2.508
X35.824 Y94.354 Z-2.512
X35.786 Y94.259 Z-2.515
X35.762 Y94.158 Z-2.519
X35.755 Y94.056 Z-2.523
X35.763 Y93.953 Z-2.526
X35.787 Y93.853 Z-2.53
X35.827 Y93.758 Z-2.533
X35.88 Y93.67 Z-2.537
X35.947 Y93.592 Z-2.541
X36.025 Y93.525 Z-2.544
X36.112 Y93.47 Z-2.548
X36.207 Y93.43 Z-2.551
X36.307 Y93.405 Z-2.555
X36.409 Y93.395 Z-2.559
X36.512 Y93.402 Z-2.562
X36.612 Y93.424 Z-2.566
X36.708 Y93.462 Z-2.569
X36.797 Y93.514 Z-2.573
X36.876 Y93.579 Z-2.577
X36.945 Y93.656 Z-2.58
X37.001 Y93.742 Z-2.584
X37.043 Y93.836 Z-2.587
X37.07 Y93.936 Z-2.591
X37.081 Y94.038 Z-2.595
X37.076 Y94.141 Z-2.598
X37.056 Y94.241 Z-2.602
X37.02 Y94.338 Z-2.605
X36.969 Y94.428 Z-2.609
X36.905 Y94.508 Z-2.613
X36.83 Y94.578 Z-2.616
X36.745 Y94.636 Z-2.62
X36.651 Y94.679 Z-2.623
X36.553 Y94.708 Z-2.627
X36.451 Y94.721 Z-2.631
X36.348 Y94.718 Z-2.634
X36.246 Y94.699 Z-2.638
X36.149 Y94.665 Z-2.641
X36.059 Y94.616 Z-2.645
X35.977 Y94.554 Z-2.649
X35.906 Y94.48 Z-2.652
X35.847 Y94.395 Z-2.656
X35.801 Y94.303 Z-2.659
X35.771 Y94.205 Z-2.663
X35.756 Y94.103 Z-2.667
X35.757 Y94. Z-2.67
X35.774 Y93.898 Z-2.674
X35.807 Y93.801 Z-2.677
X35.854 Y93.709 Z-2.681
X35.915 Y93.626 Z-2.685
X35.988 Y93.554 Z-2.688
X36.071 Y93.493 Z-2.692
X36.163 Y93.446 Z-2.695
X36.26 Y93.414 Z-2.699
X36.362 Y93.398 Z-2.703
X36.465 Y93.397 Z-2.706
X36.567 Y93.412 Z-2.71
X36.665 Y93.443 Z-2.713
X36.757 Y93.489 Z-2.717
X36.841 Y93.548 Z-2.721
X36.915 Y93.62 Z-2.724
X36.977 Y93.702 Z-2.728
X37.026 Y93.792 Z-2.731
X37.059 Y93.89 Z-2.735
X37.078 Y93.991 Z-2.738
X37.08 Y94.094 Z-2.742
X37.067 Y94.196 Z-2.746
X37.038 Y94.295 Z-2.749
X36.994 Y94.388 Z-2.753
X36.936 Y94.473 Z-2.756
X36.866 Y94.548 Z-2.76
X36.785 Y94.611 Z-2.764
X36.695 Y94.661 Z-2.767
X36.598 Y94.697 Z-2.771
X36.497 Y94.717 Z-2.774
X36.395 Y94.721 Z-2.778
X36.292 Y94.71 Z-2.782
X36.193 Y94.683 Z-2.785
X36.099 Y94.64 Z-2.789
X36.013 Y94.584 Z-2.792
X35.937 Y94.515 Z-2.796
X35.872 Y94.435 Z-2.8
X35.82 Y94.346 Z-2.803
X35.783 Y94.25 Z-2.807
X35.761 Y94.15 Z-2.81
X35.755 Y94.047 Z-2.814
X35.765 Y93.945 Z-2.818
X35.79 Y93.845 Z-2.821
X35.831 Y93.75 Z-2.825
X35.886 Y93.663 Z-2.828
X35.953 Y93.586 Z-2.832
X36.032 Y93.519 Z-2.836
X36.12 Y93.466 Z-2.839
X36.215 Y93.427 Z-2.843
X36.315 Y93.403 Z-2.846
X36.418 Y93.395 Z-2.85
X37.081 F1300.
Y94.722
X19.069
X18.908 Y94.714
X18.752 Y94.697
X18.668 Y94.682
X19.952 Y93.399
X36.418 Y93.395
X36.45 Y93.402
X36.478 Y93.419
X36.497 Y93.446
X36.505 Y93.478
X36.501 Y93.511
X36.484 Y93.54
X36.228 Y93.839
X35.915 Y94.069
X35.885 Y94.083
X35.851 Y94.085
X35.819 Y94.074
X35.794 Y94.051
X35.779 Y94.021
X35.777 Y93.988
X35.797 Y93.888 Z-2.854 F333.
X35.833 Y93.792 Z-2.857
X35.883 Y93.703 Z-2.861
X35.946 Y93.623 Z-2.864
X36.021 Y93.553 Z-2.868
X36.106 Y93.496 Z-2.871
X36.199 Y93.453 Z-2.875
X36.297 Y93.425 Z-2.879
X36.398 Y93.413 Z-2.882
X36.5 Y93.417 Z-2.886
X36.601 Y93.436 Z-2.889
X36.697 Y93.471 Z-2.893
X36.786 Y93.52 Z-2.896
X36.867 Y93.583 Z-2.9
X36.937 Y93.657 Z-2.904
X36.995 Y93.742 Z-2.907
X37.038 Y93.834 Z-2.911
X37.067 Y93.932 Z-2.914
X37.08 Y94.033 Z-2.918
X37.078 Y94.135 Z-2.921
X37.059 Y94.236 Z-2.925
X37.025 Y94.332 Z-2.929
X36.977 Y94.422 Z-2.932
X36.915 Y94.503 Z-2.936
X36.841 Y94.574 Z-2.939
X36.757 Y94.632 Z-2.943
X36.665 Y94.677 Z-2.946
X36.567 Y94.707 Z-2.95
X36.466 Y94.721 Z-2.954
X36.364 Y94.719 Z-2.957
X36.263 Y94.701 Z-2.961
X36.167 Y94.668 Z-2.964
X36.076 Y94.62 Z-2.968
X35.995 Y94.559 Z-2.971
X35.923 Y94.486 Z-2.975
X35.864 Y94.403 Z-2.979
X35.819 Y94.311 Z-2.982
X35.788 Y94.214 Z-2.986
X35.773 Y94.112 Z-2.989
X35.774 Y94.01 Z-2.993
X35.791 Y93.91 Z-2.996
X35.823 Y93.813 Z-3.
X35.87 Y93.722 Z-3.004
X35.931 Y93.64 Z-3.007
X36.003 Y93.568 Z-3.011
X36.086 Y93.508 Z-3.014
X36.177 Y93.462 Z-3.018
X36.275 Y93.43 Z-3.021
X36.376 Y93.414 Z-3.025
X36.478 Z-3.029
X36.579 Y93.43 Z-3.032
X36.676 Y93.462 Z-3.036
X36.767 Y93.508 Z-3.039
X36.85 Y93.568 Z-3.043
X36.922 Y93.64 Z-3.046
X36.983 Y93.722 Z-3.05
X37.03 Y93.813 Z-3.054
X37.062 Y93.91 Z-3.057
X37.079 Y94.011 Z-3.061
X37.08 Y94.113 Z-3.064
X37.065 Y94.214 Z-3.068
X37.034 Y94.311 Z-3.071
X36.989 Y94.403 Z-3.075
X36.93 Y94.486 Z-3.079
X36.858 Y94.559 Z-3.082
X36.777 Y94.62 Z-3.086
X36.686 Y94.668 Z-3.089
X36.59 Y94.701 Z-3.093
X36.489 Y94.719 Z-3.096
X36.387 Y94.721 Z-3.1
X36.286 Y94.707 Z-3.104
X36.188 Y94.677 Z-3.107
X36.096 Y94.632 Z-3.111
X36.012 Y94.574 Z-3.114
X35.938 Y94.503 Z-3.118
X35.876 Y94.422 Z-3.121
X35.828 Y94.332 Z-3.125
X35.794 Y94.236 Z-3.129
X35.775 Y94.135 Z-3.132
X35.773 Y94.033 Z-3.136
X35.786 Y93.932 Z-3.139
X35.815 Y93.834 Z-3.143
X35.859 Y93.741 Z-3.146
X35.916 Y93.657 Z-3.15
X35.986 Y93.583 Z-3.154
X36.067 Y93.52 Z-3.157
X36.157 Y93.471 Z-3.161
X36.253 Y93.436 Z-3.164
X36.353 Y93.417 Z-3.168
X36.455 Y93.413 Z-3.171
X36.556 Y93.425 Z-3.175
X36.655 Y93.453 Z-3.179
X36.747 Y93.496 Z-3.182
X36.832 Y93.553 Z-3.186
X36.907 Y93.623 Z-3.189
X36.971 Y93.703 Z-3.193
X37.021 Y93.792 Z-3.196
X37.056 Y93.888 Z-3.2
X37.076 Y93.988 Z-3.204
X37.081 Y94.09 Z-3.207
X37.069 Y94.191 Z-3.211
X37.042 Y94.29 Z-3.214
X37. Y94.383 Z-3.218
X36.944 Y94.468 Z-3.221
X36.875 Y94.544 Z-3.225
X36.796 Y94.608 Z-3.229
X36.707 Y94.659 Z-3.232
X36.611 Y94.695 Z-3.236
X36.512 Y94.716 Z-3.239
X36.409 Y94.722 Z-3.243
X36.308 Y94.711 Z-3.246
X36.209 Y94.685 Z-3.25
X36.116 Y94.643 Z-3.254
X36.03 Y94.588 Z-3.257
X35.954 Y94.52 Z-3.261
X35.889 Y94.441 Z-3.264
X35.837 Y94.353 Z-3.268
X35.8 Y94.258 Z-3.271
X35.778 Y94.158 Z-3.275
X35.772 Y94.056 Z-3.279
X35.782 Y93.954 Z-3.282
X35.807 Y93.855 Z-3.286
X35.848 Y93.761 Z-3.289
X35.902 Y93.675 Z-3.293
X35.97 Y93.598 Z-3.296
X36.048 Y93.533 Z-3.3
X36.136 Y93.48 Z-3.304
X36.231 Y93.442 Z-3.307
X36.33 Y93.42 Z-3.311
X36.432 Y93.412 Z-3.314
X36.534 Y93.421 Z-3.318
X36.633 Y93.446 Z-3.321
X36.727 Y93.486 Z-3.325
X36.814 Y93.54 Z-3.329
X36.892 Y93.606 Z-3.332
X36.958 Y93.684 Z-3.336
X37.011 Y93.771 Z-3.339
X37.05 Y93.866 Z-3.343
X37.073 Y93.965 Z-3.346
X37.081 Y94.067 Z-3.35
Y94.722 F1300.
X19.069
X18.908 Y94.714
X18.752 Y94.697
X18.668 Y94.682
X19.938 Y93.412
X37.081
Y94.067
X37.076 Y94.09
X37.061 Y94.108
X37.039 Y94.118
X36.834 Y94.158
X36.81 Y94.17
X36.483 Y94.46
X36.468 Y94.483
X36.404 Y94.682
X36.392 Y94.702
X36.372 Y94.715
X36.348 Y94.717
X36.248 Y94.697 Z-3.354 F333.
X36.152 Y94.662 Z-3.357
X36.063 Y94.612 Z-3.361
X35.983 Y94.549 Z-3.364
X35.913 Y94.474 Z-3.368
X35.856 Y94.389 Z-3.371
X35.813 Y94.296 Z-3.375
X35.785 Y94.198 Z-3.379
X35.773 Y94.097 Z-3.382
X35.776 Y93.995 Z-3.386
X35.795 Y93.894 Z-3.389
X35.83 Y93.798 Z-3.393
X35.879 Y93.709 Z-3.396
X35.941 Y93.628 Z-3.4
X36.016 Y93.558 Z-3.404
X36.1 Y93.5 Z-3.407
X36.192 Y93.456 Z-3.411
X36.29 Y93.427 Z-3.414
X36.392 Y93.414 Z-3.418
X36.494 Y93.416 Z-3.421
X36.594 Y93.434 Z-3.425
X36.691 Y93.468 Z-3.429
X36.781 Y93.517 Z-3.432
X36.862 Y93.578 Z-3.436
X36.933 Y93.652 Z-3.439
X36.991 Y93.736 Z-3.443
X37.036 Y93.828 Z-3.446
X37.066 Y93.925 Z-3.45
X37.08 Y94.027 Z-3.454
X37.078 Y94.129 Z-3.457
X37.061 Y94.229 Z-3.461
X37.028 Y94.326 Z-3.464
X36.98 Y94.416 Z-3.468
X36.919 Y94.498 Z-3.471
X36.846 Y94.57 Z-3.475
X36.763 Y94.629 Z-3.479
X36.671 Y94.674 Z-3.482
X36.574 Y94.705 Z-3.486
X36.473 Y94.72 Z-3.489
X36.371 Y94.719 Z-3.493
X36.27 Y94.703 Z-3.496
X36.173 Y94.671 Z-3.5
X36.082 Y94.624 Z-3.504
X36. Y94.563 Z-3.507
X35.928 Y94.491 Z-3.511
X35.868 Y94.408 Z-3.514
X35.822 Y94.317 Z-3.518
X35.79 Y94.22 Z-3.521
X35.774 Y94.119 Z-3.525
Y94.017 Z-3.529
X35.79 Y93.916 Z-3.532
X35.821 Y93.819 Z-3.536
X35.867 Y93.727 Z-3.539
X35.927 Y93.645 Z-3.543
X35.999 Y93.572 Z-3.546
X36.081 Y93.511 Z-3.55
X36.172 Y93.464 Z-3.554
X36.268 Y93.432 Z-3.557
X36.369 Y93.415 Z-3.561
X36.471 Y93.414 Z-3.564
X36.572 Y93.429 Z-3.568
X36.67 Y93.459 Z-3.571
X36.762 Y93.505 Z-3.575
X36.845 Y93.564 Z-3.579
X36.918 Y93.635 Z-3.582
X36.98 Y93.717 Z-3.586
X37.027 Y93.807 Z-3.589
X37.061 Y93.904 Z-3.593
X37.078 Y94.004 Z-3.596
X37.08 Y94.106 Z-3.6
X37.066 Y94.208 Z-3.604
X37.036 Y94.305 Z-3.607
X36.992 Y94.397 Z-3.611
X36.934 Y94.481 Z-3.614
X36.863 Y94.555 Z-3.618
X36.782 Y94.617 Z-3.621
X36.692 Y94.666 Z-3.625
X36.596 Y94.7 Z-3.629
X36.495 Y94.718 Z-3.632
X36.393 Y94.721 Z-3.636
X36.292 Y94.708 Z-3.639
X36.194 Y94.679 Z-3.643
X36.101 Y94.635 Z-3.646
X36.017 Y94.578 Z-3.65
X35.942 Y94.508 Z-3.654
X35.88 Y94.427 Z-3.657
X35.83 Y94.338 Z-3.661
X35.796 Y94.242 Z-3.664
X35.776 Y94.141 Z-3.668
X35.773 Y94.039 Z-3.671
X35.785 Y93.938 Z-3.675
X35.813 Y93.84 Z-3.679
X35.856 Y93.747 Z-3.682
X35.913 Y93.662 Z-3.686
X35.982 Y93.587 Z-3.689
X36.062 Y93.523 Z-3.693
X36.151 Y93.473 Z-3.696
X36.247 Y93.438 Z-3.7
X36.347 Y93.417 Z-3.704
X36.449 Y93.413 Z-3.707
X36.551 Y93.424 Z-3.711
X36.649 Y93.452 Z-3.714
X36.742 Y93.494 Z-3.718
X36.828 Y93.55 Z-3.721
X36.903 Y93.618 Z-3.725
X36.967 Y93.698 Z-3.729
X37.018 Y93.787 Z-3.732
X37.055 Y93.882 Z-3.736
X37.076 Y93.982 Z-3.739
X37.081 Y94.084 Z-3.743
X37.07 Y94.186 Z-3.746
X37.044 Y94.284 Z-3.75
X37.003 Y94.378 Z-3.754
X36.948 Y94.464 Z-3.757
X36.88 Y94.54 Z-3.761
X36.8 Y94.605 Z-3.764
X36.712 Y94.656 Z-3.768
X36.617 Y94.694 Z-3.771
X36.517 Y94.716 Z-3.775
X36.415 Y94.722 Z-3.779
X36.314 Y94.712 Z-3.782
X36.215 Y94.687 Z-3.786
X36.121 Y94.646 Z-3.789
X36.035 Y94.592 Z-3.793
X35.958 Y94.524 Z-3.796
X35.892 Y94.446 Z-3.8
X35.84 Y94.358 Z-3.804
X35.802 Y94.263 Z-3.807
X35.779 Y94.164 Z-3.811
X35.772 Y94.062 Z-3.814
X35.781 Y93.96 Z-3.818
X35.805 Y93.861 Z-3.821
X35.845 Y93.767 Z-3.825
X35.899 Y93.68 Z-3.829
X35.966 Y93.602 Z-3.832
X36.044 Y93.536 Z-3.836
X36.131 Y93.483 Z-3.839
X36.225 Y93.444 Z-3.843
X36.325 Y93.421 Z-3.846
X36.427 Y93.413 Z-3.85
X37.081 F1300.
Y94.722
X19.069
X18.908 Y94.714
X18.752 Y94.697
X18.668 Y94.682
X19.938 Y93.413
X36.427
X36.465 Y93.42
X36.499 Y93.44
X36.523 Y93.471
X36.535 Y93.508
X36.532 Y93.548
X36.407 Y94.066
X36.47 Y94.596
X36.467 Y94.635
X36.451 Y94.671
X36.423 Y94.699
X36.388 Y94.715
X36.348 Y94.717
X36.248 Y94.697 Z-3.854 F333.
X36.152 Y94.662 Z-3.857
X36.063 Y94.612 Z-3.861
X35.983 Y94.549 Z-3.864
X35.913 Y94.474 Z-3.868
X35.856 Y94.389 Z-3.871
X35.813 Y94.296 Z-3.875
X35.785 Y94.198 Z-3.879
X35.773 Y94.097 Z-3.882
X35.776 Y93.995 Z-3.886
X35.795 Y93.894 Z-3.889
X35.83 Y93.798 Z-3.893
X35.879 Y93.709 Z-3.896
X35.941 Y93.628 Z-3.9
X36.016 Y93.558 Z-3.904
X36.1 Y93.5 Z-3.907
X36.192 Y93.456 Z-3.911
X36.29 Y93.427 Z-3.914
X36.392 Y93.414 Z-3.918
X36.494 Y93.416 Z-3.921
X36.594 Y93.434 Z-3.925
X36.691 Y93.468 Z-3.929
X36.781 Y93.517 Z-3.932
X36.862 Y93.578 Z-3.936
X36.933 Y93.652 Z-3.939
X36.991 Y93.736 Z-3.943
X37.036 Y93.828 Z-3.946
X37.066 Y93.925 Z-3.95
X37.08 Y94.027 Z-3.954
X37.078 Y94.129 Z-3.957
X37.061 Y94.229 Z-3.961
X37.028 Y94.326 Z-3.964
X36.98 Y94.416 Z-3.968
X36.919 Y94.498 Z-3.971
X36.846 Y94.57 Z-3.975
X36.763 Y94.629 Z-3.979
X36.671 Y94.674 Z-3.982
X36.574 Y94.705 Z-3.986
X36.473 Y94.72 Z-3.989
X36.371 Y94.719 Z-3.993
X36.27 Y94.703 Z-3.996
X36.173 Y94.671 Z-4.
X36.082 Y94.624 Z-4.004
X36. Y94.563 Z-4.007
X35.928 Y94.491 Z-4.011
X35.868 Y94.408 Z-4.014
X35.822 Y94.317 Z-4.018
X35.79 Y94.22 Z-4.021
X35.774 Y94.119 Z-4.025
Y94.017 Z-4.029
X35.79 Y93.916 Z-4.032
X35.821 Y93.819 Z-4.036
X35.867 Y93.727 Z-4.039
X35.927 Y93.645 Z-4.043
X35.999 Y93.572 Z-4.046
X36.081 Y93.511 Z-4.05
X36.172 Y93.464 Z-4.054
X36.268 Y93.432 Z-4.057
X36.369 Y93.415 Z-4.061
X36.471 Y93.414 Z-4.064
X36.572 Y93.429 Z-4.068
X36.67 Y93.459 Z-4.071
X36.762 Y93.505 Z-4.075
X36.845 Y93.564 Z-4.079
X36.918 Y93.635 Z-4.082
X36.98 Y93.717 Z-4.086
X37.027 Y93.807 Z-4.089
X37.061 Y93.904 Z-4.093
X37.078 Y94.004 Z-4.096
X37.08 Y94.106 Z-4.1
X37.066 Y94.208 Z-4.104
X37.036 Y94.305 Z-4.107
X36.992 Y94.397 Z-4.111
X36.934 Y94.481 Z-4.114
X36.863 Y94.555 Z-4.118
X36.782 Y94.617 Z-4.121
X36.692 Y94.666 Z-4.125
X36.596 Y94.7 Z-4.129
X36.495 Y94.718 Z-4.132
X36.393 Y94.721 Z-4.136
X36.292 Y94.708 Z-4.139
X36.194 Y94.679 Z-4.143
X36.101 Y94.635 Z-4.146
X36.017 Y94.578 Z-4.15
X35.942 Y94.508 Z-4.154
X35.88 Y94.427 Z-4.157
X35.83 Y94.338 Z-4.161
X35.796 Y94.242 Z-4.164
X35.776 Y94.141 Z-4.168
X35.773 Y94.039 Z-4.171
X35.785 Y93.938 Z-4.175
X35.813 Y93.84 Z-4.179
X35.856 Y93.747 Z-4.182
X35.913 Y93.662 Z-4.186
X35.982 Y93.587 Z-4.189
X36.062 Y93.523 Z-4.193
X36.151 Y93.473 Z-4.196
X36.247 Y93.438 Z-4.2
X36.347 Y93.417 Z-4.204
X36.449 Y93.413 Z-4.207
X36.551 Y93.424 Z-4.211
X36.649 Y93.452 Z-4.214
X36.742 Y93.494 Z-4.218
X36.828 Y93.55 Z-4.221
X36.903 Y93.618 Z-4.225
X36.967 Y93.698 Z-4.229
X37.018 Y93.787 Z-4.232
X37.055 Y93.882 Z-4.236
X37.076 Y93.982 Z-4.239
X37.081 Y94.084 Z-4.243
X37.07 Y94.186 Z-4.246
X37.044 Y94.284 Z-4.25
X37.003 Y94.378 Z-4.254
X36.948 Y94.464 Z-4.257
X36.88 Y94.54 Z-4.261
X36.8 Y94.605 Z-4.264
X36.712 Y94.656 Z-4.268
X36.617 Y94.694 Z-4.271
X36.517 Y94.716 Z-4.275
X36.415 Y94.722 Z-4.279
X36.314 Y94.712 Z-4.282
X36.215 Y94.687 Z-4.286
X36.121 Y94.646 Z-4.289
X36.035 Y94.592 Z-4.293
X35.958 Y94.524 Z-4.296
X35.892 Y94.446 Z-4.3
X35.84 Y94.358 Z-4.304
X35.802 Y94.263 Z-4.307
X35.779 Y94.164 Z-4.311
X35.772 Y94.062 Z-4.314
X35.781 Y93.96 Z-4.318
X35.805 Y93.861 Z-4.321
X35.845 Y93.767 Z-4.325
X35.899 Y93.68 Z-4.329
X35.966 Y93.602 Z-4.332
X36.044 Y93.536 Z-4.336
X36.131 Y93.483 Z-4.339
X36.225 Y93.444 Z-4.343
X36.325 Y93.421 Z-4.346
X36.427 Y93.413 Z-4.35
X37.081 F1300.
Y94.722
X19.069
X18.908 Y94.714
X18.752 Y94.697
X18.668 Y94.682
X19.938 Y93.413
X36.427
X36.465 Y93.42
X36.499 Y93.44
X36.523 Y93.471
X36.535 Y93.508
X36.532 Y93.548
X36.407 Y94.066
X36.47 Y94.596
X36.467 Y94.635
X36.451 Y94.671
X36.423 Y94.699
X36.388 Y94.715
X36.348 Y94.717
X36.248 Y94.697 Z-4.354 F333.
X36.152 Y94.662 Z-4.357
X36.063 Y94.612 Z-4.361
X35.983 Y94.549 Z-4.364
X35.913 Y94.474 Z-4.368
X35.856 Y94.389 Z-4.371
X35.813 Y94.296 Z-4.375
X35.785 Y94.198 Z-4.379
X35.773 Y94.097 Z-4.382
X35.776 Y93.995 Z-4.386
X35.795 Y93.894 Z-4.389
X35.83 Y93.798 Z-4.393
X35.879 Y93.709 Z-4.396
X35.941 Y93.628 Z-4.4
X36.016 Y93.558 Z-4.404
X36.1 Y93.5 Z-4.407
X36.192 Y93.456 Z-4.411
X36.29 Y93.427 Z-4.414
X36.392 Y93.414 Z-4.418
X36.494 Y93.416 Z-4.421
X36.594 Y93.434 Z-4.425
X36.691 Y93.468 Z-4.429
X36.781 Y93.517 Z-4.432
X36.862 Y93.578 Z-4.436
X36.933 Y93.652 Z-4.439
X36.991 Y93.736 Z-4.443
X37.036 Y93.828 Z-4.446
X37.066 Y93.925 Z-4.45
X37.08 Y94.027 Z-4.454
X37.078 Y94.129 Z-4.457
X37.061 Y94.229 Z-4.461
X37.028 Y94.326 Z-4.464
X36.98 Y94.416 Z-4.468
X36.919 Y94.498 Z-4.471
X36.846 Y94.57 Z-4.475
X36.763 Y94.629 Z-4.479
X36.671 Y94.674 Z-4.482
X36.574 Y94.705 Z-4.486
X36.473 Y94.72 Z-4.489
X36.371 Y94.719 Z-4.493
X36.27 Y94.703 Z-4.496
X36.173 Y94.671 Z-4.5
X36.082 Y94.624 Z-4.504
X36. Y94.563 Z-4.507
X35.928 Y94.491 Z-4.511
X35.868 Y94.408 Z-4.514
X35.822 Y94.317 Z-4.518
X35.79 Y94.22 Z-4.521
X35.774 Y94.119 Z-4.525
Y94.017 Z-4.529
X35.79 Y93.916 Z-4.532
X35.821 Y93.819 Z-4.536
X35.867 Y93.727 Z-4.539
X35.927 Y93.645 Z-4.543
X35.999 Y93.572 Z-4.546
X36.081 Y93.511 Z-4.55
X36.172 Y93.464 Z-4.554
X36.268 Y93.432 Z-4.557
X36.369 Y93.415 Z-4.561
X36.471 Y93.414 Z-4.564
X36.572 Y93.429 Z-4.568
X36.67 Y93.459 Z-4.571
X36.762 Y93.505 Z-4.575
X36.845 Y93.564 Z-4.579
X36.918 Y93.635 Z-4.582
X36.98 Y93.717 Z-4.586
X37.027 Y93.807 Z-4.589
X37.061 Y93.904 Z-4.593
X37.078 Y94.004 Z-4.596
X37.08 Y94.106 Z-4.6
X37.066 Y94.208 Z-4.604
X37.036 Y94.305 Z-4.607
X36.992 Y94.397 Z-4.611
X36.934 Y94.481 Z-4.614
X36.863 Y94.555 Z-4.618
X36.782 Y94.617 Z-4.621
X36.692 Y94.666 Z-4.625
X36.596 Y94.7 Z-4.629
X36.495 Y94.718 Z-4.632
X36.393 Y94.721 Z-4.636
X36.292 Y94.708 Z-4.639
X36.194 Y94.679 Z-4.643
X36.101 Y94.635 Z-4.646
X36.017 Y94.578 Z-4.65
X35.942 Y94.508 Z-4.654
X35.88 Y94.427 Z-4.657
X35.83 Y94.338 Z-4.661
X35.796 Y94.242 Z-4.664
X35.776 Y94.141 Z-4.668
X35.773 Y94.039 Z-4.671
X35.785 Y93.938 Z-4.675
X35.813 Y93.84 Z-4.679
X35.856 Y93.747 Z-4.682
X35.913 Y93.662 Z-4.686
X35.982 Y93.587 Z-4.689
X36.062 Y93.523 Z-4.693
X36.151 Y93.473 Z-4.696
X36.247 Y93.438 Z-4.7
X36.347 Y93.417 Z-4.704
X36.449 Y93.413 Z-4.707
X36.551 Y93.424 Z-4.711
X36.649 Y93.452 Z-4.714
X36.742 Y93.494 Z-4.718
X36.828 Y93.55 Z-4.721
X36.903 Y93.618 Z-4.725
X36.967 Y93.698 Z-4.729
X37.018 Y93.787 Z-4.732
X37.055 Y93.882 Z-4.736
X37.076 Y93.982 Z-4.739
X37.081 Y94.084 Z-4.743
X37.07 Y94.186 Z-4.746
X37.044 Y94.284 Z-4.75
X37.003 Y94.378 Z-4.754
X36.948 Y94.464 Z-4.757
X36.88 Y94.54 Z-4.761
X36.8 Y94.605 Z-4.764
X36.712 Y94.656 Z-4.768
X36.617 Y94.694 Z-4.771
X36.517 Y94.716 Z-4.775
X36.415 Y94.722 Z-4.779
X36.314 Y94.712 Z-4.782
X36.215 Y94.687 Z-4.786
X36.121 Y94.646 Z-4.789
X36.035 Y94.592 Z-4.793
X35.958 Y94.524 Z-4.796
X35.892 Y94.446 Z-4.8
X35.84 Y94.358 Z-4.804
X35.802 Y94.263 Z-4.807
X35.779 Y94.164 Z-4.811
X35.772 Y94.062 Z-4.814
X35.781 Y93.96 Z-4.818
X35.805 Y93.861 Z-4.821
X35.845 Y93.767 Z-4.825
X35.899 Y93.68 Z-4.829
X35.966 Y93.602 Z-4.832
X36.044 Y93.536 Z-4.836
X36.131 Y93.483 Z-4.839
X36.225 Y93.444 Z-4.843
X36.325 Y93.421 Z-4.846
X36.427 Y93.413 Z-4.85
X37.081 F1300.
Y94.722
X19.069
X18.908 Y94.714
X18.752 Y94.697
X18.668 Y94.682
X19.938 Y93.413
X36.427
X36.45 Y93.417
X36.47 Y93.43
X36.483 Y93.45
X36.564 Y93.637
X36.583 Y93.661
X36.611 Y93.673
X36.642 Y93.67
X36.833 Y93.599
X36.856 Y93.595
X36.879 Y93.6
X36.899 Y93.614
X36.963 Y93.692 Z-4.854 F333.
X37.015 Y93.78 Z-4.857
X37.052 Y93.875 Z-4.861
X37.075 Y93.974 Z-4.864
X37.081 Y94.075 Z-4.868
X37.072 Y94.177 Z-4.871
X37.047 Y94.275 Z-4.875
X37.008 Y94.369 Z-4.878
X36.954 Y94.455 Z-4.882
X36.887 Y94.532 Z-4.886
X36.81 Y94.598 Z-4.889
X36.723 Y94.651 Z-4.893
X36.629 Y94.69 Z-4.896
X36.53 Y94.714 Z-4.9
X36.428 Y94.722 Z-4.903
X36.327 Y94.714 Z-4.907
X36.228 Y94.691 Z-4.91
X36.134 Y94.653 Z-4.914
X36.046 Y94.6 Z-4.918
X35.969 Y94.535 Z-4.921
X35.902 Y94.458 Z-4.925
X35.847 Y94.372 Z-4.928
X35.807 Y94.279 Z-4.932
X35.782 Y94.18 Z-4.935
X35.772 Y94.079 Z-4.939
X35.778 Y93.977 Z-4.942
X35.8 Y93.878 Z-4.946
X35.837 Y93.783 Z-4.95
X35.888 Y93.695 Z-4.953
X35.952 Y93.616 Z-4.957
X36.028 Y93.548 Z-4.96
X36.113 Y93.493 Z-4.964
X36.206 Y93.451 Z-4.967
X36.304 Y93.424 Z-4.971
X36.405 Y93.413 Z-4.974
X36.506 Y93.417 Z-4.978
X36.606 Y93.438 Z-4.982
X36.702 Y93.473 Z-4.985
X36.79 Y93.523 Z-4.989
X36.87 Y93.586 Z-4.992
X36.939 Y93.66 Z-4.996
X36.996 Y93.745 Z-4.999
X37.039 Y93.837 Z-5.003
X37.068 Y93.935 Z-5.006
X37.08 Y94.035 Z-5.01
X37.078 Y94.137 Z-5.014
X37.059 Y94.237 Z-5.017
X37.025 Y94.333 Z-5.021
X36.976 Y94.423 Z-5.024
X36.915 Y94.503 Z-5.028
X36.841 Y94.574 Z-5.031
X36.758 Y94.632 Z-5.035
X36.666 Y94.676 Z-5.038
X36.569 Y94.706 Z-5.042
X36.468 Y94.721 Z-5.046
X36.367 Y94.719 Z-5.049
X36.266 Y94.702 Z-5.053
X36.17 Y94.669 Z-5.056
X36.08 Y94.622 Z-5.06
X35.998 Y94.562 Z-5.063
X35.926 Y94.49 Z-5.067
X35.867 Y94.407 Z-5.07
X35.821 Y94.316 Z-5.074
X35.79 Y94.219 Z-5.078
X35.774 Y94.119 Z-5.081
Y94.017 Z-5.085
X35.79 Y93.917 Z-5.088
X35.821 Y93.82 Z-5.092
X35.866 Y93.729 Z-5.095
X35.925 Y93.646 Z-5.099
X35.997 Y93.574 Z-5.102
X36.078 Y93.513 Z-5.106
X36.168 Y93.466 Z-5.11
X36.265 Y93.433 Z-5.113
X36.365 Y93.415 Z-5.117
X36.467 Y93.414 Z-5.12
X36.567 Y93.428 Z-5.124
X36.665 Y93.457 Z-5.127
X36.756 Y93.502 Z-5.131
X36.84 Y93.56 Z-5.134
X36.914 Y93.63 Z-5.138
X36.976 Y93.71 Z-5.142
X37.024 Y93.8 Z-5.145
X37.058 Y93.896 Z-5.149
X37.077 Y93.996 Z-5.152
X37.081 Y94.097 Z-5.156
X37.068 Y94.198 Z-5.159
X37.04 Y94.296 Z-5.163
X36.997 Y94.388 Z-5.166
X36.941 Y94.473 Z-5.17
X36.872 Y94.547 Z-5.174
X36.792 Y94.611 Z-5.177
X36.703 Y94.661 Z-5.181
X36.608 Y94.696 Z-5.184
X36.508 Y94.717 Z-5.188
X36.407 Y94.722 Z-5.191
X36.305 Y94.711 Z-5.195
X36.207 Y94.684 Z-5.198
X36.114 Y94.643 Z-5.202
X36.029 Y94.587 Z-5.206
X35.953 Y94.519 Z-5.209
X35.889 Y94.441 Z-5.213
X35.838 Y94.353 Z-5.216
X35.8 Y94.258 Z-5.22
X35.778 Y94.159 Z-5.223
X35.772 Y94.057 Z-5.227
X35.782 Y93.956 Z-5.23
X35.807 Y93.857 Z-5.234
X35.847 Y93.764 Z-5.238
X35.901 Y93.678 Z-5.241
X35.967 Y93.601 Z-5.245
X36.045 Y93.535 Z-5.248
X36.132 Y93.483 Z-5.252
X36.226 Y93.444 Z-5.255
X36.325 Y93.42 Z-5.259
X36.427 Y93.413 Z-5.262
X37.081 F1300.
Y94.722
X19.069
X18.908 Y94.714
X18.752 Y94.697
X18.668 Y94.682
X19.938 Y93.413
X36.427
X36.472 Y93.417 Z-5.253
X36.516 Y93.43 Z-5.244
X36.55 Y93.447 Z-5.219
X36.581 Y93.47 Z-5.193
X36.617 Y93.507 Z-5.116
X36.627 Y93.522 Z-5.024
G0 Z5.
X42.495 Y93.457
G1 Z-0.58 F381.
X42.509 Y93.467 Z-0.669 F333.
X42.55 Y93.495 Z-0.746
X42.607 Y93.542 Z-0.798
X42.668 Y93.607 Z-0.818
X42.728 Y93.691 Z-0.822
X42.774 Y93.785 Z-0.825
X42.806 Y93.884 Z-0.829
X42.822 Y93.986 Z-0.833
X42.823 Y94.09 Z-0.836
X42.807 Y94.193 Z-0.84
X42.776 Y94.292 Z-0.844
X42.731 Y94.386 Z-0.847
X42.671 Y94.471 Z-0.851
X42.6 Y94.547 Z-0.854
X42.517 Y94.61 Z-0.858
X42.426 Y94.66 Z-0.862
X42.329 Y94.696 Z-0.865
X42.227 Y94.717 Z-0.869
X42.123 Y94.722 Z-0.873
X42.02 Y94.711 Z-0.876
X41.919 Y94.684 Z-0.88
X41.824 Y94.642 Z-0.884
X41.736 Y94.586 Z-0.887
X41.658 Y94.518 Z-0.891
X41.591 Y94.439 Z-0.894
X41.537 Y94.35 Z-0.898
X41.497 Y94.254 Z-0.902
X41.472 Y94.153 Z-0.905
X41.463 Y94.049 Z-0.909
X41.469 Y93.945 Z-0.913
X41.492 Y93.844 Z-0.916
X41.529 Y93.747 Z-0.92
X41.581 Y93.657 Z-0.924
X41.646 Y93.576 Z-0.927
X41.723 Y93.505 Z-0.931
X41.809 Y93.448 Z-0.934
X41.904 Y93.404 Z-0.938
X42.003 Y93.375 Z-0.942
X42.106 Y93.361 Z-0.945
X42.21 Y93.363 Z-0.949
X42.313 Y93.381 Z-0.953
X42.411 Y93.415 Z-0.956
X42.503 Y93.463 Z-0.96
X42.587 Y93.524 Z-0.964
X42.661 Y93.598 Z-0.967
X42.722 Y93.682 Z-0.971
X42.77 Y93.774 Z-0.974
X42.803 Y93.873 Z-0.978
X42.821 Y93.975 Z-0.982
X42.823 Y94.079 Z-0.985
X42.81 Y94.182 Z-0.989
X42.78 Y94.282 Z-0.993
X42.736 Y94.376 Z-0.996
X42.678 Y94.462 Z-1.
X42.608 Y94.539 Z-1.004
X42.527 Y94.604 Z-1.007
X42.436 Y94.656 Z-1.011
X42.339 Y94.693 Z-1.014
X42.238 Y94.715 Z-1.018
X42.134 Y94.722 Z-1.022
X42.031 Y94.712 Z-1.025
X41.93 Y94.687 Z-1.029
X41.834 Y94.647 Z-1.033
X41.745 Y94.593 Z-1.036
X41.666 Y94.526 Z-1.04
X41.597 Y94.448 Z-1.044
X41.542 Y94.36 Z-1.047
X41.5 Y94.264 Z-1.051
X41.474 Y94.164 Z-1.054
X41.463 Y94.06 Z-1.058
X41.468 Y93.956 Z-1.062
X41.489 Y93.855 Z-1.065
X41.525 Y93.757 Z-1.069
X41.575 Y93.666 Z-1.073
X41.639 Y93.584 Z-1.076
X41.714 Y93.512 Z-1.08
X41.8 Y93.453 Z-1.083
X41.893 Y93.408 Z-1.087
X41.992 Y93.377 Z-1.091
X42.095 Y93.362 Z-1.094
X42.199 Z-1.098
X42.302 Y93.379 Z-1.102
X42.401 Y93.41 Z-1.105
X42.494 Y93.457 Z-1.109
X42.579 Y93.517 Z-1.113
X42.653 Y93.59 Z-1.116
X42.716 Y93.672 Z-1.12
X42.766 Y93.764 Z-1.123
X42.801 Y93.862 Z-1.127
X42.82 Y93.964 Z-1.131
X42.824 Y94.068 Z-1.134
X42.812 Y94.171 Z-1.138
X42.784 Y94.271 Z-1.142
X42.742 Y94.366 Z-1.145
X42.685 Y94.454 Z-1.149
X42.616 Y94.531 Z-1.153
X42.536 Y94.598 Z-1.156
X42.447 Y94.651 Z-1.16
X42.35 Y94.69 Z-1.163
X42.249 Y94.714 Z-1.167
X42.145 Y94.722 Z-1.171
X42.042 Y94.714 Z-1.174
X41.94 Y94.691 Z-1.178
X41.844 Y94.652 Z-1.182
X41.754 Y94.6 Z-1.185
X41.674 Y94.534 Z-1.189
X41.604 Y94.456 Z-1.193
X41.547 Y94.369 Z-1.196
X41.504 Y94.275 Z-1.2
X41.476 Y94.175 Z-1.203
X41.463 Y94.072 Z-1.207
X41.466 Y93.968 Z-1.211
X41.486 Y93.865 Z-1.214
X41.52 Y93.767 Z-1.218
X41.569 Y93.675 Z-1.222
X41.631 Y93.592 Z-1.225
X41.706 Y93.519 Z-1.229
X41.79 Y93.459 Z-1.233
X41.883 Y93.412 Z-1.236
X41.982 Y93.379 Z-1.24
X42.084 Y93.363 Z-1.243
X42.188 Y93.361 Z-1.247
X42.291 Y93.376 Z-1.251
X42.391 Y93.406 Z-1.254
X42.484 Y93.451 Z-1.258
X42.57 Y93.51 Z-1.262
X42.646 Y93.581 Z-1.265
X42.71 Y93.663 Z-1.269
X42.761 Y93.754 Z-1.272
X42.797 Y93.851 Z-1.276
X42.819 Y93.953 Z-1.28
X42.824 Y94.057 Z-1.283
X42.814 Y94.16 Z-1.287
X42.788 Y94.261 Z-1.291
X42.747 Y94.356 Z-1.294
X42.692 Y94.445 Z-1.298
X42.624 Y94.523 Z-1.302
X42.545 Y94.591 Z-1.305
X42.456 Y94.646 Z-1.309
X42.361 Y94.686 Z-1.312
X42.26 Y94.712 Z-1.316
X42.156 Y94.722 Z-1.32
X42.053 Y94.716 Z-1.323
X41.951 Y94.694 Z-1.327
X41.854 Y94.657 Z-1.331
X41.763 Y94.606 Z-1.334
X41.682 Y94.541 Z-1.338
X41.611 Y94.465 Z-1.342
X41.552 Y94.379 Z-1.345
X41.508 Y94.285 Z-1.349
X41.478 Y94.186 Z-1.352
X41.464 Y94.083 Z-1.356
X41.465 Y93.979 Z-1.36
X41.483 Y93.876 Z-1.363
X41.516 Y93.777 Z-1.367
X41.563 Y93.685 Z-1.371
X41.624 Y93.601 Z-1.374
X41.697 Y93.527 Z-1.378
X41.781 Y93.465 Z-1.382
X41.872 Y93.416 Z-1.385
X41.971 Y93.382 Z-1.389
X42.073 Y93.364 Z-1.392
X42.177 Y93.361 Z-1.396
X42.28 Y93.374 Z-1.4
X42.38 Y93.402 Z-1.403
X42.475 Y93.446 Z-1.407
X42.561 Y93.503 Z-1.411
X42.638 Y93.573 Z-1.414
X42.704 Y93.654 Z-1.418
X42.756 Y93.744 Z-1.422
X42.794 Y93.84 Z-1.425
X42.817 Y93.942 Z-1.429
X42.824 Y94.046 Z-1.432
X42.816 Y94.149 Z-1.436
X42.791 Y94.25 Z-1.44
X42.752 Y94.347 Z-1.443
X42.698 Y94.436 Z-1.447
X42.632 Y94.516 Z-1.451
X42.554 Y94.584 Z-1.454
X42.466 Y94.64 Z-1.458
X42.371 Y94.683 Z-1.462
X42.271 Y94.71 Z-1.465
X42.168 Y94.721 Z-1.469
X42.064 Y94.717 Z-1.472
X41.962 Y94.697 Z-1.476
X41.864 Y94.662 Z-1.48
X41.773 Y94.612 Z-1.483
X41.69 Y94.549 Z-1.487
X41.618 Y94.474 Z-1.491
X41.558 Y94.389 Z-1.494
X41.512 Y94.296 Z-1.498
X41.481 Y94.197 Z-1.501
X41.465 Y94.094 Z-1.505
X41.464 Y93.99 Z-1.509
X41.48 Y93.887 Z-1.512
X41.511 Y93.788 Z-1.516
X41.557 Y93.695 Z-1.52
X41.617 Y93.609 Z-1.523
X41.689 Y93.534 Z-1.527
X41.771 Y93.471 Z-1.531
X41.862 Y93.421 Z-1.534
X41.96 Y93.385 Z-1.538
X42.062 Y93.365 Z-1.541
X42.166 Y93.36 Z-1.545
X42.269 Y93.372 Z-1.549
X42.37 Y93.399 Z-1.552
X42.465 Y93.441 Z-1.556
X42.552 Y93.496 Z-1.56
X42.631 Y93.565 Z-1.563
X42.697 Y93.645 Z-1.567
X42.751 Y93.734 Z-1.571
X42.791 Y93.83 Z-1.574
X42.816 Y93.931 Z-1.578
X42.824 Y94.034 Z-1.581
X42.817 Y94.138 Z-1.585
X42.795 Y94.24 Z-1.589
X42.757 Y94.337 Z-1.592
X42.705 Y94.426 Z-1.596
X42.64 Y94.507 Z-1.6
X42.563 Y94.578 Z-1.603
X42.476 Y94.635 Z-1.607
X42.382 Y94.679 Z-1.611
X42.282 Y94.708 Z-1.614
X42.179 Y94.721 Z-1.618
X42.075 Y94.718 Z-1.621
X41.972 Y94.7 Z-1.625
X41.874 Y94.666 Z-1.629
X41.782 Y94.618 Z-1.632
X41.698 Y94.556 Z-1.636
X41.625 Y94.482 Z-1.64
X41.564 Y94.398 Z-1.643
X41.516 Y94.306 Z-1.647
X41.483 Y94.207 Z-1.651
X41.466 Y94.105 Z-1.654
X41.464 Y94.001 Z-1.658
X41.478 Y93.898 Z-1.661
X41.507 Y93.798 Z-1.665
X41.552 Y93.704 Z-1.669
X41.61 Y93.618 Z-1.672
X41.68 Y93.542 Z-1.676
X41.762 Y93.477 Z-1.68
X41.852 Y93.425 Z-1.683
X41.949 Y93.388 Z-1.687
X42.051 Y93.366 Z-1.69
X42.155 Y93.36 Z-1.694
X42.258 Y93.37 Z-1.698
X42.359 Y93.395 Z-1.701
X42.455 Y93.435 Z-1.705
X42.543 Y93.49 Z-1.709
X42.623 Y93.557 Z-1.712
X42.691 Y93.636 Z-1.716
X42.746 Y93.724 Z-1.72
X42.787 Y93.819 Z-1.723
X42.814 Y93.92 Z-1.727
X42.824 Y94.023 Z-1.73
X42.819 Y94.127 Z-1.734
X42.798 Y94.229 Z-1.738
X42.762 Y94.326 Z-1.741
X42.711 Y94.417 Z-1.745
X42.647 Y94.499 Z-1.749
X42.571 Y94.571 Z-1.752
X42.486 Y94.63 Z-1.756
X42.392 Y94.675 Z-1.76
X42.293 Y94.705 Z-1.763
X42.19 Y94.72 Z-1.767
X42.086 Y94.719 Z-1.77
X41.983 Y94.703 Z-1.774
X41.884 Y94.671 Z-1.778
X41.792 Y94.624 Z-1.781
X41.707 Y94.564 Z-1.785
X41.632 Y94.491 Z-1.789
X41.57 Y94.408 Z-1.792
X41.521 Y94.316 Z-1.796
X41.486 Y94.218 Z-1.8
X41.467 Y94.116 Z-1.803
X41.463 Y94.012 Z-1.807
X41.475 Y93.909 Z-1.81
X41.503 Y93.809 Z-1.814
X41.546 Y93.714 Z-1.818
X41.603 Y93.627 Z-1.821
X41.672 Y93.549 Z-1.825
X41.753 Y93.483 Z-1.829
X41.842 Y93.43 Z-1.832
X41.939 Y93.392 Z-1.836
X42.04 Y93.368 Z-1.84
X42.143 Y93.36 Z-1.843
X59.081 F1300.
Y94.722
X41.463
Y93.36
X42.143
X42.189 Y93.364 Z-1.834
X42.232 Y93.377 Z-1.825
X42.267 Y93.394 Z-1.799
X42.298 Y93.417 Z-1.773
X42.334 Y93.455 Z-1.696
X42.344 Y93.469 Z-1.605
G0 Z5.
X59.051 Y93.845
G1 Z-1.08 F381.
X59.056 Y93.861 Z-1.169 F333.
X59.067 Y93.909 Z-1.246
X59.078 Y93.983 Z-1.298
X59.081 Y94.071 Z-1.318
X59.069 Y94.174 Z-1.322
X59.041 Y94.274 Z-1.325
X58.999 Y94.369 Z-1.329
X58.943 Y94.455 Z-1.333
X58.874 Y94.533 Z-1.336
X58.794 Y94.599 Z-1.34
X58.705 Y94.652 Z-1.343
X58.609 Y94.69 Z-1.347
X58.508 Y94.714 Z-1.351
X58.405 Y94.722 Z-1.354
X58.301 Y94.714 Z-1.358
X58.201 Y94.69 Z-1.362
X58.105 Y94.652 Z-1.365
X58.015 Y94.599 Z-1.369
X57.936 Y94.533 Z-1.372
X57.867 Y94.455 Z-1.376
X57.81 Y94.369 Z-1.38
X57.768 Y94.274 Z-1.383
X57.741 Y94.174 Z-1.387
X57.729 Y94.071 Z-1.391
X57.733 Y93.968 Z-1.394
X57.752 Y93.866 Z-1.398
X57.787 Y93.769 Z-1.401
X57.837 Y93.678 Z-1.405
X57.9 Y93.595 Z-1.409
X57.974 Y93.523 Z-1.412
X58.059 Y93.464 Z-1.416
X58.152 Y93.418 Z-1.42
X58.251 Y93.387 Z-1.423
X58.353 Y93.371 Z-1.427
X58.457 Z-1.43
X58.559 Y93.387 Z-1.434
X58.658 Y93.418 Z-1.438
X58.75 Y93.464 Z-1.441
X58.835 Y93.523 Z-1.445
X58.91 Y93.595 Z-1.448
X58.973 Y93.678 Z-1.452
X59.022 Y93.769 Z-1.456
X59.057 Y93.866 Z-1.459
X59.077 Y93.968 Z-1.463
X59.081 Y94.071 Z-1.467
X59.069 Y94.174 Z-1.47
X59.041 Y94.274 Z-1.474
X58.999 Y94.369 Z-1.477
X58.943 Y94.455 Z-1.481
X58.874 Y94.533 Z-1.485
X58.794 Y94.599 Z-1.488
X58.705 Y94.652 Z-1.492
X58.609 Y94.69 Z-1.496
X58.508 Y94.714 Z-1.499
X58.405 Y94.722 Z-1.503
X58.301 Y94.714 Z-1.506
X58.201 Y94.69 Z-1.51
X58.105 Y94.652 Z-1.514
X58.015 Y94.599 Z-1.517
X57.936 Y94.533 Z-1.521
X57.867 Y94.455 Z-1.525
X57.81 Y94.369 Z-1.528
X57.768 Y94.274 Z-1.532
X57.741 Y94.174 Z-1.535
X57.729 Y94.071 Z-1.539
X57.733 Y93.968 Z-1.543
X57.752 Y93.866 Z-1.546
X57.787 Y93.769 Z-1.55
X57.837 Y93.678 Z-1.553
X57.9 Y93.595 Z-1.557
X57.974 Y93.523 Z-1.561
X58.059 Y93.464 Z-1.564
X58.152 Y93.418 Z-1.568
X58.251 Y93.387 Z-1.572
X58.353 Y93.371 Z-1.575
X58.457 Z-1.579
X58.559 Y93.387 Z-1.582
X58.658 Y93.418 Z-1.586
X58.75 Y93.464 Z-1.59
X58.835 Y93.523 Z-1.593
X58.91 Y93.595 Z-1.597
X58.973 Y93.678 Z-1.601
X59.022 Y93.769 Z-1.604
X59.057 Y93.866 Z-1.608
X59.077 Y93.968 Z-1.611
X59.081 Y94.071 Z-1.615
X59.069 Y94.174 Z-1.619
X59.041 Y94.274 Z-1.622
X58.999 Y94.369 Z-1.626
X58.943 Y94.455 Z-1.63
X58.874 Y94.533 Z-1.633
X58.794 Y94.599 Z-1.637
X58.705 Y94.652 Z-1.64
X58.609 Y94.69 Z-1.644
X58.508 Y94.714 Z-1.648
X58.405 Y94.722 Z-1.651
X58.301 Y94.714 Z-1.655
X58.201 Y94.69 Z-1.658
X58.105 Y94.652 Z-1.662
X58.015 Y94.599 Z-1.666
X57.936 Y94.533 Z-1.669
X57.867 Y94.455 Z-1.673
X57.81 Y94.369 Z-1.677
X57.768 Y94.274 Z-1.68
X57.741 Y94.174 Z-1.684
X57.729 Y94.071 Z-1.687
X57.733 Y93.968 Z-1.691
X57.752 Y93.866 Z-1.695
X57.787 Y93.769 Z-1.698
X57.837 Y93.678 Z-1.702
X57.9 Y93.595 Z-1.706
X57.974 Y93.523 Z-1.709
X58.059 Y93.464 Z-1.713
X58.152 Y93.418 Z-1.716
X58.251 Y93.387 Z-1.72
X58.353 Y93.371 Z-1.724
X58.457 Z-1.727
X58.559 Y93.387 Z-1.731
X58.658 Y93.418 Z-1.735
X58.75 Y93.464 Z-1.738
X58.835 Y93.523 Z-1.742
X58.91 Y93.595 Z-1.745
X58.973 Y93.678 Z-1.749
X59.022 Y93.769 Z-1.753
X59.057 Y93.866 Z-1.756
X59.077 Y93.968 Z-1.76
X59.081 Y94.071 Z-1.763
X59.069 Y94.174 Z-1.767
X59.041 Y94.274 Z-1.771
X58.999 Y94.369 Z-1.774
X58.943 Y94.455 Z-1.778
X58.874 Y94.533 Z-1.782
X58.794 Y94.599 Z-1.785
X58.705 Y94.652 Z-1.789
X58.609 Y94.69 Z-1.792
X58.508 Y94.714 Z-1.796
X58.405 Y94.722 Z-1.8
X58.301 Y94.714 Z-1.803
X58.201 Y94.69 Z-1.807
X58.105 Y94.652 Z-1.811
X58.015 Y94.599 Z-1.814
X57.936 Y94.533 Z-1.818
X57.867 Y94.455 Z-1.821
X57.81 Y94.369 Z-1.825
X57.768 Y94.274 Z-1.829
X57.741 Y94.174 Z-1.832
X57.729 Y94.071 Z-1.836
X57.733 Y93.968 Z-1.84
X57.752 Y93.866 Z-1.843
X57.787 Y93.769 Z-1.847
X57.837 Y93.678 Z-1.85
X57.9 Y93.595 Z-1.854
X57.974 Y93.523 Z-1.858
X58.059 Y93.464 Z-1.861
X58.152 Y93.418 Z-1.865
X58.251 Y93.387 Z-1.868
X58.353 Y93.371 Z-1.872
X58.457 Z-1.876
X58.559 Y93.387 Z-1.879
X58.658 Y93.418 Z-1.883
X58.75 Y93.464 Z-1.887
X58.835 Y93.523 Z-1.89
X58.91 Y93.595 Z-1.894
X58.973 Y93.678 Z-1.897
X59.022 Y93.769 Z-1.901
X59.057 Y93.866 Z-1.905
X59.077 Y93.968 Z-1.908
X59.081 Y94.071 Z-1.912
X59.069 Y94.174 Z-1.916
X59.041 Y94.274 Z-1.919
X58.999 Y94.369 Z-1.923
X58.943 Y94.455 Z-1.926
X58.874 Y94.533 Z-1.93
X58.794 Y94.599 Z-1.934
X58.705 Y94.652 Z-1.937
X58.609 Y94.69 Z-1.941
X58.508 Y94.714 Z-1.945
X58.405 Y94.722 Z-1.948
X58.301 Y94.714 Z-1.952
X58.201 Y94.69 Z-1.955
X58.105 Y94.652 Z-1.959
X58.015 Y94.599 Z-1.963
X57.936 Y94.533 Z-1.966
X57.867 Y94.455 Z-1.97
X57.81 Y94.369 Z-1.973
X57.768 Y94.274 Z-1.977
X57.741 Y94.174 Z-1.981
X57.729 Y94.071 Z-1.984
X57.733 Y93.968 Z-1.988
X57.752 Y93.866 Z-1.992
X57.787 Y93.769 Z-1.995
X57.837 Y93.678 Z-1.999
X57.9 Y93.595 Z-2.002
X57.974 Y93.523 Z-2.006
X58.059 Y93.464 Z-2.01
X58.152 Y93.418 Z-2.013
X58.251 Y93.387 Z-2.017
X58.353 Y93.371 Z-2.021
X58.457 Z-2.024
X58.559 Y93.387 Z-2.028
X58.658 Y93.418 Z-2.031
X58.75 Y93.464 Z-2.035
X58.835 Y93.523 Z-2.039
X58.91 Y93.595 Z-2.042
X58.973 Y93.678 Z-2.046
X59.022 Y93.769 Z-2.05
X59.057 Y93.866 Z-2.053
X59.077 Y93.968 Z-2.057
X59.081 Y94.071 Z-2.06
X59.069 Y94.174 Z-2.064
X59.041 Y94.274 Z-2.068
X58.999 Y94.369 Z-2.071
X58.943 Y94.455 Z-2.075
X58.874 Y94.533 Z-2.078
X58.794 Y94.599 Z-2.082
X58.705 Y94.652 Z-2.086
X58.609 Y94.69 Z-2.089
X58.508 Y94.714 Z-2.093
X58.405 Y94.722 Z-2.097
X41.463 F1300.
Y93.369
X59.081
Y94.722
X58.405
X58.359 Y94.718 Z-2.088
X58.316 Y94.705 Z-2.078
X58.281 Y94.687 Z-2.053
X58.25 Y94.665 Z-2.027
X58.215 Y94.627 Z-1.95
X58.204 Y94.612 Z-1.858
G0 Z5.
X41.549 Y94.379
G1 Z-1.334 F381.
X41.54 Y94.364 Z-1.423 F333.
X41.519 Y94.319 Z-1.499
X41.493 Y94.249 Z-1.551
X41.472 Y94.163 Z-1.572
X41.463 Y94.06 Z-1.575
X41.469 Y93.957 Z-1.579
X41.491 Y93.856 Z-1.582
X41.529 Y93.759 Z-1.586
X41.58 Y93.669 Z-1.59
X41.645 Y93.589 Z-1.593
X41.722 Y93.519 Z-1.597
X41.808 Y93.462 Z-1.601
X41.903 Y93.419 Z-1.604
X42.002 Y93.391 Z-1.608
X42.105 Y93.378 Z-1.611
X42.209 Y93.381 Z-1.615
X42.31 Y93.401 Z-1.619
X42.408 Y93.435 Z-1.622
X42.499 Y93.484 Z-1.626
X42.581 Y93.547 Z-1.63
X42.653 Y93.622 Z-1.633
X42.713 Y93.706 Z-1.637
X42.759 Y93.799 Z-1.64
X42.79 Y93.898 Z-1.644
X42.805 Y94.001 Z-1.648
Y94.104 Z-1.651
X42.789 Y94.206 Z-1.655
X42.757 Y94.305 Z-1.658
X42.71 Y94.397 Z-1.662
X42.65 Y94.482 Z-1.666
X42.577 Y94.556 Z-1.669
X42.494 Y94.618 Z-1.673
X42.403 Y94.666 Z-1.677
X42.305 Y94.7 Z-1.68
X42.203 Y94.718 Z-1.684
X42.099 Y94.721 Z-1.687
X41.997 Y94.708 Z-1.691
X41.897 Y94.679 Z-1.695
X41.804 Y94.635 Z-1.698
X41.718 Y94.577 Z-1.702
X41.642 Y94.506 Z-1.706
X41.577 Y94.425 Z-1.709
X41.526 Y94.335 Z-1.713
X41.49 Y94.238 Z-1.716
X41.468 Y94.137 Z-1.72
X41.463 Y94.033 Z-1.724
X41.473 Y93.93 Z-1.727
X41.499 Y93.83 Z-1.731
X41.541 Y93.735 Z-1.735
X41.596 Y93.648 Z-1.738
X41.664 Y93.57 Z-1.742
X41.743 Y93.503 Z-1.745
X41.832 Y93.449 Z-1.749
X41.928 Y93.41 Z-1.753
X42.028 Y93.386 Z-1.756
X42.132 Y93.377 Z-1.76
X42.235 Y93.385 Z-1.763
X42.336 Y93.408 Z-1.767
X42.432 Y93.447 Z-1.771
X42.521 Y93.499 Z-1.774
X42.601 Y93.565 Z-1.778
X42.67 Y93.643 Z-1.782
X42.726 Y93.73 Z-1.785
X42.768 Y93.824 Z-1.789
X42.795 Y93.924 Z-1.792
X42.807 Y94.027 Z-1.796
X42.802 Y94.131 Z-1.8
X42.782 Y94.232 Z-1.803
X42.746 Y94.329 Z-1.807
X42.696 Y94.42 Z-1.811
X42.632 Y94.502 Z-1.814
X42.557 Y94.573 Z-1.818
X42.472 Y94.631 Z-1.821
X42.378 Y94.676 Z-1.825
X42.279 Y94.706 Z-1.829
X42.176 Y94.721 Z-1.832
X42.073 Y94.719 Z-1.836
X41.971 Y94.702 Z-1.839
X41.873 Y94.669 Z-1.843
X41.781 Y94.621 Z-1.847
X41.697 Y94.56 Z-1.85
X41.624 Y94.487 Z-1.854
X41.563 Y94.403 Z-1.858
X41.515 Y94.311 Z-1.861
X41.483 Y94.213 Z-1.865
X41.465 Y94.11 Z-1.868
X41.464 Y94.007 Z-1.872
X41.478 Y93.904 Z-1.876
X41.509 Y93.805 Z-1.879
X41.554 Y93.712 Z-1.883
X41.612 Y93.627 Z-1.887
X41.683 Y93.551 Z-1.89
X41.765 Y93.488 Z-1.894
X41.856 Y93.438 Z-1.897
X41.953 Y93.402 Z-1.901
X42.055 Y93.382 Z-1.905
X42.158 Y93.378 Z-1.908
X42.261 Y93.389 Z-1.912
X42.361 Y93.417 Z-1.916
X42.456 Y93.459 Z-1.919
X42.543 Y93.515 Z-1.923
X42.62 Y93.584 Z-1.926
X42.686 Y93.664 Z-1.93
X42.738 Y93.753 Z-1.934
X42.777 Y93.85 Z-1.937
X42.8 Y93.951 Z-1.941
X42.807 Y94.054 Z-1.944
X42.798 Y94.157 Z-1.948
X42.774 Y94.258 Z-1.952
X42.734 Y94.354 Z-1.955
X42.681 Y94.442 Z-1.959
X42.614 Y94.521 Z-1.963
X42.536 Y94.589 Z-1.966
