(NMJPLATE0PT0PT2_BOTTOM_STEP1_332IN_SIDE1)
(T8  D=2.381 CR=0. - ZMIN=-5.262 - FLAT END MILL)
G0 G90 G94 G17
G21
G53 G0 Z0.

(POCKET2 5)
M5
T8
M3 S8000
G55
M8
G0 X19.244 Y6.572
Z15.
Z1.406
G1 Z0.665 F381.
X19.26 Y6.579 Z0.575 F333.
X19.304 Y6.601 Z0.499
X19.367 Y6.64 Z0.447
X19.437 Y6.695 Z0.427
X19.51 Y6.772 Z0.423
X19.571 Y6.858 Z0.419
X19.618 Y6.953 Z0.416
X19.651 Y7.054 Z0.412
X19.669 Y7.158 Z0.408
X19.67 Y7.264 Z0.405
X19.656 Y7.369 Z0.401
X19.626 Y7.471 Z0.397
X19.581 Y7.567 Z0.393
X19.523 Y7.655 Z0.39
X19.452 Y7.734 Z0.386
X19.37 Y7.801 Z0.382
X19.279 Y7.855 Z0.379
X19.181 Y7.895 Z0.375
X19.078 Y7.92 Z0.371
X18.972 Y7.929 Z0.367
X18.867 Y7.923 Z0.364
X18.763 Y7.9 Z0.36
X18.664 Y7.863 Z0.356
X18.572 Y7.811 Z0.353
X18.488 Y7.745 Z0.349
X18.415 Y7.669 Z0.345
X18.355 Y7.582 Z0.342
X18.308 Y7.487 Z0.338
X18.276 Y7.386 Z0.334
X18.259 Y7.281 Z0.33
X18.258 Y7.175 Z0.327
X18.273 Y7.07 Z0.323
X18.303 Y6.969 Z0.319
X18.348 Y6.873 Z0.316
X18.407 Y6.785 Z0.312
X18.479 Y6.707 Z0.308
X18.561 Y6.64 Z0.305
X18.652 Y6.586 Z0.301
X18.751 Y6.547 Z0.297
X18.854 Y6.523 Z0.293
X18.959 Y6.514 Z0.29
X19.065 Y6.521 Z0.286
X19.168 Y6.544 Z0.282
X19.267 Y6.582 Z0.279
X19.359 Y6.635 Z0.275
X19.442 Y6.7 Z0.271
X19.515 Y6.778 Z0.268
X19.575 Y6.865 Z0.264
X19.621 Y6.96 Z0.26
X19.653 Y7.061 Z0.256
X19.669 Y7.166 Z0.253
X19.67 Y7.272 Z0.249
X19.654 Y7.377 Z0.245
X19.623 Y7.478 Z0.242
X19.578 Y7.574 Z0.238
X19.518 Y7.661 Z0.234
X19.446 Y7.739 Z0.23
X19.364 Y7.805 Z0.227
X19.272 Y7.859 Z0.223
X19.173 Y7.897 Z0.219
X19.07 Y7.921 Z0.216
X18.965 Y7.929 Z0.212
X18.859 Y7.921 Z0.208
X18.756 Y7.898 Z0.205
X18.657 Y7.859 Z0.201
X18.565 Y7.806 Z0.197
X18.482 Y7.74 Z0.193
X18.41 Y7.663 Z0.19
X18.351 Y7.575 Z0.186
X18.305 Y7.479 Z0.182
X18.274 Y7.378 Z0.179
X18.258 Y7.273 Z0.175
Y7.168 Z0.171
X18.274 Y7.063 Z0.168
X18.306 Y6.962 Z0.164
X18.352 Y6.866 Z0.16
X18.412 Y6.779 Z0.156
X18.484 Y6.701 Z0.153
X18.567 Y6.636 Z0.149
X18.659 Y6.583 Z0.145
X18.758 Y6.545 Z0.142
X18.861 Y6.522 Z0.138
X18.967 Y6.514 Z0.134
X19.073 Y6.523 Z0.13
X19.176 Y6.547 Z0.127
X19.274 Y6.586 Z0.123
X19.366 Y6.639 Z0.119
X19.448 Y6.706 Z0.116
X19.52 Y6.784 Z0.112
X19.579 Y6.872 Z0.108
X19.624 Y6.968 Z0.105
X19.655 Y7.069 Z0.101
X19.67 Y7.174 Z0.097
X19.669 Y7.28 Z0.093
X19.652 Y7.384 Z0.09
X19.62 Y7.485 Z0.086
X19.574 Y7.58 Z0.082
X19.513 Y7.667 Z0.079
X19.441 Y7.744 Z0.075
X19.357 Y7.81 Z0.071
X19.265 Y7.862 Z0.068
X19.166 Y7.9 Z0.064
X19.062 Y7.922 Z0.06
X18.957 Y7.929 Z0.056
X18.851 Y7.92 Z0.053
X18.748 Y7.896 Z0.049
X18.65 Y7.856 Z0.045
X18.559 Y7.802 Z0.042
X18.477 Y7.735 Z0.038
X18.406 Y7.656 Z0.034
X18.347 Y7.568 Z0.031
X18.302 Y7.472 Z0.027
X18.272 Y7.371 Z0.023
X18.258 Y7.266 Z0.019
X18.259 Y7.16 Z0.016
X18.276 Y7.055 Z0.012
X18.309 Y6.954 Z0.008
X18.356 Y6.86 Z0.005
X18.417 Y6.773 Z0.001
X18.49 Y6.696 Z-0.003
X18.574 Y6.631 Z-0.007
X18.666 Y6.58 Z-0.01
X18.765 Y6.543 Z-0.014
X18.869 Y6.521 Z-0.018
X18.975 Y6.514 Z-0.021
X19.08 Y6.524 Z-0.025
X19.183 Y6.549 Z-0.029
X19.281 Y6.589 Z-0.032
X19.372 Y6.644 Z-0.036
X19.454 Y6.711 Z-0.04
X19.524 Y6.79 Z-0.044
X19.583 Y6.879 Z-0.047
X19.627 Y6.975 Z-0.051
X19.656 Y7.077 Z-0.055
X19.67 Y7.182 Z-0.058
X19.668 Y7.287 Z-0.062
X19.651 Y7.392 Z-0.066
X19.617 Y7.493 Z-0.069
X19.57 Y7.587 Z-0.073
X19.508 Y7.673 Z-0.077
X19.435 Y7.75 Z-0.081
X19.351 Y7.814 Z-0.084
X19.258 Y7.865 Z-0.088
X19.159 Y7.902 Z-0.092
X19.055 Y7.923 Z-0.095
X18.949 Y7.929 Z-0.099
X18.844 Y7.919 Z-0.103
X18.741 Y7.893 Z-0.106
X18.643 Y7.852 Z-0.11
X18.552 Y7.797 Z-0.114
X18.471 Y7.729 Z-0.118
X18.401 Y7.65 Z-0.121
X18.343 Y7.561 Z-0.125
X18.299 Y7.465 Z-0.129
X18.271 Y7.363 Z-0.132
X18.257 Y7.258 Z-0.136
X18.26 Y7.152 Z-0.14
X18.278 Y7.048 Z-0.144
X18.312 Y6.947 Z-0.147
X18.36 Y6.853 Z-0.151
X18.422 Y6.767 Z-0.155
X18.496 Y6.691 Z-0.158
X18.58 Y6.627 Z-0.162
X18.673 Y6.577 Z-0.166
X18.773 Y6.54 Z-0.169
X18.877 Y6.52 Z-0.173
X18.983 Y6.514 Z-0.177
X19.088 Y6.525 Z-0.181
X19.191 Y6.551 Z-0.184
X19.288 Y6.593 Z-0.188
X19.378 Y6.648 Z-0.192
X19.459 Y6.717 Z-0.195
X19.529 Y6.796 Z-0.199
X19.586 Y6.885 Z-0.203
X19.63 Y6.982 Z-0.206
X19.658 Y7.084 Z-0.21
X19.671 Y7.189 Z-0.214
X19.668 Y7.295 Z-0.218
X19.649 Y7.399 Z-0.221
X19.614 Y7.5 Z-0.225
X19.566 Y7.594 Z-0.229
X19.503 Y7.679 Z-0.232
X19.429 Y7.755 Z-0.236
X19.344 Y7.818 Z-0.24
X19.251 Y7.868 Z-0.243
X19.151 Y7.904 Z-0.247
X19.047 Y7.924 Z-0.251
X18.941 Y7.929 Z-0.255
X18.836 Y7.918 Z-0.258
X18.733 Y7.891 Z-0.262
X18.636 Y7.849 Z-0.266
X18.546 Y7.793 Z-0.269
X18.466 Y7.724 Z-0.273
X18.396 Y7.644 Z-0.277
X18.339 Y7.555 Z-0.281
X18.297 Y7.458 Z-0.284
X18.269 Y7.355 Z-0.288
X18.257 Y7.25 Z-0.292
X18.261 Y7.144 Z-0.295
X18.28 Y7.04 Z-0.299
X18.315 Y6.94 Z-0.303
X18.364 Y6.846 Z-0.306
X18.427 Y6.761 Z-0.31
X18.502 Y6.686 Z-0.314
X18.587 Y6.623 Z-0.318
X18.68 Y6.573 Z-0.321
X18.78 Y6.538 Z-0.325
X18.884 Y6.519 Z-0.329
X18.99 Y6.515 Z-0.332
X19.096 Y6.527 Z-0.336
X19.198 Y6.554 Z-0.34
X19.295 Y6.596 Z-0.343
X19.385 Y6.653 Z-0.347
X19.465 Y6.722 Z-0.351
X19.534 Y6.802 Z-0.355
X19.59 Y6.892 Z-0.358
X19.632 Y6.989 Z-0.362
X19.659 Y7.092 Z-0.366
X19.671 Y7.197 Z-0.369
X19.667 Y7.303 Z-0.373
X19.647 Y7.407 Z-0.377
X19.611 Y7.507 Z-0.38
X19.562 Y7.6 Z-0.384
X19.498 Y7.685 Z-0.388
X19.423 Y7.76 Z-0.392
X19.338 Y7.822 Z-0.395
X19.244 Y7.872 Z-0.399
X19.144 Y7.906 Z-0.403
X19.039 Y7.925 Z-0.406
X18.991 Y7.932 F1499.
X18.857 Y7.958
X18.794 Y7.974
X18.732 Y7.996
X18.618 Y8.046
X18.56 Y8.075
X18.506 Y8.109
X18.399 Y8.187
X18.326 Y8.249
X12.485 Y14.094
X12.426 Y14.163
X12.396 Y14.204
X12.367 Y14.247
X12.342 Y14.292
X12.275 Y14.429
X12.247 Y14.495
X12.227 Y14.564
X12.198 Y14.694
X12.187 Y14.758
X12.184 Y14.824
Y86.406
X12.187 Y86.471
X12.198 Y86.536
X12.227 Y86.666
X12.247 Y86.735
X12.274 Y86.801
X12.342 Y86.938
X12.374 Y86.995
X12.412 Y87.048
X12.479 Y87.131
X12.522 Y87.178
X18.326 Y92.981
X18.399 Y93.043
X18.506 Y93.121
X18.567 Y93.159
X18.632 Y93.19
X18.775 Y93.247
X18.848 Y93.272
X18.924 Y93.286
X19.078 Y93.305
X19.151 Y93.31
X136.934 Y93.308
X136.992 Y93.305
X137.05 Y93.297
X137.87 Y93.134
X137.945 Y93.114
X138.016 Y93.085
X138.16 Y93.014
X138.233 Y92.972
X138.871 Y92.539
X138.928 Y92.495
X138.979 Y92.445
X139.068 Y92.347
X139.121 Y92.278
X139.539 Y91.65
X139.57 Y91.597
X139.596 Y91.541
X139.654 Y91.397
X139.672 Y91.344
X139.686 Y91.29
X139.836 Y90.519
X139.845 Y90.462
X139.847 Y90.405
Y10.825
X139.845 Y10.768
X139.836 Y10.711
X139.686 Y9.94
X139.672 Y9.886
X139.654 Y9.833
X139.596 Y9.688
X139.57 Y9.633
X139.539 Y9.58
X139.121 Y8.952
X139.068 Y8.883
X138.979 Y8.785
X138.928 Y8.735
X138.871 Y8.691
X138.233 Y8.258
X138.16 Y8.216
X138.016 Y8.145
X137.945 Y8.116
X137.87 Y8.096
X137.05 Y7.933
X136.992 Y7.925
X136.934 Y7.922
X19.103
X19.039 Y7.925
X19.002 Y7.923
X18.968 Y7.91
X18.939 Y7.887
X18.918 Y7.856
X18.908 Y7.821
X18.771 Y6.652
X18.773 Y6.614
X18.786 Y6.579
X18.809 Y6.55
X18.84 Y6.529
X18.876 Y6.519
X18.908 Y6.516
X19.069 Y6.508
X137.001 Y6.513
X137.537 Y6.565
X137.696 Y6.589
X137.852 Y6.622
X138.008 Y6.666
X138.158 Y6.72
X138.9 Y7.057
X139.254 Y7.23
X139.405 Y7.322
X139.557 Y7.432
X139.773 Y7.62
X139.868 Y7.717
X140.573 Y8.58
X140.693 Y8.758
X140.77 Y8.89
X140.847 Y9.047
X140.913 Y9.207
X140.962 Y9.354
X141.183 Y10.283
X141.219 Y10.452
X141.243 Y10.608
X141.257 Y10.756
X141.262 Y14.39
Y90.3
X141.258 Y90.464
X141.204 Y91.005
X141.18 Y91.163
X141.146 Y91.319
X141.102 Y91.474
X141.047 Y91.625
X140.71 Y92.366
X140.537 Y92.719
X140.445 Y92.869
X140.336 Y93.021
X140.148 Y93.236
X140.05 Y93.331
X139.184 Y94.036
X139.008 Y94.156
X138.874 Y94.233
X138.717 Y94.31
X138.56 Y94.374
X138.411 Y94.423
X137.479 Y94.645
X137.31 Y94.681
X137.154 Y94.704
X137.005 Y94.717
X19.069 Y94.721
X18.908 Y94.714
X18.752 Y94.697
X18.596 Y94.669
X18.441 Y94.632
X18.285 Y94.583
X18.134 Y94.525
X17.899 Y94.411
X17.66 Y94.262
X17.457 Y94.101
X16.316 Y92.969
X11.697 Y88.35
X11.353 Y87.992
X11.24 Y87.846
X11.079 Y87.592
X10.971 Y87.371
X10.911 Y87.219
X10.862 Y87.064
X10.823 Y86.908
X10.795 Y86.752
X10.777 Y86.597
X10.769 Y86.439
Y14.791
X10.777 Y14.633
X10.795 Y14.477
X10.823 Y14.322
X10.862 Y14.166
X10.911 Y14.011
X10.971 Y13.859
X11.079 Y13.638
X11.238 Y13.386
X11.39 Y13.195
X12.911 Y11.666
X17.153 Y7.423
X17.511 Y7.082
X17.657 Y6.97
X17.899 Y6.819
X18.134 Y6.705
X18.285 Y6.646
X18.441 Y6.598
X18.596 Y6.56
X18.752 Y6.533
X18.876 Y6.519
X18.918 Y6.523
X18.955 Y6.541
X18.983 Y6.572
X18.998 Y6.611
X19.078 Y7.086
X19.087 Y7.115
X19.103 Y7.14
X19.126 Y7.16
X19.528 Y7.431
X19.552 Y7.454
X19.569 Y7.483
X19.576 Y7.516
X19.573 Y7.549
X19.56 Y7.581
X19.498 Y7.666 Z-0.41 F333.
X19.424 Y7.742 Z-0.414
X19.34 Y7.805 Z-0.417
X19.246 Y7.855 Z-0.421
X19.147 Y7.89 Z-0.425
X19.043 Y7.91 Z-0.429
X18.937 Y7.914 Z-0.432
X18.832 Y7.902 Z-0.436
X18.73 Y7.875 Z-0.44
X18.634 Y7.832 Z-0.443
X18.544 Y7.776 Z-0.447
X18.465 Y7.706 Z-0.451
X18.396 Y7.626 Z-0.454
X18.341 Y7.536 Z-0.458
X18.3 Y7.438 Z-0.462
X18.274 Y7.336 Z-0.466
X18.263 Y7.231 Z-0.469
X18.269 Y7.125 Z-0.473
X18.29 Y7.022 Z-0.477
X18.327 Y6.922 Z-0.48
X18.378 Y6.83 Z-0.484
X18.443 Y6.746 Z-0.488
X18.519 Y6.673 Z-0.491
X18.605 Y6.612 Z-0.495
X18.7 Y6.565 Z-0.499
X18.801 Y6.533 Z-0.502
X18.905 Y6.517 Z-0.506
X19.011 Y6.516 Z-0.51
X19.115 Y6.531 Z-0.514
X19.217 Y6.562 Z-0.517
X19.312 Y6.607 Z-0.521
X19.399 Y6.667 Z-0.525
X19.477 Y6.738 Z-0.528
X19.543 Y6.821 Z-0.532
X19.595 Y6.913 Z-0.536
X19.633 Y7.011 Z-0.539
X19.656 Y7.115 Z-0.543
X19.664 Y7.22 Z-0.547
X19.655 Y7.325 Z-0.55
X19.63 Y7.428 Z-0.554
X19.59 Y7.526 Z-0.558
X19.536 Y7.617 Z-0.562
X19.469 Y7.699 Z-0.565
X19.391 Y7.769 Z-0.569
X19.302 Y7.827 Z-0.573
X19.206 Y7.871 Z-0.576
X19.105 Y7.9 Z-0.58
X19. Y7.914 Z-0.584
X18.894 Y7.911 Z-0.587
X18.79 Y7.893 Z-0.591
X18.69 Y7.859 Z-0.595
X18.596 Y7.811 Z-0.599
X18.51 Y7.749 Z-0.602
X18.435 Y7.674 Z-0.606
X18.372 Y7.59 Z-0.61
X18.322 Y7.496 Z-0.613
X18.287 Y7.397 Z-0.617
X18.267 Y7.293 Z-0.621
X18.264 Y7.187 Z-0.624
X18.276 Y7.082 Z-0.628
X18.303 Y6.98 Z-0.632
X18.346 Y6.883 Z-0.635
X18.403 Y6.794 Z-0.639
X18.473 Y6.715 Z-0.643
X18.553 Y6.647 Z-0.647
X18.643 Y6.591 Z-0.65
X18.741 Y6.55 Z-0.654
X18.843 Y6.524 Z-0.658
X18.949 Y6.514 Z-0.661
X19.054 Y6.52 Z-0.665
X19.158 Y6.542 Z-0.669
X19.257 Y6.579 Z-0.672
X19.349 Y6.63 Z-0.676
X19.433 Y6.695 Z-0.68
X19.505 Y6.771 Z-0.683
X19.566 Y6.858 Z-0.687
X19.613 Y6.953 Z-0.691
X19.645 Y7.053 Z-0.695
X19.661 Y7.158 Z-0.698
X19.662 Y7.263 Z-0.702
X19.646 Y7.368 Z-0.706
X19.616 Y7.469 Z-0.709
X19.57 Y7.564 Z-0.713
X19.51 Y7.652 Z-0.717
X19.438 Y7.729 Z-0.72
X19.355 Y7.795 Z-0.724
X19.264 Y7.847 Z-0.728
X19.165 Y7.885 Z-0.732
X19.062 Y7.908 Z-0.735
X18.956 Y7.915 Z-0.739
X18.851 Y7.906 Z-0.743
X18.748 Y7.881 Z-0.746
X18.65 Y7.841 Z-0.75
X18.56 Y7.787 Z-0.754
X18.478 Y7.719 Z-0.757
X18.408 Y7.641 Z-0.761
X18.35 Y7.552 Z-0.765
X18.306 Y7.456 Z-0.768
X18.277 Y7.354 Z-0.772
X18.264 Y7.249 Z-0.776
X18.267 Y7.144 Z-0.78
X18.285 Y7.04 Z-0.783
X18.319 Y6.94 Z-0.787
X18.368 Y6.846 Z-0.791
X18.43 Y6.76 Z-0.794
X18.505 Y6.685 Z-0.798
X18.589 Y6.622 Z-0.802
X18.683 Y6.573 Z-0.805
X18.783 Y6.538 Z-0.809
X18.886 Y6.518 Z-0.813
X18.908 Y6.516 F1499.
X19.069 Y6.508
X137.001 Y6.513
X137.537 Y6.565
X137.696 Y6.589
X137.852 Y6.622
X138.008 Y6.666
X138.158 Y6.72
X138.9 Y7.057
X139.254 Y7.23
X139.405 Y7.322
X139.557 Y7.432
X139.773 Y7.62
X139.868 Y7.717
X140.573 Y8.58
X140.693 Y8.758
X140.77 Y8.89
X140.847 Y9.047
X140.913 Y9.207
X140.962 Y9.354
X141.183 Y10.283
X141.219 Y10.452
X141.243 Y10.608
X141.257 Y10.756
X141.262 Y14.39
Y90.3
X141.258 Y90.464
X141.204 Y91.005
X141.18 Y91.163
X141.146 Y91.319
X141.102 Y91.474
X141.047 Y91.625
X140.71 Y92.366
X140.537 Y92.719
X140.445 Y92.869
X140.336 Y93.021
X140.148 Y93.236
X140.05 Y93.331
X139.184 Y94.036
X139.008 Y94.156
X138.874 Y94.233
X138.717 Y94.31
X138.56 Y94.374
X138.411 Y94.423
X137.479 Y94.645
X137.31 Y94.681
X137.154 Y94.704
X137.005 Y94.717
X19.069 Y94.721
X18.908 Y94.714
X18.752 Y94.697
X18.596 Y94.669
X18.441 Y94.632
X18.285 Y94.583
X18.134 Y94.525
X17.899 Y94.411
X17.66 Y94.262
X17.457 Y94.101
X16.316 Y92.969
X11.697 Y88.35
X11.353 Y87.992
X11.24 Y87.846
X11.079 Y87.592
X10.971 Y87.371
X10.911 Y87.219
X10.862 Y87.064
X10.823 Y86.908
X10.795 Y86.752
X10.777 Y86.597
X10.769 Y86.439
Y14.791
X10.777 Y14.633
X10.795 Y14.477
X10.823 Y14.322
X10.862 Y14.166
X10.911 Y14.011
X10.946 Y13.923
X10.971 Y13.859
X11.079 Y13.638
X11.238 Y13.386
X11.39 Y13.195
X12.911 Y11.666
X17.153 Y7.423
X17.511 Y7.082
X17.657 Y6.97
X17.899 Y6.819
X18.134 Y6.705
X18.285 Y6.646
X18.441 Y6.598
X18.596 Y6.56
X18.752 Y6.533
X18.886 Y6.518
X18.924 Y6.52
X18.958 Y6.533
X18.987 Y6.556
X19.008 Y6.587
X19.018 Y6.623
X19.15 Y7.778
X19.148 Y7.816
X19.135 Y7.851
X19.111 Y7.88
X19.08 Y7.901
X19.043 Y7.91
X18.992 Y7.918
X18.848 Y7.945
X18.778 Y7.963
X18.711 Y7.989
X18.583 Y8.047
X18.525 Y8.078
X18.47 Y8.115
X18.373 Y8.189
X18.313 Y8.242
X12.482 Y14.074
X12.436 Y14.126
X12.409 Y14.161
X12.357 Y14.238
X12.288 Y14.361
X12.258 Y14.421
X12.236 Y14.485
X12.2 Y14.607
X12.184 Y14.676
X12.176 Y14.746
X12.167 Y14.939
X12.166 Y14.968
X12.169 Y86.406
X12.172 Y86.471
X12.183 Y86.535
X12.214 Y86.675
X12.233 Y86.743
X12.26 Y86.807
X12.32 Y86.93
X12.352 Y86.988
X12.391 Y87.042
X12.472 Y87.143
X12.515 Y87.191
X18.345 Y93.017
X18.397 Y93.063
X18.453 Y93.102
X18.582 Y93.182
X18.645 Y93.216
X18.711 Y93.242
X18.839 Y93.283
X18.903 Y93.3
X18.968 Y93.31
X19.096 Y93.321
X19.151 Y93.324
X136.934 Y93.322
X136.992 Y93.319
X137.05 Y93.311
X137.87 Y93.148
X137.943 Y93.128
X138.013 Y93.1
X138.158 Y93.03
X138.233 Y92.987
X138.878 Y92.549
X138.936 Y92.505
X138.987 Y92.454
X139.08 Y92.351
X139.133 Y92.283
X139.554 Y91.649
X139.585 Y91.596
X139.611 Y91.539
X139.669 Y91.394
X139.686 Y91.343
X139.699 Y91.29
X139.85 Y90.519
X139.858 Y90.462
X139.861 Y90.405
Y10.825
X139.858 Y10.766
X139.849 Y10.707
X139.684 Y9.889
X139.663 Y9.812
X139.632 Y9.739
X139.56 Y9.594
X139.521 Y9.528
X139.088 Y8.891
X139.046 Y8.835
X138.997 Y8.786
X138.905 Y8.701
X138.833 Y8.645
X138.18 Y8.211
X138.122 Y8.177
X138.06 Y8.15
X137.916 Y8.096
X137.868 Y8.08
X137.819 Y8.068
X137.047 Y7.919
X136.991 Y7.911
X136.934 Y7.908
X19.103 Y7.907
X19.043 Y7.91
X19.017 Y7.907
X18.996 Y7.891
X18.984 Y7.868
X18.931 Y7.645
X18.92 Y7.622
X18.384 Y6.998
X18.319 Y6.952
X18.364 Y6.857 Z-0.816 F333.
X18.424 Y6.771 Z-0.82
X18.496 Y6.695 Z-0.824
X18.578 Y6.631 Z-0.827
X18.67 Y6.579 Z-0.831
X18.768 Y6.542 Z-0.835
X18.87 Y6.52 Z-0.838
X18.975 Y6.514 Z-0.842
X19.079 Y6.524 Z-0.846
X19.181 Y6.549 Z-0.849
X19.277 Y6.59 Z-0.853
X19.367 Y6.644 Z-0.857
X19.447 Y6.711 Z-0.86
X19.516 Y6.79 Z-0.864
X19.573 Y6.878 Z-0.868
X19.615 Y6.974 Z-0.871
X19.643 Y7.075 Z-0.875
X19.655 Y7.179 Z-0.879
X19.652 Y7.284 Z-0.882
X19.632 Y7.387 Z-0.886
X19.597 Y7.485 Z-0.89
X19.548 Y7.578 Z-0.893
X19.486 Y7.662 Z-0.897
X19.411 Y7.736 Z-0.901
X19.326 Y7.797 Z-0.904
X19.233 Y7.845 Z-0.908
X19.134 Y7.879 Z-0.912
X19.031 Y7.897 Z-0.915
X18.926 Y7.899 Z-0.919
X18.822 Y7.886 Z-0.923
X18.722 Y7.857 Z-0.926
X18.627 Y7.813 Z-0.93
X18.539 Y7.756 Z-0.934
X18.461 Y7.686 Z-0.937
X18.395 Y7.605 Z-0.941
X18.341 Y7.514 Z-0.945
X18.302 Y7.417 Z-0.948
X18.278 Y7.315 Z-0.952
X18.27 Y7.211 Z-0.956
X18.277 Y7.107 Z-0.959
X18.3 Y7.004 Z-0.963
X18.338 Y6.907 Z-0.967
X18.391 Y6.816 Z-0.97
X18.456 Y6.734 Z-0.974
X18.533 Y6.663 Z-0.978
X18.62 Y6.605 Z-0.981
X18.715 Y6.56 Z-0.985
X18.815 Y6.53 Z-0.989
X18.919 Y6.516 Z-0.992
X19.023 Y6.517 Z-0.996
X19.127 Y6.534 Z-1.
X19.226 Y6.566 Z-1.003
X19.32 Y6.613 Z-1.007
X19.405 Y6.674 Z-1.011
X19.481 Y6.747 Z-1.014
X19.544 Y6.83 Z-1.018
X19.594 Y6.922 Z-1.021
X19.63 Y7.021 Z-1.025
X19.651 Y7.123 Z-1.029
X19.655 Y7.228 Z-1.032
X19.644 Y7.332 Z-1.036
X19.618 Y7.433 Z-1.04
X19.576 Y7.529 Z-1.043
X19.521 Y7.618 Z-1.047
X19.452 Y7.698 Z-1.051
X19.373 Y7.766 Z-1.054
X19.284 Y7.821 Z-1.058
X19.188 Y7.863 Z-1.062
X19.086 Y7.889 Z-1.065
X18.982 Y7.9 Z-1.069
X18.878 Y7.895 Z-1.073
X18.775 Y7.874 Z-1.076
X18.677 Y7.838 Z-1.08
X18.585 Y7.788 Z-1.084
X18.501 Y7.725 Z-1.087
X18.429 Y7.649 Z-1.091
X18.368 Y7.564 Z-1.095
X18.321 Y7.47 Z-1.098
X18.289 Y7.37 Z-1.102
X18.272 Y7.267 Z-1.106
X18.271 Y7.162 Z-1.109
X18.286 Y7.058 Z-1.113
X18.316 Y6.958 Z-1.117
X18.361 Y6.864 Z-1.12
X18.42 Y6.777 Z-1.124
X18.491 Y6.7 Z-1.128
X18.572 Y6.634 Z-1.131
X18.663 Y6.582 Z-1.135
X18.761 Y6.544 Z-1.139
X18.863 Y6.521 Z-1.142
X18.968 Y6.514 Z-1.146
X19.072 Y6.523 Z-1.15
X19.174 Y6.547 Z-1.153
X19.271 Y6.586 Z-1.157
X19.361 Y6.64 Z-1.161
X19.442 Y6.707 Z-1.164
X19.512 Y6.784 Z-1.168
X19.569 Y6.872 Z-1.172
X19.613 Y6.967 Z-1.175
X19.642 Y7.068 Z-1.179
X19.655 Y7.172 Z-1.183
X19.652 Y7.277 Z-1.186
X19.634 Y7.38 Z-1.19
X19.6 Y7.479 Z-1.194
X19.552 Y7.572 Z-1.197
X19.49 Y7.657 Z-1.201
X19.417 Y7.731 Z-1.205
X19.332 Y7.793 Z-1.208
X19.24 Y7.842 Z-1.212
X19.141 Y7.877 Z-1.216
X19.038 Y7.896 Z-1.219
X19.011 Y7.9 F1499.
X18.892 Y7.918
X18.826 Y7.933
X18.762 Y7.954
X18.621 Y8.011
X18.552 Y8.044
X18.488 Y8.086
X18.365 Y8.177
X18.3 Y8.234
X12.455 Y14.085
X12.412 Y14.132
X12.374 Y14.185
X12.31 Y14.286
X12.277 Y14.343
X12.251 Y14.404
X12.202 Y14.539
X12.183 Y14.605
X12.171 Y14.673
X12.156 Y14.803
X12.152 Y14.872
X12.154 Y86.406
X12.157 Y86.47
X12.168 Y86.534
X12.2 Y86.683
X12.222 Y86.756
X12.252 Y86.826
X12.321 Y86.961
X12.355 Y87.02
X12.395 Y87.074
X12.472 Y87.166
X12.507 Y87.203
X18.3 Y92.996
X18.365 Y93.053
X18.488 Y93.144
X18.552 Y93.186
X18.621 Y93.219
X18.761 Y93.275
X18.826 Y93.297
X18.892 Y93.312
X19.011 Y93.33
X19.103 Y93.337
X136.934 Y93.336
X136.992 Y93.333
X137.05 Y93.325
X137.871 Y93.161
X137.942 Y93.142
X138.01 Y93.115
X138.155 Y93.046
X138.233 Y93.001
X138.885 Y92.56
X138.943 Y92.515
X138.995 Y92.463
X139.092 Y92.355
X139.144 Y92.288
X139.568 Y91.649
X139.601 Y91.594
X139.627 Y91.536
X139.683 Y91.391
X139.7 Y91.341
X139.713 Y91.29
X139.864 Y90.519
X139.872 Y90.462
X139.875 Y90.405
Y10.825
X139.872 Y10.766
X139.863 Y10.707
X139.698 Y9.889
X139.678 Y9.813
X139.648 Y9.742
X139.576 Y9.597
X139.535 Y9.528
X139.098 Y8.883
X139.056 Y8.828
X139.006 Y8.777
X138.91 Y8.689
X138.838 Y8.633
X138.18 Y8.197
X138.12 Y8.162
X138.058 Y8.135
X137.913 Y8.081
X137.82 Y8.055
X137.047 Y7.905
X136.991 Y7.897
X136.934 Y7.894
X19.103 Y7.893
X19.038 Y7.896
X19.001 Y7.894
X18.966 Y7.881
X18.937 Y7.858
X18.917 Y7.828
X18.907 Y7.792
X18.772 Y6.652
X18.773 Y6.614
X18.786 Y6.579
X18.809 Y6.55
X18.841 Y6.529
X18.877 Y6.519
X18.908 Y6.516
X19.069 Y6.508
X137.001 Y6.513
X137.537 Y6.565
X137.696 Y6.589
X137.852 Y6.622
X138.008 Y6.666
X138.158 Y6.72
X138.9 Y7.057
X139.254 Y7.23
X139.405 Y7.322
X139.557 Y7.432
X139.773 Y7.62
X139.868 Y7.717
X140.573 Y8.58
X140.693 Y8.758
X140.77 Y8.89
X140.847 Y9.047
X140.913 Y9.207
X140.962 Y9.354
X141.183 Y10.283
X141.219 Y10.452
X141.243 Y10.608
X141.257 Y10.756
X141.262 Y14.39
Y90.3
X141.258 Y90.464
X141.204 Y91.005
X141.18 Y91.163
X141.146 Y91.319
X141.102 Y91.474
X141.047 Y91.625
X140.71 Y92.366
X140.537 Y92.719
X140.445 Y92.869
X140.336 Y93.021
X140.148 Y93.236
X140.05 Y93.331
X139.184 Y94.036
X139.008 Y94.156
X138.874 Y94.233
X138.717 Y94.31
X138.56 Y94.374
X138.411 Y94.423
X137.479 Y94.645
X137.31 Y94.681
X137.154 Y94.704
X137.005 Y94.717
X19.069 Y94.721
X18.908 Y94.714
X18.752 Y94.697
X18.596 Y94.669
X18.441 Y94.632
X18.285 Y94.583
X18.134 Y94.525
X17.899 Y94.411
X17.66 Y94.262
X17.457 Y94.101
X16.316 Y92.969
X11.697 Y88.35
X11.353 Y87.992
X11.24 Y87.846
X11.079 Y87.592
X10.971 Y87.371
X10.911 Y87.219
X10.862 Y87.064
X10.823 Y86.908
X10.795 Y86.752
X10.777 Y86.597
X10.769 Y86.439
Y14.791
X10.777 Y14.633
X10.795 Y14.477
X10.823 Y14.322
X10.862 Y14.166
X10.911 Y14.011
X10.971 Y13.859
X11.079 Y13.638
X11.238 Y13.386
X11.39 Y13.195
X12.911 Y11.666
X17.153 Y7.423
X17.511 Y7.082
X17.657 Y6.97
X17.793 Y6.885
X17.899 Y6.819
X18.134 Y6.705
X18.285 Y6.646
X18.441 Y6.598
X18.596 Y6.56
X18.752 Y6.533
X18.877 Y6.519
X18.91 Y6.523
X18.939 Y6.539
X18.96 Y6.566
X19.087 Y6.833
X19.102 Y6.855
X19.124 Y6.871
X19.15 Y6.879
X19.178 Y6.878
X19.47 Y6.815
X19.504
X19.535 Y6.829
X19.557 Y6.854
X19.604 Y6.947 Z-1.223 F333.
X19.635 Y7.046 Z-1.226
X19.651 Y7.149 Z-1.23
X19.652 Y7.254 Z-1.234
X19.637 Y7.357 Z-1.237
X19.606 Y7.457 Z-1.241
X19.561 Y7.551 Z-1.245
X19.502 Y7.637 Z-1.248
X19.431 Y7.713 Z-1.252
X19.349 Y7.778 Z-1.256
X19.259 Y7.83 Z-1.259
X19.161 Y7.867 Z-1.263
X19.06 Y7.889 Z-1.267
X18.955 Y7.896 Z-1.27
X18.852 Y7.887 Z-1.274
X18.75 Y7.863 Z-1.278
X18.654 Y7.823 Z-1.281
X18.564 Y7.77 Z-1.285
X18.484 Y7.703 Z-1.288
X18.414 Y7.626 Z-1.292
X18.357 Y7.538 Z-1.296
X18.314 Y7.443 Z-1.299
X18.285 Y7.343 Z-1.303
X18.272 Y7.24 Z-1.307
X18.275 Y7.135 Z-1.31
X18.293 Y7.033 Z-1.314
X18.327 Y6.934 Z-1.318
X18.375 Y6.841 Z-1.321
X18.436 Y6.757 Z-1.325
X18.51 Y6.683 Z-1.329
X18.594 Y6.621 Z-1.332
X18.686 Y6.572 Z-1.336
X18.784 Y6.538 Z-1.34
X18.887 Y6.518 Z-1.343
X18.908 Y6.516 F1499.
X19.069 Y6.508
X137.001 Y6.513
X137.537 Y6.565
X137.696 Y6.589
X137.852 Y6.622
X138.008 Y6.666
X138.158 Y6.72
X138.9 Y7.057
X139.254 Y7.23
X139.405 Y7.322
X139.557 Y7.432
X139.773 Y7.62
X139.868 Y7.717
X140.573 Y8.58
X140.693 Y8.758
X140.77 Y8.89
X140.847 Y9.047
X140.913 Y9.207
X140.962 Y9.354
X141.183 Y10.283
X141.219 Y10.452
X141.243 Y10.608
X141.257 Y10.756
X141.262 Y14.39
Y90.3
X141.258 Y90.464
X141.204 Y91.005
X141.18 Y91.163
X141.146 Y91.319
X141.102 Y91.474
X141.047 Y91.625
X140.71 Y92.366
X140.537 Y92.719
X140.445 Y92.869
X140.336 Y93.021
X140.148 Y93.236
X140.05 Y93.331
X139.184 Y94.036
X139.008 Y94.156
X138.874 Y94.233
X138.717 Y94.31
X138.56 Y94.374
X138.411 Y94.423
X137.479 Y94.645
X137.31 Y94.681
X137.154 Y94.704
X137.005 Y94.717
X19.069 Y94.721
X18.908 Y94.714
X18.752 Y94.697
X18.596 Y94.669
X18.441 Y94.632
X18.285 Y94.583
X18.134 Y94.525
X17.899 Y94.411
X17.66 Y94.262
X17.457 Y94.101
X16.316 Y92.969
X11.697 Y88.35
X11.353 Y87.992
X11.24 Y87.846
X11.079 Y87.592
X10.971 Y87.371
X10.911 Y87.219
X10.862 Y87.064
X10.823 Y86.908
X10.795 Y86.752
X10.777 Y86.597
X10.769 Y86.439
Y14.791
X10.777 Y14.633
X10.795 Y14.477
X10.823 Y14.322
X10.862 Y14.166
X10.911 Y14.011
X10.971 Y13.859
X11.079 Y13.638
X11.238 Y13.386
X11.39 Y13.195
X12.911 Y11.666
X17.153 Y7.423
X17.511 Y7.082
X17.657 Y6.97
X17.899 Y6.819
X18.134 Y6.705
X18.285 Y6.646
X18.441 Y6.598
X18.596 Y6.56
X18.752 Y6.533
X18.887 Y6.518
X18.924 Y6.52
X18.959 Y6.533
X18.988 Y6.556
X19.008 Y6.587
X19.018 Y6.623
X19.149 Y7.76
X19.147 Y7.797
X19.134 Y7.832
X19.11 Y7.862
X19.079 Y7.882
X19.043 Y7.892
X19.012 Y7.896
X18.891 Y7.914
X18.833 Y7.926
X18.777 Y7.944
X18.669 Y7.984
X18.613 Y8.007
X18.56 Y8.037
X18.452 Y8.104
X18.397 Y8.143
X18.346 Y8.188
X12.455 Y14.078
X12.413 Y14.124
X12.377 Y14.174
X12.309 Y14.278
X12.276 Y14.337
X12.249 Y14.399
X12.199 Y14.537
X12.179 Y14.604
X12.167 Y14.673
X12.152 Y14.804
X12.148 Y14.872
X12.15 Y86.406
X12.152 Y86.461
X12.16 Y86.515
X12.182 Y86.633
X12.198 Y86.699
X12.222 Y86.762
X12.282 Y86.9
X12.308 Y86.953
X12.339 Y87.003
X12.388 Y87.072
X12.42 Y87.114
X12.455 Y87.152
X18.346 Y93.042
X18.397 Y93.087
X18.452 Y93.126
X18.56 Y93.193
X18.622 Y93.226
X18.686 Y93.252
X18.83 Y93.3
X18.899 Y93.319
X18.969 Y93.329
X19.101 Y93.34
X19.151 Y93.342
X136.934 Y93.34
X136.992 Y93.337
X137.05 Y93.328
X137.871 Y93.165
X137.941 Y93.146
X138.009 Y93.119
X138.154 Y93.051
X138.233 Y93.006
X138.887 Y92.562
X138.945 Y92.518
X138.998 Y92.466
X139.096 Y92.356
X139.147 Y92.289
X139.572 Y91.649
X139.605 Y91.594
X139.631 Y91.535
X139.687 Y91.39
X139.704 Y91.341
X139.716 Y91.29
X139.868 Y90.519
X139.876 Y90.462
X139.879 Y90.405
Y10.825
X139.876 Y10.766
X139.867 Y10.707
X139.702 Y9.889
X139.682 Y9.814
X139.652 Y9.742
X139.58 Y9.598
X139.539 Y9.528
X139.101 Y8.881
X139.058 Y8.825
X139.009 Y8.775
X138.911 Y8.686
X138.839 Y8.63
X138.18 Y8.193
X138.12 Y8.158
X138.057 Y8.13
X137.912 Y8.077
X137.82 Y8.051
X137.047 Y7.901
X136.991 Y7.893
X136.934 Y7.89
X19.103 Y7.889
X19.043 Y7.892
X19.002 Y7.889
X18.965 Y7.873
X18.936 Y7.846
X18.917 Y7.81
X18.736 Y7.252
X18.723 Y7.225
X18.705 Y7.202
X18.599 Y7.102
X18.448 Y7.045
X18.434 Y7.035
X18.426 Y7.02
X18.427 Y7.003
X18.463 Y6.906 Z-1.347 F333.
X18.514 Y6.815 Z-1.35
X18.577 Y6.733 Z-1.354
X18.653 Y6.662 Z-1.358
X18.738 Y6.603 Z-1.361
X18.831 Y6.557 Z-1.365
X18.93 Y6.526 Z-1.369
X19.033 Y6.51 Z-1.372
X19.137 Z-1.376
X19.239 Y6.526 Z-1.379
X19.338 Y6.557 Z-1.383
X19.432 Y6.603 Z-1.387
X19.517 Y6.662 Z-1.39
X19.592 Y6.733 Z-1.394
X19.656 Y6.815 Z-1.398
X19.706 Y6.906 Z-1.401
X19.743 Y7.003 Z-1.405
X19.764 Y7.105 Z-1.408
X19.769 Y7.209 Z-1.412
X19.759 Y7.312 Z-1.416
X19.733 Y7.412 Z-1.419
X19.693 Y7.508 Z-1.423
X19.638 Y7.596 Z-1.427
X19.571 Y7.675 Z-1.43
X19.492 Y7.743 Z-1.434
X19.404 Y7.799 Z-1.437
X19.309 Y7.84 Z-1.441
X19.209 Y7.866 Z-1.445
X19.106 Y7.877 Z-1.448
X19.002 Y7.873 Z-1.452
X18.9 Y7.852 Z-1.456
X18.803 Y7.817 Z-1.459
X18.712 Y7.767 Z-1.463
X18.629 Y7.704 Z-1.467
X18.557 Y7.629 Z-1.47
X18.497 Y7.544 Z-1.474
X18.451 Y7.452 Z-1.477
X18.419 Y7.353 Z-1.481
X18.403 Y7.25 Z-1.485
X18.402 Y7.146 Z-1.488
X18.417 Y7.044 Z-1.492
X18.447 Y6.944 Z-1.496
X18.492 Y6.851 Z-1.499
X18.55 Y6.765 Z-1.503
X18.621 Y6.689 Z-1.506
X18.703 Y6.625 Z-1.51
X18.793 Y6.574 Z-1.514
X18.89 Y6.537 Z-1.517
X18.992 Y6.515 Z-1.521
X19.095 Y6.508 Z-1.525
X19.199 Y6.518 Z-1.528
X19.299 Y6.543 Z-1.532
X19.395 Y6.583 Z-1.535
X19.484 Y6.637 Z-1.539
X19.563 Y6.703 Z-1.543
X19.632 Y6.781 Z-1.546
X19.688 Y6.869 Z-1.55
X19.73 Y6.964 Z-1.554
X19.757 Y7.064 Z-1.557
X19.769 Y7.167 Z-1.561
X19.765 Y7.271 Z-1.564
X19.746 Y7.373 Z-1.568
X19.711 Y7.47 Z-1.572
X19.662 Y7.562 Z-1.575
X19.599 Y7.645 Z-1.579
X19.525 Y7.717 Z-1.583
X19.441 Y7.778 Z-1.586
X19.348 Y7.825 Z-1.59
X19.25 Y7.858 Z-1.594
X19.147 Y7.875 Z-1.597
X19.043 Y7.876 Z-1.601
X18.941 Y7.862 Z-1.604
X18.841 Y7.833 Z-1.608
X18.747 Y7.789 Z-1.612
X18.661 Y7.731 Z-1.615
X18.585 Y7.66 Z-1.619
X18.52 Y7.579 Z-1.623
X18.468 Y7.49 Z-1.626
X18.43 Y7.393 Z-1.63
X18.407 Y7.292 Z-1.633
X18.4 Y7.188 Z-1.637
X18.409 Y7.085 Z-1.641
X18.433 Y6.984 Z-1.644
X18.472 Y6.887 Z-1.648
X18.525 Y6.798 Z-1.652
X18.591 Y6.718 Z-1.655
X18.669 Y6.649 Z-1.659
X18.756 Y6.593 Z-1.662
X18.851 Y6.55 Z-1.666
X18.95 Y6.522 Z-1.67
X19.054 Y6.509 Z-1.673
X19.157 Y6.512 Z-1.677
X19.259 Y6.531 Z-1.681
X19.357 Y6.565 Z-1.684
X19.449 Y6.613 Z-1.688
X19.533 Y6.675 Z-1.691
X19.606 Y6.749 Z-1.695
X19.667 Y6.833 Z-1.699
X19.715 Y6.925 Z-1.702
X19.748 Y7.023 Z-1.706
X19.766 Y7.125 Z-1.71
X19.769 Y7.229 Z-1.713
X19.755 Y7.332 Z-1.717
X19.726 Y7.432 Z-1.721
X19.683 Y7.526 Z-1.724
X19.626 Y7.613 Z-1.728
X19.556 Y7.69 Z-1.731
X19.476 Y7.755 Z-1.735
X19.386 Y7.808 Z-1.739
X19.29 Y7.846 Z-1.742
X19.188 Y7.87 Z-1.746
X19.085 Y7.878 Z-1.75
X19.054 F1499.
X18.988 Y7.881
X18.923 Y7.893
X18.806 Y7.919
X18.746 Y7.936
X18.688 Y7.959
X18.571 Y8.013
X18.521 Y8.039
X18.474 Y8.07
X18.396 Y8.125
X18.323 Y8.188
X17.476 Y9.032
X17.465 Y9.043
X17.084 Y9.444
X16.322 Y10.205
X15.942 Y10.566
X15.93 Y10.577
X12.455 Y14.055
X12.418 Y14.094
X12.386 Y14.137
X12.308 Y14.25
X12.274 Y14.305
X12.247 Y14.363
X12.201 Y14.476
X12.181 Y14.534
X12.167 Y14.594
X12.144 Y14.717
X12.137 Y14.77
X12.135 Y14.823
X12.133 Y29.034
X12.134 Y29.056
X12.147 Y29.43
Y30.884
X12.136 Y30.999
X12.133 Y31.057
X12.135 Y49.844
Y49.864
X12.147 Y50.239
Y51.375
X12.134 Y51.75
Y51.771
X12.133 Y71.81
X12.134 Y71.832
X12.147 Y72.206
X12.144 Y73.667
X12.135 Y73.791
X12.133 Y73.834
X12.135 Y86.406
X12.137 Y86.46
X12.144 Y86.512
X12.167 Y86.636
X12.181 Y86.696
X12.201 Y86.754
X12.247 Y86.866
X12.274 Y86.925
X12.308 Y86.98
X12.386 Y87.092
X12.418 Y87.136
X12.455 Y87.175
X17.089 Y91.809
X17.135 Y91.851
X17.206 Y91.908
X18.346 Y93.043
X18.396 Y93.087
X18.451 Y93.126
X18.559 Y93.193
X18.621 Y93.227
X18.686 Y93.253
X18.83 Y93.301
X18.909 Y93.321
X18.989 Y93.331
X19.508 Y93.356
X19.537 Y93.357
X38.315 Y93.355
X38.367 Y93.353
X38.486 Y93.342
X39.897
X40.272 Y93.356
X40.294 Y93.357
X60.327 Y93.354
X60.375 Y93.352
X60.495 Y93.342
X61.909
X62.284 Y93.356
X62.306 Y93.357
X82.339 Y93.353
X82.381 Y93.351
X82.505 Y93.342
X83.921
X84.296 Y93.356
X84.318 Y93.357
X104.302 Y93.356
X104.357 Y93.353
X104.474 Y93.342
X105.932
X106.308 Y93.356
X106.33 Y93.357
X126.024
X126.046 Y93.356
X126.421 Y93.342
X127.944
X128.32 Y93.356
X128.342 Y93.357
X136.934 Y93.354
X136.992 Y93.351
X137.049 Y93.343
X137.847 Y93.186
X137.902 Y93.172
X137.955 Y93.154
X138.086 Y93.101
X138.143 Y93.075
X138.196 Y93.043
X138.893 Y92.574
X138.953 Y92.528
X139.006 Y92.475
X139.108 Y92.36
X139.16 Y92.292
X139.598 Y91.628
X139.633 Y91.567
X139.661 Y91.503
X139.705 Y91.38
X139.73 Y91.292
X139.882 Y90.52
X139.89 Y90.463
X139.893 Y90.405
X139.896 Y84.143
Y84.121
X139.882 Y83.746
Y82.61
X139.895 Y82.235
Y82.216
X139.897 Y62.176
X139.896 Y62.154
X139.882 Y61.78
X139.883 Y60.326
X139.894 Y60.209
X139.897 Y60.153
Y40.21
X139.896 Y40.188
X139.883 Y39.814
X139.886 Y38.316
X139.893 Y38.252
X139.896 Y38.187
X139.897 Y18.244
X139.896 Y18.222
X139.882 Y17.847
Y16.328
X139.896 Y15.953
X139.897 Y15.931
X139.893 Y10.825
X139.89 Y10.766
X139.881 Y10.708
X139.718 Y9.895
X139.701 Y9.83
X139.677 Y9.768
X139.622 Y9.645
X139.599 Y9.599
X139.572 Y9.555
X139.112 Y8.874
X139.068 Y8.817
X139.018 Y8.766
X138.916 Y8.673
X138.846 Y8.619
X138.193 Y8.185
X138.141 Y8.155
X138.086 Y8.129
X137.954 Y8.076
X137.901 Y8.057
X137.847 Y8.044
X137.049 Y7.887
X136.991 Y7.879
X136.934 Y7.876
X127.183 Y7.873
X127.161 Y7.874
X126.786 Y7.887
X125.263
X124.888 Y7.874
X124.866 Y7.873
X105.171
X105.149 Y7.874
X104.774 Y7.887
X103.251
X102.876 Y7.874
X102.854 Y7.873
X83.159
X83.137 Y7.874
X82.762 Y7.887
X81.239
X80.864 Y7.874
X80.842 Y7.873
X61.147
X61.125 Y7.874
X60.75 Y7.887
X59.227
X58.852 Y7.874
X58.83 Y7.873
X39.136
X39.114 Y7.874
X38.738 Y7.887
X37.216
X36.84 Y7.874
X36.818 Y7.873
X19.085 Y7.878
X19.049 Y7.872
X19.016 Y7.856
X18.99 Y7.831
X18.973 Y7.798
X18.966 Y7.763
X18.929 Y6.632
X18.934 Y6.596
X18.949 Y6.562
X18.974 Y6.535
X19.006 Y6.517
X19.042 Y6.51
X19.069 Y6.508
X137.001 Y6.513
X137.537 Y6.565
X137.696 Y6.589
X137.852 Y6.622
X138.008 Y6.666
X138.158 Y6.72
X138.9 Y7.057
X139.254 Y7.23
X139.405 Y7.322
X139.557 Y7.432
X139.773 Y7.62
X139.868 Y7.717
X140.573 Y8.58
X140.693 Y8.758
X140.77 Y8.89
X140.847 Y9.047
X140.913 Y9.207
X140.962 Y9.354
X141.183 Y10.283
X141.219 Y10.452
X141.243 Y10.608
X141.257 Y10.756
X141.262 Y14.39
Y90.3
X141.258 Y90.464
X141.204 Y91.005
X141.18 Y91.163
X141.146 Y91.319
X141.102 Y91.474
X141.047 Y91.625
X140.71 Y92.366
X140.537 Y92.719
X140.445 Y92.869
X140.336 Y93.021
X140.148 Y93.236
X140.05 Y93.331
X139.184 Y94.036
X139.008 Y94.156
X138.874 Y94.233
X138.717 Y94.31
X138.56 Y94.374
X138.411 Y94.423
X137.479 Y94.645
X137.31 Y94.681
X137.154 Y94.704
X137.005 Y94.717
X19.069 Y94.721
X18.908 Y94.714
X18.752 Y94.697
X18.596 Y94.669
X18.441 Y94.632
X18.285 Y94.583
X18.134 Y94.525
X17.899 Y94.411
X17.66 Y94.262
X17.457 Y94.101
X16.316 Y92.969
X11.697 Y88.35
X11.353 Y87.992
X11.24 Y87.846
X11.079 Y87.592
X10.971 Y87.371
X10.911 Y87.219
X10.862 Y87.064
X10.823 Y86.908
X10.795 Y86.752
X10.777 Y86.597
X10.769 Y86.439
Y14.791
X10.777 Y14.633
X10.795 Y14.477
X10.823 Y14.322
X10.862 Y14.166
X10.911 Y14.011
X10.971 Y13.859
X11.079 Y13.638
X11.238 Y13.386
X11.39 Y13.195
X12.911 Y11.666
X17.153 Y7.423
X17.511 Y7.082
X17.657 Y6.97
X17.899 Y6.819
X18.134 Y6.705
X18.285 Y6.646
X18.441 Y6.598
X18.596 Y6.56
X18.752 Y6.533
X18.908 Y6.516
X19.042 Y6.51
X19.075 Y6.513
X19.105 Y6.524
X19.132 Y6.544
X19.726 Y7.127
X19.746 Y7.153
X19.758 Y7.184
X19.761 Y7.217
X19.748 Y7.32 Z-1.753 F333.
X19.72 Y7.42 Z-1.757
X19.677 Y7.515 Z-1.76
X19.619 Y7.601 Z-1.764
X19.55 Y7.678 Z-1.768
X19.469 Y7.743 Z-1.771
X19.379 Y7.795 Z-1.775
X19.282 Y7.833 Z-1.779
X19.181 Y7.856 Z-1.782
X19.078 Y7.863 Z-1.786
X18.974 Y7.854 Z-1.789
X18.873 Y7.829 Z-1.793
X18.777 Y7.789 Z-1.797
X18.689 Y7.735 Z-1.8
X18.61 Y7.668 Z-1.804
X18.541 Y7.59 Z-1.808
X18.486 Y7.502 Z-1.811
X18.445 Y7.407 Z-1.815
X18.418 Y7.306 Z-1.818
X18.408 Y7.203 Z-1.822
X18.413 Y7.1 Z-1.826
X18.434 Y6.998 Z-1.829
X18.47 Y6.901 Z-1.833
X18.521 Y6.81 Z-1.837
X18.585 Y6.728 Z-1.84
X18.661 Y6.657 Z-1.844
X18.747 Y6.599 Z-1.848
X18.84 Y6.554 Z-1.851
X18.94 Y6.524 Z-1.855
X19.042 Y6.51 Z-1.858
X19.146 Y6.511 Z-1.862
X19.249 Y6.529 Z-1.866
X19.347 Y6.561 Z-1.869
X19.439 Y6.609 Z-1.873
X19.523 Y6.67 Z-1.877
X19.597 Y6.743 Z-1.88
X19.659 Y6.826 Z-1.884
X19.707 Y6.918 Z-1.887
X19.74 Y7.016 Z-1.891
X19.759 Y7.119 Z-1.895
X19.761 Y7.222 Z-1.898
X19.747 Y7.325 Z-1.902
X19.718 Y7.425 Z-1.906
X19.674 Y7.519 Z-1.909
X19.616 Y7.605 Z-1.913
X19.546 Y7.682 Z-1.916
X19.465 Y7.746 Z-1.92
X19.374 Y7.798 Z-1.924
X19.278 Y7.835 Z-1.927
X19.176 Y7.857 Z-1.931
X19.072 Y7.863 Z-1.935
X18.969 Y7.853 Z-1.938
X18.868 Y7.827 Z-1.942
X18.773 Y7.787 Z-1.945
X18.685 Y7.732 Z-1.949
X18.606 Y7.665 Z-1.953
X18.538 Y7.586 Z-1.956
X18.484 Y7.498 Z-1.96
X18.443 Y7.402 Z-1.964
X18.417 Y7.301 Z-1.967
X18.408 Y7.198 Z-1.971
X18.414 Y7.094 Z-1.975
X18.435 Y6.993 Z-1.978
X18.472 Y6.896 Z-1.982
X18.524 Y6.806 Z-1.985
X18.589 Y6.725 Z-1.989
X18.665 Y6.654 Z-1.993
X18.751 Y6.596 Z-1.996
X18.845 Y6.552 Z-2.
X18.945 Y6.523 Z-2.004
X19.047 Y6.509 Z-2.007
X19.151 Y6.512 Z-2.011
X19.253 Y6.53 Z-2.014
X19.352 Y6.563 Z-2.018
X19.444 Y6.611 Z-2.022
X19.527 Y6.673 Z-2.025
X19.6 Y6.747 Z-2.029
X19.661 Y6.831 Z-2.033
X19.709 Y6.923 Z-2.036
X19.742 Y7.021 Z-2.04
X19.759 Y7.124 Z-2.043
X19.761 Y7.228 Z-2.047
X19.746 Y7.33 Z-2.051
X19.716 Y7.43 Z-2.054
X19.672 Y7.524 Z-2.058
X19.613 Y7.609 Z-2.062
X19.542 Y7.685 Z-2.065
X19.46 Y7.749 Z-2.069
X19.37 Y7.8 Z-2.072
X19.273 Y7.836 Z-2.076
X19.171 Y7.857 Z-2.08
X19.067 Y7.863 Z-2.083
X18.964 Y7.852 Z-2.087
X18.864 Y7.826 Z-2.091
X18.768 Y7.784 Z-2.094
X18.681 Y7.729 Z-2.098
X18.602 Y7.661 Z-2.102
X18.535 Y7.582 Z-2.105
X18.481 Y7.493 Z-2.109
X18.441 Y7.397 Z-2.112
X18.417 Y7.296 Z-2.116
X18.407 Y7.193 Z-2.12
X18.414 Y7.089 Z-2.123
X18.437 Y6.988 Z-2.127
X18.475 Y6.891 Z-2.131
X18.527 Y6.802 Z-2.134
X18.592 Y6.721 Z-2.138
X18.669 Y6.651 Z-2.141
X18.755 Y6.594 Z-2.145
X18.85 Y6.55 Z-2.149
X18.95 Y6.522 Z-2.152
X19.053 Y6.509 Z-2.156
X19.069 Y6.508 F1499.
X137.001 Y6.513
X137.537 Y6.565
X137.696 Y6.589
X137.852 Y6.622
X138.008 Y6.666
X138.158 Y6.72
X138.9 Y7.057
X139.254 Y7.23
X139.405 Y7.322
X139.557 Y7.432
X139.773 Y7.62
X139.868 Y7.717
X140.573 Y8.58
X140.693 Y8.758
X140.77 Y8.89
X140.847 Y9.047
X140.913 Y9.207
X140.962 Y9.354
X141.183 Y10.283
X141.219 Y10.452
X141.243 Y10.608
X141.257 Y10.756
X141.262 Y14.39
Y90.3
X141.258 Y90.464
X141.204 Y91.005
X141.18 Y91.163
X141.146 Y91.319
X141.102 Y91.474
X141.047 Y91.625
X140.71 Y92.366
X140.537 Y92.719
X140.445 Y92.869
X140.336 Y93.021
X140.148 Y93.236
X140.05 Y93.331
X139.184 Y94.036
X139.008 Y94.156
X138.874 Y94.233
X138.717 Y94.31
X138.56 Y94.374
X138.411 Y94.423
X137.479 Y94.645
X137.31 Y94.681
X137.154 Y94.704
X137.005 Y94.717
X19.069 Y94.721
X18.908 Y94.714
X18.752 Y94.697
X18.596 Y94.669
X18.441 Y94.632
X18.285 Y94.583
X18.134 Y94.525
X17.899 Y94.411
X17.66 Y94.262
X17.457 Y94.101
X16.316 Y92.969
X11.697 Y88.35
X11.353 Y87.992
X11.24 Y87.846
X11.079 Y87.592
X10.971 Y87.371
X10.911 Y87.219
X10.862 Y87.064
X10.823 Y86.908
X10.795 Y86.752
X10.777 Y86.597
X10.769 Y86.439
Y14.791
X10.777 Y14.633
X10.795 Y14.477
X10.823 Y14.322
X10.862 Y14.166
X10.911 Y14.011
X10.971 Y13.859
X11.079 Y13.638
X11.238 Y13.386
X11.39 Y13.195
X12.911 Y11.666
X17.153 Y7.423
X17.511 Y7.082
X17.657 Y6.97
X17.899 Y6.819
X18.134 Y6.705
X18.285 Y6.646
X18.441 Y6.598
X18.596 Y6.56
X18.752 Y6.533
X18.908 Y6.516
X19.053 Y6.509
X19.09 Y6.513
X19.124 Y6.529
X19.152 Y6.554
X19.17 Y6.587
X19.177 Y6.624
X19.214 Y7.74
X19.209 Y7.778
X19.192 Y7.812
X19.166 Y7.839
X19.132 Y7.857
X19.095 Y7.863
X19.054
X18.989 Y7.866
X18.924 Y7.877
X18.799 Y7.905
X18.735 Y7.924
X18.673 Y7.949
X18.548 Y8.009
X18.494 Y8.038
X18.444 Y8.072
X18.361 Y8.136
X18.3 Y8.188
X17.475 Y9.012
X17.449 Y9.04
X17.17 Y9.358
X16.328 Y10.199
X15.954 Y10.535
X15.93 Y10.557
X12.455 Y14.033
X12.394 Y14.104
X12.307 Y14.224
X12.269 Y14.283
X12.238 Y14.346
X12.188 Y14.467
X12.167 Y14.528
X12.152 Y14.592
X12.129 Y14.721
X12.123 Y14.772
X12.12 Y14.823
X12.119 Y29.034
X12.121 Y29.078
X12.147 Y29.441
Y30.811
X12.131 Y30.903
X12.124 Y30.956
X12.121 Y31.009
Y49.844
X12.122 Y49.885
X12.147 Y50.25
Y51.364
X12.121 Y51.728
X12.12 Y51.771
X12.119 Y71.81
X12.121 Y71.854
X12.147 Y72.218
Y73.549
X12.126 Y73.699
X12.119 Y73.785
X12.12 Y86.406
X12.123 Y86.458
X12.129 Y86.509
X12.152 Y86.638
X12.167 Y86.701
X12.188 Y86.763
X12.238 Y86.884
X12.269 Y86.947
X12.307 Y87.006
X12.394 Y87.126
X12.455 Y87.197
X17.089 Y91.828
X17.128 Y91.863
X17.169 Y91.895
X17.248 Y91.95
X18.346 Y93.043
X18.396 Y93.087
X18.451 Y93.126
X18.559 Y93.193
X18.621 Y93.227
X18.686 Y93.253
X18.83 Y93.301
X18.897 Y93.319
X18.965 Y93.329
X19.388 Y93.367
X19.441 Y93.369
X38.315
X38.369 Y93.367
X38.423 Y93.359
X38.514 Y93.342
X39.886
X40.25 Y93.369
X40.294 Y93.371
X60.327 Y93.368
X60.379 Y93.366
X60.431 Y93.359
X60.524 Y93.342
X61.898
X62.262 Y93.369
X62.306 Y93.371
X82.339 Y93.367
X82.389 Y93.365
X82.438 Y93.359
X82.534 Y93.342
X83.91
X84.274 Y93.369
X84.318 Y93.371
X104.302 Y93.37
X104.386 Y93.364
X104.538 Y93.342
X105.922
X106.286 Y93.369
X106.33 Y93.371
X126.314 Y93.369
X126.369 Y93.367
X126.423 Y93.359
X126.514 Y93.342
X127.933
X128.298 Y93.369
X128.342 Y93.371
X136.934 Y93.368
X136.992 Y93.365
X137.05 Y93.356
X137.862 Y93.195
X137.915 Y93.182
X137.967 Y93.164
X138.074 Y93.122
X138.13 Y93.095
X138.184 Y93.063
X138.899 Y92.585
X138.953 Y92.544
X139.002 Y92.498
X139.087 Y92.408
X139.12 Y92.369
X139.15 Y92.328
X139.614 Y91.624
X139.648 Y91.566
X139.675 Y91.504
X139.712 Y91.403
X139.738 Y91.312
X139.895 Y90.521
X139.904 Y90.463
X139.907 Y90.405
X139.91 Y84.143
X139.909 Y84.1
X139.882 Y83.736
Y82.621
X139.908 Y82.257
X139.909 Y82.216
X139.911 Y62.176
X139.909 Y62.132
X139.883 Y61.769
X139.884 Y60.398
X139.901 Y60.305
X139.908 Y60.253
X139.91 Y60.201
X139.911 Y40.21
X139.909 Y40.166
X139.882 Y39.803
Y38.423
X139.904 Y38.273
X139.911 Y38.187
Y18.244
X139.909 Y18.2
X139.882 Y17.836
Y16.419
X139.899 Y16.327
X139.906 Y16.274
X139.909 Y16.22
X139.907 Y10.825
X139.904 Y10.766
X139.895 Y10.707
X139.727 Y9.882
X139.711 Y9.82
X139.688 Y9.76
X139.644 Y9.659
X139.621 Y9.612
X139.593 Y9.567
X139.122 Y8.868
X139.078 Y8.81
X139.027 Y8.758
X138.92 Y8.662
X138.85 Y8.607
X138.181 Y8.165
X138.121 Y8.13
X138.056 Y8.102
X137.914 Y8.05
X137.825 Y8.025
X137.048 Y7.873
X136.991 Y7.865
X136.934 Y7.862
X127.183 Y7.859
X127.139 Y7.861
X126.775 Y7.887
X125.274
X124.909 Y7.861
X124.866 Y7.859
X105.171
X105.127 Y7.861
X104.763 Y7.887
X103.262
X102.898 Y7.861
X102.854 Y7.859
X83.159
X83.116 Y7.861
X82.751 Y7.887
X81.25
X80.886 Y7.861
X80.842 Y7.859
X61.147
X61.104 Y7.861
X60.739 Y7.887
X59.238
X58.874 Y7.861
X58.83 Y7.859
X39.136
X39.092 Y7.861
X38.728 Y7.887
X37.227
X36.862 Y7.861
X36.818 Y7.859
X19.095 Y7.863
X19.074 Y7.857
X19.06 Y7.842
X19.055 Y7.822
X19.061 Y7.801
X19.16 Y7.641
X19.531 Y7.071
X19.637 Y6.917
X19.654 Y6.904
X19.675 Y6.9
X19.694 Y6.908
X19.707 Y6.925
X19.739 Y7.022 Z-2.16 F333.
X19.756 Y7.124 Z-2.163
X19.757 Y7.227 Z-2.167
X19.742 Y7.328 Z-2.17
X19.713 Y7.427 Z-2.174
X19.668 Y7.519 Z-2.178
X19.61 Y7.604 Z-2.181
X19.54 Y7.679 Z-2.185
X19.459 Y7.743 Z-2.188
X19.369 Y7.793 Z-2.192
X19.273 Y7.829 Z-2.195
X19.172 Y7.85 Z-2.199
X19.07 Y7.856 Z-2.203
X18.967 Y7.846 Z-2.206
X18.868 Y7.82 Z-2.21
X18.773 Y7.78 Z-2.213
X18.686 Y7.726 Z-2.217
X18.608 Y7.659 Z-2.221
X18.541 Y7.581 Z-2.224
X18.487 Y7.493 Z-2.228
X18.446 Y7.399 Z-2.231
X18.421 Y7.299 Z-2.235
X18.411 Y7.197 Z-2.239
X18.416 Y7.094 Z-2.242
X18.438 Y6.994 Z-2.246
X18.474 Y6.897 Z-2.249
X18.524 Y6.808 Z-2.253
X18.588 Y6.727 Z-2.257
X18.663 Y6.657 Z-2.26
X18.748 Y6.599 Z-2.264
X18.84 Y6.554 Z-2.267
X18.939 Y6.524 Z-2.271
X19.041 Y6.51 Z-2.275
X19.143 Y6.511 Z-2.278
X19.245 Y6.528 Z-2.282
X19.342 Y6.56 Z-2.285
X19.434 Y6.606 Z-2.289
X19.518 Y6.666 Z-2.293
X19.591 Y6.738 Z-2.296
X19.653 Y6.82 Z-2.3
X19.701 Y6.911 Z-2.303
X19.735 Y7.008 Z-2.307
X19.754 Y7.109 Z-2.31
X19.758 Y7.212 Z-2.314
X19.745 Y7.314 Z-2.318
X19.718 Y7.413 Z-2.321
X19.675 Y7.506 Z-2.325
X19.619 Y7.592 Z-2.328
X19.551 Y7.669 Z-2.332
X19.471 Y7.734 Z-2.336
X19.383 Y7.787 Z-2.339
X19.287 Y7.825 Z-2.343
X19.187 Y7.848 Z-2.346
X19.085 Y7.856 Z-2.35
X19.055 F1499.
X18.989 Y7.86
X18.925 Y7.87
X18.796 Y7.899
X18.73 Y7.918
X18.667 Y7.944
X18.538 Y8.007
X18.472 Y8.044
X18.411 Y8.089
X18.283 Y8.198
X18.247 Y8.231
X17.475 Y9.003
X17.444 Y9.037
X17.167 Y9.361
X16.331 Y10.197
X15.96 Y10.52
X15.93 Y10.548
X12.455 Y14.024
X12.398 Y14.089
X12.306 Y14.213
X12.266 Y14.274
X12.234 Y14.339
X12.182 Y14.463
X12.16 Y14.526
X12.145 Y14.591
X12.122 Y14.722
X12.116 Y14.773
X12.114 Y14.823
X12.113 Y29.034
X12.115 Y29.088
X12.147 Y29.446
X12.146 Y30.802
X12.128 Y30.885
X12.118 Y30.947
X12.115 Y31.009
X12.114 Y49.844
X12.116 Y49.895
X12.147 Y50.255
Y51.359
X12.116 Y51.719
X12.113 Y51.771
Y71.81
X12.115 Y71.864
X12.147 Y72.223
Y73.529
X12.13 Y73.61
X12.119 Y73.673
X12.116 Y73.737
X12.114 Y86.406
X12.116 Y86.457
X12.122 Y86.508
X12.145 Y86.639
X12.16 Y86.704
X12.182 Y86.767
X12.234 Y86.891
X12.266 Y86.956
X12.306 Y87.017
X12.398 Y87.141
X12.455 Y87.207
X17.089 Y91.836
X17.136 Y91.879
X17.188 Y91.916
X17.245 Y91.953
X18.347 Y93.044
X18.397 Y93.088
X18.451 Y93.126
X18.559 Y93.193
X18.621 Y93.227
X18.686 Y93.253
X18.83 Y93.301
X18.892 Y93.318
X18.956 Y93.328
X19.378 Y93.373
X19.441 Y93.376
X38.315
X38.366 Y93.374
X38.416 Y93.367
X38.559 Y93.342
X39.881
X40.241 Y93.375
X40.294 Y93.377
X60.327 Y93.375
X60.391 Y93.371
X60.455 Y93.361
X60.537 Y93.343
X61.893 Y93.342
X62.252 Y93.375
X62.306 Y93.377
X82.339 Y93.374
X82.401 Y93.37
X82.463 Y93.36
X82.547 Y93.342
X83.905
X84.264 Y93.375
X84.318 Y93.377
X104.302
X104.354 Y93.374
X104.405 Y93.367
X104.547 Y93.342
X105.917
X106.276 Y93.375
X106.33 Y93.377
X126.314 Y93.376
X126.365 Y93.374
X126.415 Y93.367
X126.558 Y93.342
X127.928
X128.288 Y93.375
X128.342 Y93.377
X136.934 Y93.374
X136.993 Y93.371
X137.051 Y93.362
X137.885 Y93.194
X137.955 Y93.176
X138.021 Y93.149
X138.152 Y93.088
X138.231 Y93.043
X138.905 Y92.588
X138.957 Y92.548
X139.005 Y92.502
X139.092 Y92.41
X139.125 Y92.372
X139.154 Y92.331
X139.613 Y91.639
X139.648 Y91.579
X139.675 Y91.516
X139.722 Y91.389
X139.748 Y91.298
X139.901 Y90.52
X139.91 Y90.463
X139.913 Y90.405
X139.917 Y84.143
X139.914 Y84.09
X139.882 Y83.731
Y82.626
X139.913 Y82.266
X139.916 Y82.216
X139.917 Y62.176
X139.915 Y62.123
X139.882 Y61.764
Y60.446
X139.907 Y60.305
X139.914 Y60.253
X139.917 Y60.201
Y40.21
X139.915 Y40.156
X139.882 Y39.798
Y38.443
X139.9 Y38.361
X139.91 Y38.298
X139.914 Y38.235
X139.917 Y18.244
X139.915 Y18.19
X139.883 Y17.832
X139.884 Y16.428
X139.902 Y16.344
X139.912 Y16.282
X139.915 Y16.22
X139.913 Y10.825
X139.91 Y10.766
X139.901 Y10.708
X139.738 Y9.896
X139.722 Y9.834
X139.699 Y9.774
X139.645 Y9.65
X139.621 Y9.602
X139.594 Y9.556
X139.127 Y8.864
X139.082 Y8.806
X139.031 Y8.754
X138.922 Y8.656
X138.853 Y8.603
X138.195 Y8.165
X138.142 Y8.134
X138.086 Y8.108
X137.956 Y8.056
X137.904 Y8.038
X137.85 Y8.025
X137.049 Y7.867
X136.992 Y7.859
X136.934 Y7.856
X127.183 Y7.853
X127.129 Y7.855
X126.77 Y7.887
X125.279
X124.919 Y7.855
X124.866 Y7.853
X105.171
X105.118 Y7.855
X104.758 Y7.887
X103.267
X102.907 Y7.855
X102.854 Y7.853
X83.159
X83.106 Y7.855
X82.746 Y7.887
X81.255
X80.896 Y7.855
X80.842 Y7.853
X61.147
X61.094 Y7.855
X60.734 Y7.887
X59.243
X58.884 Y7.855
X58.83 Y7.853
X39.136
X39.082 Y7.855
X38.723 Y7.887
X37.266 Y7.885
X37.181 Y7.867
X37.121 Y7.858
X37.06 Y7.855
X19.085 Y7.856
X19.049 Y7.851
X19.016 Y7.834
X18.99 Y7.809
X18.972 Y7.777
X18.966 Y7.741
X18.929 Y6.632
X18.934 Y6.596
X18.949 Y6.562
X18.974 Y6.535
X19.007 Y6.517
X19.043 Y6.51
X19.069 Y6.508
X137.001 Y6.513
X137.537 Y6.565
X137.696 Y6.589
X137.852 Y6.622
X138.008 Y6.666
X138.158 Y6.72
X138.9 Y7.057
X139.254 Y7.23
X139.405 Y7.322
X139.557 Y7.432
X139.773 Y7.62
X139.868 Y7.717
X140.573 Y8.58
X140.693 Y8.758
X140.77 Y8.89
X140.847 Y9.047
X140.913 Y9.207
X140.962 Y9.354
X141.183 Y10.283
X141.219 Y10.452
X141.243 Y10.608
X141.257 Y10.756
X141.262 Y14.39
Y90.3
X141.258 Y90.464
X141.204 Y91.005
X141.18 Y91.163
X141.146 Y91.319
X141.102 Y91.474
X141.047 Y91.625
X140.71 Y92.366
X140.537 Y92.719
X140.445 Y92.869
X140.336 Y93.021
X140.148 Y93.236
X140.05 Y93.331
X139.184 Y94.036
X139.008 Y94.156
X138.874 Y94.233
X138.717 Y94.31
X138.56 Y94.374
X138.411 Y94.423
X137.479 Y94.645
X137.31 Y94.681
X137.154 Y94.704
X137.005 Y94.717
X19.069 Y94.721
X18.908 Y94.714
X18.752 Y94.697
X18.596 Y94.669
X18.441 Y94.632
X18.285 Y94.583
X18.134 Y94.525
X17.899 Y94.411
X17.66 Y94.262
X17.457 Y94.101
X16.316 Y92.969
X11.697 Y88.35
X11.353 Y87.992
X11.24 Y87.846
X11.079 Y87.592
X10.971 Y87.371
X10.911 Y87.219
X10.862 Y87.064
X10.823 Y86.908
X10.795 Y86.752
X10.777 Y86.597
X10.769 Y86.439
Y14.791
X10.777 Y14.633
X10.795 Y14.477
X10.823 Y14.322
X10.862 Y14.166
X10.911 Y14.011
X10.971 Y13.859
X11.079 Y13.638
X11.238 Y13.386
X11.39 Y13.195
X12.911 Y11.666
X17.153 Y7.423
X17.511 Y7.082
X17.657 Y6.97
X17.899 Y6.819
X18.134 Y6.705
X18.285 Y6.646
X18.441 Y6.598
X18.596 Y6.56
X18.752 Y6.533
X18.908 Y6.516
X19.043 Y6.51
X19.083 Y6.515
X19.119 Y6.533
X19.687 Y6.951
X19.716 Y6.981
X19.732 Y7.019
X19.748 Y7.121 Z-2.354 F333.
X19.749 Y7.224 Z-2.357
X19.733 Y7.326 Z-2.361
X19.702 Y7.424 Z-2.364
X19.657 Y7.516 Z-2.368
X19.597 Y7.6 Z-2.372
X19.526 Y7.674 Z-2.375
X19.444 Y7.736 Z-2.379
X19.353 Y7.784 Z-2.382
X19.256 Y7.818 Z-2.386
X19.155 Y7.837 Z-2.39
X19.052 Y7.84 Z-2.393
X18.95 Y7.827 Z-2.397
X18.851 Y7.799 Z-2.4
X18.758 Y7.755 Z-2.404
X18.672 Y7.698 Z-2.408
X18.596 Y7.628 Z-2.411
X18.532 Y7.548 Z-2.415
X18.482 Y7.458 Z-2.418
X18.445 Y7.362 Z-2.422
X18.424 Y7.262 Z-2.426
X18.418 Y7.159 Z-2.429
X18.429 Y7.057 Z-2.433
X18.455 Y6.957 Z-2.436
X18.496 Y6.863 Z-2.44
X18.551 Y6.776 Z-2.444
X18.619 Y6.698 Z-2.447
X18.697 Y6.632 Z-2.451
X18.786 Y6.579 Z-2.454
X18.881 Y6.54 Z-2.458
X18.981 Y6.516 Z-2.461
X19.083 Y6.508 Z-2.465
X19.186 Y6.516 Z-2.469
X19.286 Y6.54 Z-2.472
X19.382 Y6.578 Z-2.476
X19.47 Y6.631 Z-2.479
X19.549 Y6.697 Z-2.483
X19.617 Y6.774 Z-2.487
X19.672 Y6.861 Z-2.49
X19.713 Y6.955 Z-2.494
X19.74 Y7.055 Z-2.497
X19.75 Y7.157 Z-2.501
X19.745 Y7.26 Z-2.505
X19.724 Y7.361 Z-2.508
X19.688 Y7.457 Z-2.512
X19.637 Y7.546 Z-2.515
X19.574 Y7.627 Z-2.519
X19.498 Y7.697 Z-2.523
X19.413 Y7.754 Z-2.526
X19.319 Y7.798 Z-2.53
X19.221 Y7.827 Z-2.533
X19.119 Y7.84 Z-2.537
X19.016 Y7.837 Z-2.541
X18.915 Y7.819 Z-2.544
X18.817 Y7.785 Z-2.548
X18.727 Y7.737 Z-2.551
X18.644 Y7.675 Z-2.555
X18.573 Y7.601 Z-2.559
X18.513 Y7.517 Z-2.562
X18.467 Y7.425 Z-2.566
X18.436 Y7.327 Z-2.569
X18.42 Y7.226 Z-2.573
Y7.123 Z-2.577
X18.436 Y7.021 Z-2.58
X18.467 Y6.923 Z-2.584
X18.514 Y6.831 Z-2.587
X18.573 Y6.747 Z-2.591
X18.645 Y6.674 Z-2.595
X18.727 Y6.612 Z-2.598
X18.818 Y6.564 Z-2.602
X18.916 Y6.53 Z-2.605
X19.017 Y6.512 Z-2.609
X19.12 Y6.509 Z-2.613
X19.222 Y6.523 Z-2.616
X19.32 Y6.552 Z-2.62
X19.414 Y6.595 Z-2.623
X19.499 Y6.653 Z-2.627
X19.574 Y6.723 Z-2.631
X19.638 Y6.804 Z-2.634
X19.688 Y6.893 Z-2.638
X19.724 Y6.99 Z-2.641
X19.745 Y7.09 Z-2.645
X19.75 Y7.193 Z-2.649
X19.74 Y7.296 Z-2.652
X19.713 Y7.395 Z-2.656
X19.672 Y7.489 Z-2.659
X19.616 Y7.576 Z-2.663
X19.548 Y7.653 Z-2.666
X19.469 Y7.719 Z-2.67
X19.381 Y7.771 Z-2.674
X19.285 Y7.81 Z-2.677
X19.185 Y7.833 Z-2.681
X19.082 Y7.841 Z-2.684
X18.98 Y7.833 Z-2.688
X18.88 Y7.809 Z-2.692
X18.785 Y7.77 Z-2.695
X18.697 Y7.716 Z-2.699
X18.618 Y7.65 Z-2.702
X18.55 Y7.573 Z-2.706
X18.495 Y7.486 Z-2.71
X18.454 Y7.391 Z-2.713
X18.428 Y7.292 Z-2.717
X18.418 Y7.189 Z-2.72
X18.424 Y7.087 Z-2.724
X18.445 Y6.986 Z-2.728
X18.482 Y6.89 Z-2.731
X18.533 Y6.801 Z-2.735
X18.597 Y6.72 Z-2.738
X18.673 Y6.651 Z-2.742
X18.759 Y6.593 Z-2.746
X18.852 Y6.55 Z-2.749
X18.951 Y6.522 Z-2.753
X19.053 Y6.509 Z-2.756
X19.069 Y6.508 F1499.
X137.001 Y6.513
X137.537 Y6.565
X137.696 Y6.589
X137.852 Y6.622
X138.008 Y6.666
X138.158 Y6.72
X138.9 Y7.057
X139.254 Y7.23
X139.405 Y7.322
X139.557 Y7.432
X139.773 Y7.62
X139.868 Y7.717
X140.573 Y8.58
X140.693 Y8.758
X140.77 Y8.89
X140.847 Y9.047
X140.913 Y9.207
X140.962 Y9.354
X141.183 Y10.283
X141.219 Y10.452
X141.243 Y10.608
X141.257 Y10.756
X141.262 Y14.39
Y90.3
X141.258 Y90.464
X141.204 Y91.005
X141.18 Y91.163
X141.146 Y91.319
X141.102 Y91.474
X141.047 Y91.625
X140.71 Y92.366
X140.537 Y92.719
X140.445 Y92.869
X140.336 Y93.021
X140.148 Y93.236
X140.05 Y93.331
X139.184 Y94.036
X139.008 Y94.156
X138.874 Y94.233
X138.717 Y94.31
X138.56 Y94.374
X138.411 Y94.423
X137.479 Y94.645
X137.31 Y94.681
X137.154 Y94.704
X137.005 Y94.717
X19.069 Y94.721
X18.908 Y94.714
X18.752 Y94.697
X18.596 Y94.669
X18.441 Y94.632
X18.285 Y94.583
X18.134 Y94.525
X17.899 Y94.411
X17.66 Y94.262
X17.457 Y94.101
X16.316 Y92.969
X11.697 Y88.35
X11.353 Y87.992
X11.24 Y87.846
X11.079 Y87.592
X10.971 Y87.371
X10.911 Y87.219
X10.862 Y87.064
X10.823 Y86.908
X10.795 Y86.752
X10.777 Y86.597
X10.769 Y86.439
Y14.791
X10.777 Y14.633
X10.795 Y14.477
X10.823 Y14.322
X10.862 Y14.166
X10.911 Y14.011
X10.971 Y13.859
X11.079 Y13.638
X11.238 Y13.386
X11.39 Y13.195
X12.911 Y11.666
X17.153 Y7.423
X17.511 Y7.082
X17.657 Y6.97
X17.899 Y6.819
X18.134 Y6.705
X18.285 Y6.646
X18.441 Y6.598
X18.596 Y6.56
X18.752 Y6.533
X18.908 Y6.516
X19.053 Y6.509
X19.09 Y6.513
X19.124 Y6.529
X19.152 Y6.554
X19.17 Y6.587
X19.178 Y6.624
X19.213 Y7.718
X19.209 Y7.756
X19.192 Y7.79
X19.166 Y7.817
X19.132 Y7.835
X19.094 Y7.841
X19.054
X18.99 Y7.844
X18.927 Y7.855
X18.79 Y7.885
X18.72 Y7.905
X18.653 Y7.933
X18.516 Y8.001
X18.452 Y8.038
X18.393 Y8.083
X18.28 Y8.18
X18.247 Y8.21
X17.475 Y8.983
X17.433 Y9.03
X17.161 Y9.367
X16.337 Y10.19
X15.974 Y10.488
X15.93 Y10.527
X12.455 Y14.003
X12.423 Y14.037
X12.348 Y14.125
X12.308 Y14.178
X12.274 Y14.234
X12.205 Y14.366
X12.175 Y14.431
X12.154 Y14.499
X12.121 Y14.631
X12.108 Y14.702
X12.103 Y14.775
X12.098 Y21.712
Y29.034
X12.103 Y29.11
X12.147 Y29.457
Y30.733
X12.129 Y30.798
X12.114 Y30.866
X12.107 Y30.936
X12.099 Y31.128
X12.098 Y31.154
X12.1 Y49.844
X12.104 Y49.917
X12.147 Y50.266
Y51.348
X12.103 Y51.696
X12.099 Y51.771
X12.098 Y71.81
X12.103 Y71.886
X12.147 Y72.234
Y73.474
X12.118 Y73.599
X12.105 Y73.668
X12.101 Y73.737
X12.099 Y86.406
X12.101 Y86.455
X12.107 Y86.504
X12.13 Y86.64
X12.145 Y86.709
X12.169 Y86.775
X12.225 Y86.907
X12.253 Y86.964
X12.286 Y87.017
X12.348 Y87.105
X12.379 Y87.145
X12.414 Y87.183
X17.089 Y91.855
X17.138 Y91.898
X17.192 Y91.937
X17.308 Y92.011
X18.346 Y93.043
X18.397 Y93.087
X18.451 Y93.126
X18.559 Y93.193
X18.621 Y93.227
X18.686 Y93.253
X18.83 Y93.301
X18.898 Y93.319
X18.969 Y93.329
X19.101 Y93.34
X19.149 Y93.344
X19.246 Y93.369
X19.319 Y93.383
X19.392 Y93.387
X38.315 Y93.39
X38.373 Y93.387
X38.431 Y93.379
X38.576 Y93.35
X38.607 Y93.343
X39.87
X40.219 Y93.387
X40.294 Y93.392
X60.327 Y93.389
X60.391 Y93.386
X60.455 Y93.375
X60.6 Y93.343
X61.882 Y93.342
X62.23 Y93.387
X62.306 Y93.392
X82.339 Y93.388
X82.408 Y93.384
X82.475 Y93.372
X82.601 Y93.342
X83.894
X84.242 Y93.387
X84.318 Y93.392
X104.302 Y93.391
X104.354 Y93.389
X104.406 Y93.382
X104.55 Y93.356
X104.596 Y93.346
X104.791 Y93.342
X105.905
X106.254 Y93.387
X106.33 Y93.392
X126.314 Y93.39
X126.372 Y93.388
X126.429 Y93.379
X126.574 Y93.35
X126.606 Y93.343
X127.918
X128.266 Y93.387
X128.342 Y93.392
X136.934 Y93.388
X136.992 Y93.385
X137.049 Y93.377
X137.853 Y93.218
X137.941 Y93.193
X138.037 Y93.158
X138.093 Y93.135
X138.146 Y93.106
X138.307 Y93.007
X138.329 Y92.993
X138.913 Y92.597
X138.965 Y92.558
X139.012 Y92.513
X139.098 Y92.422
X139.132 Y92.383
X139.162 Y92.342
X139.628 Y91.638
X139.665 Y91.574
X139.693 Y91.506
X139.743 Y91.365
X139.765 Y91.284
X139.915 Y90.52
X139.924 Y90.463
X139.927 Y90.405
X139.932 Y85.299
X139.931 Y84.142
X139.926 Y84.068
X139.882 Y83.719
Y82.637
X139.926 Y82.288
X139.93 Y82.216
X139.932 Y62.176
X139.927 Y62.1
X139.882 Y61.753
Y60.493
X139.907 Y60.402
X139.921 Y60.327
X139.927 Y60.251
X139.932 Y58.71
Y40.21
X139.927 Y40.134
X139.882 Y39.787
Y38.497
X139.912 Y38.373
X139.924 Y38.304
X139.928 Y38.235
X139.932 Y18.244
X139.927 Y18.168
X139.882 Y17.82
Y16.496
X139.901 Y16.432
X139.917 Y16.358
X139.923 Y16.283
X139.932 Y15.946
Y15.931
X139.931 Y10.873
X139.929 Y10.821
X139.922 Y10.768
X139.861 Y10.431
X139.859 Y10.417
X139.753 Y9.898
X139.74 Y9.848
X139.723 Y9.799
X139.685 Y9.702
X139.659 Y9.644
X139.626 Y9.59
X139.136 Y8.855
X139.09 Y8.796
X139.038 Y8.743
X138.93 Y8.646
X138.863 Y8.594
X138.218 Y8.164
X138.14 Y8.12
X138.032 Y8.07
X137.969 Y8.045
X137.903 Y8.027
X137.345 Y7.91
X137.326 Y7.906
X136.988 Y7.847
X136.937 Y7.841
X136.885 Y7.838
X126.941 Y7.842
X126.873 Y7.846
X126.806 Y7.858
X126.68 Y7.887
X125.29
X124.941 Y7.843
X124.866 Y7.838
X104.978 Y7.839
X104.924 Y7.842
X104.87 Y7.849
X104.726 Y7.875
X104.69 Y7.883
X103.32
X103.252 Y7.865
X103.176 Y7.849
X103.098 Y7.844
X101.698 Y7.838
X83.159
X83.084 Y7.843
X82.735 Y7.887
X81.345
X81.219 Y7.858
X81.152 Y7.846
X81.084 Y7.842
X61.147 Y7.838
X61.072 Y7.843
X60.723 Y7.887
X59.345
X59.277 Y7.869
X59.229 Y7.858
X59.18 Y7.851
X59.083 Y7.841
X59.023 Y7.838
X39.136
X39.06 Y7.843
X38.711 Y7.887
X37.337
X37.272 Y7.869
X37.215 Y7.855
X37.156 Y7.848
X37.059 Y7.84
X37.011 Y7.838
X19.094 Y7.841
X19.075 Y7.837
X19.059 Y7.826
X19.049 Y7.81
X18.986 Y7.653
X18.977 Y7.638
X18.962 Y7.627
X18.54 Y7.417
X18.473 Y7.414
X18.442 Y7.317 Z-2.76 F333.
X18.427 Y7.216 Z-2.764
Y7.114 Z-2.767
X18.444 Y7.013 Z-2.771
X18.475 Y6.916 Z-2.774
X18.521 Y6.825 Z-2.778
X18.581 Y6.742 Z-2.781
X18.652 Y6.67 Z-2.785
X18.734 Y6.609 Z-2.788
X18.825 Y6.562 Z-2.792
X18.921 Y6.529 Z-2.796
X19.022 Y6.511 Z-2.799
X19.124 Y6.51 Z-2.803
X19.225 Y6.524 Z-2.806
X19.322 Y6.553 Z-2.81
X19.414 Y6.597 Z-2.813
X19.498 Y6.655 Z-2.817
X19.572 Y6.725 Z-2.821
X19.635 Y6.805 Z-2.824
X19.684 Y6.895 Z-2.828
X19.719 Y6.991 Z-2.831
X19.739 Y7.091 Z-2.835
X19.743 Y7.193 Z-2.838
X19.731 Y7.294 Z-2.842
X19.704 Y7.392 Z-2.846
X19.661 Y7.485 Z-2.849
X19.606 Y7.57 Z-2.853
X19.537 Y7.646 Z-2.856
X19.458 Y7.71 Z-2.86
X19.37 Y7.761 Z-2.863
X19.275 Y7.798 Z-2.867
X19.175 Y7.82 Z-2.87
X19.073 Y7.826 Z-2.874
X18.972 Y7.817 Z-2.878
X18.873 Y7.791 Z-2.881
X18.779 Y7.751 Z-2.885
X18.693 Y7.697 Z-2.888
X18.615 Y7.63 Z-2.892
X18.55 Y7.552 Z-2.895
X18.497 Y7.465 Z-2.899
X18.458 Y7.371 Z-2.903
X18.434 Y7.272 Z-2.906
X18.425 Y7.17 Z-2.91
X18.433 Y7.069 Z-2.913
X18.456 Y6.969 Z-2.917
X18.494 Y6.875 Z-2.92
X18.546 Y6.787 Z-2.924
X18.611 Y6.709 Z-2.928
X18.688 Y6.641 Z-2.931
X18.774 Y6.586 Z-2.935
X18.867 Y6.545 Z-2.938
X18.966 Y6.519 Z-2.942
X19.067 Y6.509 Z-2.945
X19.169 Y6.514 Z-2.949
X19.269 Y6.535 Z-2.952
X19.364 Y6.571 Z-2.956
X19.453 Y6.621 Z-2.96
X19.533 Y6.685 Z-2.963
X19.602 Y6.759 Z-2.967
X19.658 Y6.844 Z-2.97
X19.701 Y6.937 Z-2.974
X19.73 Y7.035 Z-2.977
X19.742 Y7.136 Z-2.981
X19.739 Y7.238 Z-2.985
X19.721 Y7.338 Z-2.988
X19.687 Y7.434 Z-2.992
X19.638 Y7.524 Z-2.995
X19.577 Y7.605 Z-2.999
X19.503 Y7.676 Z-3.002
X19.42 Y7.734 Z-3.006
X19.328 Y7.779 Z-3.01
X19.231 Y7.81 Z-3.013
X19.13 Y7.825 Z-3.017
X19.028 Y7.824 Z-3.02
X18.927 Y7.807 Z-3.024
X18.83 Y7.775 Z-3.027
X18.739 Y7.729 Z-3.031
X18.657 Y7.669 Z-3.034
X18.585 Y7.597 Z-3.038
X18.524 Y7.515 Z-3.042
X18.477 Y7.424 Z-3.045
X18.445 Y7.327 Z-3.049
X18.428 Y7.227 Z-3.052
X18.427 Y7.125 Z-3.056
X18.441 Y7.024 Z-3.059
X18.471 Y6.926 Z-3.063
X18.515 Y6.835 Z-3.067
X18.574 Y6.751 Z-3.07
X18.644 Y6.677 Z-3.074
X18.725 Y6.615 Z-3.077
X18.814 Y6.566 Z-3.081
X18.91 Y6.532 Z-3.084
X19.011 Y6.513 Z-3.088
X19.112 Y6.509 Z-3.092
X19.214 Y6.521 Z-3.095
X19.312 Y6.549 Z-3.099
X19.405 Y6.591 Z-3.102
X19.49 Y6.648 Z-3.106
X19.565 Y6.717 Z-3.109
X19.629 Y6.796 Z-3.113
X19.679 Y6.885 Z-3.116
X19.716 Y6.98 Z-3.12
X19.737 Y7.08 Z-3.124
X19.743 Y7.181 Z-3.127
X19.733 Y7.283 Z-3.131
X19.707 Y7.382 Z-3.134
X19.667 Y7.475 Z-3.138
X19.612 Y7.561 Z-3.141
X19.545 Y7.638 Z-3.145
X19.467 Y7.704 Z-3.149
X19.38 Y7.756 Z-3.152
X19.285 Y7.795 Z-3.156
X19.186 Y7.818 Z-3.159
X19.084 Y7.826 Z-3.163
X19.054 F1499.
X18.991 Y7.83
X18.929 Y7.84
X18.785 Y7.871
X18.724 Y7.887
X18.665 Y7.91
X18.569 Y7.954
X18.519 Y7.979
X18.472 Y8.009
X18.376 Y8.077
X18.336 Y8.108
X18.298 Y8.142
X17.476 Y8.962
X17.423 Y9.022
X17.155 Y9.372
X16.344 Y10.183
X15.989 Y10.456
X15.93 Y10.507
X12.455 Y13.983
X12.431 Y14.008
X12.348 Y14.101
X12.306 Y14.155
X12.27 Y14.214
X12.194 Y14.353
X12.163 Y14.422
X12.14 Y14.494
X12.105 Y14.633
X12.093 Y14.704
X12.088 Y14.775
X12.084 Y29.034
X12.092 Y29.131
X12.147 Y29.468
Y30.685
X12.115 Y30.797
X12.1 Y30.865
X12.093 Y30.936
X12.084 Y31.128
Y31.154
X12.086 Y49.844
X12.093 Y49.939
X12.147 Y50.277
Y51.337
X12.092 Y51.675
X12.085 Y51.771
X12.084 Y71.81
X12.092 Y71.907
X12.147 Y72.244
Y73.432
X12.124 Y73.504
X12.105 Y73.574
X12.096 Y73.646
X12.085 Y73.791
X12.084 Y73.834
X12.088 Y86.455
X12.093 Y86.526
X12.105 Y86.597
X12.14 Y86.736
X12.162 Y86.808
X12.194 Y86.877
X12.269 Y87.016
X12.307 Y87.077
X12.352 Y87.132
X12.448 Y87.239
X12.469 Y87.261
X17.041 Y91.833
X17.113 Y91.894
X17.225 Y91.975
X17.274 Y92.007
X17.325 Y92.034
X17.572 Y92.274
X18.347 Y93.043
X18.397 Y93.087
X18.451 Y93.126
X18.559 Y93.193
X18.621 Y93.227
X18.686 Y93.253
X18.83 Y93.301
X18.893 Y93.318
X18.957 Y93.328
X19.077 Y93.341
X19.163 Y93.368
X19.224 Y93.384
X19.285 Y93.393
X19.382 Y93.403
X19.441 Y93.406
X38.315 Y93.404
X38.373 Y93.402
X38.431 Y93.393
X38.576 Y93.364
X38.653 Y93.343
X39.859 Y93.342
X40.197 Y93.398
X40.294 Y93.406
X60.327 Y93.404
X60.391 Y93.4
X60.455 Y93.39
X60.6 Y93.358
X60.643 Y93.346
X60.656 Y93.342
X61.871
X62.209 Y93.398
X62.306 Y93.406
X82.339 Y93.402
X82.409 Y93.398
X82.479 Y93.386
X82.624 Y93.35
X82.641 Y93.346
X83.884 Y93.343
X84.221 Y93.398
X84.318 Y93.406
X104.302 Y93.405
X104.354 Y93.403
X104.406 Y93.396
X104.55 Y93.371
X104.603 Y93.359
X104.654 Y93.342
X105.895
X106.233 Y93.398
X106.33 Y93.406
X126.314 Y93.405
X126.372 Y93.402
X126.429 Y93.393
X126.574 Y93.365
X126.654 Y93.343
X127.907 Y93.342
X128.245 Y93.398
X128.342 Y93.406
X136.934 Y93.402
X136.993 Y93.399
X137.051 Y93.39
X137.882 Y93.223
X137.95 Y93.205
X138.016 Y93.179
X138.157 Y93.114
X138.24 Y93.067
X138.924 Y92.604
X138.982 Y92.559
X139.035 Y92.508
X139.136 Y92.394
X139.188 Y92.327
X139.628 Y91.664
X139.661 Y91.608
X139.688 Y91.549
X139.746 Y91.4
X139.763 Y91.349
X139.775 Y91.298
X139.934 Y90.469
X139.942 Y90.413
X139.945 Y90.356
Y84.142
X139.938 Y84.046
X139.882 Y83.709
Y82.648
X139.937 Y82.31
X139.944 Y82.216
X139.946 Y62.176
X139.938 Y62.079
X139.882 Y61.742
Y60.542
X139.9 Y60.491
X139.919 Y60.423
X139.93 Y60.354
X139.943 Y60.209
X139.946 Y60.153
Y40.21
X139.938 Y40.113
X139.883 Y39.777
X139.887 Y38.524
X139.905 Y38.47
X139.922 Y38.409
X139.932 Y38.348
X139.942 Y38.252
X139.946 Y38.187
Y18.244
X139.938 Y18.147
X139.882 Y17.81
Y16.545
X139.915 Y16.433
X139.931 Y16.359
X139.938 Y16.283
X139.946 Y15.946
Y15.931
X139.945 Y10.873
X139.942 Y10.817
X139.934 Y10.761
X139.775 Y9.932
X139.763 Y9.88
X139.746 Y9.83
X139.688 Y9.68
X139.66 Y9.62
X139.626 Y9.563
X139.142 Y8.843
X139.098 Y8.785
X139.047 Y8.733
X138.945 Y8.642
X138.875 Y8.588
X138.19 Y8.134
X138.129 Y8.098
X138.064 Y8.07
X137.915 Y8.017
X137.828 Y7.993
X137.049 Y7.839
X136.991 Y7.831
X136.934 Y7.828
X126.941
X126.869 Y7.833
X126.797 Y7.846
X126.652 Y7.882
X126.638 Y7.886
X125.384 Y7.887
X125.273 Y7.855
X125.2 Y7.839
X125.126 Y7.832
X124.885 Y7.824
X124.866
X104.978 Y7.825
X104.924 Y7.827
X104.87 Y7.835
X104.726 Y7.861
X104.677 Y7.872
X104.629 Y7.887
X103.386
X103.334 Y7.87
X103.281 Y7.855
X103.227 Y7.844
X103.13 Y7.831
X103.047 Y7.825
X82.966 Y7.826
X82.906 Y7.829
X82.847 Y7.838
X82.702 Y7.867
X82.634 Y7.886
X82.629 Y7.887
X81.376 Y7.886
X81.325 Y7.868
X81.265 Y7.851
X81.203 Y7.84
X81.107 Y7.829
X81.035 Y7.824
X60.954 Y7.827
X60.888 Y7.83
X60.823 Y7.841
X60.678 Y7.874
X60.629 Y7.887
X59.381
X59.302 Y7.862
X59.241 Y7.846
X59.18 Y7.837
X59.083 Y7.827
X59.023 Y7.824
X38.942 Y7.828
X38.87 Y7.832
X38.799 Y7.846
X38.654 Y7.881
X38.64 Y7.885
X37.385 Y7.887
X37.273 Y7.855
X37.215 Y7.841
X37.156 Y7.834
X37.059 Y7.826
X37.012 Y7.824
X19.084 Y7.826
X19.048 Y7.821
X19.016 Y7.804
X18.989 Y7.779
X18.972 Y7.747
X18.965 Y7.711
X18.93 Y6.632
X18.934 Y6.596
X18.95 Y6.562
X18.975 Y6.535
X19.007 Y6.517
X19.043 Y6.51
X19.069 Y6.508
X137.001 Y6.513
X137.537 Y6.565
X137.696 Y6.589
X137.852 Y6.622
X138.008 Y6.666
X138.158 Y6.72
X138.9 Y7.057
X139.254 Y7.23
X139.405 Y7.322
X139.557 Y7.432
X139.773 Y7.62
X139.868 Y7.717
X140.573 Y8.58
X140.693 Y8.758
X140.77 Y8.89
X140.847 Y9.047
X140.913 Y9.207
X140.962 Y9.354
X141.183 Y10.283
X141.219 Y10.452
X141.243 Y10.608
X141.257 Y10.756
X141.262 Y14.39
Y90.3
X141.258 Y90.464
X141.204 Y91.005
X141.18 Y91.163
X141.146 Y91.319
X141.102 Y91.474
X141.047 Y91.625
X140.71 Y92.366
X140.537 Y92.719
X140.445 Y92.869
X140.336 Y93.021
X140.148 Y93.236
X140.05 Y93.331
X139.184 Y94.036
X139.008 Y94.156
X138.874 Y94.233
X138.717 Y94.31
X138.56 Y94.374
X138.411 Y94.423
X137.479 Y94.645
X137.31 Y94.681
X137.154 Y94.704
X137.005 Y94.717
X19.069 Y94.721
X18.908 Y94.714
X18.752 Y94.697
X18.596 Y94.669
X18.441 Y94.632
X18.285 Y94.583
X18.134 Y94.525
X17.899 Y94.411
X17.66 Y94.262
X17.457 Y94.101
X16.316 Y92.969
X11.697 Y88.35
X11.353 Y87.992
X11.24 Y87.846
X11.079 Y87.592
X10.971 Y87.371
X10.911 Y87.219
X10.862 Y87.064
X10.823 Y86.908
X10.795 Y86.752
X10.777 Y86.597
X10.769 Y86.439
Y14.791
X10.777 Y14.633
X10.795 Y14.477
X10.823 Y14.322
X10.862 Y14.166
X10.911 Y14.011
X10.971 Y13.859
X11.079 Y13.638
X11.238 Y13.386
X11.39 Y13.195
X12.911 Y11.666
X17.153 Y7.423
X17.511 Y7.082
X17.657 Y6.97
X17.899 Y6.819
X18.134 Y6.705
X18.285 Y6.646
X18.441 Y6.598
X18.596 Y6.56
X18.752 Y6.533
X18.908 Y6.516
X19.043 Y6.51
X19.07 Y6.514
X19.093 Y6.529
X19.107 Y6.553
X19.11 Y6.58
X19.102 Y6.606
X19.084 Y6.626
X18.873 Y6.776
X18.573 Y6.899
X18.504 Y6.92
X18.492 Y6.919
X18.484 Y6.91
X18.485 Y6.898
X18.533 Y6.809 Z-3.166 F333.
X18.594 Y6.728 Z-3.17
X18.667 Y6.658 Z-3.173
X18.751 Y6.599 Z-3.177
X18.842 Y6.555 Z-3.181
X18.939 Y6.525 Z-3.184
X19.039 Y6.51 Z-3.188
X19.141 Y6.511 Z-3.191
X19.241 Y6.527 Z-3.195
X19.337 Y6.559 Z-3.198
X19.428 Y6.606 Z-3.202
X19.51 Y6.665 Z-3.205
X19.582 Y6.737 Z-3.209
X19.642 Y6.819 Z-3.212
X19.688 Y6.909 Z-3.216
X19.721 Y7.005 Z-3.22
X19.737 Y7.105 Z-3.223
X19.739 Y7.207 Z-3.227
X19.724 Y7.307 Z-3.23
X19.695 Y7.404 Z-3.234
X19.65 Y7.496 Z-3.237
X19.592 Y7.579 Z-3.241
X19.522 Y7.653 Z-3.244
X19.442 Y7.714 Z-3.248
X19.353 Y7.763 Z-3.252
X19.257 Y7.797 Z-3.255
X19.157 Y7.816 Z-3.259
X19.056 Y7.82 Z-3.262
X18.955 Y7.808 Z-3.266
X18.857 Y7.78 Z-3.269
X18.765 Y7.738 Z-3.273
X18.68 Y7.681 Z-3.276
X18.605 Y7.613 Z-3.28
X18.542 Y7.534 Z-3.283
X18.491 Y7.446 Z-3.287
X18.455 Y7.351 Z-3.291
X18.434 Y7.252 Z-3.294
X18.428 Y7.15 Z-3.298
X18.438 Y7.049 Z-3.301
X18.464 Y6.951 Z-3.305
X18.504 Y6.858 Z-3.308
X18.558 Y6.772 Z-3.312
X18.625 Y6.696 Z-3.315
X18.703 Y6.63 Z-3.319
X18.79 Y6.578 Z-3.323
X18.884 Y6.54 Z-3.326
X18.983 Y6.516 Z-3.33
X19.084 Y6.508 Z-3.333
X137.001 Y6.513 F1499.
X137.537 Y6.565
X137.696 Y6.589
X137.852 Y6.622
X138.008 Y6.666
X138.158 Y6.72
X138.9 Y7.057
X139.254 Y7.23
X139.405 Y7.322
X139.557 Y7.432
X139.773 Y7.62
X139.868 Y7.717
X140.573 Y8.58
X140.693 Y8.758
X140.77 Y8.89
X140.847 Y9.047
X140.913 Y9.207
X140.962 Y9.354
X141.183 Y10.283
X141.219 Y10.452
X141.243 Y10.608
X141.257 Y10.756
X141.262 Y14.39
Y90.3
X141.258 Y90.464
X141.204 Y91.005
X141.18 Y91.163
X141.146 Y91.319
X141.102 Y91.474
X141.047 Y91.625
X140.71 Y92.366
X140.537 Y92.719
X140.445 Y92.869
X140.336 Y93.021
X140.148 Y93.236
X140.05 Y93.331
X139.184 Y94.036
X139.008 Y94.156
X138.874 Y94.233
X138.717 Y94.31
X138.56 Y94.374
X138.411 Y94.423
X137.479 Y94.645
X137.31 Y94.681
X137.154 Y94.704
X137.005 Y94.717
X19.069 Y94.721
X18.908 Y94.714
X18.752 Y94.697
X18.596 Y94.669
X18.441 Y94.632
X18.285 Y94.583
X18.134 Y94.525
X17.899 Y94.411
X17.66 Y94.262
X17.457 Y94.101
X16.316 Y92.969
X11.697 Y88.35
X11.353 Y87.992
X11.24 Y87.846
X11.079 Y87.592
X10.971 Y87.371
X10.911 Y87.219
X10.862 Y87.064
X10.823 Y86.908
X10.795 Y86.752
X10.777 Y86.597
X10.769 Y86.439
Y14.791
X10.777 Y14.633
X10.795 Y14.477
X10.823 Y14.322
X10.862 Y14.166
X10.911 Y14.011
X10.971 Y13.859
X11.079 Y13.638
X11.238 Y13.386
X11.39 Y13.195
X12.911 Y11.666
X17.153 Y7.423
X17.511 Y7.082
X17.657 Y6.97
X17.899 Y6.819
X18.134 Y6.705
X18.285 Y6.646
X18.441 Y6.598
X18.596 Y6.56
X18.752 Y6.533
X18.908 Y6.516
X19.069 Y6.508
X19.084
X19.121 Y6.514
X19.154 Y6.531
X19.18 Y6.557
X19.197 Y6.59
X19.203 Y6.626
X19.213 Y7.7
X19.208 Y7.737
X19.191 Y7.771
X19.165 Y7.797
X19.131 Y7.815
X19.094 Y7.82
X19.054
X18.992 Y7.824
X18.931 Y7.833
X18.786 Y7.864
X18.725 Y7.881
X18.666 Y7.903
X18.569 Y7.947
X18.519 Y7.972
X18.472 Y8.002
X18.375 Y8.07
X18.334 Y8.101
X18.296 Y8.136
X17.471 Y8.959
X17.414 Y9.024
X17.153 Y9.375
X16.347 Y10.181
X15.994 Y10.445
X15.929 Y10.501
X12.455 Y13.975
X12.434 Y13.997
X12.348 Y14.092
X12.312 Y14.136
X12.281 Y14.183
X12.223 Y14.278
X12.193 Y14.335
X12.169 Y14.396
X12.121 Y14.538
X12.102 Y14.608
X12.092 Y14.68
X12.08 Y14.824
X12.078 Y14.872
Y29.034
X12.081 Y29.087
X12.088 Y29.139
X12.147 Y29.472
Y30.667
X12.13 Y30.716
X12.113 Y30.776
X12.101 Y30.838
X12.083 Y30.982
X12.078 Y31.057
X12.08 Y49.844
X12.082 Y49.896
X12.089 Y49.947
X12.147 Y50.281
Y51.333
X12.088 Y51.667
X12.081 Y51.719
X12.079 Y51.771
X12.078 Y71.81
X12.081 Y71.863
X12.088 Y71.915
X12.147 Y72.249
Y73.408
X12.115 Y73.516
X12.099 Y73.58
X12.09 Y73.646
X12.08 Y73.791
X12.078 Y73.834
X12.082 Y86.455
X12.087 Y86.526
X12.099 Y86.596
X12.134 Y86.738
X12.152 Y86.799
X12.177 Y86.857
X12.223 Y86.952
X12.25 Y87.001
X12.281 Y87.047
X12.352 Y87.142
X12.408 Y87.208
X17.041 Y91.84
X17.112 Y91.901
X17.217 Y91.976
X17.291 Y92.023
X17.352 Y92.054
X18.346 Y93.043
X18.397 Y93.087
X18.451 Y93.126
X18.559 Y93.193
X18.621 Y93.227
X18.686 Y93.253
X18.83 Y93.301
X18.898 Y93.319
X18.969 Y93.329
X19.036 Y93.335
X19.166 Y93.376
X19.228 Y93.391
X19.291 Y93.401
X19.387 Y93.409
X19.441 Y93.412
X38.315 Y93.41
X38.373 Y93.407
X38.431 Y93.399
X38.576 Y93.37
X38.624 Y93.358
X38.671 Y93.342
X39.855
X40.189 Y93.402
X40.241 Y93.409
X40.294 Y93.412
X60.327 Y93.409
X60.391 Y93.406
X60.455 Y93.395
X60.6 Y93.363
X60.672 Y93.342
X61.867
X62.201 Y93.402
X62.253 Y93.409
X62.306 Y93.412
X82.339 Y93.408
X82.409 Y93.404
X82.479 Y93.391
X82.624 Y93.356
X82.671 Y93.342
X83.879
X84.213 Y93.402
X84.265 Y93.409
X84.318 Y93.412
X104.302 Y93.411
X104.354 Y93.409
X104.406 Y93.402
X104.55 Y93.376
X104.606 Y93.364
X104.66 Y93.346
X105.891 Y93.343
X106.225 Y93.402
X106.277 Y93.409
X106.33 Y93.412
X126.314 Y93.41
X126.372 Y93.407
X126.429 Y93.399
X126.574 Y93.37
X126.623 Y93.358
X126.671 Y93.342
X127.902
X128.236 Y93.402
X128.289 Y93.409
X128.342 Y93.412
X136.934 Y93.407
X136.993 Y93.404
X137.052 Y93.395
X137.893 Y93.225
X137.964 Y93.206
X138.032 Y93.178
X138.17 Y93.112
X138.246 Y93.069
X138.929 Y92.607
X138.987 Y92.562
X139.039 Y92.511
X139.138 Y92.4
X139.19 Y92.333
X139.629 Y91.674
X139.657 Y91.627
X139.68 Y91.578
X139.734 Y91.454
X139.755 Y91.396
X139.77 Y91.337
X139.934 Y90.522
X139.942 Y90.467
X139.946 Y90.412
X139.952 Y89.93
Y89.923
X139.951 Y84.142
X139.949 Y84.09
X139.942 Y84.038
X139.882 Y83.704
Y82.653
X139.941 Y82.318
X139.948 Y82.267
X139.95 Y82.216
X139.952 Y62.176
X139.949 Y62.123
X139.942 Y62.071
X139.883 Y61.739
X139.886 Y60.546
X139.903 Y60.499
X139.924 Y60.427
X139.935 Y60.354
X139.949 Y60.209
X139.952 Y60.153
Y40.21
X139.949 Y40.157
X139.942 Y40.105
X139.882 Y39.772
Y38.564
X139.915 Y38.456
X139.929 Y38.402
X139.937 Y38.348
X139.948 Y38.252
X139.951 Y38.187
X139.952 Y18.244
X139.949 Y18.191
X139.942 Y18.139
X139.882 Y17.805
Y16.563
X139.9 Y16.514
X139.914 Y16.465
X139.925 Y16.416
X139.941 Y16.319
X139.947 Y16.27
X139.95 Y16.221
X139.951 Y10.874
X139.948 Y10.817
X139.94 Y10.761
X139.779 Y9.926
X139.755 Y9.839
X139.715 Y9.726
X139.69 Y9.668
X139.66 Y9.613
X139.56 Y9.451
X139.547 Y9.431
X139.143 Y8.837
X139.1 Y8.781
X139.05 Y8.73
X138.951 Y8.64
X138.881 Y8.586
X138.2 Y8.134
X138.148 Y8.103
X138.093 Y8.078
X137.969 Y8.028
X137.917 Y8.009
X137.863 Y7.996
X137.05 Y7.834
X136.992 Y7.826
X136.934 Y7.823
X126.942
X126.869 Y7.827
X126.797 Y7.84
X126.652 Y7.876
X126.619 Y7.886
X126.588 Y7.887
X125.403
X125.356 Y7.87
X125.304 Y7.855
X125.251 Y7.843
X125.154 Y7.828
X125.059 Y7.82
X104.978 Y7.819
X104.924 Y7.822
X104.87 Y7.829
X104.726 Y7.856
X104.671 Y7.868
X104.618 Y7.886
X103.394
X103.349 Y7.87
X103.289 Y7.851
X103.227 Y7.839
X103.13 Y7.825
X103.047 Y7.819
X82.966 Y7.82
X82.906 Y7.823
X82.847 Y7.832
X82.702 Y7.862
X82.613 Y7.887
X81.397
X81.325 Y7.863
X81.265 Y7.846
X81.203 Y7.835
X81.107 Y7.823
X81.035 Y7.819
X60.954 Y7.821
X60.888 Y7.825
X60.823 Y7.836
X60.678 Y7.869
X60.614 Y7.887
X59.402
X59.295 Y7.854
X59.238 Y7.84
X59.18 Y7.831
X59.083 Y7.821
X59.023 Y7.818
X38.942 Y7.822
X38.87 Y7.827
X38.799 Y7.84
X38.654 Y7.876
X38.614 Y7.887
X37.404
X37.356 Y7.87
X37.293 Y7.852
X37.229 Y7.84
X37.084 Y7.823
X37.012 Y7.818
X19.094 Y7.82
X19.068 Y7.813
X19.049 Y7.795
X19.042 Y7.769
X19.049 Y7.743
X19.171 Y7.529
X19.441 Y7.05
X19.562 Y6.837
X19.581 Y6.818
X19.607 Y6.811
X19.633 Y6.818
X19.652 Y6.837
X19.696 Y6.929 Z-3.337 F333.
X19.725 Y7.027 Z-3.34
X19.739 Y7.128 Z-3.344
X19.736 Y7.23 Z-3.347
X19.718 Y7.33 Z-3.351
X19.685 Y7.427 Z-3.355
X19.637 Y7.517 Z-3.358
X19.575 Y7.598 Z-3.362
X19.502 Y7.669 Z-3.365
X19.419 Y7.728 Z-3.369
X19.327 Y7.773 Z-3.372
X19.23 Y7.803 Z-3.376
X19.129 Y7.818 Z-3.379
X19.027 Y7.817 Z-3.383
X18.926 Y7.8 Z-3.387
X18.829 Y7.768 Z-3.39
X18.739 Y7.721 Z-3.394
X18.657 Y7.661 Z-3.397
X18.585 Y7.588 Z-3.401
X18.525 Y7.506 Z-3.404
X18.479 Y7.415 Z-3.408
X18.447 Y7.318 Z-3.412
X18.431 Y7.217 Z-3.415
X18.43 Y7.115 Z-3.419
X18.446 Y7.015 Z-3.422
X18.477 Y6.917 Z-3.426
X18.522 Y6.826 Z-3.429
X18.582 Y6.743 Z-3.433
X18.653 Y6.67 Z-3.437
X18.735 Y6.609 Z-3.44
X18.825 Y6.562 Z-3.444
X18.921 Y6.529 Z-3.447
X19.022 Y6.511 Z-3.451
X19.124 Y6.51 Z-3.454
X19.225 Y6.524 Z-3.458
X19.322 Y6.553 Z-3.461
X19.414 Y6.598 Z-3.465
X19.498 Y6.656 Z-3.469
X19.572 Y6.726 Z-3.472
X19.634 Y6.807 Z-3.476
X19.683 Y6.897 Z-3.479
X19.717 Y6.993 Z-3.483
X19.736 Y7.093 Z-3.486
X19.739 Y7.195 Z-3.49
X19.726 Y7.296 Z-3.494
X19.698 Y7.394 Z-3.497
X19.655 Y7.486 Z-3.501
X19.598 Y7.571 Z-3.504
X19.529 Y7.646 Z-3.508
X19.448 Y7.709 Z-3.511
X19.36 Y7.759 Z-3.515
X19.264 Y7.794 Z-3.519
X19.164 Y7.815 Z-3.522
X19.062 Y7.819 Z-3.526
X18.961 Y7.808 Z-3.529
X18.862 Y7.781 Z-3.533
X18.769 Y7.739 Z-3.536
X18.684 Y7.683 Z-3.54
X18.608 Y7.615 Z-3.543
X18.544 Y7.536 Z-3.547
X18.493 Y7.447 Z-3.551
X18.456 Y7.352 Z-3.554
X18.435 Y7.253 Z-3.558
X18.429 Y7.151 Z-3.561
X18.439 Y7.049 Z-3.565
X18.464 Y6.95 Z-3.568
X18.505 Y6.857 Z-3.572
X18.56 Y6.771 Z-3.576
X18.627 Y6.694 Z-3.579
X18.705 Y6.629 Z-3.583
X18.793 Y6.577 Z-3.586
X18.887 Y6.539 Z-3.59
X18.987 Y6.516 Z-3.593
X19.089 Y6.508 Z-3.597
X19.19 Y6.517 Z-3.601
X19.289 Y6.541 Z-3.604
X19.383 Y6.581 Z-3.608
X19.47 Y6.634 Z-3.611
X19.548 Y6.7 Z-3.615
X19.614 Y6.778 Z-3.618
X19.667 Y6.865 Z-3.622
X19.707 Y6.959 Z-3.625
X19.731 Y7.058 Z-3.629
X19.74 Y7.159 Z-3.633
X19.732 Y7.261 Z-3.636
X19.71 Y7.361 Z-3.64
X19.671 Y7.455 Z-3.643
X19.619 Y7.543 Z-3.647
X19.554 Y7.621 Z-3.65
X19.477 Y7.688 Z-3.654
X19.391 Y7.743 Z-3.658
X19.298 Y7.784 Z-3.661
X19.199 Y7.809 Z-3.665
X19.097 Y7.819 Z-3.668
X18.996 Y7.813 Z-3.672
X18.896 Y7.792 Z-3.675
X18.801 Y7.755 Z-3.679
X18.713 Y7.704 Z-3.683
X18.633 Y7.64 Z-3.686
X18.565 Y7.564 Z-3.69
X18.509 Y7.479 Z-3.693
X18.467 Y7.386 Z-3.697
X18.44 Y7.287 Z-3.7
X18.429 Y7.186 Z-3.704
X18.434 Y7.084 Z-3.707
X18.454 Y6.984 Z-3.711
X18.489 Y6.889 Z-3.715
X18.539 Y6.8 Z-3.718
X18.602 Y6.72 Z-3.722
X18.677 Y6.65 Z-3.725
X18.762 Y6.593 Z-3.729
X18.854 Y6.55 Z-3.732
X18.952 Y6.522 Z-3.736
X19.053 Y6.509 Z-3.74
X19.069 Y6.508 F1499.
X35.822
Y7.817
X19.054 Y7.819
X18.993 Y7.823
X18.931 Y7.832
X18.787 Y7.863
X18.725 Y7.879
X18.666 Y7.902
X18.569 Y7.946
X18.52 Y7.971
X18.472 Y8.001
X18.376 Y8.068
X18.335 Y8.099
X18.297 Y8.134
X18.2 Y8.231
X17.276 Y7.307
X17.511 Y7.082
X17.657 Y6.97
X17.899 Y6.819
X18.134 Y6.705
X18.285 Y6.646
X18.441 Y6.598
X18.596 Y6.56
X18.752 Y6.533
X18.908 Y6.516
X19.053 Y6.509
X19.083 Y6.514
X19.109 Y6.53
X19.126 Y6.556
X19.227 Y6.804
X19.247 Y6.831
X19.277 Y6.848
X19.31 Y6.849
X19.574 Y6.801
X19.605 Y6.802
X19.632 Y6.814
X19.652 Y6.837
X19.696 Y6.929 Z-3.743 F333.
X19.725 Y7.027 Z-3.747
X19.739 Y7.128 Z-3.75
X19.736 Y7.23 Z-3.754
X19.718 Y7.33 Z-3.757
X19.685 Y7.427 Z-3.761
X19.637 Y7.517 Z-3.765
X19.575 Y7.598 Z-3.768
X19.502 Y7.669 Z-3.772
X19.419 Y7.728 Z-3.775
X19.327 Y7.773 Z-3.779
X19.23 Y7.803 Z-3.782
X19.129 Y7.818 Z-3.786
X19.027 Y7.817 Z-3.789
X18.926 Y7.8 Z-3.793
X18.829 Y7.768 Z-3.797
X18.739 Y7.721 Z-3.8
X18.657 Y7.661 Z-3.804
X18.585 Y7.588 Z-3.807
X18.525 Y7.506 Z-3.811
X18.479 Y7.415 Z-3.814
X18.447 Y7.318 Z-3.818
X18.431 Y7.217 Z-3.822
X18.43 Y7.115 Z-3.825
X18.446 Y7.015 Z-3.829
X18.477 Y6.917 Z-3.832
X18.522 Y6.826 Z-3.836
X18.582 Y6.743 Z-3.839
X18.653 Y6.67 Z-3.843
X18.735 Y6.609 Z-3.846
X18.825 Y6.562 Z-3.85
X18.921 Y6.529 Z-3.854
X19.022 Y6.511 Z-3.857
X19.124 Y6.51 Z-3.861
X19.225 Y6.524 Z-3.864
X19.322 Y6.553 Z-3.868
X19.414 Y6.598 Z-3.871
X19.498 Y6.656 Z-3.875
X19.572 Y6.726 Z-3.879
X19.634 Y6.807 Z-3.882
X19.683 Y6.897 Z-3.886
X19.717 Y6.993 Z-3.889
X19.736 Y7.093 Z-3.893
X19.739 Y7.195 Z-3.896
X19.726 Y7.296 Z-3.9
X19.698 Y7.394 Z-3.904
X19.655 Y7.486 Z-3.907
X19.598 Y7.571 Z-3.911
X19.529 Y7.646 Z-3.914
X19.448 Y7.709 Z-3.918
X19.36 Y7.759 Z-3.921
X19.264 Y7.794 Z-3.925
X19.164 Y7.815 Z-3.928
X19.062 Y7.819 Z-3.932
X18.961 Y7.808 Z-3.936
X18.862 Y7.781 Z-3.939
X18.769 Y7.739 Z-3.943
X18.684 Y7.683 Z-3.946
X18.608 Y7.615 Z-3.95
X18.544 Y7.536 Z-3.953
X18.493 Y7.447 Z-3.957
X18.456 Y7.352 Z-3.961
X18.435 Y7.253 Z-3.964
X18.429 Y7.151 Z-3.968
X18.439 Y7.049 Z-3.971
X18.464 Y6.95 Z-3.975
X18.505 Y6.857 Z-3.978
X18.56 Y6.771 Z-3.982
X18.627 Y6.694 Z-3.986
X18.705 Y6.629 Z-3.989
X18.793 Y6.577 Z-3.993
X18.887 Y6.539 Z-3.996
X18.987 Y6.516 Z-4.
X19.089 Y6.508 Z-4.003
X19.19 Y6.517 Z-4.007
X19.289 Y6.541 Z-4.01
X19.383 Y6.581 Z-4.014
X19.47 Y6.634 Z-4.018
X19.548 Y6.7 Z-4.021
X19.614 Y6.778 Z-4.025
X19.667 Y6.865 Z-4.028
X19.707 Y6.959 Z-4.032
X19.731 Y7.058 Z-4.035
X19.74 Y7.159 Z-4.039
X19.732 Y7.261 Z-4.043
X19.71 Y7.361 Z-4.046
X19.671 Y7.455 Z-4.05
X19.619 Y7.543 Z-4.053
X19.554 Y7.621 Z-4.057
X19.477 Y7.688 Z-4.06
X19.391 Y7.743 Z-4.064
X19.298 Y7.784 Z-4.068
X19.199 Y7.809 Z-4.071
X19.097 Y7.819 Z-4.075
X18.996 Y7.813 Z-4.078
X18.896 Y7.792 Z-4.082
X18.801 Y7.755 Z-4.085
X18.713 Y7.704 Z-4.089
X18.633 Y7.64 Z-4.092
X18.565 Y7.564 Z-4.096
X18.509 Y7.479 Z-4.1
X18.467 Y7.386 Z-4.103
X18.44 Y7.287 Z-4.107
X18.429 Y7.186 Z-4.11
X18.434 Y7.084 Z-4.114
X18.454 Y6.984 Z-4.117
X18.489 Y6.889 Z-4.121
X18.539 Y6.8 Z-4.125
X18.602 Y6.72 Z-4.128
X18.677 Y6.65 Z-4.132
X18.762 Y6.593 Z-4.135
X18.854 Y6.55 Z-4.139
X18.952 Y6.522 Z-4.142
X19.053 Y6.509 Z-4.146
X19.069 Y6.508 F1499.
X35.822
Y7.817
X19.054 Y7.819
X18.993 Y7.823
X18.931 Y7.832
X18.787 Y7.863
X18.725 Y7.879
X18.666 Y7.902
X18.569 Y7.946
X18.52 Y7.971
X18.472 Y8.001
X18.376 Y8.068
X18.335 Y8.099
X18.297 Y8.134
X18.2 Y8.231
X17.276 Y7.307
X17.511 Y7.082
X17.657 Y6.97
X17.899 Y6.819
X18.134 Y6.705
X18.285 Y6.646
X18.441 Y6.598
X18.596 Y6.56
X18.752 Y6.533
X18.908 Y6.516
X19.053 Y6.509
X19.083 Y6.514
X19.109 Y6.53
X19.126 Y6.556
X19.227 Y6.804
X19.247 Y6.831
X19.277 Y6.848
X19.31 Y6.849
X19.574 Y6.801
X19.605 Y6.802
X19.632 Y6.814
X19.652 Y6.837
X19.696 Y6.929 Z-4.15 F333.
X19.725 Y7.027 Z-4.153
X19.739 Y7.128 Z-4.157
X19.736 Y7.23 Z-4.16
X19.718 Y7.33 Z-4.164
X19.685 Y7.427 Z-4.167
X19.637 Y7.517 Z-4.171
X19.575 Y7.598 Z-4.174
X19.502 Y7.669 Z-4.178
X19.419 Y7.728 Z-4.182
X19.327 Y7.773 Z-4.185
X19.23 Y7.803 Z-4.189
X19.129 Y7.818 Z-4.192
X19.027 Y7.817 Z-4.196
X18.926 Y7.8 Z-4.199
X18.829 Y7.768 Z-4.203
X18.739 Y7.721 Z-4.207
X18.657 Y7.661 Z-4.21
X18.585 Y7.588 Z-4.214
X18.525 Y7.506 Z-4.217
X18.479 Y7.415 Z-4.221
X18.447 Y7.318 Z-4.224
X18.431 Y7.217 Z-4.228
X18.43 Y7.115 Z-4.232
X18.446 Y7.015 Z-4.235
X18.477 Y6.917 Z-4.239
X18.522 Y6.826 Z-4.242
X18.582 Y6.743 Z-4.246
X18.653 Y6.67 Z-4.249
X18.735 Y6.609 Z-4.253
X18.825 Y6.562 Z-4.256
X18.921 Y6.529 Z-4.26
X19.022 Y6.511 Z-4.264
X19.124 Y6.51 Z-4.267
X19.225 Y6.524 Z-4.271
X19.322 Y6.553 Z-4.274
X19.414 Y6.598 Z-4.278
X19.498 Y6.656 Z-4.281
X19.572 Y6.726 Z-4.285
X19.634 Y6.807 Z-4.289
X19.683 Y6.897 Z-4.292
X19.717 Y6.993 Z-4.296
X19.736 Y7.093 Z-4.299
X19.739 Y7.195 Z-4.303
X19.726 Y7.296 Z-4.306
X19.698 Y7.394 Z-4.31
X19.655 Y7.486 Z-4.314
X19.598 Y7.571 Z-4.317
X19.529 Y7.646 Z-4.321
X19.448 Y7.709 Z-4.324
X19.36 Y7.759 Z-4.328
X19.264 Y7.794 Z-4.331
X19.164 Y7.815 Z-4.335
X19.062 Y7.819 Z-4.338
X18.961 Y7.808 Z-4.342
X18.862 Y7.781 Z-4.346
X18.769 Y7.739 Z-4.349
X18.684 Y7.683 Z-4.353
X18.608 Y7.615 Z-4.356
X18.544 Y7.536 Z-4.36
X18.493 Y7.447 Z-4.363
X18.456 Y7.352 Z-4.367
X18.435 Y7.253 Z-4.371
X18.429 Y7.151 Z-4.374
X18.439 Y7.049 Z-4.378
X18.464 Y6.95 Z-4.381
X18.505 Y6.857 Z-4.385
X18.56 Y6.771 Z-4.388
X18.627 Y6.694 Z-4.392
X18.705 Y6.629 Z-4.395
X18.793 Y6.577 Z-4.399
X18.887 Y6.539 Z-4.403
X18.987 Y6.516 Z-4.406
X19.089 Y6.508 Z-4.41
X19.19 Y6.517 Z-4.413
X19.289 Y6.541 Z-4.417
X19.383 Y6.581 Z-4.42
X19.47 Y6.634 Z-4.424
X19.548 Y6.7 Z-4.428
X19.614 Y6.778 Z-4.431
X19.667 Y6.865 Z-4.435
X19.707 Y6.959 Z-4.438
X19.731 Y7.058 Z-4.442
X19.74 Y7.159 Z-4.445
X19.732 Y7.261 Z-4.449
X19.71 Y7.361 Z-4.453
X19.671 Y7.455 Z-4.456
X19.619 Y7.543 Z-4.46
X19.554 Y7.621 Z-4.463
X19.477 Y7.688 Z-4.467
X19.391 Y7.743 Z-4.47
X19.298 Y7.784 Z-4.474
X19.199 Y7.809 Z-4.477
X19.097 Y7.819 Z-4.481
X18.996 Y7.813 Z-4.485
X18.896 Y7.792 Z-4.488
X18.801 Y7.755 Z-4.492
X18.713 Y7.704 Z-4.495
X18.633 Y7.64 Z-4.499
X18.565 Y7.564 Z-4.502
X18.509 Y7.479 Z-4.506
X18.467 Y7.386 Z-4.51
X18.44 Y7.287 Z-4.513
X18.429 Y7.186 Z-4.517
X18.434 Y7.084 Z-4.52
X18.454 Y6.984 Z-4.524
X18.489 Y6.889 Z-4.527
X18.539 Y6.8 Z-4.531
X18.602 Y6.72 Z-4.535
X18.677 Y6.65 Z-4.538
X18.762 Y6.593 Z-4.542
X18.854 Y6.55 Z-4.545
X18.952 Y6.522 Z-4.549
X19.053 Y6.509 Z-4.552
X19.069 Y6.508 F1499.
X35.822
Y7.817
X19.054 Y7.819
X18.993 Y7.823
X18.931 Y7.832
X18.787 Y7.863
X18.725 Y7.879
X18.666 Y7.902
X18.569 Y7.946
X18.52 Y7.971
X18.472 Y8.001
X18.376 Y8.068
X18.335 Y8.099
X18.297 Y8.134
X18.2 Y8.231
X17.276 Y7.307
X17.511 Y7.082
X17.657 Y6.97
X17.899 Y6.819
X18.134 Y6.705
X18.285 Y6.646
X18.441 Y6.598
X18.596 Y6.56
X18.752 Y6.533
X18.908 Y6.516
X19.053 Y6.509
X19.083 Y6.514
X19.109 Y6.53
X19.126 Y6.556
X19.227 Y6.804
X19.247 Y6.831
X19.277 Y6.848
X19.31 Y6.849
X19.574 Y6.801
X19.605 Y6.802
X19.632 Y6.814
X19.652 Y6.837
X19.696 Y6.929 Z-4.556 F333.
X19.725 Y7.027 Z-4.559
X19.739 Y7.128 Z-4.563
X19.736 Y7.23 Z-4.567
X19.718 Y7.33 Z-4.57
X19.685 Y7.427 Z-4.574
X19.637 Y7.517 Z-4.577
X19.575 Y7.598 Z-4.581
X19.502 Y7.669 Z-4.584
X19.419 Y7.728 Z-4.588
X19.327 Y7.773 Z-4.592
X19.23 Y7.803 Z-4.595
X19.129 Y7.818 Z-4.599
X19.027 Y7.817 Z-4.602
X18.926 Y7.8 Z-4.606
X18.829 Y7.768 Z-4.609
X18.739 Y7.721 Z-4.613
X18.657 Y7.661 Z-4.617
X18.585 Y7.588 Z-4.62
X18.525 Y7.506 Z-4.624
X18.479 Y7.415 Z-4.627
X18.447 Y7.318 Z-4.631
X18.431 Y7.217 Z-4.634
X18.43 Y7.115 Z-4.638
X18.446 Y7.015 Z-4.641
X18.477 Y6.917 Z-4.645
X18.522 Y6.826 Z-4.649
X18.582 Y6.743 Z-4.652
X18.653 Y6.67 Z-4.656
X18.735 Y6.609 Z-4.659
X18.825 Y6.562 Z-4.663
X18.921 Y6.529 Z-4.666
X19.022 Y6.511 Z-4.67
X19.124 Y6.51 Z-4.674
X19.225 Y6.524 Z-4.677
X19.322 Y6.553 Z-4.681
X19.414 Y6.598 Z-4.684
X19.498 Y6.656 Z-4.688
X19.572 Y6.726 Z-4.691
X19.634 Y6.807 Z-4.695
X19.683 Y6.897 Z-4.699
X19.717 Y6.993 Z-4.702
X19.736 Y7.093 Z-4.706
X19.739 Y7.195 Z-4.709
X19.726 Y7.296 Z-4.713
X19.698 Y7.394 Z-4.716
X19.655 Y7.486 Z-4.72
X19.598 Y7.571 Z-4.723
X19.529 Y7.646 Z-4.727
X19.448 Y7.709 Z-4.731
X19.36 Y7.759 Z-4.734
X19.264 Y7.794 Z-4.738
X19.164 Y7.815 Z-4.741
X19.062 Y7.819 Z-4.745
X18.961 Y7.808 Z-4.748
X18.862 Y7.781 Z-4.752
X18.769 Y7.739 Z-4.756
X18.684 Y7.683 Z-4.759
X18.608 Y7.615 Z-4.763
X18.544 Y7.536 Z-4.766
X18.493 Y7.447 Z-4.77
X18.456 Y7.352 Z-4.773
X18.435 Y7.253 Z-4.777
X18.429 Y7.151 Z-4.781
X18.439 Y7.049 Z-4.784
X18.464 Y6.95 Z-4.788
X18.505 Y6.857 Z-4.791
X18.56 Y6.771 Z-4.795
X18.627 Y6.694 Z-4.798
X18.705 Y6.629 Z-4.802
X18.793 Y6.577 Z-4.805
X18.887 Y6.539 Z-4.809
X18.987 Y6.516 Z-4.813
X19.089 Y6.508 Z-4.816
X19.19 Y6.517 Z-4.82
X19.289 Y6.541 Z-4.823
X19.383 Y6.581 Z-4.827
X19.47 Y6.634 Z-4.83
X19.548 Y6.7 Z-4.834
X19.614 Y6.778 Z-4.838
X19.667 Y6.865 Z-4.841
X19.707 Y6.959 Z-4.845
X19.731 Y7.058 Z-4.848
X19.74 Y7.159 Z-4.852
X19.732 Y7.261 Z-4.855
X19.71 Y7.361 Z-4.859
X19.671 Y7.455 Z-4.862
X19.619 Y7.543 Z-4.866
X19.554 Y7.621 Z-4.87
X19.477 Y7.688 Z-4.873
X19.391 Y7.743 Z-4.877
X19.298 Y7.784 Z-4.88
X19.199 Y7.809 Z-4.884
X19.097 Y7.819 Z-4.887
X18.996 Y7.813 Z-4.891
X18.896 Y7.792 Z-4.895
X18.801 Y7.755 Z-4.898
X18.713 Y7.704 Z-4.902
X18.633 Y7.64 Z-4.905
X18.565 Y7.564 Z-4.909
X18.509 Y7.479 Z-4.912
X18.467 Y7.386 Z-4.916
X18.44 Y7.287 Z-4.92
X18.429 Y7.186 Z-4.923
X18.434 Y7.084 Z-4.927
X18.454 Y6.984 Z-4.93
X18.489 Y6.889 Z-4.934
X18.539 Y6.8 Z-4.937
X18.602 Y6.72 Z-4.941
X18.677 Y6.65 Z-4.944
X18.762 Y6.593 Z-4.948
X18.854 Y6.55 Z-4.952
X18.952 Y6.522 Z-4.955
X19.053 Y6.509 Z-4.959
X19.069 Y6.508 F1499.
X35.822
Y7.817
X19.054 Y7.819
X18.993 Y7.823
X18.931 Y7.832
X18.787 Y7.863
X18.725 Y7.879
X18.666 Y7.902
X18.569 Y7.946
X18.52 Y7.971
X18.472 Y8.001
X18.376 Y8.068
X18.335 Y8.099
X18.297 Y8.134
X18.2 Y8.231
X17.276 Y7.307
X17.511 Y7.082
X17.657 Y6.97
X17.899 Y6.819
X18.134 Y6.705
X18.285 Y6.646
X18.441 Y6.598
X18.596 Y6.56
X18.752 Y6.533
X18.908 Y6.516
X19.053 Y6.509
X19.081 Y6.515
X19.102 Y6.534
X19.112 Y6.56
X19.107 Y6.588
X19.089 Y6.61
X18.906 Y6.742
X18.685 Y6.78
X18.656 Y6.778
X18.633 Y6.762
X18.621 Y6.736
X18.622 Y6.708
X18.637 Y6.684
X18.717 Y6.621 Z-4.962 F333.
X18.806 Y6.57 Z-4.966
X18.902 Y6.534 Z-4.969
X19.002 Y6.514 Z-4.973
X19.104 Y6.509 Z-4.977
X19.206 Y6.52 Z-4.98
X19.304 Y6.546 Z-4.984
X19.398 Y6.588 Z-4.987
X19.483 Y6.644 Z-4.991
X19.559 Y6.712 Z-4.994
X19.624 Y6.792 Z-4.998
X19.675 Y6.88 Z-5.002
X19.712 Y6.976 Z-5.005
X19.734 Y7.075 Z-5.009
X19.74 Y7.178 Z-5.012
X19.729 Y7.279 Z-5.016
X19.704 Y7.378 Z-5.019
X19.663 Y7.472 Z-5.023
X19.608 Y7.558 Z-5.027
X19.54 Y7.635 Z-5.03
X19.462 Y7.7 Z-5.034
X19.374 Y7.752 Z-5.037
X19.279 Y7.79 Z-5.041
X19.179 Y7.813 Z-5.045
X19.077 Y7.819 Z-5.048
X18.975 Y7.81 Z-5.052
X18.876 Y7.785 Z-5.055
X18.782 Y7.746 Z-5.059
X18.695 Y7.691 Z-5.062
X18.618 Y7.625 Z-5.066
X18.552 Y7.546 Z-5.07
X18.499 Y7.459 Z-5.073
X18.46 Y7.364 Z-5.077
X18.436 Y7.265 Z-5.08
X18.429 Y7.163 Z-5.084
X18.437 Y7.061 Z-5.087
X18.461 Y6.962 Z-5.091
X18.5 Y6.867 Z-5.095
X18.553 Y6.78 Z-5.098
X18.619 Y6.702 Z-5.102
X18.696 Y6.635 Z-5.105
X18.783 Y6.581 Z-5.109
X18.878 Y6.542 Z-5.112
X18.977 Y6.517 Z-5.116
X19.079 Y6.508 Z-5.12
X19.181 Y6.516 Z-5.123
X19.28 Y6.538 Z-5.127
X19.375 Y6.576 Z-5.13
X19.463 Y6.629 Z-5.134
X19.541 Y6.694 Z-5.137
X19.609 Y6.771 Z-5.141
X19.664 Y6.857 Z-5.145
X19.704 Y6.951 Z-5.148
X19.73 Y7.05 Z-5.152
X19.74 Y7.152 Z-5.155
X19.733 Y7.254 Z-5.159
X19.712 Y7.354 Z-5.162
X19.674 Y7.449 Z-5.166
X19.623 Y7.537 Z-5.17
X19.558 Y7.617 Z-5.173
X19.482 Y7.685 Z-5.177
X19.396 Y7.74 Z-5.18
X19.303 Y7.782 Z-5.184
X19.204 Y7.808 Z-5.187
X19.102 Y7.819 Z-5.191
X19. Y7.814 Z-5.195
X18.9 Y7.793 Z-5.198
X18.805 Y7.757 Z-5.202
X18.716 Y7.706 Z-5.205
X18.636 Y7.642 Z-5.209
X18.567 Y7.567 Z-5.212
X18.511 Y7.482 Z-5.216
X18.468 Y7.389 Z-5.22
X18.441 Y7.29 Z-5.223
X18.429 Y7.189 Z-5.227
X18.433 Y7.086 Z-5.23
X18.453 Y6.986 Z-5.234
X18.489 Y6.89 Z-5.237
X18.538 Y6.801 Z-5.241
X18.601 Y6.72 Z-5.245
X18.676 Y6.651 Z-5.248
X18.761 Y6.594 Z-5.252
X18.854 Y6.55 Z-5.255
X18.952 Y6.522 Z-5.259
X19.053 Y6.509 Z-5.262
X19.069 Y6.508 F1499.
X35.822
Y7.817
X19.054 Y7.819
X18.993 Y7.823
X18.931 Y7.832
X18.787 Y7.863
X18.725 Y7.879
X18.666 Y7.902
X18.569 Y7.946
X18.52 Y7.971
X18.472 Y8.001
X18.376 Y8.068
X18.335 Y8.099
X18.297 Y8.134
X18.2 Y8.231
X17.276 Y7.307
X17.511 Y7.082
X17.657 Y6.97
X17.899 Y6.819
X18.134 Y6.705
X18.285 Y6.646
X18.441 Y6.598
X18.596 Y6.56
X18.752 Y6.533
X18.908 Y6.516
X19.053 Y6.509
X19.099 Y6.511 Z-5.253
X19.143 Y6.522 Z-5.244
X19.178 Y6.538 Z-5.219
X19.21 Y6.559 Z-5.193
X19.247 Y6.595 Z-5.116
X19.258 Y6.609 Z-5.024
G0 Z5.
X13.29 Y12.777
G1 Z-2.668 F381.
X13.273 Y12.775 Z-2.758 F333.
X13.225 Y12.765 Z-2.834
X13.153 Y12.744 Z-2.886
X13.072 Y12.709 Z-2.906
X12.986 Y12.655 Z-2.91
X12.909 Y12.588 Z-2.914
X12.843 Y12.51 Z-2.917
X12.79 Y12.423 Z-2.921
X12.752 Y12.329 Z-2.924
X12.728 Y12.23 Z-2.928
X12.72 Y12.128 Z-2.931
X12.728 Y12.027 Z-2.935
X12.751 Y11.928 Z-2.938
X12.79 Y11.833 Z-2.942
X12.843 Y11.746 Z-2.946
X12.908 Y11.668 Z-2.949
X12.985 Y11.602 Z-2.953
X13.072 Y11.548 Z-2.956
X13.165 Y11.508 Z-2.96
X13.264 Y11.483 Z-2.963
X13.365 Y11.473 Z-2.967
X13.467 Y11.48 Z-2.971
X13.566 Y11.502 Z-2.974
X13.661 Y11.539 Z-2.978
X13.749 Y11.591 Z-2.981
X13.828 Y11.655 Z-2.985
X13.896 Y11.731 Z-2.988
X13.951 Y11.817 Z-2.992
X13.992 Y11.91 Z-2.995
X14.019 Y12.008 Z-2.999
X14.029 Y12.109 Z-3.003
X14.024 Y12.211 Z-3.006
X14.004 Y12.311 Z-3.01
X13.968 Y12.406 Z-3.013
X13.917 Y12.495 Z-3.017
X13.854 Y12.574 Z-3.02
X13.779 Y12.643 Z-3.024
X13.694 Y12.7 Z-3.027
X13.602 Y12.742 Z-3.031
X13.504 Y12.77 Z-3.035
X13.402 Y12.782 Z-3.038
X13.301 Y12.779 Z-3.042
X13.201 Y12.759 Z-3.045
X13.105 Y12.725 Z-3.049
X13.016 Y12.675 Z-3.052
X12.935 Y12.613 Z-3.056
X12.865 Y12.539 Z-3.06
X12.808 Y12.455 Z-3.063
X12.764 Y12.363 Z-3.067
X12.735 Y12.265 Z-3.07
X12.721 Y12.165 Z-3.074
X12.723 Y12.063 Z-3.077
X12.741 Y11.962 Z-3.081
X12.775 Y11.866 Z-3.084
X12.822 Y11.776 Z-3.088
X12.884 Y11.695 Z-3.092
X12.957 Y11.624 Z-3.095
X13.04 Y11.565 Z-3.099
X13.131 Y11.52 Z-3.102
X13.229 Y11.49 Z-3.106
X13.329 Y11.475 Z-3.109
X13.431 Y11.476 Z-3.113
X13.532 Y11.492 Z-3.116
X13.628 Y11.524 Z-3.12
X13.719 Y11.571 Z-3.124
X13.801 Y11.631 Z-3.127
X13.873 Y11.703 Z-3.131
X13.933 Y11.785 Z-3.134
X13.979 Y11.876 Z-3.138
X14.011 Y11.973 Z-3.141
X14.027 Y12.073 Z-3.145
X14.028 Y12.175 Z-3.149
X14.013 Y12.276 Z-3.152
X13.982 Y12.373 Z-3.156
X13.937 Y12.464 Z-3.159
X13.878 Y12.547 Z-3.163
X13.807 Y12.62 Z-3.166
X13.725 Y12.681 Z-3.17
X13.635 Y12.729 Z-3.173
X13.539 Y12.762 Z-3.177
X13.439 Y12.78 Z-3.181
X13.337 Y12.782 Z-3.184
X13.236 Y12.768 Z-3.188
X13.138 Y12.739 Z-3.191
X13.046 Y12.694 Z-3.195
X12.963 Y12.637 Z-3.198
X12.889 Y12.567 Z-3.202
X12.827 Y12.486 Z-3.205
X12.778 Y12.396 Z-3.209
X12.743 Y12.301 Z-3.213
X12.724 Y12.201 Z-3.216
X12.721 Y12.099 Z-3.22
X12.733 Y11.998 Z-3.223
X12.761 Y11.9 Z-3.227
X12.804 Y11.807 Z-3.23
X12.861 Y11.723 Z-3.234
X12.93 Y11.648 Z-3.238
X13.009 Y11.585 Z-3.241
X13.098 Y11.534 Z-3.245
X13.193 Y11.499 Z-3.248
X13.293 Y11.478 Z-3.252
X13.395 Y11.473 Z-3.255
X13.496 Y11.484 Z-3.259
X13.595 Y11.511 Z-3.262
X13.688 Y11.553 Z-3.266
X13.773 Y11.608 Z-3.27
X13.849 Y11.676 Z-3.273
X13.913 Y11.755 Z-3.277
X13.964 Y11.843 Z-3.28
X14.002 Y11.938 Z-3.284
X14.023 Y12.037 Z-3.287
X14.03 Y12.139 Z-3.291
X14.02 Y12.24 Z-3.295
X13.995 Y12.339 Z-3.298
X13.954 Y12.433 Z-3.302
X13.9 Y12.519 Z-3.305
X13.833 Y12.596 Z-3.309
X13.755 Y12.661 Z-3.312
X13.668 Y12.714 Z-3.316
X13.574 Y12.752 Z-3.319
X13.474 Y12.775 Z-3.323
X13.373 Y12.783 Z-3.327
X13.271 Y12.775 Z-3.33
X13.172 Y12.751 Z-3.334
X13.078 Y12.712 Z-3.337
X12.991 Y12.659 Z-3.341
X12.914 Y12.593 Z-3.344
X12.847 Y12.516 Z-3.348
X12.793 Y12.429 Z-3.351
X12.754 Y12.335 Z-3.355
X12.729 Y12.236 Z-3.359
X12.72 Y12.135 Z-3.362
X12.727 Y12.033 Z-3.366
X12.749 Y11.934 Z-3.369
X12.787 Y11.839 Z-3.373
X12.839 Y11.752 Z-3.376
X12.904 Y11.673 Z-3.38
X12.98 Y11.606 Z-3.384
X13.066 Y11.551 Z-3.387
X13.159 Y11.51 Z-3.391
X13.257 Y11.484 Z-3.394
X13.359 Y11.473 Z-3.398
X13.461 Y11.479 Z-3.401
X13.56 Y11.5 Z-3.405
X13.655 Y11.536 Z-3.408
X13.744 Y11.587 Z-3.412
X13.823 Y11.651 Z-3.416
X13.892 Y11.726 Z-3.419
X13.948 Y11.811 Z-3.423
X13.99 Y11.904 Z-3.426
X14.017 Y12.002 Z-3.43
X14.029 Y12.103 Z-3.433
X14.025 Y12.205 Z-3.437
X14.005 Y12.305 Z-3.44
X13.97 Y12.4 Z-3.444
X13.921 Y12.489 Z-3.448
X13.858 Y12.57 Z-3.451
X13.784 Y12.639 Z-3.455
X13.7 Y12.696 Z-3.458
X13.608 Y12.74 Z-3.462
X13.51 Y12.769 Z-3.465
X13.409 Y12.782 Z-3.469
X13.307 Y12.779 Z-3.473
X13.207 Y12.761 Z-3.476
X13.111 Y12.727 Z-3.48
X13.021 Y12.679 Z-3.483
X12.94 Y12.618 Z-3.487
X12.869 Y12.544 Z-3.49
X12.811 Y12.461 Z-3.494
X12.766 Y12.369 Z-3.497
X12.736 Y12.272 Z-3.501
X12.721 Y12.171 Z-3.505
X12.723 Y12.069 Z-3.508
X12.74 Y11.969 Z-3.512
X12.772 Y11.872 Z-3.515
X12.819 Y11.782 Z-3.519
X12.879 Y11.7 Z-3.522
X12.952 Y11.628 Z-3.526
X13.034 Y11.569 Z-3.529
X13.125 Y11.523 Z-3.533
X13.222 Y11.491 Z-3.537
X13.323 Y11.475 Z-3.54
X13.425 Z-3.544
X13.525 Y11.491 Z-3.547
X13.622 Y11.522 Z-3.551
X13.713 Y11.567 Z-3.554
X13.796 Y11.627 Z-3.558
X13.869 Y11.698 Z-3.562
X13.929 Y11.78 Z-3.565
X13.977 Y11.87 Z-3.569
X14.009 Y11.966 Z-3.572
X14.027 Y12.067 Z-3.576
X14.028 Y12.169 Z-3.579
X14.014 Y12.269 Z-3.583
X13.985 Y12.367 Z-3.586
X13.94 Y12.459 Z-3.59
X13.882 Y12.542 Z-3.594
X13.812 Y12.616 Z-3.597
X13.731 Y12.678 Z-3.601
X13.641 Y12.726 Z-3.604
X13.545 Y12.76 Z-3.608
X13.445 Y12.779 Z-3.611
X13.343 Y12.782 Z-3.615
X13.242 Y12.769 Z-3.618
X13.144 Y12.741 Z-3.622
X13.052 Y12.698 Z-3.626
X12.968 Y12.641 Z-3.629
X12.893 Y12.571 Z-3.633
X12.83 Y12.491 Z-3.636
X12.78 Y12.403 Z-3.64
X12.745 Y12.307 Z-3.643
X12.725 Y12.207 Z-3.647
X12.72 Y12.105 Z-3.651
X12.732 Y12.004 Z-3.654
X12.759 Y11.906 Z-3.658
X12.801 Y11.813 Z-3.661
X12.856 Y11.728 Z-3.665
X12.925 Y11.652 Z-3.668
X13.004 Y11.588 Z-3.672
X13.092 Y11.537 Z-3.675
X13.187 Y11.501 Z-3.679
X13.287 Y11.479 Z-3.683
X13.388 Y11.473 Z-3.686
X13.49 Y11.483 Z-3.69
X13.588 Y11.509 Z-3.693
X13.682 Y11.549 Z-3.697
X13.768 Y11.604 Z-3.7
X13.844 Y11.671 Z-3.704
X13.909 Y11.75 Z-3.708
X13.962 Y11.837 Z-3.711
X14. Y11.932 Z-3.715
X14.022 Y12.031 Z-3.718
X14.03 Y12.132 Z-3.722
X14.021 Y12.234 Z-3.725
X13.997 Y12.333 Z-3.729
X13.958 Y12.427 Z-3.732
X13.904 Y12.514 Z-3.736
X13.838 Y12.591 Z-3.74
X12.408 Y14.021 F1499.
X12.352 Y14.086
X12.281 Y14.181
X12.243 Y14.238
X12.212 Y14.3
X12.15 Y14.443
X12.124 Y14.513
X12.108 Y14.587
X12.085 Y14.73
X12.078 Y14.823
X12.077 Y27.869
X10.768
X10.769 Y14.791
X10.777 Y14.633
X10.795 Y14.477
X10.823 Y14.322
X10.862 Y14.166
X10.911 Y14.011
X10.971 Y13.859
X11.079 Y13.638
X11.238 Y13.386
X11.39 Y13.195
X12.911 Y11.666
X14.175 Y10.402
X15.101 Y11.328
X13.838 Y12.591
X13.813 Y12.607
X13.783 Y12.613
X13.754 Y12.606
X13.515 Y12.493
X13.482 Y12.486
X13.45 Y12.494
X13.424 Y12.516
X13.267 Y12.728
X13.245 Y12.748
X13.216 Y12.758
X13.187 Y12.755
X13.091 Y12.718 Z-3.743 F333.
X13.003 Y12.667 Z-3.747
X12.924 Y12.603 Z-3.75
X12.856 Y12.527 Z-3.754
X12.8 Y12.442 Z-3.757
X12.758 Y12.349 Z-3.761
X12.732 Y12.25 Z-3.765
X12.72 Y12.149 Z-3.768
X12.725 Y12.047 Z-3.772
X12.746 Y11.947 Z-3.775
X12.781 Y11.852 Z-3.779
X12.831 Y11.763 Z-3.782
X12.895 Y11.683 Z-3.786
X12.97 Y11.614 Z-3.789
X13.054 Y11.557 Z-3.793
X13.147 Y11.514 Z-3.797
X13.245 Y11.486 Z-3.8
X13.346 Y11.474 Z-3.804
X13.448 Y11.477 Z-3.807
X13.548 Y11.497 Z-3.811
X13.644 Y11.531 Z-3.814
X13.734 Y11.58 Z-3.818
X13.814 Y11.643 Z-3.822
X13.884 Y11.717 Z-3.825
X13.942 Y11.801 Z-3.829
X13.986 Y11.893 Z-3.832
X14.015 Y11.991 Z-3.836
X14.029 Y12.092 Z-3.839
X14.026 Y12.194 Z-3.843
X14.008 Y12.294 Z-3.846
X13.975 Y12.39 Z-3.85
X13.927 Y12.48 Z-3.854
X13.865 Y12.562 Z-3.857
X13.792 Y12.633 Z-3.861
X13.709 Y12.691 Z-3.864
X13.617 Y12.736 Z-3.868
X13.52 Y12.767 Z-3.871
X13.419 Y12.781 Z-3.875
X13.317 Y12.78 Z-3.879
X13.216 Y12.763 Z-3.882
X13.12 Y12.731 Z-3.886
X13.029 Y12.684 Z-3.889
X12.947 Y12.624 Z-3.893
X12.875 Y12.551 Z-3.896
X12.816 Y12.468 Z-3.9
X12.769 Y12.378 Z-3.904
X12.738 Y12.28 Z-3.907
X12.722 Y12.18 Z-3.911
Y12.078 Z-3.914
X12.738 Y11.977 Z-3.918
X12.769 Y11.88 Z-3.921
X12.815 Y11.789 Z-3.925
X12.874 Y11.706 Z-3.928
X12.946 Y11.633 Z-3.932
X13.028 Y11.573 Z-3.936
X13.118 Y11.526 Z-3.939
X13.215 Y11.493 Z-3.943
X13.315 Y11.476 Z-3.946
X13.417 Y11.475 Z-3.95
X13.518 Y11.489 Z-3.953
X13.616 Y11.519 Z-3.957
X13.707 Y11.564 Z-3.961
X13.791 Y11.622 Z-3.964
X13.864 Y11.693 Z-3.968
X13.926 Y11.774 Z-3.971
X13.974 Y11.864 Z-3.975
X14.008 Y11.96 Z-3.978
X14.026 Y12.061 Z-3.982
X14.029 Y12.163 Z-3.986
X14.015 Y12.264 Z-3.989
X13.987 Y12.362 Z-3.993
X13.943 Y12.454 Z-3.996
X13.885 Y12.538 Z-4.
X13.816 Y12.612 Z-4.003
X13.735 Y12.675 Z-4.007
X13.646 Y12.724 Z-4.01
X13.55 Y12.759 Z-4.014
X13.45 Y12.778 Z-4.018
X13.348 Y12.782 Z-4.021
X13.247 Y12.77 Z-4.025
X13.148 Y12.742 Z-4.028
X13.056 Y12.7 Z-4.032
X12.971 Y12.643 Z-4.035
X12.896 Y12.574 Z-4.039
X12.832 Y12.495 Z-4.043
X12.782 Y12.406 Z-4.046
X12.746 Y12.31 Z-4.05
X12.725 Y12.211 Z-4.053
X12.72 Y12.109 Z-4.057
X12.731 Y12.007 Z-4.06
X12.758 Y11.909 Z-4.064
X12.799 Y11.816 Z-4.068
X12.855 Y11.73 Z-4.071
X12.923 Y11.654 Z-4.075
X13.002 Y11.59 Z-4.078
X13.09 Y11.538 Z-4.082
X13.185 Y11.501 Z-4.085
X13.285 Y11.479 Z-4.089
X13.386 Y11.473 Z-4.092
X13.488 Y11.483 Z-4.096
X13.587 Y11.508 Z-4.1
X13.68 Y11.549 Z-4.103
X13.767 Y11.603 Z-4.107
X13.843 Y11.67 Z-4.11
X13.909 Y11.749 Z-4.114
X13.961 Y11.836 Z-4.117
X13.999 Y11.931 Z-4.121
X14.022 Y12.03 Z-4.125
X14.03 Y12.132 Z-4.128
X14.021 Y12.233 Z-4.132
X13.997 Y12.332 Z-4.135
X13.958 Y12.427 Z-4.139
X13.904 Y12.513 Z-4.142
X13.838 Y12.591 Z-4.146
X12.408 Y14.021 F1499.
X12.352 Y14.086
X12.281 Y14.181
X12.243 Y14.238
X12.212 Y14.3
X12.15 Y14.443
X12.124 Y14.513
X12.108 Y14.587
X12.085 Y14.73
X12.078 Y14.823
X12.077 Y27.869
X10.768
X10.769 Y14.791
X10.777 Y14.633
X10.795 Y14.477
X10.823 Y14.322
X10.862 Y14.166
X10.911 Y14.011
X10.971 Y13.859
X11.079 Y13.638
X11.238 Y13.386
X11.39 Y13.195
X12.911 Y11.666
X14.175 Y10.402
X15.101 Y11.328
X13.838 Y12.591
X13.813 Y12.607
X13.783 Y12.613
X13.754 Y12.606
X13.515 Y12.493
X13.482 Y12.486
X13.45 Y12.494
X13.424 Y12.516
X13.267 Y12.728
X13.245 Y12.748
X13.216 Y12.758
X13.187 Y12.755
X13.091 Y12.718 Z-4.15 F333.
X13.003 Y12.667 Z-4.153
X12.924 Y12.603 Z-4.157
X12.856 Y12.527 Z-4.16
X12.8 Y12.442 Z-4.164
X12.758 Y12.349 Z-4.167
X12.732 Y12.25 Z-4.171
X12.72 Y12.149 Z-4.174
X12.725 Y12.047 Z-4.178
X12.746 Y11.947 Z-4.182
X12.781 Y11.852 Z-4.185
X12.831 Y11.763 Z-4.189
X12.895 Y11.683 Z-4.192
X12.97 Y11.614 Z-4.196
X13.054 Y11.557 Z-4.199
X13.147 Y11.514 Z-4.203
X13.245 Y11.486 Z-4.207
X13.346 Y11.474 Z-4.21
X13.448 Y11.477 Z-4.214
X13.548 Y11.497 Z-4.217
X13.644 Y11.531 Z-4.221
X13.734 Y11.58 Z-4.224
X13.814 Y11.643 Z-4.228
X13.884 Y11.717 Z-4.232
X13.942 Y11.801 Z-4.235
X13.986 Y11.893 Z-4.239
X14.015 Y11.991 Z-4.242
X14.029 Y12.092 Z-4.246
X14.026 Y12.194 Z-4.249
X14.008 Y12.294 Z-4.253
X13.975 Y12.39 Z-4.256
X13.927 Y12.48 Z-4.26
X13.865 Y12.562 Z-4.264
X13.792 Y12.633 Z-4.267
X13.709 Y12.691 Z-4.271
X13.617 Y12.736 Z-4.274
X13.52 Y12.767 Z-4.278
X13.419 Y12.781 Z-4.281
X13.317 Y12.78 Z-4.285
X13.216 Y12.763 Z-4.289
X13.12 Y12.731 Z-4.292
X13.029 Y12.684 Z-4.296
X12.947 Y12.624 Z-4.299
X12.875 Y12.551 Z-4.303
X12.816 Y12.468 Z-4.306
X12.769 Y12.378 Z-4.31
X12.738 Y12.28 Z-4.314
X12.722 Y12.18 Z-4.317
Y12.078 Z-4.321
X12.738 Y11.977 Z-4.324
X12.769 Y11.88 Z-4.328
X12.815 Y11.789 Z-4.331
X12.874 Y11.706 Z-4.335
X12.946 Y11.633 Z-4.338
X13.028 Y11.573 Z-4.342
X13.118 Y11.526 Z-4.346
X13.215 Y11.493 Z-4.349
X13.315 Y11.476 Z-4.353
X13.417 Y11.475 Z-4.356
X13.518 Y11.489 Z-4.36
X13.616 Y11.519 Z-4.363
X13.707 Y11.564 Z-4.367
X13.791 Y11.622 Z-4.371
X13.864 Y11.693 Z-4.374
X13.926 Y11.774 Z-4.378
X13.974 Y11.864 Z-4.381
X14.008 Y11.96 Z-4.385
X14.026 Y12.061 Z-4.388
X14.029 Y12.163 Z-4.392
X14.015 Y12.264 Z-4.395
X13.987 Y12.362 Z-4.399
X13.943 Y12.454 Z-4.403
X13.885 Y12.538 Z-4.406
X13.816 Y12.612 Z-4.41
X13.735 Y12.675 Z-4.413
X13.646 Y12.724 Z-4.417
X13.55 Y12.759 Z-4.42
X13.45 Y12.778 Z-4.424
X13.348 Y12.782 Z-4.428
X13.247 Y12.77 Z-4.431
X13.148 Y12.742 Z-4.435
X13.056 Y12.7 Z-4.438
X12.971 Y12.643 Z-4.442
X12.896 Y12.574 Z-4.445
X12.832 Y12.495 Z-4.449
X12.782 Y12.406 Z-4.453
X12.746 Y12.31 Z-4.456
X12.725 Y12.211 Z-4.46
X12.72 Y12.109 Z-4.463
X12.731 Y12.007 Z-4.467
X12.758 Y11.909 Z-4.47
X12.799 Y11.816 Z-4.474
X12.855 Y11.73 Z-4.477
X12.923 Y11.654 Z-4.481
X13.002 Y11.59 Z-4.485
X13.09 Y11.538 Z-4.488
X13.185 Y11.501 Z-4.492
X13.285 Y11.479 Z-4.495
X13.386 Y11.473 Z-4.499
X13.488 Y11.483 Z-4.502
X13.587 Y11.508 Z-4.506
X13.68 Y11.549 Z-4.51
X13.767 Y11.603 Z-4.513
X13.843 Y11.67 Z-4.517
X13.909 Y11.749 Z-4.52
X13.961 Y11.836 Z-4.524
X13.999 Y11.931 Z-4.527
X14.022 Y12.03 Z-4.531
X14.03 Y12.132 Z-4.535
X14.021 Y12.233 Z-4.538
X13.997 Y12.332 Z-4.542
X13.958 Y12.427 Z-4.545
X13.904 Y12.513 Z-4.549
X13.838 Y12.591 Z-4.552
X12.408 Y14.021 F1499.
X12.352 Y14.086
X12.281 Y14.181
X12.243 Y14.238
X12.212 Y14.3
X12.15 Y14.443
X12.124 Y14.513
X12.108 Y14.587
X12.085 Y14.73
X12.078 Y14.823
X12.077 Y27.869
X10.768
X10.769 Y14.791
X10.777 Y14.633
X10.795 Y14.477
X10.823 Y14.322
X10.862 Y14.166
X10.911 Y14.011
X10.971 Y13.859
X11.079 Y13.638
X11.238 Y13.386
X11.39 Y13.195
X12.911 Y11.666
X14.175 Y10.402
X15.101 Y11.328
X13.838 Y12.591
X13.813 Y12.607
X13.783 Y12.613
X13.754 Y12.606
X13.515 Y12.493
X13.482 Y12.486
X13.45 Y12.494
X13.424 Y12.516
X13.267 Y12.728
X13.245 Y12.748
X13.216 Y12.758
X13.187 Y12.755
X13.091 Y12.718 Z-4.556 F333.
X13.003 Y12.667 Z-4.559
X12.924 Y12.603 Z-4.563
X12.856 Y12.527 Z-4.567
X12.8 Y12.442 Z-4.57
X12.758 Y12.349 Z-4.574
X12.732 Y12.25 Z-4.577
X12.72 Y12.149 Z-4.581
X12.725 Y12.047 Z-4.584
X12.746 Y11.947 Z-4.588
X12.781 Y11.852 Z-4.592
X12.831 Y11.763 Z-4.595
X12.895 Y11.683 Z-4.599
X12.97 Y11.614 Z-4.602
X13.054 Y11.557 Z-4.606
X13.147 Y11.514 Z-4.609
X13.245 Y11.486 Z-4.613
X13.346 Y11.474 Z-4.617
X13.448 Y11.477 Z-4.62
X13.548 Y11.497 Z-4.624
X13.644 Y11.531 Z-4.627
X13.734 Y11.58 Z-4.631
X13.814 Y11.643 Z-4.634
X13.884 Y11.717 Z-4.638
X13.942 Y11.801 Z-4.641
X13.986 Y11.893 Z-4.645
X14.015 Y11.991 Z-4.649
X14.029 Y12.092 Z-4.652
X14.026 Y12.194 Z-4.656
X14.008 Y12.294 Z-4.659
X13.975 Y12.39 Z-4.663
X13.927 Y12.48 Z-4.666
X13.865 Y12.562 Z-4.67
X13.792 Y12.633 Z-4.674
X13.709 Y12.691 Z-4.677
X13.617 Y12.736 Z-4.681
X13.52 Y12.767 Z-4.684
X13.419 Y12.781 Z-4.688
X13.317 Y12.78 Z-4.691
X13.216 Y12.763 Z-4.695
X13.12 Y12.731 Z-4.699
X13.029 Y12.684 Z-4.702
X12.947 Y12.624 Z-4.706
X12.875 Y12.551 Z-4.709
X12.816 Y12.468 Z-4.713
X12.769 Y12.378 Z-4.716
X12.738 Y12.28 Z-4.72
X12.722 Y12.18 Z-4.723
Y12.078 Z-4.727
X12.738 Y11.977 Z-4.731
X12.769 Y11.88 Z-4.734
X12.815 Y11.789 Z-4.738
X12.874 Y11.706 Z-4.741
X12.946 Y11.633 Z-4.745
X13.028 Y11.573 Z-4.748
X13.118 Y11.526 Z-4.752
X13.215 Y11.493 Z-4.756
X13.315 Y11.476 Z-4.759
X13.417 Y11.475 Z-4.763
X13.518 Y11.489 Z-4.766
X13.616 Y11.519 Z-4.77
X13.707 Y11.564 Z-4.773
X13.791 Y11.622 Z-4.777
X13.864 Y11.693 Z-4.781
X13.926 Y11.774 Z-4.784
X13.974 Y11.864 Z-4.788
X14.008 Y11.96 Z-4.791
X14.026 Y12.061 Z-4.795
X14.029 Y12.163 Z-4.798
X14.015 Y12.264 Z-4.802
X13.987 Y12.362 Z-4.805
X13.943 Y12.454 Z-4.809
X13.885 Y12.538 Z-4.813
X13.816 Y12.612 Z-4.816
X13.735 Y12.675 Z-4.82
X13.646 Y12.724 Z-4.823
X13.55 Y12.759 Z-4.827
X13.45 Y12.778 Z-4.83
X13.348 Y12.782 Z-4.834
X13.247 Y12.77 Z-4.838
X13.148 Y12.742 Z-4.841
X13.056 Y12.7 Z-4.845
X12.971 Y12.643 Z-4.848
X12.896 Y12.574 Z-4.852
X12.832 Y12.495 Z-4.855
X12.782 Y12.406 Z-4.859
X12.746 Y12.31 Z-4.862
X12.725 Y12.211 Z-4.866
X12.72 Y12.109 Z-4.87
X12.731 Y12.007 Z-4.873
X12.758 Y11.909 Z-4.877
X12.799 Y11.816 Z-4.88
X12.855 Y11.73 Z-4.884
X12.923 Y11.654 Z-4.887
X13.002 Y11.59 Z-4.891
X13.09 Y11.538 Z-4.895
X13.185 Y11.501 Z-4.898
X13.285 Y11.479 Z-4.902
X13.386 Y11.473 Z-4.905
X13.488 Y11.483 Z-4.909
X13.587 Y11.508 Z-4.912
X13.68 Y11.549 Z-4.916
X13.767 Y11.603 Z-4.92
X13.843 Y11.67 Z-4.923
X13.909 Y11.749 Z-4.927
X13.961 Y11.836 Z-4.93
X13.999 Y11.931 Z-4.934
X14.022 Y12.03 Z-4.937
X14.03 Y12.132 Z-4.941
X14.021 Y12.233 Z-4.944
X13.997 Y12.332 Z-4.948
X13.958 Y12.427 Z-4.952
X13.904 Y12.513 Z-4.955
X13.838 Y12.591 Z-4.959
X12.408 Y14.021 F1499.
X12.352 Y14.086
X12.281 Y14.181
X12.243 Y14.238
X12.212 Y14.3
X12.15 Y14.443
X12.124 Y14.513
X12.108 Y14.587
X12.085 Y14.73
X12.078 Y14.823
X12.077 Y27.869
X10.768
X10.769 Y14.791
X10.777 Y14.633
X10.795 Y14.477
X10.823 Y14.322
X10.862 Y14.166
X10.911 Y14.011
X10.971 Y13.859
X11.079 Y13.638
X11.238 Y13.386
X11.39 Y13.195
X12.911 Y11.666
X14.175 Y10.402
X15.101 Y11.328
X13.838 Y12.591
X13.805 Y12.614
X13.767 Y12.624
X13.727 Y12.621
X13.691 Y12.604
X13.663 Y12.576
X13.646 Y12.54
X13.642 Y12.501
X13.652 Y12.462
X13.809 Y12.117
X13.831 Y12.084
X13.864 Y12.061
X13.902 Y12.051
X13.942 Y12.053
X13.978 Y12.07
X14.007 Y12.097
X14.024 Y12.133
X14.028 Y12.173
X14.013 Y12.274 Z-4.962 F333.
X13.983 Y12.371 Z-4.966
X13.937 Y12.463 Z-4.969
X13.878 Y12.546 Z-4.973
X13.807 Y12.62 Z-4.977
X13.725 Y12.681 Z-4.98
X13.635 Y12.729 Z-4.984
X13.538 Y12.762 Z-4.987
X13.438 Y12.78 Z-4.991
X13.335 Y12.782 Z-4.994
X13.234 Y12.767 Z-4.998
X13.136 Y12.738 Z-5.002
X13.044 Y12.693 Z-5.005
X12.96 Y12.635 Z-5.009
X12.887 Y12.564 Z-5.012
X12.825 Y12.483 Z-5.016
X12.776 Y12.393 Z-5.019
X12.742 Y12.297 Z-5.023
X12.724 Y12.196 Z-5.027
X12.721 Y12.094 Z-5.03
X12.734 Y11.992 Z-5.034
X12.763 Y11.894 Z-5.037
X12.807 Y11.802 Z-5.041
X12.865 Y11.718 Z-5.045
