(NMJPLATE0PT0PT2_BOTTOM_STEP2_4MM_SIDE1)
(T8  D=4. CR=0. - ZMIN=-5.262 - FLAT END MILL)
G0 G90 G94 G17
G21
G53 G0 Z0.

(POCKET2 6)
M5
T8
M3 S16000
G55
M8
G0 X11.269 Y75.918
Z15.
Z1.508
G1 Z0.933 F380.
Y75.926 Z0.855 F1500.
Y75.949 Z0.78
Y75.986 Z0.711
Y76.035 Z0.651
Y76.096 Z0.601
Y76.165 Z0.564
Y76.24 Z0.541
Y76.318 Z0.533
Y86.425 Z0.521
X11.271 Y86.492
X11.278 Y86.559
X11.303 Y86.747
X11.321 Y86.843
X11.348 Y86.936
X11.412 Y87.125 Z0.52
X11.443 Y87.204
X11.481 Y87.281
X11.55 Y87.406
X11.588 Y87.471
X11.631 Y87.533
X11.727 Y87.658
X11.769 Y87.71
X11.815 Y87.759 Z0.519
X17.734 Y93.678 Z0.509
X17.785 Y93.725
X17.84 Y93.769
X17.965 Y93.864
X18.038 Y93.914
X18.115 Y93.957
X18.29 Y94.046
X18.37 Y94.082 Z0.508
X18.453 Y94.111
X18.602 Y94.156
X18.677 Y94.176
X18.753 Y94.189
X18.905 Y94.21
X18.974 Y94.218
X19.043 Y94.22
X136.942 Y94.219 Z0.365
X137.016 Y94.216
X137.09 Y94.208
X137.222 Y94.188
X137.302 Y94.173
X138.204 Y93.962 Z0.364
X138.28 Y93.941
X138.354 Y93.914
X138.542 Y93.838
X138.621 Y93.802 Z0.363
X138.696 Y93.759
X138.817 Y93.684
X138.869 Y93.648
X138.919 Y93.61
X139.702 Y92.969 Z0.362
X139.777 Y92.901
X139.844 Y92.826
X139.976 Y92.664 Z0.361
X140.017 Y92.61
X140.054 Y92.553
X140.087 Y92.499
X140.14 Y92.4
X140.563 Y91.487 Z0.36
X140.595 Y91.41
X140.62 Y91.331 Z0.359
X140.672 Y91.143
X140.69 Y91.063
X140.702 Y90.981
X140.756 Y90.459 Z0.358
X140.761 Y90.356
X140.76 Y10.852 Z0.262
X140.758 Y10.779
X140.75 Y10.707
X140.724 Y10.532
X140.708 Y10.449
X140.498 Y9.552 Z0.261
X140.475 Y9.471
X140.446 Y9.392
X140.366 Y9.204 Z0.26
X140.328 Y9.124
X140.283 Y9.048
X140.202 Y8.923
X140.139 Y8.837
X139.555 Y8.118 Z0.259
X139.477 Y8.033
X139.367 Y7.925 Z0.258
X139.309 Y7.873
X139.249 Y7.826
X139.124 Y7.737
X139.049 Y7.689
X138.97 Y7.647
X138.152 Y7.262 Z0.257
X138.101 Y7.24
X137.913 Y7.164 Z0.256
X137.824 Y7.132
X137.733 Y7.11
X137.544 Y7.072
X137.448 Y7.058
X137.009 Y7.014 Z0.255
X136.91 Y7.009
X19.006 Y7.013 Z0.113
X18.91 Y7.017
X18.814 Y7.032
X18.625 Y7.069
X18.533 Y7.091
X18.443 Y7.123 Z0.112
X18.268 Y7.194
X18.185 Y7.232
X18.106 Y7.277
X17.957 Y7.372
X17.881 Y7.426
X17.81 Y7.487
X17.612 Y7.672 Z0.111
X17.59 Y7.694
X11.958 Y13.325 Z0.102
X11.94 Y13.345
X11.755 Y13.54 Z0.101
X11.696 Y13.608
X11.643 Y13.682
X11.548 Y13.828
X11.502 Y13.906
X11.463 Y13.988
X11.39 Y14.162 Z0.1
X11.358 Y14.252
X11.334 Y14.344
X11.295 Y14.533
X11.279 Y14.631
X11.274 Y14.731
X11.268 Y15.923 Z0.098
X11.269 Y86.425 Z0.013
X11.271 Y86.492
X11.278 Y86.559
X11.303 Y86.747
X11.321 Y86.843
X11.348 Y86.936
X11.412 Y87.125 Z0.012
X11.443 Y87.204
X11.481 Y87.281
X11.55 Y87.406
X11.588 Y87.471
X11.631 Y87.533
X11.727 Y87.658
X11.769 Y87.71
X11.815 Y87.759 Z0.011
X17.734 Y93.678 Z0.001
X17.785 Y93.725
X17.84 Y93.769
X17.965 Y93.864
X18.038 Y93.914
X18.115 Y93.957
X18.29 Y94.046
X18.37 Y94.082 Z0.
X18.453 Y94.111
X18.602 Y94.156
X18.677 Y94.176
X18.753 Y94.189
X18.905 Y94.21
X18.974 Y94.218
X19.043 Y94.22
X136.942 Y94.219 Z-0.143
X137.016 Y94.216
X137.09 Y94.208
X137.222 Y94.188
X137.302 Y94.173
X138.204 Y93.962 Z-0.144
X138.28 Y93.941
X138.354 Y93.914
X138.542 Y93.838
X138.621 Y93.802 Z-0.145
X138.696 Y93.759
X138.817 Y93.684
X138.869 Y93.648
X138.919 Y93.61
X139.702 Y92.969 Z-0.146
X139.777 Y92.901
X139.844 Y92.826
X139.976 Y92.664 Z-0.147
X140.017 Y92.61
X140.054 Y92.553
X140.087 Y92.499
X140.14 Y92.4
X140.563 Y91.487 Z-0.148
X140.595 Y91.41
X140.62 Y91.331 Z-0.149
X140.672 Y91.143
X140.69 Y91.063
X140.702 Y90.981
X140.756 Y90.459 Z-0.15
X140.761 Y90.356
X140.76 Y10.852 Z-0.246
X140.758 Y10.779
X140.75 Y10.707
X140.724 Y10.532
X140.708 Y10.449
X140.498 Y9.552 Z-0.247
X140.475 Y9.471
X140.446 Y9.392
X140.366 Y9.204 Z-0.248
X140.328 Y9.124
X140.283 Y9.048
X140.202 Y8.923
X140.139 Y8.837
X139.555 Y8.118 Z-0.249
X139.477 Y8.033
X139.367 Y7.925 Z-0.25
X139.309 Y7.873
X139.249 Y7.826
X139.124 Y7.737
X139.049 Y7.689
X138.97 Y7.647
X138.152 Y7.262 Z-0.251
X138.101 Y7.24
X137.913 Y7.164 Z-0.252
X137.824 Y7.132
X137.733 Y7.11
X137.544 Y7.072
X137.448 Y7.058
X137.009 Y7.014 Z-0.253
X136.91 Y7.009
X19.006 Y7.013 Z-0.395
X18.91 Y7.017
X18.814 Y7.032
X18.625 Y7.069
X18.533 Y7.091
X18.443 Y7.123 Z-0.396
X18.268 Y7.194
X18.185 Y7.232
X18.106 Y7.277
X17.957 Y7.372
X17.881 Y7.426
X17.81 Y7.487
X17.612 Y7.672 Z-0.397
X17.59 Y7.694
X11.958 Y13.325 Z-0.406
X11.94 Y13.345
X11.755 Y13.54 Z-0.407
X11.696 Y13.608
X11.643 Y13.682
X11.548 Y13.828
X11.502 Y13.906
X11.463 Y13.988
X11.39 Y14.162 Z-0.408
X11.358 Y14.252
X11.334 Y14.344
X11.295 Y14.533
X11.279 Y14.631
X11.274 Y14.731
X11.268 Y15.923 Z-0.41
X11.269 Y86.425 Z-0.495
X11.271 Y86.492
X11.278 Y86.559
X11.303 Y86.747
X11.321 Y86.843
X11.348 Y86.936
X11.412 Y87.125 Z-0.496
X11.443 Y87.204
X11.481 Y87.281
X11.55 Y87.406
X11.588 Y87.471
X11.631 Y87.533
X11.727 Y87.658
X11.769 Y87.71
X11.815 Y87.759 Z-0.497
X17.734 Y93.678 Z-0.507
X17.785 Y93.725
X17.84 Y93.769
X17.965 Y93.864
X18.038 Y93.914
X18.115 Y93.957
X18.29 Y94.046
X18.37 Y94.082 Z-0.508
X18.453 Y94.111
X18.602 Y94.156
X18.718 Y94.184
X18.753 Y94.189
X18.905 Y94.21
X18.974 Y94.218
X19.043 Y94.22
X136.942 Y94.219
X137.016 Y94.216
X137.09 Y94.208
X137.222 Y94.188
X137.302 Y94.173
X138.204 Y93.962
X138.28 Y93.941
X138.354 Y93.914
X138.542 Y93.838
X138.621 Y93.802
X138.696 Y93.759
X138.817 Y93.684
X138.869 Y93.648
X138.919 Y93.61
X139.702 Y92.969
X139.777 Y92.901
X139.844 Y92.826
X139.976 Y92.664
X140.017 Y92.61
X140.054 Y92.553
X140.087 Y92.499
X140.14 Y92.4
X140.563 Y91.487
X140.595 Y91.41
X140.62 Y91.331
X140.672 Y91.143
X140.69 Y91.063
X140.702 Y90.981
X140.756 Y90.459
X140.761 Y90.356
X140.76 Y10.852
X140.758 Y10.779
X140.75 Y10.707
X140.724 Y10.532
X140.708 Y10.449
X140.498 Y9.552
X140.475 Y9.471
X140.446 Y9.392
X140.366 Y9.204
X140.328 Y9.124
X140.283 Y9.048
X140.202 Y8.923
X140.139 Y8.837
X139.555 Y8.118
X139.477 Y8.033
X139.367 Y7.925
X139.309 Y7.873
X139.249 Y7.826
X139.124 Y7.737
X139.049 Y7.689
X138.97 Y7.647
X138.152 Y7.262
X138.101 Y7.24
X137.913 Y7.164
X137.824 Y7.132
X137.733 Y7.11
X137.544 Y7.072
X137.448 Y7.058
X137.009 Y7.014
X136.91 Y7.009
X19.006 Y7.013
X18.91 Y7.017
X18.814 Y7.032
X18.625 Y7.069
X18.533 Y7.091
X18.443 Y7.123
X18.268 Y7.194
X18.185 Y7.232
X18.106 Y7.277
X17.957 Y7.372
X17.881 Y7.426
X17.81 Y7.487
X17.612 Y7.672
X17.59 Y7.694
X11.958 Y13.325
X11.94 Y13.345
X11.755 Y13.54
X11.696 Y13.608
X11.643 Y13.682
X11.548 Y13.828
X11.502 Y13.906
X11.463 Y13.988
X11.39 Y14.162
X11.358 Y14.252
X11.334 Y14.344
X11.295 Y14.533
X11.279 Y14.631
X11.274 Y14.731
X11.268 Y15.923
X11.269 Y86.425
X11.271 Y86.492
X11.278 Y86.559
X11.303 Y86.747
X11.321 Y86.843
X11.348 Y86.936
X11.412 Y87.125
X11.443 Y87.204
X11.481 Y87.281
X11.55 Y87.406
X11.588 Y87.471
X11.631 Y87.533
X11.727 Y87.658
X11.769 Y87.71
X11.815 Y87.759
X17.734 Y93.678
X17.785 Y93.725
X17.84 Y93.769
X17.965 Y93.864
X18.038 Y93.914
X18.115 Y93.957
X18.29 Y94.046
X18.37 Y94.082
X18.453 Y94.111
X18.602 Y94.156
X18.718 Y94.184
G3 X18.881 Y94.415 R0.2
X18.871 Y94.451 R0.2
G1 X18.448 Y95.581
X18.425 Y95.624
X18.394 Y95.661
X18.354 Y95.688
X18.309 Y95.705
X18.26 Y95.711
X17.916
X10.15 Y87.945
Y13.655
X17.916 Y5.889
X136.999
X138.229 Y6.027
X139.3 Y6.402
X140.285 Y7.016
X141.122 Y7.853
X141.736 Y8.837
X142.112 Y9.908
X142.114 Y9.921
X142.186 Y10.587
X142.255 Y11.215
X142.251 Y90.467
X142.113 Y91.688
X141.736 Y92.763
X141.122 Y93.747
X140.285 Y94.584
X139.3 Y95.198
X138.244 Y95.568
X138.104 Y95.587
X136.958 Y95.715
X18.26 Y95.711
X18.227 Y95.704
X18.199 Y95.685
X18.181 Y95.656
X18.175 Y95.622
X18.183 Y95.589
X18.204 Y95.562
X18.234 Y95.545
X18.49 Y95.459
X18.517 Y95.455
X32.323 Y95.475
X32.348 Y95.479
X32.584 Y95.558
X32.612 Y95.574
X32.63 Y95.599
X32.638 Y95.63
X32.633 Y95.661
X32.616 Y95.687
X32.59 Y95.705
X32.559 Y95.712
X18.012 Y95.711 Z-1.016
X17.916
X10.15 Y87.945
Y13.655
X17.916 Y5.889
X136.999
X138.229 Y6.027
X139.3 Y6.402
X140.285 Y7.016
X141.122 Y7.853
X141.736 Y8.837
X142.112 Y9.908
X142.114 Y9.921
X142.186 Y10.587
X142.255 Y11.215
X142.251 Y90.467
X142.113 Y91.688
X141.736 Y92.763
X141.122 Y93.747
X140.285 Y94.584
X139.3 Y95.198
X138.244 Y95.568
X138.104 Y95.587
X136.958 Y95.715
X18.012 Y95.711
G3 X17.812 Y95.511 R0.2
X17.823 Y95.447 R0.2
G1 X18.23 Y94.246
G3 X18.477 Y94.119 R0.2
G1 X18.602 Y94.156
X18.677 Y94.176
X18.753 Y94.189
X18.905 Y94.21
X18.974 Y94.218
X19.043 Y94.22
X136.942 Y94.219
X137.016 Y94.216
X137.09 Y94.208
X137.222 Y94.188
X137.302 Y94.173
X138.204 Y93.962
X138.28 Y93.941
X138.354 Y93.914
X138.542 Y93.838
X138.621 Y93.802
X138.696 Y93.759
X138.817 Y93.684
X138.869 Y93.648
X138.919 Y93.61
X139.702 Y92.969
X139.777 Y92.901
X139.844 Y92.826
X139.976 Y92.664
X140.017 Y92.61
X140.054 Y92.553
X140.087 Y92.499
X140.14 Y92.4
X140.563 Y91.487
X140.595 Y91.41
X140.62 Y91.331
X140.672 Y91.143
X140.69 Y91.063
X140.702 Y90.981
X140.756 Y90.459
X140.761 Y90.356
X140.76 Y10.852
X140.758 Y10.779
X140.75 Y10.707
X140.724 Y10.532
X140.708 Y10.449
X140.498 Y9.552
X140.475 Y9.471
X140.446 Y9.392
X140.366 Y9.204
X140.328 Y9.124
X140.283 Y9.048
X140.202 Y8.923
X140.139 Y8.837
X139.555 Y8.118
X139.477 Y8.033
X139.367 Y7.925
X139.309 Y7.873
X139.249 Y7.826
X139.124 Y7.737
X139.049 Y7.689
X138.97 Y7.647
X138.152 Y7.262
X138.101 Y7.24
X137.913 Y7.164
X137.824 Y7.132
X137.733 Y7.11
X137.544 Y7.072
X137.448 Y7.058
X137.009 Y7.014
X136.91 Y7.009
X19.006 Y7.013
X18.91 Y7.017
X18.814 Y7.032
X18.625 Y7.069
X18.533 Y7.091
X18.443 Y7.123
X18.268 Y7.194
X18.185 Y7.232
X18.106 Y7.277
X17.957 Y7.372
X17.881 Y7.426
X17.81 Y7.487
X17.612 Y7.672
X17.59 Y7.694
X11.958 Y13.325
X11.94 Y13.345
X11.755 Y13.54
X11.696 Y13.608
X11.643 Y13.682
X11.548 Y13.828
X11.502 Y13.906
X11.463 Y13.988
X11.39 Y14.162
X11.358 Y14.252
X11.334 Y14.344
X11.295 Y14.533
X11.279 Y14.631
X11.274 Y14.731
X11.268 Y15.923
X11.269 Y86.425
X11.271 Y86.492
X11.278 Y86.559
X11.303 Y86.747
X11.321 Y86.843
X11.348 Y86.936
X11.412 Y87.125
X11.443 Y87.204
X11.481 Y87.281
X11.55 Y87.406
X11.588 Y87.471
X11.631 Y87.533
X11.727 Y87.658
X11.769 Y87.71
X11.815 Y87.759
X17.734 Y93.678
X17.785 Y93.725
X17.84 Y93.769
X17.965 Y93.864
X18.038 Y93.914
X18.115 Y93.957
X18.29 Y94.046
X18.37 Y94.082
X18.453 Y94.111
X18.477 Y94.119
X18.507 Y94.135
X18.529 Y94.162
X18.538 Y94.195
X18.533 Y94.23
X18.514 Y94.259
X18.486 Y94.279
X18.452 Y94.286
X18.419 Y94.279
X18.243 Y94.203
X18.218 Y94.187
X11.905 Y88.136
X11.792 Y87.927
X11.784 Y87.895
X11.792 Y87.864
X11.812 Y87.839
X11.842 Y87.827
X11.875 Y87.829
X11.902 Y87.846
X17.734 Y93.678 Z-1.304
X17.785 Y93.725 Z-1.306
X17.84 Y93.769 Z-1.309
X17.965 Y93.864 Z-1.314
X18.038 Y93.914 Z-1.317
X18.115 Y93.957 Z-1.321
X18.29 Y94.046 Z-1.327
X18.37 Y94.082 Z-1.33
X18.453 Y94.111 Z-1.334
X18.602 Y94.156 Z-1.339
X18.718 Y94.184 Z-1.343
X18.753 Y94.189
X18.905 Y94.21
X18.974 Y94.218
X19.043 Y94.22
X136.942 Y94.219
X137.016 Y94.216
X137.09 Y94.208
X137.222 Y94.188
X137.302 Y94.173
X138.204 Y93.962
X138.28 Y93.941
X138.354 Y93.914
X138.542 Y93.838
X138.621 Y93.802
X138.696 Y93.759
X138.817 Y93.684
X138.869 Y93.648
X138.919 Y93.61
X139.702 Y92.969
X139.777 Y92.901
X139.844 Y92.826
X139.976 Y92.664
X140.017 Y92.61
X140.054 Y92.553
X140.087 Y92.499
X140.14 Y92.4
X140.563 Y91.487
X140.595 Y91.41
X140.62 Y91.331
X140.672 Y91.143
X140.69 Y91.063
X140.702 Y90.981
X140.756 Y90.459
X140.761 Y90.356
X140.76 Y10.852
X140.758 Y10.779
X140.75 Y10.707
X140.724 Y10.532
X140.708 Y10.449
X140.498 Y9.552
X140.475 Y9.471
X140.446 Y9.392
X140.366 Y9.204
X140.328 Y9.124
X140.283 Y9.048
X140.202 Y8.923
X140.139 Y8.837
X139.555 Y8.118
X139.477 Y8.033
X139.367 Y7.925
X139.309 Y7.873
X139.249 Y7.826
X139.124 Y7.737
X139.049 Y7.689
X138.97 Y7.647
X138.152 Y7.262
X138.101 Y7.24
X137.913 Y7.164
X137.824 Y7.132
X137.733 Y7.11
X137.544 Y7.072
X137.448 Y7.058
X137.009 Y7.014
X136.91 Y7.009
X19.006 Y7.013
X18.91 Y7.017
X18.814 Y7.032
X18.625 Y7.069
X18.533 Y7.091
X18.443 Y7.123
X18.268 Y7.194
X18.185 Y7.232
X18.106 Y7.277
X17.957 Y7.372
X17.881 Y7.426
X17.81 Y7.487
X17.612 Y7.672
X17.59 Y7.694
X11.958 Y13.325
X11.94 Y13.345
X11.755 Y13.54
X11.696 Y13.608
X11.643 Y13.682
X11.548 Y13.828
X11.502 Y13.906
X11.463 Y13.988
X11.39 Y14.162
X11.358 Y14.252
X11.334 Y14.344
X11.295 Y14.533
X11.279 Y14.631
X11.274 Y14.731
X11.268 Y15.923
X11.269 Y86.425
X11.271 Y86.492
X11.278 Y86.559
X11.303 Y86.747
X11.321 Y86.843
X11.348 Y86.936
X11.412 Y87.125
X11.443 Y87.204
X11.481 Y87.281
X11.55 Y87.406
X11.588 Y87.471
X11.631 Y87.533
X11.727 Y87.658
X11.769 Y87.71
X11.815 Y87.759
X17.734 Y93.678
X17.785 Y93.725
X17.84 Y93.769
X17.965 Y93.864
X18.038 Y93.914
X18.115 Y93.957
X18.29 Y94.046
X18.37 Y94.082
X18.453 Y94.111
X18.602 Y94.156
X18.718 Y94.184
G3 X18.881 Y94.415 R0.2
X18.871 Y94.451 R0.2
G1 X18.448 Y95.581
X18.425 Y95.624
X18.394 Y95.661
X18.354 Y95.688
X18.309 Y95.705
X18.26 Y95.711
X17.916
X10.15 Y87.945
Y13.655
X17.916 Y5.889
X136.999
X138.229 Y6.027
X139.3 Y6.402
X140.285 Y7.016
X141.122 Y7.853
X141.736 Y8.837
X142.112 Y9.908
X142.114 Y9.921
X142.186 Y10.587
X142.255 Y11.215
X142.251 Y90.467
X142.113 Y91.688
X141.736 Y92.763
X141.122 Y93.747
X140.285 Y94.584
X139.3 Y95.198
X138.244 Y95.568
X138.104 Y95.587
X136.958 Y95.715
X18.26 Y95.711
X18.227 Y95.704
X18.199 Y95.685
X18.181 Y95.656
X18.175 Y95.622
X18.183 Y95.589
X18.204 Y95.562
X18.234 Y95.545
X18.49 Y95.459
X18.517 Y95.455
X32.323 Y95.475
X32.348 Y95.479
X32.584 Y95.558
X32.612 Y95.574
X32.63 Y95.599
X32.638 Y95.63
X32.633 Y95.661
X32.616 Y95.687
X32.59 Y95.705
X32.559 Y95.712
X18.012 Y95.711 Z-1.851
X17.916
X10.15 Y87.945
Y13.655
X17.916 Y5.889
X136.999
X138.229 Y6.027
X139.3 Y6.402
X140.285 Y7.016
X141.122 Y7.853
X141.736 Y8.836
X142.111 Y9.908
X142.113 Y9.92
X142.186 Y10.588
X142.255 Y11.217
X142.251 Y90.465
X142.113 Y91.689
X141.736 Y92.764
X141.122 Y93.747
X140.285 Y94.584
X139.3 Y95.198
X138.243 Y95.567
X138.104 Y95.587
X136.957 Y95.715
X18.012 Y95.711
G3 X17.812 Y95.511 R0.2
X17.823 Y95.447 R0.2
G1 X18.23 Y94.246
G3 X18.477 Y94.119 R0.2
G1 X18.602 Y94.156
X18.677 Y94.176
X18.753 Y94.189
X18.905 Y94.21
X18.974 Y94.218
X19.043 Y94.22
X136.942 Y94.219
X137.016 Y94.216
X137.09 Y94.208
X137.222 Y94.188
X137.302 Y94.173
X138.204 Y93.962
X138.28 Y93.941
X138.354 Y93.914
X138.542 Y93.838
X138.621 Y93.802
X138.696 Y93.759
X138.817 Y93.684
X138.869 Y93.648
X138.919 Y93.61
X139.702 Y92.969
X139.777 Y92.901
X139.844 Y92.826
X139.976 Y92.664
X140.017 Y92.61
X140.054 Y92.553
X140.087 Y92.499
X140.14 Y92.4
X140.563 Y91.487
X140.595 Y91.41
X140.62 Y91.331
X140.672 Y91.143
X140.69 Y91.063
X140.702 Y90.981
X140.756 Y90.459
X140.761 Y90.356
X140.76 Y10.852
X140.758 Y10.779
X140.75 Y10.707
X140.724 Y10.532
X140.708 Y10.449
X140.498 Y9.552
X140.475 Y9.471
X140.446 Y9.392
X140.366 Y9.204
X140.328 Y9.124
X140.283 Y9.048
X140.202 Y8.923
X140.139 Y8.837
X139.555 Y8.118
X139.477 Y8.033
X139.367 Y7.925
X139.309 Y7.873
X139.249 Y7.826
X139.124 Y7.737
X139.049 Y7.689
X138.97 Y7.647
X138.152 Y7.262
X138.101 Y7.24
X137.913 Y7.164
X137.824 Y7.132
X137.733 Y7.11
X137.544 Y7.072
X137.448 Y7.058
X137.009 Y7.014
X136.91 Y7.009
X19.006 Y7.013
X18.91 Y7.017
X18.814 Y7.032
X18.625 Y7.069
X18.533 Y7.091
X18.443 Y7.123
X18.268 Y7.194
X18.185 Y7.232
X18.106 Y7.277
X17.957 Y7.372
X17.881 Y7.426
X17.81 Y7.487
X17.612 Y7.672
X17.59 Y7.694
X11.958 Y13.325
X11.94 Y13.345
X11.755 Y13.54
X11.696 Y13.608
X11.643 Y13.682
X11.548 Y13.828
X11.502 Y13.906
X11.463 Y13.988
X11.39 Y14.162
X11.358 Y14.252
X11.334 Y14.344
X11.295 Y14.533
X11.279 Y14.631
X11.274 Y14.731
X11.268 Y15.923
X11.269 Y86.425
X11.271 Y86.492
X11.278 Y86.559
X11.303 Y86.747
X11.321 Y86.843
X11.348 Y86.936
X11.412 Y87.125
X11.443 Y87.204
X11.481 Y87.281
X11.55 Y87.406
X11.588 Y87.471
X11.631 Y87.533
X11.727 Y87.658
X11.769 Y87.71
X11.815 Y87.759
X17.734 Y93.678
X17.785 Y93.725
X17.84 Y93.769
X17.965 Y93.864
X18.038 Y93.914
X18.115 Y93.957
X18.29 Y94.046
X18.37 Y94.082
X18.453 Y94.111
X18.477 Y94.119
G3 X18.611 Y94.368 R0.2
X18.407 Y94.51 R0.2
G1 X17.697 Y94.465
X17.657 Y94.459
X17.619 Y94.444
X17.585 Y94.422
G3 X12.917 Y89.83 R30.95
X10.709 Y83.665 R9.713
G1 X10.712 Y83.635
X10.719 Y83.606
X10.905 Y83.047
G3 X11.141 Y82.929 R0.186
X11.269 Y83.106 R0.186
G1 Y86.425 Z-1.967
X11.271 Y86.492 Z-1.969
X11.278 Y86.559 Z-1.972
X11.303 Y86.747 Z-1.978
X11.321 Y86.843 Z-1.982
X11.348 Y86.936 Z-1.985
X11.412 Y87.125 Z-1.992
X11.443 Y87.204 Z-1.995
X11.481 Y87.281 Z-1.998
X11.55 Y87.406 Z-2.003
X11.588 Y87.471 Z-2.006
X11.631 Y87.533 Z-2.008
X11.727 Y87.658 Z-2.014
X11.769 Y87.71 Z-2.016
X11.815 Y87.759 Z-2.019
X17.734 Y93.678 Z-2.311
X17.785 Y93.725 Z-2.313
X17.84 Y93.769 Z-2.316
X17.965 Y93.864 Z-2.321
X18.038 Y93.914 Z-2.324
X18.115 Y93.957 Z-2.327
X18.29 Y94.046 Z-2.334
X18.37 Y94.082 Z-2.337
X18.453 Y94.111 Z-2.34
X18.602 Y94.156 Z-2.346
X18.718 Y94.184 Z-2.35
X18.753 Y94.189
X18.905 Y94.21
X18.974 Y94.218
X19.043 Y94.22
X136.942 Y94.219
X137.016 Y94.216
X137.09 Y94.208
X137.222 Y94.188
X137.302 Y94.173
X138.204 Y93.962
X138.28 Y93.941
X138.354 Y93.914
X138.542 Y93.838
X138.621 Y93.802
X138.696 Y93.759
X138.817 Y93.684
X138.91 Y93.617
X139.349 Y93.266
X139.47 Y93.173
X139.52 Y93.131
X139.731 Y92.944
X139.79 Y92.887
X139.844 Y92.826
X139.976 Y92.664
X140.017 Y92.61
X140.054 Y92.553
X140.087 Y92.499
X140.14 Y92.4
X140.563 Y91.487
X140.595 Y91.41
X140.62 Y91.331
X140.672 Y91.143
X140.69 Y91.063
X140.702 Y90.981
X140.756 Y90.459
X140.761 Y90.356
X140.76 Y10.852
X140.758 Y10.779
X140.75 Y10.707
X140.724 Y10.532
X140.708 Y10.449
X140.498 Y9.552
X140.475 Y9.471
X140.446 Y9.392
X140.366 Y9.204
X140.328 Y9.124
X140.283 Y9.048
X140.202 Y8.923
X140.142 Y8.84
X139.814 Y8.434
X139.703 Y8.29
X139.661 Y8.239
X139.478 Y8.033
X139.428 Y7.98
X139.373 Y7.931
X139.249 Y7.827
X139.188 Y7.78
X139.124 Y7.737
X138.999 Y7.662
X138.899 Y7.609
X138.018 Y7.203
X137.94 Y7.171
X137.858 Y7.146
X137.67 Y7.095
X137.593 Y7.078
X137.515 Y7.067
X137.013 Y7.015
X136.91 Y7.009
X19.006 Y7.013
X18.91 Y7.017
X18.814 Y7.032
X18.625 Y7.069
X18.533 Y7.091
X18.443 Y7.123
X18.268 Y7.194
X18.185 Y7.232
X18.106 Y7.277
X17.957 Y7.372
X17.881 Y7.426
X17.81 Y7.487
X17.612 Y7.672
X17.59 Y7.694
X11.958 Y13.325
X11.94 Y13.345
X11.755 Y13.54
X11.696 Y13.608
X11.643 Y13.682
X11.548 Y13.828
X11.502 Y13.906
X11.463 Y13.988
X11.39 Y14.162
X11.358 Y14.252
X11.334 Y14.344
X11.295 Y14.533
X11.279 Y14.631
X11.274 Y14.731
X11.268 Y15.923
X11.269 Y86.425
X11.271 Y86.492
X11.278 Y86.559
X11.303 Y86.747
X11.321 Y86.843
X11.348 Y86.936
X11.412 Y87.125
X11.443 Y87.204
X11.481 Y87.281
X11.55 Y87.406
X11.588 Y87.471
X11.631 Y87.533
X11.727 Y87.658
X11.769 Y87.71
X11.815 Y87.759
X17.734 Y93.678
X17.785 Y93.725
X17.84 Y93.769
X17.965 Y93.864
X18.038 Y93.914
X18.115 Y93.957
X18.29 Y94.046
X18.37 Y94.082
X18.453 Y94.111
X18.602 Y94.156
X18.718 Y94.184
G3 X18.881 Y94.415 R0.2
X18.871 Y94.451 R0.2
G1 X18.448 Y95.581
X18.426 Y95.624
X18.394 Y95.661
X18.354 Y95.688
X18.309 Y95.705
X18.261 Y95.711
X17.916
X10.15 Y87.945
Y13.655
X17.916 Y5.889
X136.91
X136.999
X138.229 Y6.027
X139.3 Y6.402
X140.285 Y7.016
X141.122 Y7.853
X141.736 Y8.836
X142.111 Y9.908
X142.113 Y9.92
X142.255 Y11.217
X142.251 Y90.465
X142.113 Y91.689
X141.736 Y92.764
X141.122 Y93.747
X140.285 Y94.584
X139.3 Y95.198
X138.243 Y95.567
X138.104 Y95.587
X136.957 Y95.715
X18.261 Y95.711
X18.227 Y95.704
X18.199 Y95.685
X18.181 Y95.656
X18.175 Y95.622
X18.183 Y95.589
X18.204 Y95.562
X18.234 Y95.545
X18.49 Y95.459
X18.517 Y95.455
X32.323 Y95.475
X32.348 Y95.479
X32.584 Y95.558
X32.612 Y95.574
X32.63 Y95.599
X32.638 Y95.63
X32.633 Y95.661
X32.616 Y95.687
X32.59 Y95.705
X32.559 Y95.712
X18.012 Y95.711 Z-2.858
X17.916
X10.15 Y87.945
Y13.655
X17.916 Y5.889
X136.999
X138.229 Y6.027
X139.3 Y6.402
X140.285 Y7.016
X141.122 Y7.853
X141.736 Y8.836
X142.111 Y9.908
X142.113 Y9.92
X142.255 Y11.217
X142.251 Y90.356
Y90.465
X142.113 Y91.689
X141.736 Y92.764
X141.122 Y93.747
X140.285 Y94.584
X139.3 Y95.198
X138.243 Y95.567
X138.104 Y95.587
X136.957 Y95.715
X18.012 Y95.711
G3 X17.812 Y95.511 R0.2
X17.823 Y95.447 R0.2
G1 X18.23 Y94.246
G3 X18.477 Y94.119 R0.2
G1 X18.602 Y94.156
X18.677 Y94.176
X18.753 Y94.189
X18.905 Y94.21
X18.974 Y94.218
X19.043 Y94.22
X136.942 Y94.219
X137.016 Y94.216
X137.09 Y94.208
X137.222 Y94.188
X137.292 Y94.175
X138.069 Y94.002
X138.167 Y93.974
X138.418 Y93.891
X138.513 Y93.854
X138.603 Y93.808
X138.787 Y93.702
X138.849 Y93.662
X138.909 Y93.618
X139.196 Y93.389
X139.436 Y93.219
X139.502 Y93.168
X139.563 Y93.112
X139.732 Y92.943
X139.762 Y92.912
X139.898 Y92.765
X139.951 Y92.702
X139.999 Y92.635
X140.069 Y92.527
X140.103 Y92.472
X140.132 Y92.415
X140.247 Y92.179
X140.336 Y92.038
X140.381 Y91.958
X140.419 Y91.874
X140.494 Y91.686
X140.524 Y91.596
X140.546 Y91.522
X140.603 Y91.383
X140.634 Y91.296
X140.657 Y91.205
X140.696 Y91.017
X140.712 Y90.913
X140.757 Y90.454
X140.761 Y90.356
X140.76 Y10.852
X140.758 Y10.779
X140.75 Y10.707
X140.724 Y10.532
X140.711 Y10.459
X140.538 Y9.688
X140.508 Y9.583
X140.423 Y9.332
X140.391 Y9.252
X140.353 Y9.174
X140.284 Y9.048
X140.243 Y8.981
X140.197 Y8.917
X139.923 Y8.564
X139.801 Y8.386
X139.759 Y8.33
X139.714 Y8.277
X139.616 Y8.171
X139.579 Y8.132
X139.367 Y7.926
X139.311 Y7.874
X139.25 Y7.827
X139.127 Y7.739
X139.06 Y7.695
X138.99 Y7.657
X138.716 Y7.521
X138.569 Y7.429
X138.488 Y7.384
X138.402 Y7.346
X138.214 Y7.272
X138.138 Y7.246
X138.058 Y7.222
X137.913 Y7.164
X137.824 Y7.132
X137.733 Y7.11
X137.544 Y7.072
X137.448 Y7.058
X137.009 Y7.014
X136.91 Y7.009
X19.006 Y7.013
X18.91 Y7.017
X18.814 Y7.032
X18.625 Y7.069
X18.533 Y7.091
X18.443 Y7.123
X18.268 Y7.194
X18.185 Y7.232
X18.106 Y7.277
X17.957 Y7.372
X17.881 Y7.426
X17.81 Y7.487
X17.612 Y7.672
X17.59 Y7.694
X11.958 Y13.325
X11.94 Y13.345
X11.755 Y13.54
X11.696 Y13.608
X11.643 Y13.682
X11.548 Y13.828
X11.502 Y13.906
X11.463 Y13.988
X11.39 Y14.162
X11.358 Y14.252
X11.334 Y14.344
X11.295 Y14.533
X11.279 Y14.631
X11.274 Y14.731
X11.268 Y15.923
X11.269 Y86.425
X11.271 Y86.492
X11.278 Y86.559
X11.303 Y86.747
X11.321 Y86.843
X11.348 Y86.936
X11.412 Y87.125
X11.443 Y87.204
X11.481 Y87.281
X11.55 Y87.406
X11.588 Y87.471
X11.631 Y87.533
X11.727 Y87.658
X11.769 Y87.71
X11.815 Y87.759
X17.734 Y93.678
X17.785 Y93.725
X17.84 Y93.769
X17.965 Y93.864
X18.038 Y93.914
X18.115 Y93.957
X18.29 Y94.046
X18.37 Y94.082
X18.453 Y94.111
X18.477 Y94.119
G3 X18.611 Y94.368 R0.2
X18.407 Y94.51 R0.2
G1 X17.697 Y94.465
X17.657 Y94.459
X17.619 Y94.444
X17.585 Y94.422
G3 X12.994 Y90.17 R41.197
X10.709 Y84.344 R8.569
G1 X10.712 Y84.314
X10.719 Y84.285
X10.905 Y83.725
G3 X11.141 Y83.607 R0.186
X11.269 Y83.784 R0.186
G1 Y86.425 Z-2.95
X11.271 Y86.492 Z-2.953
X11.278 Y86.559 Z-2.955
X11.303 Y86.747 Z-2.962
X11.321 Y86.843 Z-2.965
X11.348 Y86.936 Z-2.968
X11.412 Y87.125 Z-2.975
X11.443 Y87.204 Z-2.978
X11.481 Y87.281 Z-2.981
X11.55 Y87.406 Z-2.986
X11.588 Y87.471 Z-2.989
X11.631 Y87.533 Z-2.992
X11.727 Y87.658 Z-2.997
X11.769 Y87.71 Z-2.999
X11.815 Y87.759 Z-3.002
X17.734 Y93.678 Z-3.294
X17.785 Y93.725 Z-3.296
X17.84 Y93.769 Z-3.299
X17.965 Y93.864 Z-3.304
X18.038 Y93.914 Z-3.307
X18.115 Y93.957 Z-3.311
X18.29 Y94.046 Z-3.317
X18.37 Y94.082 Z-3.32
X18.453 Y94.111 Z-3.324
X18.602 Y94.156 Z-3.329
X18.718 Y94.184 Z-3.333
X18.753 Y94.189
X18.905 Y94.21
X18.974 Y94.218
X19.043 Y94.22
X136.942 Y94.219
X137.03 Y94.215
X137.117 Y94.203
X137.399 Y94.153
X137.422 Y94.149
X138.05 Y94.021
X138.131 Y94.001
X138.211 Y93.974
X138.399 Y93.902
X138.484 Y93.864
X138.673 Y93.771
X138.758 Y93.723
X138.838 Y93.667
X139.049 Y93.505
X139.425 Y93.245
X139.504 Y93.185
X139.577 Y93.117
X139.705 Y92.984
X139.735 Y92.951
X139.818 Y92.857
X139.844 Y92.826
X139.976 Y92.664
X140.035 Y92.583
X140.086 Y92.497
X140.206 Y92.267
X140.349 Y92.043
X140.397 Y91.959
X140.437 Y91.87
X140.51 Y91.682
X140.536 Y91.609
X140.556 Y91.534
X140.571 Y91.466
X140.639 Y91.269
X140.667 Y91.175
X140.685 Y91.077
X140.72 Y90.827
X140.725 Y90.786
X140.757 Y90.452
X140.761 Y90.356
X140.76 Y10.852
X140.758 Y10.779
X140.75 Y10.707
X140.724 Y10.532
X140.715 Y10.478
X140.558 Y9.707
X140.536 Y9.621
X140.507 Y9.536
X140.432 Y9.348
X140.411 Y9.299
X140.353 Y9.174
X140.32 Y9.11
X140.283 Y9.048
X140.202 Y8.923
X140.144 Y8.842
X140.038 Y8.71
X139.823 Y8.393
X139.783 Y8.337
X139.739 Y8.285
X139.642 Y8.176
X139.553 Y8.089
X139.269 Y7.842
X139.207 Y7.793
X139.142 Y7.749
X139.025 Y7.676
X138.93 Y7.624
X138.808 Y7.565
X138.577 Y7.418
X138.49 Y7.369
X138.399 Y7.328
X138.211 Y7.256
X138.139 Y7.231
X138.065 Y7.212
X138.01 Y7.2
X137.89 Y7.155
X137.812 Y7.129
X137.733 Y7.11
X137.544 Y7.072
X137.448 Y7.058
X137.009 Y7.014
X136.91 Y7.009
X19.006 Y7.013
X18.91 Y7.017
X18.814 Y7.032
X18.625 Y7.069
X18.533 Y7.091
X18.443 Y7.123
X18.268 Y7.194
X18.185 Y7.232
X18.106 Y7.277
X17.957 Y7.372
X17.881 Y7.426
X17.81 Y7.487
X17.612 Y7.672
X17.59 Y7.694
X11.958 Y13.325
X11.94 Y13.345
X11.755 Y13.54
X11.696 Y13.608
X11.643 Y13.682
X11.548 Y13.828
X11.502 Y13.906
X11.463 Y13.988
X11.39 Y14.162
X11.358 Y14.252
X11.334 Y14.344
X11.295 Y14.533
X11.279 Y14.631
X11.274 Y14.731
X11.268 Y15.923
X11.269 Y86.425
X11.271 Y86.492
X11.278 Y86.559
X11.303 Y86.747
X11.321 Y86.843
X11.348 Y86.936
X11.412 Y87.125
X11.443 Y87.204
X11.481 Y87.281
X11.55 Y87.406
X11.588 Y87.471
X11.631 Y87.533
X11.727 Y87.658
X11.769 Y87.71
X11.815 Y87.759
X17.734 Y93.678
X17.785 Y93.725
X17.84 Y93.769
X17.965 Y93.864
X18.038 Y93.914
X18.115 Y93.957
X18.29 Y94.046
X18.37 Y94.082
X18.453 Y94.111
X18.602 Y94.156
X18.718 Y94.184
G3 X18.881 Y94.415 R0.2
X18.871 Y94.451 R0.2
G1 X18.448 Y95.581
X18.426 Y95.624
X18.394 Y95.661
X18.354 Y95.688
X18.309 Y95.705
X18.261 Y95.711
X17.916
X10.15 Y87.945
Y13.655
X17.916 Y5.889
X136.999
X138.229 Y6.027
X139.3 Y6.402
X140.285 Y7.016
X141.122 Y7.853
X141.736 Y8.836
X142.111 Y9.908
X142.113 Y9.92
X142.255 Y11.217
X142.251 Y90.465
X142.113 Y91.689
X141.736 Y92.764
X141.122 Y93.747
X140.285 Y94.584
X139.3 Y95.198
X138.243 Y95.567
X138.104 Y95.587
X136.957 Y95.715
X18.261 Y95.711
X18.213 Y95.705
X18.168 Y95.689
X18.129 Y95.662
X18.097 Y95.626
X18.074 Y95.584
X17.66 Y94.517
X17.635 Y94.471
X17.598 Y94.433
G3 X12.959 Y89.999 R35.089
X10.709 Y83.99 R9.15
G1 X10.712 Y83.96
X10.719 Y83.931
X10.905 Y83.372
G3 X11.141 Y83.254 R0.186
X11.269 Y83.431 R0.186
G1 Y86.425 Z-3.438
X11.271 Y86.492 Z-3.44
X11.278 Y86.559 Z-3.442
X11.303 Y86.747 Z-3.449
X11.321 Y86.843 Z-3.452
X11.348 Y86.936 Z-3.456
X11.412 Y87.125 Z-3.463
X11.443 Y87.204 Z-3.466
X11.481 Y87.281 Z-3.469
X11.55 Y87.406 Z-3.474
X11.588 Y87.471 Z-3.476
X11.631 Y87.533 Z-3.479
X11.727 Y87.658 Z-3.485
X11.769 Y87.71 Z-3.487
X11.815 Y87.759 Z-3.489
X15.032 Y90.978 Z-3.648
X14.889 Y91.121 Z-3.655
X11.251 Y87.483 Z-3.835
Y87.303 Z-3.841
Y75.8
X11.268
X11.269 Y86.425
X11.271 Y86.492
X11.278 Y86.559
X11.303 Y86.747
X11.321 Y86.843
X11.348 Y86.936
X11.412 Y87.125
X11.443 Y87.204
X11.481 Y87.281
X11.55 Y87.406
X11.588 Y87.471
X11.631 Y87.533
X11.727 Y87.658
X11.769 Y87.71
X11.815 Y87.759
X15.032 Y90.978
X14.889 Y91.121
X11.251 Y87.483
Y87.303
Y87.225 Z-3.833
Y87.15 Z-3.811
Y87.08 Z-3.774
Y87.02 Z-3.724
Y86.97 Z-3.663
Y86.933 Z-3.594
Y86.91 Z-3.519
Y86.903 Z-3.441
G0 Z5.
X12.593 Y88.825
G1 Z-2.908 F380.
X12.588 Y88.82 Z-2.985 F1500.
X12.572 Y88.804 Z-3.059
X12.546 Y88.779 Z-3.128
X12.512 Y88.744 Z-3.188
X12.47 Y88.702 Z-3.238
X12.421 Y88.654 Z-3.276
X12.369 Y88.601 Z-3.299
X12.315 Y88.547 Z-3.308
X11.251 Y87.483 Z-3.33
Y75.8 Z-3.507
X11.268
X11.269 Y86.425 Z-3.667
X11.271 Y86.492 Z-3.668
X11.278 Y86.559 Z-3.669
X11.303 Y86.747 Z-3.672
X11.321 Y86.843 Z-3.673
X11.348 Y86.936 Z-3.675
X11.412 Y87.125 Z-3.678
X11.443 Y87.204 Z-3.679
X11.481 Y87.281 Z-3.68
X11.55 Y87.406 Z-3.683
X11.588 Y87.471 Z-3.684
X11.631 Y87.533 Z-3.685
X11.727 Y87.658 Z-3.687
X11.769 Y87.71 Z-3.688
X11.815 Y87.759 Z-3.689
X15.032 Y90.978 Z-3.758
X14.889 Y91.121 Z-3.761
X11.251 Y87.483 Z-3.838
Y75.8 Z-4.015
X11.268
X11.269 Y86.425 Z-4.175
X11.271 Y86.492 Z-4.176
X11.278 Y86.559 Z-4.177
X11.303 Y86.747 Z-4.18
X11.321 Y86.843 Z-4.181
X11.348 Y86.936 Z-4.183
X11.412 Y87.125 Z-4.186
X11.443 Y87.204 Z-4.187
X11.481 Y87.281 Z-4.188
X11.55 Y87.406 Z-4.191
X11.588 Y87.471 Z-4.192
X11.631 Y87.533 Z-4.193
X11.727 Y87.658 Z-4.195
X11.769 Y87.71 Z-4.196
X11.815 Y87.759 Z-4.197
X15.032 Y90.978 Z-4.266
X14.889 Y91.121 Z-4.269
X11.251 Y87.483 Z-4.346
Y87.303 Z-4.349
Y75.8
X11.268
X11.269 Y86.425
X11.271 Y86.492
X11.278 Y86.559
X11.303 Y86.747
X11.321 Y86.843
X11.348 Y86.936
X11.412 Y87.125
X11.443 Y87.204
X11.481 Y87.281
X11.55 Y87.406
X11.588 Y87.471
X11.631 Y87.533
X11.727 Y87.658
X11.769 Y87.71
X11.815 Y87.759
X15.032 Y90.978
X14.889 Y91.121
X11.251 Y87.483
Y87.303
Y87.225 Z-4.341
Y87.15 Z-4.319
Y87.08 Z-4.282
Y87.02 Z-4.232
Y86.97 Z-4.171
Y86.933 Z-4.102
Y86.91 Z-4.027
Y86.903 Z-3.949
G0 Z5.
X12.593 Y88.825
G1 Z-3.416 F380.
X12.588 Y88.82 Z-3.493 F1500.
X12.572 Y88.804 Z-3.567
X12.546 Y88.779 Z-3.636
X12.512 Y88.744 Z-3.696
X12.47 Y88.702 Z-3.746
X12.421 Y88.654 Z-3.784
X12.369 Y88.601 Z-3.807
X12.315 Y88.547 Z-3.816
X11.251 Y87.483 Z-3.838
Y75.8 Z-4.015
X11.268
X11.269 Y86.425 Z-4.175
X11.271 Y86.492 Z-4.176
X11.278 Y86.559 Z-4.177
X11.303 Y86.747 Z-4.18
X11.321 Y86.843 Z-4.181
X11.348 Y86.936 Z-4.183
X11.412 Y87.125 Z-4.186
X11.443 Y87.204 Z-4.187
X11.481 Y87.281 Z-4.188
X11.55 Y87.406 Z-4.191
X11.588 Y87.471 Z-4.192
X11.631 Y87.533 Z-4.193
X11.727 Y87.658 Z-4.195
X11.769 Y87.71 Z-4.196
X11.815 Y87.759 Z-4.197
X15.032 Y90.978 Z-4.266
X14.889 Y91.121 Z-4.269
X11.251 Y87.483 Z-4.346
Y75.8 Z-4.523
X11.268
X11.269 Y86.425 Z-4.683
X11.271 Y86.492 Z-4.684
X11.278 Y86.559 Z-4.685
X11.303 Y86.747 Z-4.688
X11.321 Y86.843 Z-4.689
X11.348 Y86.936 Z-4.691
X11.412 Y87.125 Z-4.694
X11.443 Y87.204 Z-4.695
X11.481 Y87.281 Z-4.696
X11.55 Y87.406 Z-4.699
X11.588 Y87.471 Z-4.7
X11.631 Y87.533 Z-4.701
X11.727 Y87.658 Z-4.703
X11.769 Y87.71 Z-4.704
X11.815 Y87.759 Z-4.705
X15.032 Y90.978 Z-4.774
X14.889 Y91.121 Z-4.777
X11.251 Y87.483 Z-4.854
Y87.303 Z-4.857
Y75.8
X11.268
X11.269 Y86.425
X11.271 Y86.492
X11.278 Y86.559
X11.303 Y86.747
X11.321 Y86.843
X11.348 Y86.936
X11.412 Y87.125
X11.443 Y87.204
X11.481 Y87.281
X11.55 Y87.406
X11.588 Y87.471
X11.631 Y87.533
X11.727 Y87.658
X11.769 Y87.71
X11.815 Y87.759
X15.032 Y90.978
X14.889 Y91.121
X11.251 Y87.483
Y87.303
X11.286 Y87.266
X11.26 Y86.379
X11.269 Y86.37
Y86.425 Z-4.859
X11.271 Y86.492 Z-4.861
X11.278 Y86.559 Z-4.864
X11.303 Y86.747 Z-4.87
X11.321 Y86.843 Z-4.874
X11.348 Y86.936 Z-4.877
X11.412 Y87.125 Z-4.884
X11.443 Y87.204 Z-4.887
X11.481 Y87.281 Z-4.89
X11.55 Y87.406 Z-4.895
X11.588 Y87.471 Z-4.898
X11.631 Y87.533 Z-4.9
X11.727 Y87.658 Z-4.906
X11.769 Y87.71 Z-4.908
X11.815 Y87.759 Z-4.911
X15.032 Y90.978 Z-5.069
X14.889 Y91.121 Z-5.077
X11.251 Y87.483 Z-5.256
Y87.303 Z-5.262
Y75.8
X11.268
X11.269 Y86.425
X11.271 Y86.492
X11.278 Y86.559
X11.303 Y86.747
X11.321 Y86.843
X11.348 Y86.936
X11.412 Y87.125
X11.443 Y87.204
X11.481 Y87.281
X11.55 Y87.406
X11.588 Y87.471
X11.631 Y87.533
X11.727 Y87.658
X11.769 Y87.71
X11.815 Y87.759
X15.032 Y90.978
X14.889 Y91.121
X11.251 Y87.483
Y87.303
Y87.225 Z-5.255
Y87.15 Z-5.232
Y87.08 Z-5.195
Y87.02 Z-5.145
Y86.97 Z-5.085
Y86.933 Z-5.016
Y86.91 Z-4.941
Y86.903 Z-4.863
G0 Z5.
X21.078 Y94.609
G1 Z-2.4 F380.
X21.07 Z-2.477 F1500.
X21.048 Z-2.551
X21.011 Z-2.62
X20.963 Z-2.68
X20.903 Z-2.73
X20.835 Z-2.768
X20.761 Z-2.791
X20.684 Z-2.8
X19.886 Z-2.812
X20.273 Y94.222 Z-2.82
X36.272 Z-3.064
Y94.609 Z-3.07
X19.886 Z-3.32
X20.273 Y94.222 Z-3.328
X36.272 Z-3.572
Y94.609 Z-3.578
X19.886 Z-3.828
X20.273 Y94.222 Z-3.836
X20.593 Z-3.841
X36.272
Y94.609
X19.886
X20.273 Y94.222
X20.593
X20.615 Y94.226
X20.634 Y94.236
X20.648 Y94.252
X20.733 Y94.386
X20.747 Y94.402
X20.766 Y94.412
X20.787 Y94.416
X33.371
X33.585 Y94.484
X33.611 Y94.499
X33.626 Y94.525
X33.629 Y94.555
X33.617 Y94.583
X33.594 Y94.602
X33.565 Y94.609
X19.886 Z-4.319
X20.273 Y94.222 Z-4.338
X20.593 Z-4.349
X36.272
Y94.609
X19.886
X20.273 Y94.222
X20.593
X20.615 Y94.226
X20.634 Y94.236
X20.648 Y94.252
X20.733 Y94.386
X20.747 Y94.402
X20.766 Y94.412
X20.787 Y94.416
X33.371
X33.585 Y94.484
X33.611 Y94.499
X33.626 Y94.525
X33.629 Y94.555
X33.617 Y94.583
X33.594 Y94.602
X33.565 Y94.609
X19.886 Z-4.827
X20.273 Y94.222 Z-4.846
X20.593 Z-4.857
X36.272
Y94.609
X19.886
X20.273 Y94.222
X20.593
X20.615 Y94.226
X20.634 Y94.236
X20.648 Y94.252
X20.733 Y94.386
X20.747 Y94.402
X20.766 Y94.412
X20.787 Y94.416
X30.432
X30.646 Y94.484
X30.671 Y94.499
X30.687 Y94.525
X30.689 Y94.555
X30.678 Y94.583
X30.655 Y94.602
X30.625 Y94.609
X19.886 Z-5.232
X20.273 Y94.222 Z-5.251
X20.593 Z-5.262
X36.272
Y94.609
X19.886
X20.273 Y94.222
X20.593
X20.671 Z-5.255
X20.746 Z-5.232
X20.816 Z-5.195
X20.876 Z-5.145
X20.926 Z-5.085
X20.963 Z-5.016
X20.986 Z-4.941
X20.993 Z-4.863
G0 Z5.
X43.483 Y94.609
G1 Z-2.4 F380.
X43.476 Z-2.477 F1500.
X43.454 Z-2.551
X43.417 Z-2.62
X43.368 Z-2.68
X43.309 Z-2.73
X43.241 Z-2.768
X43.167 Z-2.791
X43.09 Z-2.8
X42.272 Z-2.812
Y94.222 Z-2.818
X58.272 Z-3.066
Y94.609 Z-3.072
X42.272 Z-3.32
Y94.222 Z-3.326
X58.272 Z-3.574
Y94.609 Z-3.58
X42.272 Z-3.828
Y94.222 Z-3.834
X42.706 Z-3.841
X58.272
Y94.609
X42.272
Y94.222
X42.706
X42.727 Y94.226
X42.746 Y94.236
X42.76 Y94.252
X42.845 Y94.386
X42.859 Y94.402
X42.878 Y94.412
X42.899 Y94.416
X55.804
X56.018 Y94.484
X56.044 Y94.499
X56.06 Y94.525
X56.062 Y94.555
X56.05 Y94.583
X56.027 Y94.602
X55.998 Y94.609
X42.272 Z-4.32
Y94.222 Z-4.334
X42.706 Z-4.349
X58.272
Y94.609
X42.272
Y94.222
X42.706
X42.727 Y94.226
X42.746 Y94.236
X42.76 Y94.252
X42.845 Y94.386
X42.859 Y94.402
X42.878 Y94.412
X42.899 Y94.416
X55.804
X56.018 Y94.484
X56.044 Y94.499
X56.06 Y94.525
X56.062 Y94.555
X56.05 Y94.583
X56.027 Y94.602
X55.998 Y94.609
X42.272 Z-4.828
Y94.222 Z-4.842
X42.706 Z-4.857
X58.272
Y94.609
X42.272
Y94.222
X42.706
X42.727 Y94.226
X42.746 Y94.236
X42.76 Y94.252
X42.845 Y94.386
X42.859 Y94.402
X42.878 Y94.412
X42.899 Y94.416
X52.865
X53.079 Y94.484
X53.104 Y94.499
X53.12 Y94.525
X53.122 Y94.555
X53.111 Y94.583
X53.088 Y94.602
X53.059 Y94.609
X42.272 Z-5.234
Y94.222 Z-5.247
X42.706 Z-5.262
X58.272
Y94.609
X42.272
Y94.222
X42.706
X42.784 Z-5.255
X42.859 Z-5.232
X42.928 Z-5.195
X42.988 Z-5.145
X43.038 Z-5.085
X43.075 Z-5.016
X43.098 Z-4.941
X43.106 Z-4.863
G0 Z5.
X65.483 Y94.609
G1 Z-2.4 F380.
X65.476 Z-2.477 F1500.
X65.454 Z-2.551
X65.417 Z-2.62
X65.368 Z-2.68
X65.309 Z-2.73
X65.241 Z-2.768
X65.167 Z-2.791
X65.09 Z-2.8
X64.272 Z-2.812
Y94.222 Z-2.818
X80.272 Z-3.066
Y94.609 Z-3.072
X64.272 Z-3.32
Y94.222 Z-3.326
X80.272 Z-3.574
Y94.609 Z-3.58
X64.272 Z-3.828
Y94.222 Z-3.834
X64.706 Z-3.841
X80.272
Y94.609
X64.272
Y94.222
X64.706
X64.727 Y94.226
X64.746 Y94.236
X64.76 Y94.252
X64.845 Y94.386
X64.859 Y94.402
X64.878 Y94.412
X64.899 Y94.416
X77.804
X78.018 Y94.484
X78.044 Y94.499
X78.06 Y94.525
X78.062 Y94.555
X78.05 Y94.583
X78.027 Y94.602
X77.998 Y94.609
X64.272 Z-4.32
Y94.222 Z-4.334
X64.706 Z-4.349
X80.272
Y94.609
X64.272
Y94.222
X64.706
X64.727 Y94.226
X64.746 Y94.236
X64.76 Y94.252
X64.845 Y94.386
X64.859 Y94.402
X64.878 Y94.412
X64.899 Y94.416
X77.804
X78.018 Y94.484
X78.044 Y94.499
X78.06 Y94.525
X78.062 Y94.555
X78.05 Y94.583
X78.027 Y94.602
X77.998 Y94.609
X64.272 Z-4.828
Y94.222 Z-4.842
X64.706 Z-4.857
X80.272
Y94.609
X64.272
Y94.222
X64.706
X64.727 Y94.226
X64.746 Y94.236
X64.76 Y94.252
X64.845 Y94.386
X64.859 Y94.402
X64.878 Y94.412
X64.899 Y94.416
X74.865
X75.079 Y94.484
X75.104 Y94.499
X75.12 Y94.525
X75.122 Y94.555
X75.111 Y94.583
X75.088 Y94.602
X75.059 Y94.609
X64.272 Z-5.234
Y94.222 Z-5.247
X64.706 Z-5.262
X80.272
Y94.609
X64.272
Y94.222
X64.706
X64.784 Z-5.255
X64.859 Z-5.232
X64.928 Z-5.195
X64.988 Z-5.145
X65.038 Z-5.085
X65.075 Z-5.016
X65.098 Z-4.941
X65.106 Z-4.863
G0 Z5.
X87.483 Y94.609
G1 Z-2.4 F380.
X87.476 Z-2.477 F1500.
X87.454 Z-2.551
X87.417 Z-2.62
X87.368 Z-2.68
X87.309 Z-2.73
X87.241 Z-2.768
X87.167 Z-2.791
X87.09 Z-2.8
X86.272 Z-2.812
Y94.222 Z-2.818
X102.272 Z-3.066
Y94.609 Z-3.072
X86.272 Z-3.32
Y94.222 Z-3.326
X102.272 Z-3.574
Y94.609 Z-3.58
X86.272 Z-3.828
Y94.222 Z-3.834
X86.706 Z-3.841
X102.272
Y94.609
X86.272
Y94.222
X86.706
X86.727 Y94.226
X86.746 Y94.236
X86.76 Y94.252
X86.845 Y94.386
X86.859 Y94.402
X86.878 Y94.412
X86.899 Y94.416
X99.804
X100.018 Y94.484
X100.044 Y94.499
X100.06 Y94.525
X100.062 Y94.555
X100.05 Y94.583
X100.027 Y94.602
X99.998 Y94.609
X86.272 Z-4.32
Y94.222 Z-4.334
X86.706 Z-4.349
X102.272
Y94.609
X86.272
Y94.222
X86.706
X86.727 Y94.226
X86.746 Y94.236
X86.76 Y94.252
X86.845 Y94.386
X86.859 Y94.402
X86.878 Y94.412
X86.899 Y94.416
X99.804
X100.018 Y94.484
X100.044 Y94.499
X100.06 Y94.525
X100.062 Y94.555
X100.05 Y94.583
X100.027 Y94.602
X99.998 Y94.609
X86.272 Z-4.828
Y94.222 Z-4.842
X86.706 Z-4.857
X102.272
Y94.609
X86.272
Y94.222
X86.706
X86.727 Y94.226
X86.746 Y94.236
X86.76 Y94.252
X86.845 Y94.386
X86.859 Y94.402
X86.878 Y94.412
X86.899 Y94.416
X96.865
X97.079 Y94.484
X97.104 Y94.499
X97.12 Y94.525
X97.122 Y94.555
X97.111 Y94.583
X97.088 Y94.602
X97.059 Y94.609
X86.272 Z-5.234
Y94.222 Z-5.247
X86.706 Z-5.262
X102.272
Y94.609
X86.272
Y94.222
X86.706
X86.784 Z-5.255
X86.859 Z-5.232
X86.928 Z-5.195
X86.988 Z-5.145
X87.038 Z-5.085
X87.075 Z-5.016
X87.098 Z-4.941
X87.106 Z-4.863
G0 Z5.
X109.483 Y94.609
G1 Z-2.4 F380.
X109.476 Z-2.477 F1500.
X109.454 Z-2.551
X109.417 Z-2.62
X109.368 Z-2.68
X109.309 Z-2.73
X109.241 Z-2.768
X109.167 Z-2.791
X109.09 Z-2.8
X108.272 Z-2.812
Y94.222 Z-2.818
X124.272 Z-3.066
Y94.609 Z-3.072
X108.272 Z-3.32
Y94.222 Z-3.326
X124.272 Z-3.574
Y94.609 Z-3.58
X108.272 Z-3.828
Y94.222 Z-3.834
X108.706 Z-3.841
X124.272
Y94.609
X108.272
Y94.222
X108.706
X108.727 Y94.226
X108.746 Y94.236
X108.76 Y94.252
X108.845 Y94.386
X108.859 Y94.402
X108.878 Y94.412
X108.899 Y94.416
X121.804
X122.018 Y94.484
X122.044 Y94.499
X122.06 Y94.525
X122.062 Y94.555
X122.05 Y94.583
X122.027 Y94.602
X121.998 Y94.609
X108.272 Z-4.32
Y94.222 Z-4.334
X108.706 Z-4.349
X124.272
Y94.609
X108.272
Y94.222
X108.706
X108.727 Y94.226
X108.746 Y94.236
X108.76 Y94.252
X108.845 Y94.386
X108.859 Y94.402
X108.878 Y94.412
X108.899 Y94.416
X121.804
X122.018 Y94.484
X122.044 Y94.499
X122.06 Y94.525
X122.062 Y94.555
X122.05 Y94.583
X122.027 Y94.602
X121.998 Y94.609
X108.272 Z-4.828
Y94.222 Z-4.842
X108.706 Z-4.857
X124.272
Y94.609
X108.272
Y94.222
X108.706
X108.727 Y94.226
X108.746 Y94.236
X108.76 Y94.252
X108.845 Y94.386
X108.859 Y94.402
X108.878 Y94.412
X108.899 Y94.416
X118.865
X119.079 Y94.484
X119.104 Y94.499
X119.12 Y94.525
X119.122 Y94.555
X119.111 Y94.583
X119.088 Y94.602
X119.059 Y94.609
X108.272 Z-5.234
Y94.222 Z-5.247
X108.706 Z-5.262
X124.272
Y94.609
X108.272
Y94.222
X108.706
X108.784 Z-5.255
X108.859 Z-5.232
X108.928 Z-5.195
X108.988 Z-5.145
X109.038 Z-5.085
X109.075 Z-5.016
X109.098 Z-4.941
X109.106 Z-4.863
G0 Z5.
X140.776 Y92.183
G1 Z-2.4 F380.
X140.773 Y92.19 Z-2.477 F1500.
X140.766 Y92.211 Z-2.551
X140.754 Y92.246 Z-2.62
X140.738 Y92.292 Z-2.68
X140.724 Y92.318 Z-2.708
X140.694 Y92.365 Z-2.746
X140.661 Y92.417 Z-2.775
X140.627 Y92.472 Z-2.793
X140.591 Y92.529 Z-2.8
X140.248 Y93.073 Z-2.809
X139.61 Y93.711 Z-2.822
X138.857 Y94.184 Z-2.835
X138. Y94.488 Z-2.848
X136.977 Y94.608 Z-2.863
X130.272 Y94.609 Z-2.96
Y94.222 Z-2.965
X136.943 Y94.219 Z-3.062
X137.029 Y94.215 Z-3.063
X137.115 Y94.204 Z-3.064
X137.396 Y94.154 Z-3.068
X137.422 Y94.149 Z-3.069
X138.05 Y94.022 Z-3.078
X138.131 Y94.002 Z-3.079
X138.21 Y93.975 Z-3.08
X138.399 Y93.903 Z-3.083
X138.488 Y93.864 Z-3.085
X138.676 Y93.769 Z-3.088
X138.758 Y93.723 Z-3.089
X138.836 Y93.669 Z-3.091
X139.049 Y93.506 Z-3.094
X139.425 Y93.246 Z-3.101
X139.504 Y93.186 Z-3.102
X139.576 Y93.118 Z-3.104
X139.705 Y92.985 Z-3.107
X139.74 Y92.946
X139.917 Y92.743 Z-3.111
X139.96 Y92.69 Z-3.112
X139.999 Y92.635 Z-3.113
X140.069 Y92.527 Z-3.115
X140.125 Y92.431 Z-3.117
X140.211 Y92.261 Z-3.119
X140.35 Y92.043 Z-3.123
X140.398 Y91.959 Z-3.125
X140.438 Y91.87 Z-3.126
X140.511 Y91.682 Z-3.129
X140.548 Y91.569 Z-3.131
X140.587 Y91.419 Z-3.133
X140.639 Y91.269 Z-3.135
X140.667 Y91.174 Z-3.137
X140.685 Y91.077 Z-3.138
X140.72 Y90.827 Z-3.142
X140.725 Y90.786
X140.757 Y90.452 Z-3.147
X140.761 Y90.356 Z-3.148
X140.762 Y86.171 Z-3.209
X141.149 Z-3.214
X141.147 Y90.446 Z-3.276
X141.035 Y91.443 Z-3.291
X140.738 Y92.292 Z-3.304
X140.724 Y92.318
X140.248 Y93.073 Z-3.317
X139.61 Y93.711 Z-3.33
X138.857 Y94.184 Z-3.343
X138. Y94.488 Z-3.356
X136.977 Y94.608 Z-3.371
X130.272 Y94.609 Z-3.468
Y94.222 Z-3.473
X136.943 Y94.219 Z-3.57
X137.029 Y94.215 Z-3.571
X137.115 Y94.204 Z-3.572
X137.396 Y94.154 Z-3.576
X137.422 Y94.149 Z-3.577
X138.05 Y94.022 Z-3.586
X138.131 Y94.002 Z-3.587
X138.21 Y93.975 Z-3.588
X138.399 Y93.903 Z-3.591
X138.488 Y93.864 Z-3.593
X138.676 Y93.769 Z-3.596
X138.758 Y93.723 Z-3.597
X138.836 Y93.669 Z-3.599
X139.049 Y93.506 Z-3.602
X139.425 Y93.246 Z-3.609
X139.504 Y93.186 Z-3.61
X139.576 Y93.118 Z-3.612
X139.705 Y92.985 Z-3.615
X139.74 Y92.946
X139.917 Y92.743 Z-3.619
X139.96 Y92.69 Z-3.62
X139.999 Y92.635 Z-3.621
X140.069 Y92.527 Z-3.623
X140.125 Y92.431 Z-3.625
X140.211 Y92.261 Z-3.627
X140.35 Y92.043 Z-3.631
X140.398 Y91.959 Z-3.633
X140.438 Y91.87 Z-3.634
X140.511 Y91.682 Z-3.637
X140.548 Y91.569 Z-3.639
X140.587 Y91.419 Z-3.641
X140.639 Y91.269 Z-3.643
X140.667 Y91.174 Z-3.645
X140.685 Y91.077 Z-3.646
X140.72 Y90.827 Z-3.65
X140.725 Y90.786
X140.757 Y90.452 Z-3.655
X140.761 Y90.356 Z-3.656
X140.762 Y86.171 Z-3.717
X141.149 Z-3.722
X141.147 Y90.446 Z-3.784
X141.035 Y91.443 Z-3.799
X140.738 Y92.292 Z-3.812
X140.724 Y92.318
X140.248 Y93.073 Z-3.825
X139.61 Y93.711 Z-3.838
X139.43 Y93.825 Z-3.841
X138.857 Y94.184
X138. Y94.488
X136.977 Y94.608
X130.272 Y94.609
Y94.222
X136.943 Y94.219
X137.029 Y94.215
X137.115 Y94.204
X137.396 Y94.154
X137.422 Y94.149
X138.05 Y94.022
X138.131 Y94.002
X138.21 Y93.975
X138.399 Y93.903
X138.488 Y93.864
X138.676 Y93.769
X138.758 Y93.723
X138.836 Y93.669
X139.049 Y93.506
X139.425 Y93.246
X139.504 Y93.186
X139.576 Y93.118
X139.705 Y92.985
X139.74 Y92.946
X139.917 Y92.743
X139.96 Y92.69
X139.999 Y92.635
X140.069 Y92.527
X140.125 Y92.431
X140.211 Y92.261
X140.35 Y92.043
X140.398 Y91.959
X140.438 Y91.87
X140.511 Y91.682
X140.548 Y91.569
X140.587 Y91.419
X140.639 Y91.269
X140.667 Y91.174
X140.685 Y91.077
X140.72 Y90.827
X140.725 Y90.786
X140.757 Y90.452
X140.761 Y90.356
X140.762 Y86.171
X141.149
X141.147 Y90.446
X141.035 Y91.443
X140.738 Y92.292
X140.724 Y92.318
X140.453 Y92.748
X140.248 Y93.073
X139.61 Y93.711
X139.43 Y93.825
X139.397 Y93.836
X139.363 Y93.833
X139.334 Y93.816
X139.314 Y93.788
X139.307 Y93.755
X139.316 Y93.722
X139.457 Y93.44
X140.39 Y92.345
X140.404 Y92.321
X140.408 Y92.294
X140.402 Y92.266
X140.34 Y92.12
X140.334 Y92.096
X140.336 Y92.072
X140.346 Y92.049
X140.35 Y92.043
X140.398 Y91.959 Z-3.845
X140.438 Y91.87 Z-3.848
X140.511 Y91.682 Z-3.855
X140.548 Y91.569 Z-3.859
X140.587 Y91.419 Z-3.865
X140.639 Y91.269 Z-3.87
X140.667 Y91.174 Z-3.874
X140.685 Y91.077 Z-3.877
X140.72 Y90.827 Z-3.886
X140.725 Y90.786 Z-3.888
X140.757 Y90.452 Z-3.899
X140.761 Y90.356 Z-3.903
X140.762 Y86.171 Z-4.049
X141.149 Z-4.062
X141.147 Y90.446 Z-4.212
X141.035 Y91.443 Z-4.247
X140.738 Y92.292 Z-4.278
X140.724 Y92.318 Z-4.279
X140.248 Y93.073 Z-4.31
X139.61 Y93.711 Z-4.342
X139.43 Y93.825 Z-4.349
X138.857 Y94.184
X138. Y94.488
X136.977 Y94.608
X130.272 Y94.609
Y94.222
X136.943 Y94.219
X137.029 Y94.215
X137.115 Y94.204
X137.396 Y94.154
X137.422 Y94.149
X138.05 Y94.022
X138.131 Y94.002
X138.21 Y93.975
X138.399 Y93.903
X138.488 Y93.864
X138.676 Y93.769
X138.758 Y93.723
X138.836 Y93.669
X139.049 Y93.506
X139.425 Y93.246
X139.504 Y93.186
X139.576 Y93.118
X139.705 Y92.985
X139.74 Y92.946
X139.917 Y92.743
X139.96 Y92.69
X139.999 Y92.635
X140.069 Y92.527
X140.125 Y92.431
X140.211 Y92.261
X140.35 Y92.043
X140.398 Y91.959
X140.438 Y91.87
X140.511 Y91.682
X140.548 Y91.569
X140.587 Y91.419
X140.639 Y91.269
X140.667 Y91.174
X140.685 Y91.077
X140.72 Y90.827
X140.725 Y90.786
X140.757 Y90.452
X140.761 Y90.356
X140.762 Y86.171
X141.149
X141.147 Y90.446
X141.035 Y91.443
X140.738 Y92.292
X140.724 Y92.318
X140.453 Y92.748
X140.248 Y93.073
X139.61 Y93.711
X139.43 Y93.825
X139.397 Y93.836
X139.363 Y93.833
X139.334 Y93.816
X139.314 Y93.788
X139.307 Y93.755
X139.316 Y93.722
X139.457 Y93.44
X140.39 Y92.345
X140.404 Y92.321
X140.408 Y92.294
X140.402 Y92.266
X140.34 Y92.12
X140.334 Y92.096
X140.336 Y92.072
X140.346 Y92.049
X140.35 Y92.043
X140.398 Y91.959 Z-4.353
X140.438 Y91.87 Z-4.356
X140.511 Y91.682 Z-4.363
X140.548 Y91.569 Z-4.367
X140.587 Y91.419 Z-4.373
X140.639 Y91.269 Z-4.378
X140.667 Y91.174 Z-4.382
X140.685 Y91.077 Z-4.385
X140.72 Y90.827 Z-4.394
X140.725 Y90.786 Z-4.396
X140.757 Y90.452 Z-4.407
X140.761 Y90.356 Z-4.411
X140.762 Y86.171 Z-4.557
X141.149 Z-4.57
X141.147 Y90.446 Z-4.72
X141.035 Y91.443 Z-4.755
X140.738 Y92.292 Z-4.786
X140.724 Y92.318 Z-4.787
X140.248 Y93.073 Z-4.818
X139.61 Y93.711 Z-4.85
X139.43 Y93.825 Z-4.857
X138.857 Y94.184
X138. Y94.488
X136.977 Y94.608
X130.272 Y94.609
Y94.222
X136.943 Y94.219
X137.029 Y94.215
X137.115 Y94.204
X137.396 Y94.154
X137.422 Y94.149
X138.05 Y94.022
X138.131 Y94.002
X138.21 Y93.975
X138.399 Y93.903
X138.488 Y93.864
X138.676 Y93.769
X138.758 Y93.723
X138.836 Y93.669
X139.049 Y93.506
X139.425 Y93.246
X139.504 Y93.186
X139.576 Y93.118
X139.705 Y92.985
X139.74 Y92.946
X139.917 Y92.743
X139.96 Y92.69
X139.999 Y92.635
X140.069 Y92.527
X140.125 Y92.431
X140.211 Y92.261
X140.35 Y92.043
X140.398 Y91.959
X140.438 Y91.87
X140.511 Y91.682
X140.548 Y91.569
X140.587 Y91.419
X140.639 Y91.269
X140.667 Y91.174
X140.685 Y91.077
X140.72 Y90.827
X140.725 Y90.786
X140.757 Y90.452
X140.761 Y90.356
X140.762 Y86.171
X141.149
X141.147 Y90.446
X141.035 Y91.443
X140.738 Y92.292
X140.724 Y92.318
X140.453 Y92.748
X140.248 Y93.073
X139.61 Y93.711
X139.43 Y93.825
X139.4 Y93.836
X139.368 Y93.835
X139.34 Y93.821
X139.319 Y93.798
X139.308 Y93.768
X139.31 Y93.737
X139.324 Y93.708
X139.499 Y93.485
G2 X140.571 Y91.549 R7.018
X140.955 Y89.369 R6.404
G1 X140.951 Y89.348
X140.941 Y89.329
X140.925 Y89.315
X140.791 Y89.23
X140.775 Y89.216
X140.765 Y89.197
X140.762 Y89.176
Y86.171 Z-4.962
X141.149 Z-4.976
X141.147 Y90.446 Z-5.125
X141.035 Y91.443 Z-5.16
X140.738 Y92.292 Z-5.191
X140.724 Y92.318 Z-5.192
X140.248 Y93.073 Z-5.224
X139.61 Y93.711 Z-5.255
X139.43 Y93.825 Z-5.262
X138.857 Y94.184
X138. Y94.488
X136.977 Y94.608
X130.272 Y94.609
Y94.222
X136.943 Y94.219
X137.029 Y94.215
X137.115 Y94.204
X137.396 Y94.154
X137.422 Y94.149
X138.05 Y94.022
X138.131 Y94.002
X138.21 Y93.975
X138.399 Y93.903
X138.488 Y93.864
X138.676 Y93.769
X138.758 Y93.723
X138.836 Y93.669
X139.049 Y93.506
X139.425 Y93.246
X139.504 Y93.186
X139.576 Y93.118
X139.705 Y92.985
X139.74 Y92.946
X139.917 Y92.743
X139.96 Y92.69
X139.999 Y92.635
X140.069 Y92.527
X140.125 Y92.431
X140.211 Y92.261
X140.35 Y92.043
X140.398 Y91.959
X140.438 Y91.87
X140.511 Y91.682
X140.548 Y91.569
X140.587 Y91.419
X140.639 Y91.269
X140.667 Y91.174
X140.685 Y91.077
X140.72 Y90.827
X140.725 Y90.786
X140.757 Y90.452
X140.761 Y90.356
X140.762 Y86.171
X141.149
X141.147 Y90.446
X141.035 Y91.443
X140.738 Y92.292
X140.724 Y92.318
X140.453 Y92.748
X140.248 Y93.073
X139.61 Y93.711
X139.43 Y93.825
X139.363 Y93.866 Z-5.255
X139.3 Y93.906 Z-5.232
X139.241 Y93.943 Z-5.195
X139.19 Y93.975 Z-5.145
X139.148 Y94.001 Z-5.085
X139.117 Y94.021 Z-5.016
X139.097 Y94.033 Z-4.941
X139.091 Y94.037 Z-4.863
G0 Z5.
X140.762 Y65.769
G1 Z-2.4 F380.
Y65.762 Z-2.477 F1500.
Y65.739 Z-2.551
Y65.703 Z-2.62
Y65.654 Z-2.68
Y65.595 Z-2.73
Y65.526 Z-2.768
Y65.452 Z-2.791
Y65.375 Z-2.8
Y64.17 Z-2.818
X141.149 Z-2.824
Y80.17 Z-3.072
X140.762 Z-3.078
Y64.17 Z-3.326
X141.149 Z-3.332
Y80.17 Z-3.58
X140.762 Z-3.586
Y64.17 Z-3.834
X141.149 Z-3.84
Y64.217 Z-3.841
Y80.17
X140.762
Y64.17
X141.149
Y64.217
X141.102 Y64.263
X140.949 Y78.098
X140.882 Y78.304
X140.867 Y78.328
X140.842 Y78.343
X140.814 Y78.345
X140.787 Y78.334
X140.769 Y78.312
X140.762 Y78.284
Y64.17 Z-4.334
X141.149 Z-4.348
Y64.217 Z-4.349
Y80.17
X140.762
Y64.17
X141.149
Y64.217
X141.102 Y64.263
X140.949 Y78.098
X140.882 Y78.304
X140.867 Y78.328
X140.842 Y78.343
X140.814 Y78.345
X140.787 Y78.334
X140.769 Y78.312
X140.762 Y78.284
Y64.17 Z-4.842
X141.149 Z-4.856
Y64.217 Z-4.857
Y80.17
X140.762
Y64.17
X141.149
Y64.217
X141.102 Y64.263
X140.95 Y75.159
X140.882 Y75.364
X140.867 Y75.389
X140.842 Y75.403
X140.814 Y75.405
X140.787 Y75.394
X140.769 Y75.372
X140.762 Y75.344
Y64.17 Z-5.247
X141.149 Z-5.261
Y64.217 Z-5.262
Y80.17
X140.762
Y64.17
X141.149
Y64.217
Y64.295 Z-5.255
Y64.37 Z-5.232
Y64.439 Z-5.195
Y64.499 Z-5.145
Y64.549 Z-5.085
Y64.586 Z-5.016
Y64.609 Z-4.941
Y64.617 Z-4.863
G0 Z5.
Y56.571
G1 Z-2.4 F380.
Y56.579 Z-2.477 F1500.
Y56.601 Z-2.551
Y56.637 Z-2.62
Y56.686 Z-2.68
Y56.746 Z-2.73
Y56.814 Z-2.768
Y56.888 Z-2.791
Y56.965 Z-2.8
Y58.17 Z-2.818
X140.762 Z-2.824
Y42.17 Z-3.072
X141.149 Z-3.078
Y58.17 Z-3.326
X140.762 Z-3.332
Y42.17 Z-3.58
X141.149 Z-3.586
Y58.17 Z-3.834
X140.762 Z-3.84
Y58.124 Z-3.841
Y42.17
X141.149
Y58.17
X140.762
Y58.124
X140.809 Y58.078
X140.962 Y44.242
X141.029 Y44.037
X141.044 Y44.012
X141.069 Y43.998
X141.098 Y43.996
X141.124 Y44.007
X141.143 Y44.029
X141.149 Y44.057
Y58.17 Z-4.334
X140.762 Z-4.348
Y58.124 Z-4.349
Y42.17
X141.149
Y58.17
X140.762
Y58.124
X140.809 Y58.078
X140.962 Y44.242
X141.029 Y44.037
X141.044 Y44.012
X141.069 Y43.998
X141.098 Y43.996
X141.124 Y44.007
X141.143 Y44.029
X141.149 Y44.057
Y58.17 Z-4.842
X140.762 Z-4.856
Y58.124 Z-4.857
Y42.17
X141.149
Y58.17
X140.762
Y58.124
X140.809 Y58.078
X140.961 Y47.181
X141.029 Y46.976
X141.045 Y46.952
X141.069 Y46.937
X141.098 Y46.935
X141.124 Y46.946
X141.143 Y46.968
X141.149 Y46.996
Y58.17 Z-5.247
X140.762 Z-5.261
Y58.124 Z-5.262
Y42.17
X141.149
Y58.17
X140.762
Y58.124
Y58.046 Z-5.255
Y57.971 Z-5.232
Y57.902 Z-5.195
Y57.841 Z-5.145
Y57.791 Z-5.085
Y57.754 Z-5.016
Y57.732 Z-4.941
Y57.724 Z-4.863
G0 Z5.
X141.149 Y34.571
G1 Z-2.4 F380.
Y34.579 Z-2.477 F1500.
Y34.601 Z-2.551
Y34.637 Z-2.62
Y34.686 Z-2.68
Y34.746 Z-2.73
Y34.814 Z-2.768
Y34.888 Z-2.791
Y34.965 Z-2.8
Y36.17 Z-2.818
X140.762 Z-2.824
Y20.17 Z-3.072
X141.149 Z-3.078
Y36.17 Z-3.326
X140.762 Z-3.332
Y20.17 Z-3.58
X141.149 Z-3.586
Y36.17 Z-3.834
X140.762 Z-3.84
Y36.124 Z-3.841
Y20.17
X141.149
Y36.17
X140.762
Y36.124
X140.809 Y36.078
X140.962 Y22.242
X141.029 Y22.037
X141.044 Y22.012
X141.069 Y21.998
X141.098 Y21.996
X141.124 Y22.007
X141.143 Y22.029
X141.149 Y22.057
Y36.17 Z-4.334
X140.762 Z-4.348
Y36.124 Z-4.349
Y20.17
X141.149
Y36.17
X140.762
Y36.124
X140.809 Y36.078
X140.962 Y22.242
X141.029 Y22.037
X141.044 Y22.012
X141.069 Y21.998
X141.098 Y21.996
X141.124 Y22.007
X141.143 Y22.029
X141.149 Y22.057
Y36.17 Z-4.842
X140.762 Z-4.856
Y36.124 Z-4.857
Y20.17
X141.149
Y36.17
X140.762
Y36.124
X140.809 Y36.078
X140.961 Y25.182
X141.029 Y24.976
X141.045 Y24.952
X141.069 Y24.937
X141.098 Y24.935
X141.124 Y24.946
X141.143 Y24.968
X141.149 Y24.996
Y36.17 Z-5.247
X140.762 Z-5.261
Y36.124 Z-5.262
Y20.17
X141.149
Y36.17
X140.762
Y36.124
Y36.046 Z-5.255
Y35.971 Z-5.232
Y35.902 Z-5.195
Y35.841 Z-5.145
Y35.791 Z-5.085
Y35.754 Z-5.016
Y35.732 Z-4.941
Y35.724 Z-4.863
G0 Z5.
X140.756 Y9.366
G1 Z-2.4 F380.
X140.758 Y9.372 Z-2.468 F1500.
X140.763 Y9.388 Z-2.533
X140.773 Y9.414 Z-2.595
X140.786 Y9.45 Z-2.652
X140.803 Y9.494 Z-2.701
X140.822 Y9.548 Z-2.742
X140.843 Y9.607 Z-2.773
X140.865 Y9.671 Z-2.793
X140.888 Y9.737 Z-2.8
X141.03 Y10.142 Z-2.806
X141.049 Y10.279 Z-2.808
X141.149 Y11.215 Z-2.822
Y14.17 Z-2.864
X140.762 Z-2.87
X140.76 Y10.851 Z-2.918
X140.758 Y10.779 Z-2.919
X140.75 Y10.708 Z-2.92
X140.725 Y10.531 Z-2.922
X140.715 Y10.475 Z-2.923
X140.559 Y9.707 Z-2.935
X140.537 Y9.62 Z-2.936
X140.507 Y9.535 Z-2.937
X140.432 Y9.347 Z-2.94
X140.394 Y9.264 Z-2.941
X140.298 Y9.076 Z-2.944
X140.253 Y8.996 Z-2.946
X140.2 Y8.921 Z-2.947
X140.044 Y8.717 Z-2.951
X139.824 Y8.393 Z-2.956
X139.784 Y8.337 Z-2.957
X139.74 Y8.285 Z-2.958
X139.643 Y8.176 Z-2.961
X139.599 Y8.131
X139.552 Y8.088 Z-2.962
X139.267 Y7.841 Z-2.968
X139.207 Y7.793 Z-2.969
X139.143 Y7.75 Z-2.97
X139.026 Y7.677 Z-2.972
X138.934 Y7.626 Z-2.974
X138.811 Y7.566 Z-2.976
X138.577 Y7.417 Z-2.98
X138.49 Y7.368 Z-2.981
X138.399 Y7.327 Z-2.982
X138.21 Y7.255 Z-2.985
X138.138 Y7.23 Z-2.986
X138.065 Y7.211 Z-2.988
X138.008 Y7.199
X137.886 Y7.153 Z-2.99
X137.81 Y7.128 Z-2.991
X137.733 Y7.11 Z-2.993
X137.544 Y7.072 Z-2.995
X137.448 Y7.058 Z-2.997
X137.009 Y7.014 Z-3.003
X136.91 Y7.009 Z-3.005
X129.012 Y7.008 Z-3.119
Y6.991
X136.977 Y6.992 Z-3.234
X138. Y7.112 Z-3.249
X138.857 Y7.416 Z-3.262
X139.61 Y7.889 Z-3.275
X140.248 Y8.527 Z-3.288
X140.726 Y9.285 Z-3.301
X140.803 Y9.494 Z-3.304
X141.03 Y10.142 Z-3.314
X141.049 Y10.279 Z-3.316
X141.149 Y11.215 Z-3.33
Y14.17 Z-3.372
X140.762 Z-3.378
X140.76 Y10.851 Z-3.426
X140.758 Y10.779 Z-3.427
X140.75 Y10.708 Z-3.428
X140.725 Y10.531 Z-3.43
X140.715 Y10.475 Z-3.431
X140.559 Y9.707 Z-3.443
X140.537 Y9.62 Z-3.444
X140.507 Y9.535 Z-3.445
X140.432 Y9.347 Z-3.448
X140.394 Y9.264 Z-3.449
X140.298 Y9.076 Z-3.452
X140.253 Y8.996 Z-3.454
X140.2 Y8.921 Z-3.455
X140.044 Y8.717 Z-3.459
X139.824 Y8.393 Z-3.464
X139.784 Y8.337 Z-3.465
X139.74 Y8.285 Z-3.466
X139.643 Y8.176 Z-3.469
X139.599 Y8.131
X139.552 Y8.088 Z-3.47
X139.267 Y7.841 Z-3.476
X139.207 Y7.793 Z-3.477
X139.143 Y7.75 Z-3.478
X139.026 Y7.677 Z-3.48
X138.934 Y7.626 Z-3.482
X138.811 Y7.566 Z-3.484
X138.577 Y7.417 Z-3.488
X138.49 Y7.368 Z-3.489
X138.399 Y7.327 Z-3.49
X138.21 Y7.255 Z-3.493
X138.138 Y7.23 Z-3.494
X138.065 Y7.211 Z-3.496
X138.008 Y7.199
X137.886 Y7.153 Z-3.498
X137.81 Y7.128 Z-3.499
X137.733 Y7.11 Z-3.501
X137.544 Y7.072 Z-3.503
X137.448 Y7.058 Z-3.505
X137.009 Y7.014 Z-3.511
X136.91 Y7.009 Z-3.513
X129.012 Y7.008 Z-3.627
Y6.991
X136.977 Y6.992 Z-3.742
X138. Y7.112 Z-3.757
X138.857 Y7.416 Z-3.77
X139.61 Y7.889 Z-3.783
X140.248 Y8.527 Z-3.796
X140.726 Y9.285 Z-3.809
X140.803 Y9.494 Z-3.812
X141.03 Y10.142 Z-3.822
X141.049 Y10.279 Z-3.824
X141.149 Y11.215 Z-3.838
Y11.465 Z-3.841
Y14.17
X140.762
X140.76 Y10.851
X140.758 Y10.779
X140.75 Y10.708
X140.725 Y10.531
X140.715 Y10.475
X140.559 Y9.707
X140.537 Y9.62
X140.507 Y9.535
X140.432 Y9.347
X140.394 Y9.264
X140.298 Y9.076
X140.253 Y8.996
X140.2 Y8.921
X140.044 Y8.717
X139.824 Y8.393
X139.784 Y8.337
X139.74 Y8.285
X139.643 Y8.176
X139.599 Y8.131
X139.552 Y8.088
X139.267 Y7.841
X139.207 Y7.793
X139.143 Y7.75
X139.026 Y7.677
X138.934 Y7.626
X138.811 Y7.566
X138.577 Y7.417
X138.49 Y7.368
X138.399 Y7.327
X138.21 Y7.255
X138.138 Y7.23
X138.065 Y7.211
X138.008 Y7.199
X137.886 Y7.153
X137.81 Y7.128
X137.733 Y7.11
X137.544 Y7.072
X137.448 Y7.058
X137.009 Y7.014
X136.91 Y7.009
X129.012 Y7.008
Y6.991
X136.977 Y6.992
X138. Y7.112
X138.857 Y7.416
X139.61 Y7.889
X140.248 Y8.527
X140.726 Y9.285
X140.803 Y9.494
X141.03 Y10.142
X141.049 Y10.279
X141.149 Y11.215
Y11.465
Y11.543 Z-3.833
Y11.618 Z-3.811
Y11.687 Z-3.774
Y11.748 Z-3.724
Y11.798 Z-3.663
Y11.835 Z-3.594
Y11.857 Z-3.519
Y11.865 Z-3.441
G0 Z5.
X140.756 Y9.366
G1 Z-2.908 F380.
X140.758 Y9.372 Z-2.976 F1500.
X140.763 Y9.388 Z-3.041
X140.773 Y9.414 Z-3.103
X140.786 Y9.45 Z-3.16
X140.803 Y9.494 Z-3.209
X140.822 Y9.548 Z-3.25
X140.843 Y9.607 Z-3.281
X140.865 Y9.671 Z-3.301
X140.888 Y9.737 Z-3.308
X141.03 Y10.142 Z-3.314
X141.049 Y10.279 Z-3.316
X141.149 Y11.215 Z-3.33
Y14.17 Z-3.372
X140.762 Z-3.378
X140.76 Y10.851 Z-3.426
X140.758 Y10.779 Z-3.427
X140.75 Y10.708 Z-3.428
X140.725 Y10.531 Z-3.43
X140.715 Y10.475 Z-3.431
X140.559 Y9.707 Z-3.443
X140.537 Y9.62 Z-3.444
X140.507 Y9.535 Z-3.445
X140.432 Y9.347 Z-3.448
X140.394 Y9.264 Z-3.449
X140.298 Y9.076 Z-3.452
X140.253 Y8.996 Z-3.454
X140.2 Y8.921 Z-3.455
X140.044 Y8.717 Z-3.459
X139.824 Y8.393 Z-3.464
X139.784 Y8.337 Z-3.465
X139.74 Y8.285 Z-3.466
X139.643 Y8.176 Z-3.469
X139.599 Y8.131
X139.552 Y8.088 Z-3.47
X139.267 Y7.841 Z-3.476
X139.207 Y7.793 Z-3.477
X139.143 Y7.75 Z-3.478
X139.026 Y7.677 Z-3.48
X138.934 Y7.626 Z-3.482
X138.811 Y7.566 Z-3.484
X138.577 Y7.417 Z-3.488
X138.49 Y7.368 Z-3.489
X138.399 Y7.327 Z-3.49
X138.21 Y7.255 Z-3.493
X138.138 Y7.23 Z-3.494
X138.065 Y7.211 Z-3.496
X138.008 Y7.199
X137.886 Y7.153 Z-3.498
X137.81 Y7.128 Z-3.499
X137.733 Y7.11 Z-3.501
X137.544 Y7.072 Z-3.503
X137.448 Y7.058 Z-3.505
X137.009 Y7.014 Z-3.511
X136.91 Y7.009 Z-3.513
X129.012 Y7.008 Z-3.627
Y6.991
X136.977 Y6.992 Z-3.742
X138. Y7.112 Z-3.757
X138.857 Y7.416 Z-3.77
X139.61 Y7.889 Z-3.783
X140.248 Y8.527 Z-3.796
X140.726 Y9.285 Z-3.809
X140.803 Y9.494 Z-3.812
X141.03 Y10.142 Z-3.822
X141.049 Y10.279 Z-3.824
X141.149 Y11.215 Z-3.838
Y14.17 Z-3.88
X140.762 Z-3.886
X140.76 Y10.851 Z-3.934
X140.758 Y10.779 Z-3.935
X140.75 Y10.708 Z-3.936
X140.725 Y10.531 Z-3.938
X140.715 Y10.475 Z-3.939
X140.559 Y9.707 Z-3.951
X140.537 Y9.62 Z-3.952
X140.507 Y9.535 Z-3.953
X140.432 Y9.347 Z-3.956
X140.394 Y9.264 Z-3.957
X140.298 Y9.076 Z-3.96
X140.253 Y8.996 Z-3.962
X140.2 Y8.921 Z-3.963
X140.044 Y8.717 Z-3.967
X139.824 Y8.393 Z-3.972
X139.784 Y8.337 Z-3.973
X139.74 Y8.285 Z-3.974
X139.643 Y8.176 Z-3.977
X139.599 Y8.131
X139.552 Y8.088 Z-3.978
X139.267 Y7.841 Z-3.984
X139.207 Y7.793 Z-3.985
X139.143 Y7.75 Z-3.986
X139.026 Y7.677 Z-3.988
X138.934 Y7.626 Z-3.99
X138.811 Y7.566 Z-3.992
X138.577 Y7.417 Z-3.996
X138.49 Y7.368 Z-3.997
X138.399 Y7.327 Z-3.998
X138.21 Y7.255 Z-4.001
X138.138 Y7.23 Z-4.002
X138.065 Y7.211 Z-4.004
X138.008 Y7.199
X137.886 Y7.153 Z-4.006
X137.81 Y7.128 Z-4.007
X137.733 Y7.11 Z-4.009
X137.544 Y7.072 Z-4.011
X137.448 Y7.058 Z-4.013
X137.009 Y7.014 Z-4.019
X136.91 Y7.009 Z-4.021
X129.012 Y7.008 Z-4.135
Y6.991
X136.977 Y6.992 Z-4.25
X138. Y7.112 Z-4.265
X138.857 Y7.416 Z-4.278
X139.61 Y7.889 Z-4.291
X140.248 Y8.527 Z-4.304
X140.726 Y9.285 Z-4.317
X140.803 Y9.494 Z-4.32
X141.03 Y10.142 Z-4.33
X141.049 Y10.279 Z-4.332
X141.149 Y11.215 Z-4.346
Y11.465 Z-4.349
Y14.17
X140.762
X140.76 Y10.851
X140.758 Y10.779
X140.75 Y10.708
X140.725 Y10.531
X140.715 Y10.475
X140.559 Y9.707
X140.537 Y9.62
X140.507 Y9.535
X140.432 Y9.347
X140.394 Y9.264
X140.298 Y9.076
X140.253 Y8.996
X140.2 Y8.921
X140.044 Y8.717
X139.824 Y8.393
X139.784 Y8.337
X139.74 Y8.285
X139.643 Y8.176
X139.599 Y8.131
X139.552 Y8.088
X139.267 Y7.841
X139.207 Y7.793
X139.143 Y7.75
X139.026 Y7.677
X138.934 Y7.626
X138.811 Y7.566
X138.577 Y7.417
X138.49 Y7.368
X138.399 Y7.327
X138.21 Y7.255
X138.138 Y7.23
X138.065 Y7.211
X138.008 Y7.199
X137.886 Y7.153
X137.81 Y7.128
X137.733 Y7.11
X137.544 Y7.072
X137.448 Y7.058
X137.009 Y7.014
X136.91 Y7.009
X129.012 Y7.008
Y6.991
X136.977 Y6.992
X138. Y7.112
X138.857 Y7.416
X139.61 Y7.889
X140.248 Y8.527
X140.726 Y9.285
X140.803 Y9.494
X141.03 Y10.142
X141.049 Y10.279
X141.149 Y11.215
Y11.465
Y11.543 Z-4.341
Y11.618 Z-4.319
Y11.687 Z-4.282
Y11.748 Z-4.232
Y11.798 Z-4.171
Y11.835 Z-4.102
Y11.857 Z-4.027
Y11.865 Z-3.949
G0 Z5.
X140.756 Y9.366
G1 Z-3.416 F380.
X140.758 Y9.372 Z-3.484 F1500.
X140.763 Y9.388 Z-3.549
X140.773 Y9.414 Z-3.611
X140.786 Y9.45 Z-3.668
X140.803 Y9.494 Z-3.717
X140.822 Y9.548 Z-3.758
X140.843 Y9.607 Z-3.789
X140.865 Y9.671 Z-3.809
X140.888 Y9.737 Z-3.816
X141.03 Y10.142 Z-3.822
X141.049 Y10.279 Z-3.824
X141.149 Y11.215 Z-3.838
Y14.17 Z-3.88
X140.762 Z-3.886
X140.76 Y10.851 Z-3.934
X140.758 Y10.779 Z-3.935
X140.75 Y10.708 Z-3.936
X140.725 Y10.531 Z-3.938
X140.715 Y10.475 Z-3.939
X140.559 Y9.707 Z-3.951
X140.537 Y9.62 Z-3.952
X140.507 Y9.535 Z-3.953
X140.432 Y9.347 Z-3.956
X140.394 Y9.264 Z-3.957
X140.298 Y9.076 Z-3.96
X140.253 Y8.996 Z-3.962
X140.2 Y8.921 Z-3.963
X140.044 Y8.717 Z-3.967
X139.824 Y8.393 Z-3.972
X139.784 Y8.337 Z-3.973
X139.74 Y8.285 Z-3.974
X139.643 Y8.176 Z-3.977
X139.599 Y8.131
X139.552 Y8.088 Z-3.978
X139.267 Y7.841 Z-3.984
X139.207 Y7.793 Z-3.985
X139.143 Y7.75 Z-3.986
X139.026 Y7.677 Z-3.988
X138.934 Y7.626 Z-3.99
X138.811 Y7.566 Z-3.992
X138.577 Y7.417 Z-3.996
X138.49 Y7.368 Z-3.997
X138.399 Y7.327 Z-3.998
X138.21 Y7.255 Z-4.001
X138.138 Y7.23 Z-4.002
X138.065 Y7.211 Z-4.004
X138.008 Y7.199
X137.886 Y7.153 Z-4.006
X137.81 Y7.128 Z-4.007
X137.733 Y7.11 Z-4.009
X137.544 Y7.072 Z-4.011
X137.448 Y7.058 Z-4.013
X137.009 Y7.014 Z-4.019
X136.91 Y7.009 Z-4.021
X129.012 Y7.008 Z-4.135
Y6.991
X136.977 Y6.992 Z-4.25
X138. Y7.112 Z-4.265
X138.857 Y7.416 Z-4.278
X139.61 Y7.889 Z-4.291
X140.248 Y8.527 Z-4.304
X140.726 Y9.285 Z-4.317
X140.803 Y9.494 Z-4.32
X141.03 Y10.142 Z-4.33
X141.049 Y10.279 Z-4.332
X141.149 Y11.215 Z-4.346
Y14.17 Z-4.388
X140.762 Z-4.394
X140.76 Y10.851 Z-4.442
X140.758 Y10.779 Z-4.443
X140.75 Y10.708 Z-4.444
X140.725 Y10.531 Z-4.446
X140.715 Y10.475 Z-4.447
X140.559 Y9.707 Z-4.459
X140.537 Y9.62 Z-4.46
X140.507 Y9.535 Z-4.461
X140.432 Y9.347 Z-4.464
X140.394 Y9.264 Z-4.465
X140.298 Y9.076 Z-4.468
X140.253 Y8.996 Z-4.47
X140.2 Y8.921 Z-4.471
X140.044 Y8.717 Z-4.475
X139.824 Y8.393 Z-4.48
X139.784 Y8.337 Z-4.481
X139.74 Y8.285 Z-4.482
X139.643 Y8.176 Z-4.485
X139.599 Y8.131
X139.552 Y8.088 Z-4.486
X139.267 Y7.841 Z-4.492
X139.207 Y7.793 Z-4.493
X139.143 Y7.75 Z-4.494
X139.026 Y7.677 Z-4.496
X138.934 Y7.626 Z-4.498
X138.811 Y7.566 Z-4.5
X138.577 Y7.417 Z-4.504
X138.49 Y7.368 Z-4.505
X138.399 Y7.327 Z-4.506
X138.21 Y7.255 Z-4.509
X138.138 Y7.23 Z-4.51
X138.065 Y7.211 Z-4.512
X138.008 Y7.199
X137.886 Y7.153 Z-4.514
X137.81 Y7.128 Z-4.515
X137.733 Y7.11 Z-4.517
X137.544 Y7.072 Z-4.519
X137.448 Y7.058 Z-4.521
X137.009 Y7.014 Z-4.527
X136.91 Y7.009 Z-4.529
X129.012 Y7.008 Z-4.643
Y6.991
X136.977 Y6.992 Z-4.758
X138. Y7.112 Z-4.773
X138.857 Y7.416 Z-4.786
X139.61 Y7.889 Z-4.799
X140.248 Y8.527 Z-4.812
X140.726 Y9.285 Z-4.825
X140.803 Y9.494 Z-4.828
X141.03 Y10.142 Z-4.838
X141.049 Y10.279 Z-4.84
X141.149 Y11.215 Z-4.854
Y11.465 Z-4.857
Y14.17
X140.762
X140.76 Y10.851
X140.758 Y10.779
X140.75 Y10.708
X140.725 Y10.531
X140.715 Y10.475
X140.559 Y9.707
X140.537 Y9.62
X140.507 Y9.535
X140.432 Y9.347
X140.394 Y9.264
X140.298 Y9.076
X140.253 Y8.996
X140.2 Y8.921
X140.044 Y8.717
X139.824 Y8.393
X139.784 Y8.337
X139.74 Y8.285
X139.643 Y8.176
X139.599 Y8.131
X139.552 Y8.088
X139.267 Y7.841
X139.207 Y7.793
X139.143 Y7.75
X139.026 Y7.677
X138.934 Y7.626
X138.811 Y7.566
X138.577 Y7.417
X138.49 Y7.368
X138.399 Y7.327
X138.21 Y7.255
X138.138 Y7.23
X138.065 Y7.211
X138.008 Y7.199
X137.886 Y7.153
X137.81 Y7.128
X137.733 Y7.11
X137.544 Y7.072
X137.448 Y7.058
X137.009 Y7.014
X136.91 Y7.009
X129.012 Y7.008
Y6.991
X136.977 Y6.992
X138. Y7.112
X138.857 Y7.416
X139.61 Y7.889
X140.248 Y8.527
X140.726 Y9.285
X140.803 Y9.494
X141.03 Y10.142
X141.049 Y10.279
X141.149 Y11.215
Y11.465
Y11.543 Z-4.849
Y11.618 Z-4.827
Y11.687 Z-4.79
Y11.748 Z-4.74
Y11.798 Z-4.679
Y11.835 Z-4.61
Y11.857 Z-4.535
Y11.865 Z-4.457
G0 Z5.
X140.761 Y12.31
G1 Z-3.924 F380.
Y12.302 Z-4.001 F1500.
Y12.28 Z-4.076
Y12.243 Z-4.144
Y12.194 Z-4.205
Y12.135 Z-4.254
Y12.067 Z-4.292
Y11.993 Z-4.315
Y11.915 Z-4.324
X140.76 Y10.851 Z-4.339
X140.758 Y10.779 Z-4.34
X140.75 Y10.708 Z-4.341
X140.725 Y10.531 Z-4.344
X140.715 Y10.475 Z-4.345
X140.559 Y9.707 Z-4.356
X140.537 Y9.62 Z-4.357
X140.507 Y9.535 Z-4.359
X140.432 Y9.347 Z-4.361
X140.394 Y9.264 Z-4.363
X140.298 Y9.076 Z-4.366
X140.253 Y8.996 Z-4.367
X140.2 Y8.921 Z-4.368
X140.044 Y8.717 Z-4.372
X139.824 Y8.393 Z-4.378
X139.784 Y8.337 Z-4.379
X139.74 Y8.285 Z-4.38
X139.643 Y8.176 Z-4.382
X139.599 Y8.131 Z-4.383
X139.552 Y8.088 Z-4.384
X139.267 Y7.841 Z-4.389
X139.207 Y7.793 Z-4.39
X139.143 Y7.75 Z-4.391
X139.026 Y7.677 Z-4.393
X138.934 Y7.626 Z-4.395
X138.811 Y7.566 Z-4.397
X138.577 Y7.417 Z-4.401
X138.49 Y7.368 Z-4.402
X138.399 Y7.327 Z-4.404
X138.21 Y7.255 Z-4.407
X138.138 Y7.23 Z-4.408
X138.065 Y7.211 Z-4.409
X138.008 Y7.199 Z-4.41
X137.886 Y7.153 Z-4.412
X137.81 Y7.128 Z-4.413
X137.733 Y7.11 Z-4.414
X137.544 Y7.072 Z-4.417
X137.448 Y7.058 Z-4.418
X137.009 Y7.014 Z-4.425
X136.91 Y7.009 Z-4.426
X129.012 Y7.008 Z-4.54
Y6.991
X136.977 Y6.992 Z-4.655
X138. Y7.112 Z-4.67
X138.857 Y7.416 Z-4.683
X139.61 Y7.889 Z-4.696
X140.248 Y8.527 Z-4.709
X140.726 Y9.285 Z-4.722
X140.803 Y9.494 Z-4.725
X141.03 Y10.142 Z-4.735
X141.049 Y10.279 Z-4.737
X141.149 Y11.215 Z-4.751
Y14.17 Z-4.794
X140.762 Z-4.799
X140.76 Y10.851 Z-4.847
X140.758 Y10.779 Z-4.848
X140.75 Y10.708 Z-4.849
X140.725 Y10.531 Z-4.852
X140.715 Y10.475 Z-4.853
X140.559 Y9.707 Z-4.864
X140.537 Y9.62 Z-4.865
X140.507 Y9.535 Z-4.867
X140.432 Y9.347 Z-4.869
X140.394 Y9.264 Z-4.871
X140.298 Y9.076 Z-4.874
X140.253 Y8.996 Z-4.875
X140.2 Y8.921 Z-4.876
X140.044 Y8.717 Z-4.88
X139.824 Y8.393 Z-4.886
X139.784 Y8.337 Z-4.887
X139.74 Y8.285 Z-4.888
X139.643 Y8.176 Z-4.89
X139.599 Y8.131 Z-4.891
X139.552 Y8.088 Z-4.892
X139.267 Y7.841 Z-4.897
X139.207 Y7.793 Z-4.898
X139.143 Y7.75 Z-4.899
X139.026 Y7.677 Z-4.901
X138.934 Y7.626 Z-4.903
X138.811 Y7.566 Z-4.905
X138.577 Y7.417 Z-4.909
X138.49 Y7.368 Z-4.91
X138.399 Y7.327 Z-4.912
X138.21 Y7.255 Z-4.915
X138.138 Y7.23 Z-4.916
X138.065 Y7.211 Z-4.917
X138.008 Y7.199 Z-4.918
X137.886 Y7.153 Z-4.92
X137.81 Y7.128 Z-4.921
X137.733 Y7.11 Z-4.922
X137.544 Y7.072 Z-4.925
X137.448 Y7.058 Z-4.926
X137.009 Y7.014 Z-4.933
X136.91 Y7.009 Z-4.934
X129.012 Y7.008 Z-5.048
Y6.991
X136.977 Y6.992 Z-5.163
X138. Y7.112 Z-5.178
X138.857 Y7.416 Z-5.191
X139.61 Y7.889 Z-5.204
X140.248 Y8.527 Z-5.217
X140.726 Y9.285 Z-5.23
X140.803 Y9.494 Z-5.233
X141.03 Y10.142 Z-5.243
X141.049 Y10.279 Z-5.245
X141.149 Y11.215 Z-5.259
Y11.465 Z-5.262
Y14.17
X140.762
X140.76 Y10.851
X140.758 Y10.779
X140.75 Y10.708
X140.725 Y10.531
X140.715 Y10.475
X140.559 Y9.707
X140.537 Y9.62
X140.507 Y9.535
X140.432 Y9.347
X140.394 Y9.264
X140.298 Y9.076
X140.253 Y8.996
X140.2 Y8.921
X140.044 Y8.717
X139.824 Y8.393
X139.784 Y8.337
X139.74 Y8.285
X139.643 Y8.176
X139.599 Y8.131
X139.552 Y8.088
X139.267 Y7.841
X139.207 Y7.793
X139.143 Y7.75
X139.026 Y7.677
X138.934 Y7.626
X138.811 Y7.566
X138.577 Y7.417
X138.49 Y7.368
X138.399 Y7.327
X138.21 Y7.255
X138.138 Y7.23
X138.065 Y7.211
X138.008 Y7.199
X137.886 Y7.153
X137.81 Y7.128
X137.733 Y7.11
X137.544 Y7.072
X137.448 Y7.058
X137.009 Y7.014
X136.91 Y7.009
X129.012 Y7.008
Y6.991
X136.977 Y6.992
X138. Y7.112
X138.857 Y7.416
X139.61 Y7.889
X140.248 Y8.527
X140.726 Y9.285
X140.803 Y9.494
X141.03 Y10.142
X141.049 Y10.279
X141.149 Y11.215
Y11.465
Y11.543 Z-5.255
Y11.618 Z-5.232
Y11.687 Z-5.195
Y11.748 Z-5.145
Y11.798 Z-5.085
Y11.835 Z-5.016
Y11.857 Z-4.941
Y11.865 Z-4.863
G0 Z5.
X121.266 Y6.991
G1 Z-2.4 F380.
X121.273 Z-2.477 F1500.
X121.295 Z-2.551
X121.332 Z-2.62
X121.38 Z-2.68
X121.44 Z-2.73
X121.508 Z-2.768
X121.582 Z-2.791
X121.659 Z-2.8
X123.012 Z-2.821
Y7.008
X107.012 Z-3.075
Y6.991
X123.012 Z-3.329
Y7.008
X107.012 Z-3.583
Y6.991
X123.012 Z-3.837
Y7.008
X122.781 Z-3.841
X107.012
Y6.991
X123.012
Y7.008
X122.781
X122.772 Y6.999
X108.722
X108.714 Y6.991
X123.012 Z-4.34
Y7.008 Z-4.341
X122.781 Z-4.349
X107.012
Y6.991
X123.012
Y7.008
X122.781
X122.772 Y6.999
X108.722
X108.714 Y6.991
X123.012 Z-4.848
Y7.008 Z-4.849
X122.781 Z-4.857
X107.012
Y6.991
X123.012
Y7.008
X122.781
X122.772 Y6.999
X111.662
X111.653 Y6.991
X123.012 Z-5.254
Y7.008
X122.781 Z-5.262
X107.012
Y6.991
X123.012
Y7.008
X122.781
X122.703 Z-5.255
X122.628 Z-5.232
X122.559 Z-5.195
X122.498 Z-5.145
X122.448 Z-5.085
X122.411 Z-5.016
X122.389 Z-4.941
X122.381 Z-4.863
G0 Z5.
X99.266 Y6.991
G1 Z-2.4 F380.
X99.273 Z-2.477 F1500.
X99.295 Z-2.551
X99.332 Z-2.62
X99.38 Z-2.68
X99.44 Z-2.73
X99.508 Z-2.768
X99.582 Z-2.791
X99.659 Z-2.8
X101.012 Z-2.821
Y7.008
X85.012 Z-3.075
Y6.991
X101.012 Z-3.329
Y7.008
X85.012 Z-3.583
Y6.991
X101.012 Z-3.837
Y7.008
X100.781 Z-3.841
X85.012
Y6.991
X101.012
Y7.008
X100.781
X100.772 Y6.999
X86.722
X86.714 Y6.991
X101.012 Z-4.34
Y7.008 Z-4.341
X100.781 Z-4.349
X85.012
Y6.991
X101.012
Y7.008
X100.781
X100.772 Y6.999
X86.722
X86.714 Y6.991
X101.012 Z-4.848
Y7.008 Z-4.849
X100.781 Z-4.857
X85.012
Y6.991
X101.012
Y7.008
X100.781
X100.772 Y6.999
X89.662
X89.653 Y6.991
X101.012 Z-5.254
Y7.008
X100.781 Z-5.262
X85.012
Y6.991
X101.012
Y7.008
X100.781
X100.703 Z-5.255
X100.628 Z-5.232
X100.559 Z-5.195
X100.498 Z-5.145
X100.448 Z-5.085
X100.411 Z-5.016
X100.389 Z-4.941
X100.381 Z-4.863
G0 Z5.
X77.283 Y6.991
G1 Z-2.4 F380.
X77.29 Z-2.477 F1500.
X77.313 Z-2.551
X77.349 Z-2.62
X77.398 Z-2.68
X77.457 Z-2.73
X77.525 Z-2.768
X77.599 Z-2.791
X77.677 Z-2.8
X79.012 Z-2.821
Y7.008
X63.012 Z-3.075
Y6.991
X79.012 Z-3.329
Y7.008
X63.012 Z-3.583
Y6.991
X79.012 Z-3.837
Y7.008
X78.764 Z-3.841
X63.012
Y6.991
X79.012
Y7.008
X78.764
X78.755 Y6.999
X64.74
X64.731 Y6.991
X79.012 Z-4.34
Y7.008
X78.764 Z-4.349
X63.012
Y6.991
X79.012
Y7.008
X78.764
X78.755 Y6.999
X64.74
X64.731 Y6.991
X79.012 Z-4.848
Y7.008
X78.764 Z-4.857
X63.012
Y6.991
X79.012
Y7.008
X78.764
X78.755 Y6.999
X67.679
X67.671 Y6.991
X79.012 Z-5.253
Y7.008 Z-5.254
X78.764 Z-5.262
X63.012
Y6.991
X79.012
Y7.008
X78.764
X78.686 Z-5.255
X78.611 Z-5.232
X78.541 Z-5.195
X78.481 Z-5.145
X78.431 Z-5.085
X78.394 Z-5.016
X78.371 Z-4.941
X78.364 Z-4.863
G0 Z5.
X55.283 Y6.991
G1 Z-2.4 F380.
X55.29 Z-2.477 F1500.
X55.313 Z-2.551
X55.349 Z-2.62
X55.398 Z-2.68
X55.457 Z-2.73
X55.525 Z-2.768
X55.599 Z-2.791
X55.677 Z-2.8
X57.012 Z-2.821
Y7.008
X41.012 Z-3.075
Y6.991
X57.012 Z-3.329
Y7.008
X41.012 Z-3.583
Y6.991
X57.012 Z-3.837
Y7.008
X56.764 Z-3.841
X41.012
Y6.991
X57.012
Y7.008
X56.764
X56.755 Y6.999
X42.74
X42.731 Y6.991
X57.012 Z-4.34
Y7.008
X56.764 Z-4.349
X41.012
Y6.991
X57.012
Y7.008
X56.764
X56.755 Y6.999
X42.74
X42.731 Y6.991
X57.012 Z-4.848
Y7.008
X56.764 Z-4.857
X41.012
Y6.991
X57.012
Y7.008
X56.764
X56.755 Y6.999
X45.679
X45.671 Y6.991
X57.012 Z-5.253
Y7.008 Z-5.254
X56.764 Z-5.262
X41.012
Y6.991
X57.012
Y7.008
X56.764
X56.686 Z-5.255
X56.611 Z-5.232
X56.541 Z-5.195
X56.481 Z-5.145
X56.431 Z-5.085
X56.394 Z-5.016
X56.371 Z-4.941
X56.364 Z-4.863
G0 Z5.
X20.256 Y7.012
G1 Z-2.4 F380.
X20.249 Z-2.477 F1500.
X20.226 Z-2.551
X20.19 Z-2.62
X20.141 Z-2.68
X20.082 Z-2.73
X20.014 Z-2.768
X19.939 Y7.013 Z-2.791
X19.862 Z-2.8
X19.006 Z-2.813
X18.909 Y7.017 Z-2.814
X18.814 Y7.032 Z-2.816
X18.625 Y7.069 Z-2.818
X18.533 Y7.091 Z-2.82
X18.443 Y7.123 Z-2.821
X18.296 Y7.182 Z-2.824
X18.241 Y7.127 Z-2.825
X18.377 Y6.991 Z-2.828
X35.012 Z-3.079
Y7.008
X19.006 Y7.013 Z-3.321
X18.909 Y7.017 Z-3.322
X18.814 Y7.032 Z-3.324
X18.625 Y7.069 Z-3.326
X18.533 Y7.091 Z-3.328
X18.443 Y7.123 Z-3.329
X18.296 Y7.182 Z-3.332
X18.241 Y7.127 Z-3.333
X18.377 Y6.991 Z-3.336
X35.012 Z-3.587
Y7.008
X19.006 Y7.013 Z-3.829
X18.909 Y7.017 Z-3.83
X18.814 Y7.032 Z-3.832
X18.625 Y7.069 Z-3.834
X18.533 Y7.091 Z-3.836
X18.443 Y7.123 Z-3.837
X18.296 Y7.182 Z-3.84
X18.241 Y7.127 Z-3.841
X18.251 Y7.117
X18.377 Y6.991
X35.012
Y7.008
X19.006 Y7.013
X18.909 Y7.017
X18.814 Y7.032
X18.625 Y7.069
X18.533 Y7.091
X18.443 Y7.123
X18.296 Y7.182
X18.241 Y7.127
X18.251 Y7.117
X18.294 Y7.074 Z-3.836
X18.337 Y7.031 Z-3.822
X18.377 Y6.991 Z-3.799
X18.44 Z-3.76
X18.494 Z-3.71
X18.539 Z-3.652
X18.571 Z-3.586
X18.592 Z-3.515
X18.598 Z-3.441
G0 Z5.
X20.256 Y7.012
G1 Z-2.908 F380.
X20.249 Z-2.985 F1500.
X20.226 Z-3.059
X20.19 Z-3.128
X20.141 Z-3.188
X20.082 Z-3.238
X20.014 Z-3.276
X19.939 Y7.013 Z-3.299
X19.862 Z-3.308
X19.006 Z-3.321
X18.909 Y7.017 Z-3.322
X18.814 Y7.032 Z-3.324
X18.625 Y7.069 Z-3.326
X18.533 Y7.091 Z-3.328
X18.443 Y7.123 Z-3.329
X18.296 Y7.182 Z-3.332
X18.241 Y7.127 Z-3.333
X18.377 Y6.991 Z-3.336
X35.012 Z-3.587
Y7.008
X19.006 Y7.013 Z-3.829
X18.909 Y7.017 Z-3.83
X18.814 Y7.032 Z-3.832
X18.625 Y7.069 Z-3.834
X18.533 Y7.091 Z-3.836
X18.443 Y7.123 Z-3.837
X18.296 Y7.182 Z-3.84
X18.241 Y7.127 Z-3.841
X18.377 Y6.991 Z-3.844
X35.012 Z-4.095
Y7.008
X19.006 Y7.013 Z-4.337
X18.909 Y7.017 Z-4.338
X18.814 Y7.032 Z-4.34
X18.625 Y7.069 Z-4.342
X18.533 Y7.091 Z-4.344
X18.443 Y7.123 Z-4.345
X18.296 Y7.182 Z-4.348
X18.241 Y7.127 Z-4.349
X18.251 Y7.117
X18.377 Y6.991
X35.012
Y7.008
X19.006 Y7.013
X18.909 Y7.017
X18.814 Y7.032
X18.625 Y7.069
X18.533 Y7.091
X18.443 Y7.123
X18.296 Y7.182
X18.241 Y7.127
X18.251 Y7.117
X18.294 Y7.074 Z-4.344
X18.337 Y7.031 Z-4.33
X18.377 Y6.991 Z-4.307
X18.44 Z-4.268
X18.494 Z-4.218
X18.539 Z-4.16
X18.571 Z-4.094
X18.592 Z-4.023
X18.598 Z-3.949
G0 Z5.
X20.256 Y7.012
G1 Z-3.416 F380.
X20.249 Z-3.493 F1500.
X20.226 Z-3.567
X20.19 Z-3.636
X20.141 Z-3.696
X20.082 Z-3.746
X20.014 Z-3.784
X19.939 Y7.013 Z-3.807
X19.862 Z-3.816
X19.006 Z-3.829
X18.909 Y7.017 Z-3.83
X18.814 Y7.032 Z-3.832
X18.625 Y7.069 Z-3.834
X18.533 Y7.091 Z-3.836
X18.443 Y7.123 Z-3.837
X18.296 Y7.182 Z-3.84
X18.241 Y7.127 Z-3.841
X18.377 Y6.991 Z-3.844
X35.012 Z-4.095
Y7.008
X19.006 Y7.013 Z-4.337
X18.909 Y7.017 Z-4.338
X18.814 Y7.032 Z-4.34
X18.625 Y7.069 Z-4.342
X18.533 Y7.091 Z-4.344
X18.443 Y7.123 Z-4.345
X18.296 Y7.182 Z-4.348
X18.241 Y7.127 Z-4.349
X18.377 Y6.991 Z-4.352
X35.012 Z-4.603
Y7.008
X19.006 Y7.013 Z-4.845
X18.909 Y7.017 Z-4.846
X18.814 Y7.032 Z-4.848
X18.625 Y7.069 Z-4.85
X18.533 Y7.091 Z-4.852
X18.443 Y7.123 Z-4.853
X18.296 Y7.182 Z-4.856
X18.241 Y7.127 Z-4.857
X18.251 Y7.117
X18.377 Y6.991
X35.012
Y7.008
X19.006 Y7.013
X18.909 Y7.017
X18.814 Y7.032
X18.625 Y7.069
X18.533 Y7.091
X18.443 Y7.123
X18.296 Y7.182
X18.241 Y7.127
X18.251 Y7.117
X18.294 Y7.074 Z-4.852
X18.337 Y7.031 Z-4.838
X18.377 Y6.991 Z-4.815
X18.44 Z-4.776
X18.494 Z-4.726
X18.539 Z-4.668
X18.571 Z-4.602
X18.592 Z-4.531
X18.598 Z-4.457
G0 Z5.
X22.924
G1 Z-3.924 F380.
X22.931 Z-4.001 F1500.
X22.954 Z-4.075
X22.99 Z-4.144
X23.039 Z-4.204
X23.098 Z-4.254
X23.167 Z-4.292
X23.241 Z-4.315
X23.318 Z-4.324
X35.012 Z-4.5
Y7.008
X19.006 Y7.013 Z-4.742
X18.909 Y7.017 Z-4.743
X18.814 Y7.032 Z-4.745
X18.625 Y7.069 Z-4.748
X18.533 Y7.091 Z-4.749
X18.443 Y7.123 Z-4.751
X18.296 Y7.182 Z-4.753
X18.241 Y7.127 Z-4.754
X18.377 Y6.991 Z-4.757
X35.012 Z-5.008
Y7.008
X19.006 Y7.013 Z-5.25
X18.909 Y7.017 Z-5.251
X18.814 Y7.032 Z-5.253
X18.625 Y7.069 Z-5.256
X18.533 Y7.091 Z-5.257
X18.443 Y7.123 Z-5.259
X18.296 Y7.182 Z-5.261
X18.241 Y7.127 Z-5.262
X18.251 Y7.117
X18.377 Y6.991
X35.012
Y7.008
X19.006 Y7.013
X18.909 Y7.017
X18.814 Y7.032
X18.625 Y7.069
X18.533 Y7.091
X18.443 Y7.123
X18.296 Y7.182
X18.241 Y7.127
X18.251 Y7.117
X18.294 Y7.074 Z-5.258
X18.337 Y7.031 Z-5.244
X18.377 Y6.991 Z-5.22
X18.44 Z-5.182
X18.494 Z-5.132
X18.539 Z-5.073
X18.571 Z-5.007
X18.592 Z-4.936
X18.598 Z-4.863
G0 Z5.
X11.251 Y15.575
G1 Z-2.4 F380.
Y15.567 Z-2.477 F1500.
Y15.545 Z-2.551
Y15.509 Z-2.62
Y15.46 Z-2.68
Y15.401 Z-2.73
Y15.333 Z-2.767
Y15.259 Z-2.791
Y15.183 Z-2.8
Y14.117 Z-2.82
X11.554 Y13.814 Z-2.828
X11.516 Y13.884 Z-2.83
X11.437 Y14.044 Z-2.833
X11.4 Y14.13 Z-2.835
X11.371 Y14.219 Z-2.837
X11.319 Y14.407 Z-2.84
X11.301 Y14.485 Z-2.842
X11.289 Y14.565 Z-2.843
X11.275 Y14.69 Z-2.846
X11.269 Y14.799 Z-2.848
X11.268 Y27.06 Z-3.081
X11.251 Z-3.082
Y14.117 Z-3.328
X11.554 Y13.814 Z-3.336
X11.516 Y13.884 Z-3.338
X11.437 Y14.044 Z-3.341
X11.4 Y14.13 Z-3.343
X11.371 Y14.219 Z-3.345
X11.319 Y14.407 Z-3.348
X11.301 Y14.485 Z-3.35
X11.289 Y14.565 Z-3.351
X11.275 Y14.69 Z-3.354
X11.269 Y14.799 Z-3.356
X11.268 Y27.06 Z-3.589
X11.251 Z-3.59
Y14.117 Z-3.836
X11.441 Y13.927 Z-3.841
X11.554 Y13.814
X11.516 Y13.884
X11.437 Y14.044
X11.4 Y14.13
X11.371 Y14.219
X11.319 Y14.407
X11.301 Y14.485
X11.289 Y14.565
X11.275 Y14.69
X11.269 Y14.799
X11.268 Y27.06
X11.251
Y14.117
X11.441 Y13.927
X11.479 Y13.888 Z-3.837
X11.517 Y13.85 Z-3.826
X11.554 Y13.814 Z-3.808
X11.516 Y13.884 Z-3.762
X11.492 Y13.933 Z-3.712
X11.472 Y13.974 Z-3.653
X11.457 Y14.003 Z-3.586
X11.448 Y14.022 Z-3.515
X11.445 Y14.028 Z-3.441
G0 Z5.
X11.251 Y15.575
G1 Z-2.908 F380.
Y15.567 Z-2.985 F1500.
Y15.545 Z-3.059
Y15.509 Z-3.128
Y15.46 Z-3.188
Y15.401 Z-3.238
Y15.333 Z-3.275
Y15.259 Z-3.299
Y15.183 Z-3.308
Y14.117 Z-3.328
X11.554 Y13.814 Z-3.336
X11.516 Y13.884 Z-3.338
X11.437 Y14.044 Z-3.341
X11.4 Y14.13 Z-3.343
X11.371 Y14.219 Z-3.345
X11.319 Y14.407 Z-3.348
X11.301 Y14.485 Z-3.35
X11.289 Y14.565 Z-3.351
X11.275 Y14.69 Z-3.354
X11.269 Y14.799 Z-3.356
X11.268 Y27.06 Z-3.589
X11.251 Z-3.59
Y14.117 Z-3.836
X11.554 Y13.814 Z-3.844
X11.516 Y13.884 Z-3.846
X11.437 Y14.044 Z-3.849
X11.4 Y14.13 Z-3.851
X11.371 Y14.219 Z-3.853
X11.319 Y14.407 Z-3.856
X11.301 Y14.485 Z-3.858
X11.289 Y14.565 Z-3.859
X11.275 Y14.69 Z-3.862
X11.269 Y14.799 Z-3.864
X11.268 Y27.06 Z-4.097
X11.251 Z-4.098
Y14.117 Z-4.344
X11.441 Y13.927 Z-4.349
X11.554 Y13.814
X11.516 Y13.884
X11.437 Y14.044
X11.4 Y14.13
X11.371 Y14.219
X11.319 Y14.407
X11.301 Y14.485
X11.289 Y14.565
X11.275 Y14.69
X11.269 Y14.799
X11.268 Y27.06
X11.251
Y14.117
X11.441 Y13.927
X11.479 Y13.888 Z-4.345
X11.517 Y13.85 Z-4.334
X11.554 Y13.814 Z-4.316
X11.516 Y13.884 Z-4.27
X11.492 Y13.933 Z-4.22
X11.472 Y13.974 Z-4.161
X11.457 Y14.003 Z-4.094
X11.448 Y14.022 Z-4.023
X11.445 Y14.028 Z-3.949
G0 Z5.
X11.251 Y15.575
G1 Z-3.416 F380.
Y15.567 Z-3.493 F1500.
Y15.545 Z-3.567
Y15.509 Z-3.636
Y15.46 Z-3.696
Y15.401 Z-3.746
Y15.333 Z-3.783
Y15.259 Z-3.807
Y15.183 Z-3.816
Y14.117 Z-3.836
X11.554 Y13.814 Z-3.844
X11.516 Y13.884 Z-3.846
X11.437 Y14.044 Z-3.849
X11.4 Y14.13 Z-3.851
X11.371 Y14.219 Z-3.853
X11.319 Y14.407 Z-3.856
X11.301 Y14.485 Z-3.858
X11.289 Y14.565 Z-3.859
X11.275 Y14.69 Z-3.862
X11.269 Y14.799 Z-3.864
X11.268 Y27.06 Z-4.097
X11.251 Z-4.098
Y14.117 Z-4.344
X11.554 Y13.814 Z-4.352
X11.516 Y13.884 Z-4.354
X11.437 Y14.044 Z-4.357
X11.4 Y14.13 Z-4.359
X11.371 Y14.219 Z-4.361
X11.319 Y14.407 Z-4.364
X11.301 Y14.485 Z-4.366
X11.289 Y14.565 Z-4.367
X11.275 Y14.69 Z-4.37
X11.269 Y14.799 Z-4.372
X11.268 Y27.06 Z-4.605
X11.251 Z-4.606
Y14.117 Z-4.852
X11.441 Y13.927 Z-4.857
X11.554 Y13.814
X11.516 Y13.884
X11.437 Y14.044
X11.4 Y14.13
X11.371 Y14.219
X11.319 Y14.407
X11.301 Y14.485
X11.289 Y14.565
X11.275 Y14.69
X11.269 Y14.799
X11.268 Y27.06
X11.251
Y14.117
X11.441 Y13.927
X11.479 Y13.888 Z-4.853
X11.517 Y13.85 Z-4.842
X11.554 Y13.814 Z-4.824
X11.516 Y13.884 Z-4.778
X11.492 Y13.933 Z-4.728
X11.472 Y13.974 Z-4.669
X11.457 Y14.003 Z-4.602
X11.448 Y14.022 Z-4.531
X11.445 Y14.028 Z-4.457
G0 Z5.
X11.269 Y17.268
G1 Z-3.924 F380.
Y17.276 Z-4.001 F1500.
Y17.298 Z-4.075
Y17.334 Z-4.144
Y17.383 Z-4.204
Y17.442 Z-4.254
Y17.51 Z-4.291
Y17.584 Z-4.315
Y17.661 Z-4.324
X11.268 Y27.06 Z-4.503
X11.251
Y14.117 Z-4.749
X11.554 Y13.814 Z-4.758
X11.516 Y13.884 Z-4.759
X11.437 Y14.044 Z-4.762
X11.4 Y14.13 Z-4.764
X11.371 Y14.219 Z-4.766
X11.319 Y14.407 Z-4.77
X11.301 Y14.485 Z-4.771
X11.289 Y14.565 Z-4.773
X11.275 Y14.69 Z-4.775
X11.269 Y14.799 Z-4.777
X11.268 Y27.06 Z-5.011
X11.251
Y14.117 Z-5.257
X11.441 Y13.927 Z-5.262
X11.554 Y13.814
X11.516 Y13.884
X11.437 Y14.044
X11.4 Y14.13
X11.371 Y14.219
X11.319 Y14.407
X11.301 Y14.485
X11.289 Y14.565
X11.275 Y14.69
X11.269 Y14.799
X11.268 Y27.06
X11.251
Y14.117
X11.441 Y13.927
X11.479 Y13.888 Z-5.259
X11.517 Y13.85 Z-5.248
X11.554 Y13.814 Z-5.229
X11.516 Y13.884 Z-5.183
X11.492 Y13.933 Z-5.133
X11.472 Y13.974 Z-5.074
X11.457 Y14.003 Z-5.008
X11.448 Y14.022 Z-4.936
X11.445 Y14.028 Z-4.863
G0 Z5.
X11.251 Y34.697
G1 Z-2.4 F380.
Y34.69 Z-2.477 F1500.
Y34.667 Z-2.551
Y34.631 Z-2.62
Y34.582 Z-2.68
Y34.523 Z-2.73
Y34.455 Z-2.767
Y34.381 Z-2.791
Y34.304 Z-2.8
Y33.06 Z-2.821
X11.268
Y47.8 Z-3.075
X11.251
Y33.06 Z-3.329
X11.268
Y47.8 Z-3.583
X11.251
Y33.06 Z-3.837
X11.268
Y33.274 Z-3.841
Y47.8
X11.251
Y33.06
X11.268
Y33.274
X11.259 Y33.282
Y47.35
X11.251 Y47.358
Y33.06 Z-4.34
X11.268 Z-4.341
Y33.291 Z-4.349
Y47.8
X11.251
Y33.06
X11.268
Y33.291
X11.259 Y33.3
Y47.35
X11.251 Y47.358
Y33.06 Z-4.848
X11.268 Z-4.849
Y33.291 Z-4.857
Y47.8
X11.251
Y33.06
X11.268
Y33.291
X11.259 Y33.3
Y44.41
X11.251 Y44.419
Y33.06 Z-5.254
X11.268
Y33.291 Z-5.262
Y47.8
X11.251
Y33.06
X11.268
Y33.291
Y33.369 Z-5.255
Y33.444 Z-5.232
Y33.513 Z-5.195
Y33.574 Z-5.145
Y33.624 Z-5.085
Y33.661 Z-5.016
Y33.683 Z-4.941
Y33.691 Z-4.863
G0 Z5.
X11.251 Y55.547
G1 Z-2.4 F380.
Y55.539 Z-2.477 F1500.
Y55.517 Z-2.551
Y55.481 Z-2.62
Y55.432 Z-2.68
Y55.372 Z-2.73
Y55.304 Z-2.768
Y55.23 Z-2.791
Y55.153 Z-2.8
Y53.8 Z-2.821
X11.268
Y69.8 Z-3.075
X11.251
Y53.8 Z-3.329
X11.268
Y69.8 Z-3.583
X11.251
Y53.8 Z-3.837
X11.268
Y54.031 Z-3.841
Y69.8
X11.251
Y53.809
Y53.8
X11.268
Y54.031
X11.259 Y54.04
Y68.073
X11.251 Y68.081
Y53.8 Z-4.34
X11.268
Y54.049 Z-4.349
Y69.8
X11.251
Y53.8
X11.268
Y54.049
X11.259 Y54.057
Y68.073
X11.251 Y68.081
Y53.8 Z-4.848
X11.268
Y54.049 Z-4.857
Y69.8
X11.251
Y53.8
X11.268
Y54.049
X11.259 Y54.057
Y65.133
X11.251 Y65.142
Y53.8 Z-5.253
X11.268 Z-5.254
Y54.049 Z-5.262
Y69.8
X11.251
Y53.8
X11.268
Y54.049
Y54.127 Z-5.255
Y54.202 Z-5.232
Y54.271 Z-5.195
Y54.331 Z-5.145
Y54.381 Z-5.085
Y54.418 Z-5.016
Y54.441 Z-4.941
Y54.449 Z-4.863
G0 Z15.

M9
G53 G0 Z0.
M30
