(NOC_REV0_0_1_HOUSING_1)
(T8  D=4. CR=0. - ZMIN=-13.2 - FLAT END MILL)
G0 G90 G94 G17
G21
G53 G0 Z0.

(POCKET1)
M5
T8
M3 S16000
G55
G0 X30.087 Y26.12
Z15.
Z1.508
G1 Z0.933 F380.
X30.09 Y26.139 Z0.812 F1500.
X30.099 Y26.192 Z0.703
X30.11 Y26.277 Z0.615
X30.119 Y26.384 Z0.556
X30.121 Y26.504 Z0.533
X30.111 Y26.677 Z0.527
X30.085 Y26.848 Z0.521
X30.044 Y27.017 Z0.515
X29.988 Y27.181 Z0.509
X29.917 Y27.339 Z0.503
X29.831 Y27.49 Z0.497
X29.733 Y27.632 Z0.491
X29.621 Y27.765 Z0.485
X29.499 Y27.887 Z0.479
X29.365 Y27.998 Z0.473
X29.222 Y28.096 Z0.467
X29.071 Y28.18 Z0.461
X28.912 Y28.251 Z0.455
X28.748 Y28.306 Z0.449
X28.58 Y28.347 Z0.443
X28.408 Y28.371 Z0.437
X28.235 Y28.381 Z0.43
X28.062 Y28.374 Z0.424
X27.89 Y28.352 Z0.418
X27.721 Y28.314 Z0.412
X27.556 Y28.26 Z0.406
X27.396 Y28.192 Z0.4
X27.244 Y28.11 Z0.394
X27.1 Y28.014 Z0.388
X26.964 Y27.906 Z0.382
X26.84 Y27.785 Z0.376
X26.727 Y27.654 Z0.37
X26.626 Y27.513 Z0.364
X26.539 Y27.363 Z0.358
X26.465 Y27.206 Z0.352
X26.406 Y27.043 Z0.346
X26.363 Y26.875 Z0.34
X26.335 Y26.704 Z0.334
X26.322 Y26.531 Z0.328
X26.325 Y26.358 Z0.321
X26.344 Y26.186 Z0.315
X26.379 Y26.016 Z0.309
X26.429 Y25.85 Z0.303
X26.494 Y25.689 Z0.297
X26.573 Y25.535 Z0.291
X26.666 Y25.389 Z0.285
X26.772 Y25.252 Z0.279
X26.89 Y25.125 Z0.273
X27.019 Y25.009 Z0.267
X27.158 Y24.906 Z0.261
X27.306 Y24.815 Z0.255
X27.462 Y24.739 Z0.249
X27.624 Y24.677 Z0.243
X27.791 Y24.63 Z0.237
X27.961 Y24.599 Z0.231
X28.134 Y24.583 Z0.225
X28.307 Z0.219
X28.48 Y24.598 Z0.213
X28.65 Y24.63 Z0.206
X28.817 Y24.676 Z0.2
X28.979 Y24.738 Z0.194
X29.135 Y24.815 Z0.188
X29.283 Y24.905 Z0.182
X29.422 Y25.008 Z0.176
X29.551 Y25.123 Z0.17
X29.669 Y25.25 Z0.164
X29.775 Y25.387 Z0.158
X29.868 Y25.533 Z0.152
X29.948 Y25.687 Z0.146
X30.013 Y25.848 Z0.14
X30.063 Y26.014 Z0.134
X30.098 Y26.184 Z0.128
X30.117 Y26.356 Z0.122
X30.121 Y26.529 Z0.116
X30.108 Y26.702 Z0.11
X30.08 Y26.873 Z0.104
X30.037 Y27.041 Z0.097
X29.978 Y27.204 Z0.091
X29.905 Y27.361 Z0.085
X29.818 Y27.511 Z0.079
X29.717 Y27.652 Z0.073
X29.604 Y27.784 Z0.067
X29.48 Y27.904 Z0.061
X29.345 Y28.013 Z0.055
X29.2 Y28.109 Z0.049
X29.048 Y28.191 Z0.043
X28.889 Y28.26 Z0.037
X28.724 Y28.313 Z0.031
X28.555 Y28.351 Z0.025
X28.383 Y28.374 Z0.019
X28.21 Y28.381 Z0.013
X28.037 Y28.372 Z0.007
X27.865 Y28.347 Z0.001
X27.696 Y28.307 Z-0.005
X27.532 Y28.251 Z-0.012
X27.374 Y28.181 Z-0.018
X27.222 Y28.097 Z-0.024
X27.079 Y27.999 Z-0.03
X26.946 Y27.889 Z-0.036
X26.823 Y27.767 Z-0.042
X26.711 Y27.634 Z-0.048
X26.612 Y27.491 Z-0.054
X26.527 Y27.34 Z-0.06
X26.456 Y27.183 Z-0.066
X26.399 Y27.019 Z-0.072
X26.358 Y26.85 Z-0.078
X26.332 Y26.679 Z-0.084
X26.322 Y26.506 Z-0.09
X26.327 Y26.333 Z-0.096
X26.348 Y26.161 Z-0.102
X26.385 Y25.991 Z-0.108
X26.438 Y25.826 Z-0.114
X26.505 Y25.666 Z-0.121
X26.586 Y25.513 Z-0.127
X26.681 Y25.368 Z-0.133
X26.789 Y25.233 Z-0.139
X26.908 Y25.107 Z-0.145
X27.039 Y24.993 Z-0.151
X27.18 Y24.892 Z-0.157
X27.329 Y24.803 Z-0.163
X27.485 Y24.729 Z-0.169
X27.648 Y24.669 Z-0.175
X27.815 Y24.625 Z-0.181
X27.986 Y24.595 Z-0.187
X28.159 Y24.582 Z-0.193
X28.332 Y24.584 Z-0.199
X28.505 Y24.602 Z-0.205
X28.675 Y24.636 Z-0.211
X28.841 Y24.685 Z-0.217
X29.002 Y24.748 Z-0.223
X29.157 Y24.827 Z-0.229
X29.303 Y24.919 Z-0.236
X29.441 Y25.024 Z-0.242
X29.569 Y25.141 Z-0.248
X29.685 Y25.27 Z-0.254
X29.79 Y25.408 Z-0.26
X29.881 Y25.556 Z-0.266
X29.958 Y25.711 Z-0.272
X30.021 Y25.872 Z-0.278
X30.069 Y26.039 Z-0.284
X30.102 Y26.209 Z-0.29
X30.119 Y26.381 Z-0.296
X30.12 Y26.555 Z-0.302
X30.105 Y26.727 Z-0.308
X30.075 Y26.898 Z-0.314
X30.029 Y27.065 Z-0.32
X29.968 Y27.228 Z-0.326
X29.893 Y27.384 Z-0.332
X29.804 Y27.532 Z-0.338
X29.701 Y27.672 Z-0.345
X29.587 Y27.802 Z-0.351
X29.461 Y27.921 Z-0.357
X29.324 Y28.028 Z-0.363
X29.179 Y28.122 Z-0.369
X29.025 Y28.202 Z-0.375
X28.865 Y28.268 Z-0.381
X28.699 Y28.32 Z-0.387
X28.53 Y28.355 Z-0.393
X28.358 Y28.376 Z-0.399
X28.184 Y28.38 Z-0.405
X28.011 Y28.369 Z-0.411
X27.84 Y28.342 Z-0.417
X27.672 Y28.3 Z-0.423
X27.509 Y28.242 Z-0.429
X27.351 Y28.17 Z-0.435
X27.201 Y28.083 Z-0.441
X27.059 Y27.984 Z-0.447
X26.927 Y27.872 Z-0.454
X26.806 Y27.748 Z-0.46
X26.696 Y27.613 Z-0.466
X26.599 Y27.47 Z-0.472
X26.516 Y27.318 Z-0.478
X26.447 Y27.159 Z-0.484
X26.392 Y26.994 Z-0.49
X26.353 Y26.826 Z-0.496
X26.329 Y26.654 Z-0.502
X26.321 Y26.481 Z-0.508
G3 X26.64 Y26.162 R0.319
X26.959 Y26.481 R0.319
X25.44 Y28. R1.519
X23.921 Y26.481 R1.519
X26.64 Y23.762 R2.719
X29.359 Y26.481 R2.719
X25.44 Y30.4 R3.919
X21.521 Y26.481 R3.919
X25.44 Y22.562 R3.919
X29.359 Y26.481 R3.919
G2 X30.188 Y28.251 R2.305
G3 X30.408 Y30.193 R1.414
G1 X29.969 Y30.769
X28.931 Y31.648
X27.741 Y32.277
X26.444 Y32.636
X25.09 Y32.707
X23.791 Y32.494
X23.453 Y32.364
X22.516 Y31.99
X21.414 Y31.243
X20.483 Y30.264
X19.776 Y29.09
X19.346 Y27.808
X19.203 Y26.472
X19.349 Y25.136
X19.513 Y24.648
X19.782 Y23.854
X20.474 Y22.705
X21.401 Y21.725
X22.518 Y20.968
X23.765 Y20.472
X23.785 Y20.467
X25.09 Y20.253
X26.444 Y20.324
X27.741 Y20.683
X28.946 Y21.321
X29.959 Y22.182
X30.791 Y23.277
X31.353 Y24.495
X31.642 Y25.818
Y27.133
X31.355 Y28.454
X31.221 Y28.753
X30.79 Y29.687
X30.759 Y29.73
X30.408 Y30.193
G3 X30.127 Y30.231 R0.2
X30.103 Y30.209 R0.2
G1 X29.081 Y29.134
X28.053 Y28.272
X28.029 Y28.259
X28.003 Y28.256
X27.977 Y28.262
X27.956 Y28.278
X27.914 Y28.322
X27.895 Y28.337
X27.872 Y28.344
X27.848
X27.68 Y28.302 Z-0.514
X27.517 Y28.245 Z-0.52
X27.359 Y28.174 Z-0.526
X27.209 Y28.088 Z-0.532
X27.067 Y27.989 Z-0.538
X26.934 Y27.878 Z-0.544
X26.812 Y27.755 Z-0.55
X26.702 Y27.622 Z-0.556
X26.604 Y27.478 Z-0.562
X26.52 Y27.327 Z-0.568
X26.45 Y27.169 Z-0.575
X26.395 Y27.005 Z-0.581
X26.355 Y26.836 Z-0.587
X26.33 Y26.665 Z-0.593
X26.321 Y26.492 Z-0.599
X26.328 Y26.319 Z-0.605
X26.351 Y26.147 Z-0.611
X26.389 Y25.979 Z-0.617
X26.442 Y25.814 Z-0.623
X26.51 Y25.655 Z-0.629
X26.593 Y25.502 Z-0.635
X26.688 Y25.358 Z-0.641
X26.797 Y25.223 Z-0.647
X26.917 Y25.099 Z-0.653
X27.048 Y24.986 Z-0.659
X27.189 Y24.885 Z-0.665
X27.339 Y24.798 Z-0.671
X27.496 Y24.725 Z-0.677
X27.658 Y24.666 Z-0.683
X27.826 Y24.622 Z-0.689
X27.997 Y24.594 Z-0.695
X28.169 Y24.581 Z-0.702
X28.343 Y24.585 Z-0.708
X28.515 Y24.603 Z-0.714
X28.684 Y24.638 Z-0.72
X28.85 Y24.688 Z-0.726
X29.011 Y24.752 Z-0.732
X29.165 Y24.831 Z-0.738
X29.311 Y24.924 Z-0.744
X29.448 Y25.03 Z-0.75
X29.575 Y25.147 Z-0.756
X29.691 Y25.276 Z-0.762
X29.794 Y25.415 Z-0.768
X29.885 Y25.563 Z-0.774
X29.961 Y25.718 Z-0.78
X30.024 Y25.879 Z-0.786
X30.071 Y26.046 Z-0.792
X30.103 Y26.216 Z-0.798
X30.119 Y26.388 Z-0.804
X30.12 Y26.562 Z-0.81
X30.104 Y26.734 Z-0.816
X30.074 Y26.904 Z-0.822
X30.027 Y27.071 Z-0.829
X29.966 Y27.233 Z-0.835
X29.89 Y27.389 Z-0.841
X29.801 Y27.537 Z-0.847
X29.698 Y27.676 Z-0.853
X29.583 Y27.806 Z-0.859
X29.457 Y27.924 Z-0.865
X29.32 Y28.031 Z-0.871
X29.175 Y28.124 Z-0.877
X29.021 Y28.204 Z-0.883
X28.861 Y28.27 Z-0.889
X28.695 Y28.321 Z-0.895
X28.526 Y28.356 Z-0.901
X28.354 Y28.376 Z-0.907
X28.181 Y28.38 Z-0.913
X28.008 Y28.369 Z-0.919
X27.837 Y28.341 Z-0.925
X27.669 Y28.299 Z-0.931
X27.506 Y28.241 Z-0.937
X27.349 Y28.169 Z-0.943
X27.199 Y28.082 Z-0.949
X27.057 Y27.982 Z-0.956
X26.926 Y27.87 Z-0.962
X26.804 Y27.747 Z-0.968
X26.695 Y27.612 Z-0.974
X26.598 Y27.469 Z-0.98
X26.515 Y27.317 Z-0.986
X26.446 Y27.158 Z-0.992
X26.392 Y26.994 Z-0.998
X26.353 Y26.825 Z-1.004
X26.329 Y26.654 Z-1.01
X26.321 Y26.481 Z-1.016
G3 X26.64 Y26.162 R0.319
X26.959 Y26.481 R0.319
X25.44 Y28. R1.519
X23.921 Y26.481 R1.519
X26.64 Y23.762 R2.719
X29.359 Y26.481 R2.719
X25.44 Y30.4 R3.919
X21.521 Y26.481 R3.919
X25.44 Y22.562 R3.919
X29.359 Y26.481 R3.919
G2 X30.188 Y28.251 R2.305
G3 X30.408 Y30.193 R1.414
G1 X29.969 Y30.769
X28.931 Y31.648
X27.741 Y32.277
X26.444 Y32.636
X25.09 Y32.707
X23.791 Y32.494
X23.453 Y32.364
X22.516 Y31.99
X21.414 Y31.243
X20.483 Y30.264
X19.776 Y29.09
X19.346 Y27.808
X19.203 Y26.472
X19.349 Y25.136
X19.513 Y24.648
X19.782 Y23.854
X20.474 Y22.705
X21.401 Y21.725
X22.518 Y20.968
X23.765 Y20.472
X23.785 Y20.467
X25.09 Y20.253
X26.444 Y20.324
X27.741 Y20.683
X28.946 Y21.321
X29.959 Y22.182
X30.791 Y23.277
X31.353 Y24.495
X31.642 Y25.818
Y27.133
X31.355 Y28.454
X31.221 Y28.753
X30.79 Y29.687
X30.759 Y29.73
X30.408 Y30.193
G3 X30.127 Y30.231 R0.2
X30.103 Y30.209 R0.2
G1 X29.081 Y29.134
X28.053 Y28.272
X28.029 Y28.259
X28.003 Y28.256
X27.977 Y28.262
X27.956 Y28.278
X27.914 Y28.322
X27.895 Y28.337
X27.872 Y28.344
X27.848
X27.68 Y28.302 Z-1.022
X27.517 Y28.245 Z-1.028
X27.359 Y28.174 Z-1.034
X27.209 Y28.088 Z-1.04
X27.067 Y27.989 Z-1.046
X26.934 Y27.878 Z-1.052
X26.812 Y27.755 Z-1.058
X26.702 Y27.622 Z-1.064
X26.604 Y27.478 Z-1.07
X26.52 Y27.327 Z-1.076
X26.45 Y27.169 Z-1.083
X26.395 Y27.005 Z-1.089
X26.355 Y26.836 Z-1.095
X26.33 Y26.665 Z-1.101
X26.321 Y26.492 Z-1.107
X26.328 Y26.319 Z-1.113
X26.351 Y26.147 Z-1.119
X26.389 Y25.979 Z-1.125
X26.442 Y25.814 Z-1.131
X26.51 Y25.655 Z-1.137
X26.593 Y25.502 Z-1.143
X26.688 Y25.358 Z-1.149
X26.797 Y25.223 Z-1.155
X26.917 Y25.099 Z-1.161
X27.048 Y24.986 Z-1.167
X27.189 Y24.885 Z-1.173
X27.339 Y24.798 Z-1.179
X27.496 Y24.725 Z-1.185
X27.658 Y24.666 Z-1.191
X27.826 Y24.622 Z-1.197
X27.997 Y24.594 Z-1.203
X28.169 Y24.581 Z-1.21
X28.343 Y24.585 Z-1.216
X28.515 Y24.603 Z-1.222
X28.684 Y24.638 Z-1.228
X28.85 Y24.688 Z-1.234
X29.011 Y24.752 Z-1.24
X29.165 Y24.831 Z-1.246
X29.311 Y24.924 Z-1.252
X29.448 Y25.03 Z-1.258
X29.575 Y25.147 Z-1.264
X29.691 Y25.276 Z-1.27
X29.794 Y25.415 Z-1.276
X29.885 Y25.563 Z-1.282
X29.961 Y25.718 Z-1.288
X30.024 Y25.879 Z-1.294
X30.071 Y26.046 Z-1.3
X30.103 Y26.216 Z-1.306
X30.119 Y26.388 Z-1.312
X30.12 Y26.562 Z-1.318
X30.104 Y26.734 Z-1.324
X30.074 Y26.904 Z-1.33
X30.027 Y27.071 Z-1.337
X29.966 Y27.233 Z-1.343
X29.89 Y27.389 Z-1.349
X29.801 Y27.537 Z-1.355
X29.698 Y27.676 Z-1.361
X29.583 Y27.806 Z-1.367
X29.457 Y27.924 Z-1.373
X29.32 Y28.031 Z-1.379
X29.175 Y28.124 Z-1.385
X29.021 Y28.204 Z-1.391
X28.861 Y28.27 Z-1.397
X28.695 Y28.321 Z-1.403
X28.526 Y28.356 Z-1.409
X28.354 Y28.376 Z-1.415
X28.181 Y28.38 Z-1.421
X28.008 Y28.369 Z-1.427
X27.837 Y28.341 Z-1.433
X27.669 Y28.299 Z-1.439
X27.506 Y28.241 Z-1.445
X27.349 Y28.169 Z-1.451
X27.199 Y28.082 Z-1.457
X27.057 Y27.982 Z-1.464
X26.926 Y27.87 Z-1.47
X26.804 Y27.747 Z-1.476
X26.695 Y27.612 Z-1.482
X26.598 Y27.469 Z-1.488
X26.515 Y27.317 Z-1.494
X26.446 Y27.158 Z-1.5
X26.392 Y26.994 Z-1.506
X26.353 Y26.825 Z-1.512
X26.329 Y26.654 Z-1.518
X26.321 Y26.481 Z-1.524
G3 X26.64 Y26.162 R0.319
X26.959 Y26.481 R0.319
X25.44 Y28. R1.519
X23.921 Y26.481 R1.519
X26.64 Y23.762 R2.719
X29.359 Y26.481 R2.719
X25.44 Y30.4 R3.919
X21.521 Y26.481 R3.919
X25.44 Y22.562 R3.919
X29.359 Y26.481 R3.919
G2 X30.188 Y28.251 R2.305
G3 X30.408 Y30.193 R1.414
G1 X29.969 Y30.769
X28.931 Y31.648
X27.741 Y32.277
X26.444 Y32.636
X25.09 Y32.707
X23.791 Y32.494
X23.453 Y32.364
X22.516 Y31.99
X21.414 Y31.243
X20.483 Y30.264
X19.776 Y29.09
X19.346 Y27.808
X19.203 Y26.472
X19.349 Y25.136
X19.513 Y24.648
X19.782 Y23.854
X20.474 Y22.705
X21.401 Y21.725
X22.518 Y20.968
X23.765 Y20.472
X23.785 Y20.467
X25.09 Y20.253
X26.444 Y20.324
X27.741 Y20.683
X28.946 Y21.321
X29.959 Y22.182
X30.791 Y23.277
X31.353 Y24.495
X31.642 Y25.818
Y27.133
X31.355 Y28.454
X31.221 Y28.753
X30.79 Y29.687
X30.759 Y29.73
X30.408 Y30.193
G3 X30.127 Y30.231 R0.2
X30.103 Y30.209 R0.2
G1 X29.081 Y29.134
X28.053 Y28.272
X28.029 Y28.259
X28.003 Y28.256
X27.977 Y28.262
X27.956 Y28.278
X27.914 Y28.322
X27.895 Y28.337
X27.872 Y28.344
X27.848
X27.68 Y28.302 Z-1.53
X27.517 Y28.245 Z-1.536
X27.359 Y28.174 Z-1.542
X27.209 Y28.088 Z-1.548
X27.067 Y27.989 Z-1.554
X26.934 Y27.878 Z-1.56
X26.812 Y27.755 Z-1.566
X26.702 Y27.622 Z-1.572
X26.604 Y27.478 Z-1.578
X26.52 Y27.327 Z-1.584
X26.45 Y27.169 Z-1.591
X26.395 Y27.005 Z-1.597
X26.355 Y26.836 Z-1.603
X26.33 Y26.665 Z-1.609
X26.321 Y26.492 Z-1.615
X26.328 Y26.319 Z-1.621
X26.351 Y26.147 Z-1.627
X26.389 Y25.979 Z-1.633
X26.442 Y25.814 Z-1.639
X26.51 Y25.655 Z-1.645
X26.593 Y25.502 Z-1.651
X26.688 Y25.358 Z-1.657
X26.797 Y25.223 Z-1.663
X26.917 Y25.099 Z-1.669
X27.048 Y24.986 Z-1.675
X27.189 Y24.885 Z-1.681
X27.339 Y24.798 Z-1.687
X27.496 Y24.725 Z-1.693
X27.658 Y24.666 Z-1.699
X27.826 Y24.622 Z-1.705
X27.997 Y24.594 Z-1.711
X28.169 Y24.581 Z-1.718
X28.343 Y24.585 Z-1.724
X28.515 Y24.603 Z-1.73
X28.684 Y24.638 Z-1.736
X28.85 Y24.688 Z-1.742
X29.011 Y24.752 Z-1.748
X29.165 Y24.831 Z-1.754
X29.311 Y24.924 Z-1.76
X29.448 Y25.03 Z-1.766
X29.575 Y25.147 Z-1.772
X29.691 Y25.276 Z-1.778
X29.794 Y25.415 Z-1.784
X29.885 Y25.563 Z-1.79
X29.961 Y25.718 Z-1.796
X30.024 Y25.879 Z-1.802
X30.071 Y26.046 Z-1.808
X30.103 Y26.216 Z-1.814
X30.119 Y26.388 Z-1.82
X30.12 Y26.562 Z-1.826
X30.104 Y26.734 Z-1.832
X30.074 Y26.904 Z-1.838
X30.027 Y27.071 Z-1.845
X29.966 Y27.233 Z-1.851
X29.89 Y27.389 Z-1.857
X29.801 Y27.537 Z-1.863
X29.698 Y27.676 Z-1.869
X29.583 Y27.806 Z-1.875
X29.457 Y27.924 Z-1.881
X29.32 Y28.031 Z-1.887
X29.175 Y28.124 Z-1.893
X29.021 Y28.204 Z-1.899
X28.861 Y28.27 Z-1.905
X28.695 Y28.321 Z-1.911
X28.526 Y28.356 Z-1.917
X28.354 Y28.376 Z-1.923
X28.181 Y28.38 Z-1.929
X28.008 Y28.369 Z-1.935
X27.837 Y28.341 Z-1.941
X27.669 Y28.299 Z-1.947
X27.506 Y28.241 Z-1.953
X27.349 Y28.169 Z-1.959
X27.199 Y28.082 Z-1.965
X27.057 Y27.982 Z-1.972
X26.926 Y27.87 Z-1.978
X26.804 Y27.747 Z-1.984
X26.695 Y27.612 Z-1.99
X26.598 Y27.469 Z-1.996
X26.515 Y27.317 Z-2.002
X26.446 Y27.158 Z-2.008
X26.392 Y26.994 Z-2.014
X26.353 Y26.825 Z-2.02
X26.329 Y26.654 Z-2.026
X26.321 Y26.481 Z-2.032
G3 X26.64 Y26.162 R0.319
X26.959 Y26.481 R0.319
X25.44 Y28. R1.519
X23.921 Y26.481 R1.519
X26.64 Y23.762 R2.719
X29.359 Y26.481 R2.719
X25.44 Y30.4 R3.919
X21.521 Y26.481 R3.919
X25.44 Y22.562 R3.919
X29.359 Y26.481 R3.919
G2 X30.188 Y28.251 R2.305
G3 X30.408 Y30.193 R1.414
G1 X29.969 Y30.769
X28.931 Y31.648
X27.741 Y32.277
X26.444 Y32.636
X25.09 Y32.707
X23.791 Y32.494
X23.453 Y32.364
X22.516 Y31.99
X21.414 Y31.243
X20.483 Y30.264
X19.776 Y29.09
X19.346 Y27.808
X19.203 Y26.472
X19.349 Y25.136
X19.513 Y24.648
X19.782 Y23.854
X20.474 Y22.705
X21.401 Y21.725
X22.518 Y20.968
X23.765 Y20.472
X23.785 Y20.467
X25.09 Y20.253
X26.444 Y20.324
X27.741 Y20.683
X28.946 Y21.321
X29.959 Y22.182
X30.791 Y23.277
X31.353 Y24.495
X31.642 Y25.818
Y27.133
X31.355 Y28.454
X31.221 Y28.753
X30.79 Y29.687
X30.759 Y29.73
X30.408 Y30.193
G3 X30.127 Y30.231 R0.2
X30.103 Y30.209 R0.2
G1 X29.081 Y29.134
X28.053 Y28.272
X28.029 Y28.259
X28.003 Y28.256
X27.977 Y28.262
X27.956 Y28.278
X27.914 Y28.322
X27.895 Y28.337
X27.872 Y28.344
X27.848
X27.68 Y28.302 Z-2.038
X27.517 Y28.245 Z-2.044
X27.359 Y28.174 Z-2.05
X27.209 Y28.088 Z-2.056
X27.067 Y27.989 Z-2.062
X26.934 Y27.878 Z-2.068
X26.812 Y27.755 Z-2.074
X26.702 Y27.622 Z-2.08
X26.604 Y27.478 Z-2.086
X26.52 Y27.327 Z-2.092
X26.45 Y27.169 Z-2.099
X26.395 Y27.005 Z-2.105
X26.355 Y26.836 Z-2.111
X26.33 Y26.665 Z-2.117
X26.321 Y26.492 Z-2.123
X26.328 Y26.319 Z-2.129
X26.351 Y26.147 Z-2.135
X26.389 Y25.979 Z-2.141
X26.442 Y25.814 Z-2.147
X26.51 Y25.655 Z-2.153
X26.593 Y25.502 Z-2.159
X26.688 Y25.358 Z-2.165
X26.797 Y25.223 Z-2.171
X26.917 Y25.099 Z-2.177
X27.048 Y24.986 Z-2.183
X27.189 Y24.885 Z-2.189
X27.339 Y24.798 Z-2.195
X27.496 Y24.725 Z-2.201
X27.658 Y24.666 Z-2.207
X27.826 Y24.622 Z-2.213
X27.997 Y24.594 Z-2.219
X28.169 Y24.581 Z-2.226
X28.343 Y24.585 Z-2.232
X28.515 Y24.603 Z-2.238
X28.684 Y24.638 Z-2.244
X28.85 Y24.688 Z-2.25
X29.011 Y24.752 Z-2.256
X29.165 Y24.831 Z-2.262
X29.311 Y24.924 Z-2.268
X29.448 Y25.03 Z-2.274
X29.575 Y25.147 Z-2.28
X29.691 Y25.276 Z-2.286
X29.794 Y25.415 Z-2.292
X29.885 Y25.563 Z-2.298
X29.961 Y25.718 Z-2.304
X30.024 Y25.879 Z-2.31
X30.071 Y26.046 Z-2.316
X30.103 Y26.216 Z-2.322
X30.119 Y26.388 Z-2.328
X30.12 Y26.562 Z-2.334
X30.104 Y26.734 Z-2.34
X30.074 Y26.904 Z-2.346
X30.027 Y27.071 Z-2.353
X29.966 Y27.233 Z-2.359
X29.89 Y27.389 Z-2.365
X29.801 Y27.537 Z-2.371
X29.698 Y27.676 Z-2.377
X29.583 Y27.806 Z-2.383
X29.457 Y27.924 Z-2.389
X29.32 Y28.031 Z-2.395
X29.175 Y28.124 Z-2.401
X29.021 Y28.204 Z-2.407
X28.861 Y28.27 Z-2.413
X28.695 Y28.321 Z-2.419
X28.526 Y28.356 Z-2.425
X28.354 Y28.376 Z-2.431
X28.181 Y28.38 Z-2.437
X28.008 Y28.369 Z-2.443
X27.837 Y28.341 Z-2.449
X27.669 Y28.299 Z-2.455
X27.506 Y28.241 Z-2.461
X27.349 Y28.169 Z-2.467
X27.199 Y28.082 Z-2.473
X27.057 Y27.982 Z-2.48
X26.926 Y27.87 Z-2.486
X26.804 Y27.747 Z-2.492
X26.695 Y27.612 Z-2.498
X26.598 Y27.469 Z-2.504
X26.515 Y27.317 Z-2.51
X26.446 Y27.158 Z-2.516
X26.392 Y26.994 Z-2.522
X26.353 Y26.825 Z-2.528
X26.329 Y26.654 Z-2.534
X26.321 Y26.481 Z-2.54
G3 X26.64 Y26.162 R0.319
X26.959 Y26.481 R0.319
X25.44 Y28. R1.519
X23.921 Y26.481 R1.519
X26.64 Y23.762 R2.719
X29.359 Y26.481 R2.719
X25.44 Y30.4 R3.919
X21.521 Y26.481 R3.919
X25.44 Y22.562 R3.919
X29.359 Y26.481 R3.919
G2 X30.188 Y28.251 R2.305
G3 X30.408 Y30.193 R1.414
G1 X29.969 Y30.769
X28.931 Y31.648
X27.741 Y32.277
X26.444 Y32.636
X25.09 Y32.707
X23.791 Y32.494
X23.453 Y32.364
X22.516 Y31.99
X21.414 Y31.243
X20.483 Y30.264
X19.776 Y29.09
X19.346 Y27.808
X19.203 Y26.472
X19.349 Y25.136
X19.513 Y24.648
X19.782 Y23.854
X20.474 Y22.705
X21.401 Y21.725
X22.518 Y20.968
X23.765 Y20.472
X23.785 Y20.467
X25.09 Y20.253
X26.444 Y20.324
X27.741 Y20.683
X28.946 Y21.321
X29.959 Y22.182
X30.791 Y23.277
X31.353 Y24.495
X31.642 Y25.818
Y27.133
X31.355 Y28.454
X31.221 Y28.753
X30.79 Y29.687
X30.759 Y29.73
X30.408 Y30.193
G3 X30.127 Y30.231 R0.2
X30.103 Y30.209 R0.2
G1 X29.081 Y29.134
X28.053 Y28.272
X28.029 Y28.259
X28.003 Y28.256
X27.977 Y28.262
X27.956 Y28.278
X27.914 Y28.322
X27.895 Y28.337
X27.872 Y28.344
X27.848
X27.68 Y28.302 Z-2.546
X27.517 Y28.245 Z-2.552
X27.359 Y28.174 Z-2.558
X27.209 Y28.088 Z-2.564
X27.067 Y27.989 Z-2.57
X26.934 Y27.878 Z-2.576
X26.812 Y27.755 Z-2.582
X26.702 Y27.622 Z-2.588
X26.604 Y27.478 Z-2.594
X26.52 Y27.327 Z-2.6
X26.45 Y27.169 Z-2.607
X26.395 Y27.005 Z-2.613
X26.355 Y26.836 Z-2.619
X26.33 Y26.665 Z-2.625
X26.321 Y26.492 Z-2.631
X26.328 Y26.319 Z-2.637
X26.351 Y26.147 Z-2.643
X26.389 Y25.979 Z-2.649
X26.442 Y25.814 Z-2.655
X26.51 Y25.655 Z-2.661
X26.593 Y25.502 Z-2.667
X26.688 Y25.358 Z-2.673
X26.797 Y25.223 Z-2.679
X26.917 Y25.099 Z-2.685
X27.048 Y24.986 Z-2.691
X27.189 Y24.885 Z-2.697
X27.339 Y24.798 Z-2.703
X27.496 Y24.725 Z-2.709
X27.658 Y24.666 Z-2.715
X27.826 Y24.622 Z-2.721
X27.997 Y24.594 Z-2.727
X28.169 Y24.581 Z-2.734
X28.343 Y24.585 Z-2.74
X28.515 Y24.603 Z-2.746
X28.684 Y24.638 Z-2.752
X28.85 Y24.688 Z-2.758
X29.011 Y24.752 Z-2.764
X29.165 Y24.831 Z-2.77
X29.311 Y24.924 Z-2.776
X29.448 Y25.03 Z-2.782
X29.575 Y25.147 Z-2.788
X29.691 Y25.276 Z-2.794
X29.794 Y25.415 Z-2.8
X29.885 Y25.563 Z-2.806
X29.961 Y25.718 Z-2.812
X30.024 Y25.879 Z-2.818
X30.071 Y26.046 Z-2.824
X30.103 Y26.216 Z-2.83
X30.119 Y26.388 Z-2.836
X30.12 Y26.562 Z-2.842
X30.104 Y26.734 Z-2.848
X30.074 Y26.904 Z-2.854
X30.027 Y27.071 Z-2.861
X29.966 Y27.233 Z-2.867
X29.89 Y27.389 Z-2.873
X29.801 Y27.537 Z-2.879
X29.698 Y27.676 Z-2.885
X29.583 Y27.806 Z-2.891
X29.457 Y27.924 Z-2.897
X29.32 Y28.031 Z-2.903
X29.175 Y28.124 Z-2.909
X29.021 Y28.204 Z-2.915
X28.861 Y28.27 Z-2.921
X28.695 Y28.321 Z-2.927
X28.526 Y28.356 Z-2.933
X28.354 Y28.376 Z-2.939
X28.181 Y28.38 Z-2.945
X28.008 Y28.369 Z-2.951
X27.837 Y28.341 Z-2.957
X27.669 Y28.299 Z-2.963
X27.506 Y28.241 Z-2.969
X27.349 Y28.169 Z-2.975
X27.199 Y28.082 Z-2.981
X27.057 Y27.982 Z-2.988
X26.926 Y27.87 Z-2.994
X26.804 Y27.747 Z-3.
X26.695 Y27.612 Z-3.006
X26.598 Y27.469 Z-3.012
X26.515 Y27.317 Z-3.018
X26.446 Y27.158 Z-3.024
X26.392 Y26.994 Z-3.03
X26.353 Y26.825 Z-3.036
X26.329 Y26.654 Z-3.042
X26.321 Y26.481 Z-3.048
G3 X26.64 Y26.162 R0.319
X26.959 Y26.481 R0.319
X25.44 Y28. R1.519
X23.921 Y26.481 R1.519
X26.64 Y23.762 R2.719
X29.359 Y26.481 R2.719
X25.44 Y30.4 R3.919
X21.521 Y26.481 R3.919
X25.44 Y22.562 R3.919
X29.359 Y26.481 R3.919
G2 X30.188 Y28.251 R2.305
G3 X30.408 Y30.193 R1.414
G1 X29.969 Y30.769
X28.931 Y31.648
X27.741 Y32.277
X26.444 Y32.636
X25.09 Y32.707
X23.791 Y32.494
X23.453 Y32.364
X22.516 Y31.99
X21.414 Y31.243
X20.483 Y30.264
X19.776 Y29.09
X19.346 Y27.808
X19.203 Y26.472
X19.349 Y25.136
X19.513 Y24.648
X19.782 Y23.854
X20.474 Y22.705
X21.401 Y21.725
X22.518 Y20.968
X23.765 Y20.472
X23.785 Y20.467
X25.09 Y20.253
X26.444 Y20.324
X27.741 Y20.683
X28.946 Y21.321
X29.959 Y22.182
X30.791 Y23.277
X31.353 Y24.495
X31.642 Y25.818
Y27.133
X31.355 Y28.454
X31.221 Y28.753
X30.79 Y29.687
X30.759 Y29.73
X30.408 Y30.193
G3 X30.127 Y30.231 R0.2
X30.103 Y30.209 R0.2
G1 X29.081 Y29.134
X28.053 Y28.272
X28.029 Y28.259
X28.003 Y28.256
X27.977 Y28.262
X27.956 Y28.278
X27.914 Y28.322
X27.895 Y28.337
X27.872 Y28.344
X27.848
X27.68 Y28.302 Z-3.054
X27.517 Y28.245 Z-3.06
X27.359 Y28.174 Z-3.066
X27.209 Y28.088 Z-3.072
X27.067 Y27.989 Z-3.078
X26.934 Y27.878 Z-3.084
X26.812 Y27.755 Z-3.09
X26.702 Y27.622 Z-3.096
X26.604 Y27.478 Z-3.102
X26.52 Y27.327 Z-3.108
X26.45 Y27.169 Z-3.115
X26.395 Y27.005 Z-3.121
X26.355 Y26.836 Z-3.127
X26.33 Y26.665 Z-3.133
X26.321 Y26.492 Z-3.139
X26.328 Y26.319 Z-3.145
X26.351 Y26.147 Z-3.151
X26.389 Y25.979 Z-3.157
X26.442 Y25.814 Z-3.163
X26.51 Y25.655 Z-3.169
X26.593 Y25.502 Z-3.175
X26.688 Y25.358 Z-3.181
X26.797 Y25.223 Z-3.187
X26.917 Y25.099 Z-3.193
X27.048 Y24.986 Z-3.199
X27.189 Y24.885 Z-3.205
X27.339 Y24.798 Z-3.211
X27.496 Y24.725 Z-3.217
X27.658 Y24.666 Z-3.223
X27.826 Y24.622 Z-3.229
X27.997 Y24.594 Z-3.235
X28.169 Y24.581 Z-3.242
X28.343 Y24.585 Z-3.248
X28.515 Y24.603 Z-3.254
X28.684 Y24.638 Z-3.26
X28.85 Y24.688 Z-3.266
X29.011 Y24.752 Z-3.272
X29.165 Y24.831 Z-3.278
X29.311 Y24.924 Z-3.284
X29.448 Y25.03 Z-3.29
X29.575 Y25.147 Z-3.296
X29.691 Y25.276 Z-3.302
X29.794 Y25.415 Z-3.308
X29.885 Y25.563 Z-3.314
X29.961 Y25.718 Z-3.32
X30.024 Y25.879 Z-3.326
X30.071 Y26.046 Z-3.332
X30.103 Y26.216 Z-3.338
X30.119 Y26.388 Z-3.344
X30.12 Y26.562 Z-3.35
X30.104 Y26.734 Z-3.356
X30.074 Y26.904 Z-3.362
X30.027 Y27.071 Z-3.369
X29.966 Y27.233 Z-3.375
X29.89 Y27.389 Z-3.381
X29.801 Y27.537 Z-3.387
X29.698 Y27.676 Z-3.393
X29.583 Y27.806 Z-3.399
X29.457 Y27.924 Z-3.405
X29.32 Y28.031 Z-3.411
X29.175 Y28.124 Z-3.417
X29.021 Y28.204 Z-3.423
X28.861 Y28.27 Z-3.429
X28.695 Y28.321 Z-3.435
X28.526 Y28.356 Z-3.441
X28.354 Y28.376 Z-3.447
X28.181 Y28.38 Z-3.453
X28.008 Y28.369 Z-3.459
X27.837 Y28.341 Z-3.465
X27.669 Y28.299 Z-3.471
X27.506 Y28.241 Z-3.477
X27.349 Y28.169 Z-3.483
X27.199 Y28.082 Z-3.489
X27.057 Y27.982 Z-3.496
X26.926 Y27.87 Z-3.502
X26.804 Y27.747 Z-3.508
X26.695 Y27.612 Z-3.514
X26.598 Y27.469 Z-3.52
X26.515 Y27.317 Z-3.526
X26.446 Y27.158 Z-3.532
X26.392 Y26.994 Z-3.538
X26.353 Y26.825 Z-3.544
X26.329 Y26.654 Z-3.55
X26.321 Y26.481 Z-3.556
G3 X26.64 Y26.162 R0.319
X26.959 Y26.481 R0.319
X25.44 Y28. R1.519
X23.921 Y26.481 R1.519
X26.64 Y23.762 R2.719
X29.359 Y26.481 R2.719
X25.44 Y30.4 R3.919
X21.521 Y26.481 R3.919
X25.44 Y22.562 R3.919
X29.359 Y26.481 R3.919
G2 X30.188 Y28.251 R2.305
G3 X30.408 Y30.193 R1.414
G1 X29.969 Y30.769
X28.931 Y31.648
X27.741 Y32.277
X26.444 Y32.636
X25.09 Y32.707
X23.791 Y32.494
X23.453 Y32.364
X22.516 Y31.99
X21.414 Y31.243
X20.483 Y30.264
X19.776 Y29.09
X19.346 Y27.808
X19.203 Y26.472
X19.349 Y25.136
X19.513 Y24.648
X19.782 Y23.854
X20.474 Y22.705
X21.401 Y21.725
X22.518 Y20.968
X23.765 Y20.472
X23.785 Y20.467
X25.09 Y20.253
X26.444 Y20.324
X27.741 Y20.683
X28.946 Y21.321
X29.959 Y22.182
X30.791 Y23.277
X31.353 Y24.495
X31.642 Y25.818
Y27.133
X31.355 Y28.454
X31.221 Y28.753
X30.79 Y29.687
X30.759 Y29.73
X30.408 Y30.193
X30.299 Y30.323 Z-3.559
X30.179 Y30.443 Z-3.563
X30.049 Y30.552 Z-3.566
X29.91 Y30.649 Z-3.569
X29.762 Y30.734 Z-3.573
X29.608 Y30.804 Z-3.576
X29.448 Y30.861 Z-3.579
X29.283 Y30.903 Z-3.582
X29.116 Y30.93 Z-3.586
X28.946 Y30.942 Z-3.589
X28.777 Y30.939 Z-3.592
X28.608 Y30.921 Z-3.596
X28.441 Y30.888 Z-3.599
X28.279 Y30.84 Z-3.602
X28.121 Y30.778 Z-3.606
X27.969 Y30.702 Z-3.609
X27.824 Y30.613 Z-3.612
X27.689 Y30.511 Z-3.616
X27.562 Y30.397 Z-3.619
X27.447 Y30.273 Z-3.622
X27.343 Y30.139 Z-3.626
X27.251 Y29.996 Z-3.629
X27.173 Y29.845 Z-3.632
X27.108 Y29.688 Z-3.635
X27.058 Y29.526 Z-3.639
X26.384 Y26.964 Z-3.69
X26.349 Y26.805 Z-3.694
X26.328 Y26.643 Z-3.697
X26.321 Y26.481 Z-3.7
G3 X26.64 Y26.162 R0.319
X26.959 Y26.481 R0.319
X25.44 Y28. R1.519
X23.921 Y26.481 R1.519
X26.64 Y23.762 R2.719
X29.359 Y26.481 R2.719
X25.44 Y30.4 R3.919
X21.521 Y26.481 R3.919
X25.44 Y22.562 R3.919
X29.359 Y26.481 R3.919
G2 X30.188 Y28.251 R2.305
G3 X30.408 Y30.193 R1.414
G1 X29.969 Y30.769
X28.931 Y31.648
X27.741 Y32.277
X26.444 Y32.636
X25.09 Y32.707
X23.791 Y32.494
X23.453 Y32.364
X22.516 Y31.99
X21.414 Y31.243
X20.483 Y30.264
X19.776 Y29.09
X19.346 Y27.808
X19.203 Y26.472
X19.349 Y25.136
X19.513 Y24.648
X19.782 Y23.854
X20.474 Y22.705
X21.401 Y21.725
X22.518 Y20.968
X23.765 Y20.472
X23.785 Y20.467
X25.09 Y20.253
X26.444 Y20.324
X27.741 Y20.683
X28.946 Y21.321
X29.959 Y22.182
X30.791 Y23.277
X31.353 Y24.495
X31.642 Y25.818
Y27.133
X31.355 Y28.454
X31.221 Y28.753
X30.79 Y29.687
X30.759 Y29.73
X30.408 Y30.193
G3 X30.127 Y30.231 R0.2
X30.103 Y30.209 R0.2
G1 X29.081 Y29.134
X28.053 Y28.272
X28.029 Y28.259
X28.003 Y28.256
X27.977 Y28.262
X27.956 Y28.278
X27.914 Y28.322
X27.895 Y28.337
X27.872 Y28.344
X27.848
X27.68 Y28.302 Z-3.706
X27.517 Y28.245 Z-3.712
X27.359 Y28.174 Z-3.718
X27.209 Y28.088 Z-3.724
X27.067 Y27.989 Z-3.73
X26.934 Y27.878 Z-3.736
X26.812 Y27.755 Z-3.742
X26.702 Y27.622 Z-3.748
X26.604 Y27.478 Z-3.754
X26.52 Y27.327 Z-3.76
X26.45 Y27.169 Z-3.767
X26.395 Y27.005 Z-3.773
X26.355 Y26.836 Z-3.779
X26.33 Y26.665 Z-3.785
X26.321 Y26.492 Z-3.791
X26.328 Y26.319 Z-3.797
X26.351 Y26.147 Z-3.803
X26.389 Y25.979 Z-3.809
X26.442 Y25.814 Z-3.815
X26.51 Y25.655 Z-3.821
X26.593 Y25.502 Z-3.827
X26.688 Y25.358 Z-3.833
X26.797 Y25.223 Z-3.839
X26.917 Y25.099 Z-3.845
X27.048 Y24.986 Z-3.851
X27.189 Y24.885 Z-3.857
X27.339 Y24.798 Z-3.863
X27.496 Y24.725 Z-3.869
X27.658 Y24.666 Z-3.875
X27.826 Y24.622 Z-3.881
X27.997 Y24.594 Z-3.887
X28.169 Y24.581 Z-3.894
X28.343 Y24.585 Z-3.9
X28.515 Y24.603 Z-3.906
X28.684 Y24.638 Z-3.912
X28.85 Y24.688 Z-3.918
X29.011 Y24.752 Z-3.924
X29.165 Y24.831 Z-3.93
X29.311 Y24.924 Z-3.936
X29.448 Y25.03 Z-3.942
X29.575 Y25.147 Z-3.948
X29.691 Y25.276 Z-3.954
X29.794 Y25.415 Z-3.96
X29.885 Y25.563 Z-3.966
X29.961 Y25.718 Z-3.972
X30.024 Y25.879 Z-3.978
X30.071 Y26.046 Z-3.984
X30.103 Y26.216 Z-3.99
X30.119 Y26.388 Z-3.996
X30.12 Y26.562 Z-4.002
X30.104 Y26.734 Z-4.008
X30.074 Y26.904 Z-4.014
X30.027 Y27.071 Z-4.021
X29.966 Y27.233 Z-4.027
X29.89 Y27.389 Z-4.033
X29.801 Y27.537 Z-4.039
X29.698 Y27.676 Z-4.045
X29.583 Y27.806 Z-4.051
X29.457 Y27.924 Z-4.057
X29.32 Y28.031 Z-4.063
X29.175 Y28.124 Z-4.069
X29.021 Y28.204 Z-4.075
X28.861 Y28.27 Z-4.081
X28.695 Y28.321 Z-4.087
X28.526 Y28.356 Z-4.093
X28.354 Y28.376 Z-4.099
X28.181 Y28.38 Z-4.105
X28.008 Y28.369 Z-4.111
X27.837 Y28.341 Z-4.117
X27.669 Y28.299 Z-4.123
X27.506 Y28.241 Z-4.129
X27.349 Y28.169 Z-4.135
X27.199 Y28.082 Z-4.141
X27.057 Y27.982 Z-4.148
X26.926 Y27.87 Z-4.154
X26.804 Y27.747 Z-4.16
X26.695 Y27.612 Z-4.166
X26.598 Y27.469 Z-4.172
X26.515 Y27.317 Z-4.178
X26.446 Y27.158 Z-4.184
X26.392 Y26.994 Z-4.19
X26.353 Y26.825 Z-4.196
X26.329 Y26.654 Z-4.202
X26.321 Y26.481 Z-4.208
G3 X26.64 Y26.162 R0.319
X26.959 Y26.481 R0.319
X25.44 Y28. R1.519
X23.921 Y26.481 R1.519
X26.64 Y23.762 R2.719
X29.359 Y26.481 R2.719
X25.44 Y30.4 R3.919
X21.521 Y26.481 R3.919
X25.44 Y22.562 R3.919
X29.359 Y26.481 R3.919
G2 X30.188 Y28.251 R2.305
G3 X30.408 Y30.193 R1.414
G1 X29.969 Y30.769
X28.931 Y31.648
X27.741 Y32.277
X26.444 Y32.636
X25.09 Y32.707
X23.791 Y32.494
X23.453 Y32.364
X22.516 Y31.99
X21.414 Y31.243
X20.483 Y30.264
X19.776 Y29.09
X19.346 Y27.808
X19.203 Y26.472
X19.349 Y25.136
X19.513 Y24.648
X19.782 Y23.854
X20.474 Y22.705
X21.401 Y21.725
X22.518 Y20.968
X23.765 Y20.472
X23.785 Y20.467
X25.09 Y20.253
X26.444 Y20.324
X27.741 Y20.683
X28.946 Y21.321
X29.959 Y22.182
X30.791 Y23.277
X31.353 Y24.495
X31.642 Y25.818
Y27.133
X31.355 Y28.454
X31.221 Y28.753
X30.79 Y29.687
X30.759 Y29.73
X30.408 Y30.193
G3 X30.127 Y30.231 R0.2
X30.103 Y30.209 R0.2
G1 X29.081 Y29.134
X28.053 Y28.272
X28.029 Y28.259
X28.003 Y28.256
X27.977 Y28.262
X27.956 Y28.278
X27.914 Y28.322
X27.895 Y28.337
X27.872 Y28.344
X27.848
X27.68 Y28.302 Z-4.214
X27.517 Y28.245 Z-4.22
X27.359 Y28.174 Z-4.226
X27.209 Y28.088 Z-4.232
X27.067 Y27.989 Z-4.238
X26.934 Y27.878 Z-4.244
X26.812 Y27.755 Z-4.25
X26.702 Y27.622 Z-4.256
X26.604 Y27.478 Z-4.262
X26.52 Y27.327 Z-4.268
X26.45 Y27.169 Z-4.275
X26.395 Y27.005 Z-4.281
X26.355 Y26.836 Z-4.287
X26.33 Y26.665 Z-4.293
X26.321 Y26.492 Z-4.299
X26.328 Y26.319 Z-4.305
X26.351 Y26.147 Z-4.311
X26.389 Y25.979 Z-4.317
X26.442 Y25.814 Z-4.323
X26.51 Y25.655 Z-4.329
X26.593 Y25.502 Z-4.335
X26.688 Y25.358 Z-4.341
X26.797 Y25.223 Z-4.347
X26.917 Y25.099 Z-4.353
X27.048 Y24.986 Z-4.359
X27.189 Y24.885 Z-4.365
X27.339 Y24.798 Z-4.371
X27.496 Y24.725 Z-4.377
X27.658 Y24.666 Z-4.383
X27.826 Y24.622 Z-4.389
X27.997 Y24.594 Z-4.395
X28.169 Y24.581 Z-4.402
X28.343 Y24.585 Z-4.408
X28.515 Y24.603 Z-4.414
X28.684 Y24.638 Z-4.42
X28.85 Y24.688 Z-4.426
X29.011 Y24.752 Z-4.432
X29.165 Y24.831 Z-4.438
X29.311 Y24.924 Z-4.444
X29.448 Y25.03 Z-4.45
X29.575 Y25.147 Z-4.456
X29.691 Y25.276 Z-4.462
X29.794 Y25.415 Z-4.468
X29.885 Y25.563 Z-4.474
X29.961 Y25.718 Z-4.48
X30.024 Y25.879 Z-4.486
X30.071 Y26.046 Z-4.492
X30.103 Y26.216 Z-4.498
X30.119 Y26.388 Z-4.504
X30.12 Y26.562 Z-4.51
X30.104 Y26.734 Z-4.516
X30.074 Y26.904 Z-4.522
X30.027 Y27.071 Z-4.529
X29.966 Y27.233 Z-4.535
X29.89 Y27.389 Z-4.541
X29.801 Y27.537 Z-4.547
X29.698 Y27.676 Z-4.553
X29.583 Y27.806 Z-4.559
X29.457 Y27.924 Z-4.565
X29.32 Y28.031 Z-4.571
X29.175 Y28.124 Z-4.577
X29.021 Y28.204 Z-4.583
X28.861 Y28.27 Z-4.589
X28.695 Y28.321 Z-4.595
X28.526 Y28.356 Z-4.601
X28.354 Y28.376 Z-4.607
X28.181 Y28.38 Z-4.613
X28.008 Y28.369 Z-4.619
X27.837 Y28.341 Z-4.625
X27.669 Y28.299 Z-4.631
X27.506 Y28.241 Z-4.637
X27.349 Y28.169 Z-4.643
X27.199 Y28.082 Z-4.649
X27.057 Y27.982 Z-4.656
X26.926 Y27.87 Z-4.662
X26.804 Y27.747 Z-4.668
X26.695 Y27.612 Z-4.674
X26.598 Y27.469 Z-4.68
X26.515 Y27.317 Z-4.686
X26.446 Y27.158 Z-4.692
X26.392 Y26.994 Z-4.698
X26.353 Y26.825 Z-4.704
X26.329 Y26.654 Z-4.71
X26.321 Y26.481 Z-4.716
G3 X26.64 Y26.162 R0.319
X26.959 Y26.481 R0.319
X25.44 Y28. R1.519
X23.921 Y26.481 R1.519
X26.64 Y23.762 R2.719
X29.359 Y26.481 R2.719
X25.44 Y30.4 R3.919
X21.521 Y26.481 R3.919
X25.44 Y22.562 R3.919
X29.359 Y26.481 R3.919
G2 X30.188 Y28.251 R2.305
G3 X30.408 Y30.193 R1.414
G1 X29.969 Y30.769
X28.931 Y31.648
X27.741 Y32.277
X26.444 Y32.636
X25.09 Y32.707
X23.791 Y32.494
X23.453 Y32.364
X22.516 Y31.99
X21.414 Y31.243
X20.483 Y30.264
X19.776 Y29.09
X19.346 Y27.808
X19.203 Y26.472
X19.349 Y25.136
X19.513 Y24.648
X19.782 Y23.854
X20.474 Y22.705
X21.401 Y21.725
X22.518 Y20.968
X23.765 Y20.472
X23.785 Y20.467
X25.09 Y20.253
X26.444 Y20.324
X27.741 Y20.683
X28.946 Y21.321
X29.959 Y22.182
X30.791 Y23.277
X31.353 Y24.495
X31.642 Y25.818
Y27.133
X31.355 Y28.454
X31.221 Y28.753
X30.79 Y29.687
X30.759 Y29.73
X30.408 Y30.193
G3 X30.127 Y30.231 R0.2
X30.103 Y30.209 R0.2
G1 X29.081 Y29.134
X28.053 Y28.272
X28.029 Y28.259
X28.003 Y28.256
X27.977 Y28.262
X27.956 Y28.278
X27.914 Y28.322
X27.895 Y28.337
X27.872 Y28.344
X27.848
X27.68 Y28.302 Z-4.722
X27.517 Y28.245 Z-4.728
X27.359 Y28.174 Z-4.734
X27.209 Y28.088 Z-4.74
X27.067 Y27.989 Z-4.746
X26.934 Y27.878 Z-4.752
X26.812 Y27.755 Z-4.758
X26.702 Y27.622 Z-4.764
X26.604 Y27.478 Z-4.77
X26.52 Y27.327 Z-4.776
X26.45 Y27.169 Z-4.783
X26.395 Y27.005 Z-4.789
X26.355 Y26.836 Z-4.795
X26.33 Y26.665 Z-4.801
X26.321 Y26.492 Z-4.807
X26.328 Y26.319 Z-4.813
X26.351 Y26.147 Z-4.819
X26.389 Y25.979 Z-4.825
X26.442 Y25.814 Z-4.831
X26.51 Y25.655 Z-4.837
X26.593 Y25.502 Z-4.843
X26.688 Y25.358 Z-4.849
X26.797 Y25.223 Z-4.855
X26.917 Y25.099 Z-4.861
X27.048 Y24.986 Z-4.867
X27.189 Y24.885 Z-4.873
X27.339 Y24.798 Z-4.879
X27.496 Y24.725 Z-4.885
X27.658 Y24.666 Z-4.891
X27.826 Y24.622 Z-4.897
X27.997 Y24.594 Z-4.903
X28.169 Y24.581 Z-4.91
X28.343 Y24.585 Z-4.916
X28.515 Y24.603 Z-4.922
X28.684 Y24.638 Z-4.928
X28.85 Y24.688 Z-4.934
X29.011 Y24.752 Z-4.94
X29.165 Y24.831 Z-4.946
X29.311 Y24.924 Z-4.952
X29.448 Y25.03 Z-4.958
X29.575 Y25.147 Z-4.964
X29.691 Y25.276 Z-4.97
X29.794 Y25.415 Z-4.976
X29.885 Y25.563 Z-4.982
X29.961 Y25.718 Z-4.988
X30.024 Y25.879 Z-4.994
X30.071 Y26.046 Z-5.
X30.103 Y26.216 Z-5.006
X30.119 Y26.388 Z-5.012
X30.12 Y26.562 Z-5.018
X30.104 Y26.734 Z-5.024
X30.074 Y26.904 Z-5.03
X30.027 Y27.071 Z-5.037
X29.966 Y27.233 Z-5.043
X29.89 Y27.389 Z-5.049
X29.801 Y27.537 Z-5.055
X29.698 Y27.676 Z-5.061
X29.583 Y27.806 Z-5.067
X29.457 Y27.924 Z-5.073
X29.32 Y28.031 Z-5.079
X29.175 Y28.124 Z-5.085
X29.021 Y28.204 Z-5.091
X28.861 Y28.27 Z-5.097
X28.695 Y28.321 Z-5.103
X28.526 Y28.356 Z-5.109
X28.354 Y28.376 Z-5.115
X28.181 Y28.38 Z-5.121
X28.008 Y28.369 Z-5.127
X27.837 Y28.341 Z-5.133
X27.669 Y28.299 Z-5.139
X27.506 Y28.241 Z-5.145
X27.349 Y28.169 Z-5.151
X27.199 Y28.082 Z-5.157
X27.057 Y27.982 Z-5.164
X26.926 Y27.87 Z-5.17
X26.804 Y27.747 Z-5.176
X26.695 Y27.612 Z-5.182
X26.598 Y27.469 Z-5.188
X26.515 Y27.317 Z-5.194
X26.446 Y27.158 Z-5.2
X26.392 Y26.994 Z-5.206
X26.353 Y26.825 Z-5.212
X26.329 Y26.654 Z-5.218
X26.321 Y26.481 Z-5.224
G3 X26.64 Y26.162 R0.319
X26.959 Y26.481 R0.319
X25.44 Y28. R1.519
X23.921 Y26.481 R1.519
X26.64 Y23.762 R2.719
X29.359 Y26.481 R2.719
X25.44 Y30.4 R3.919
X21.521 Y26.481 R3.919
X25.44 Y22.562 R3.919
X29.359 Y26.481 R3.919
G2 X30.188 Y28.251 R2.305
G3 X30.408 Y30.193 R1.414
G1 X29.969 Y30.769
X28.931 Y31.648
X27.741 Y32.277
X26.444 Y32.636
X25.09 Y32.707
X23.791 Y32.494
X23.453 Y32.364
X22.516 Y31.99
X21.414 Y31.243
X20.483 Y30.264
X19.776 Y29.09
X19.346 Y27.808
X19.203 Y26.472
X19.349 Y25.136
X19.513 Y24.648
X19.782 Y23.854
X20.474 Y22.705
X21.401 Y21.725
X22.518 Y20.968
X23.765 Y20.472
X23.785 Y20.467
X25.09 Y20.253
X26.444 Y20.324
X27.741 Y20.683
X28.946 Y21.321
X29.959 Y22.182
X30.791 Y23.277
X31.353 Y24.495
X31.642 Y25.818
Y27.133
X31.355 Y28.454
X31.221 Y28.753
X30.79 Y29.687
X30.759 Y29.73
X30.408 Y30.193
G3 X30.127 Y30.231 R0.2
X30.103 Y30.209 R0.2
G1 X29.081 Y29.134
X28.053 Y28.272
X28.029 Y28.259
X28.003 Y28.256
X27.977 Y28.262
X27.956 Y28.278
X27.914 Y28.322
X27.895 Y28.337
X27.872 Y28.344
X27.848
X27.68 Y28.302 Z-5.23
X27.517 Y28.245 Z-5.236
X27.359 Y28.174 Z-5.242
X27.209 Y28.088 Z-5.248
X27.067 Y27.989 Z-5.254
X26.934 Y27.878 Z-5.26
X26.812 Y27.755 Z-5.266
X26.702 Y27.622 Z-5.272
X26.604 Y27.478 Z-5.278
X26.52 Y27.327 Z-5.284
X26.45 Y27.169 Z-5.291
X26.395 Y27.005 Z-5.297
X26.355 Y26.836 Z-5.303
X26.33 Y26.665 Z-5.309
X26.321 Y26.492 Z-5.315
X26.328 Y26.319 Z-5.321
X26.351 Y26.147 Z-5.327
X26.389 Y25.979 Z-5.333
X26.442 Y25.814 Z-5.339
X26.51 Y25.655 Z-5.345
X26.593 Y25.502 Z-5.351
X26.688 Y25.358 Z-5.357
X26.797 Y25.223 Z-5.363
X26.917 Y25.099 Z-5.369
X27.048 Y24.986 Z-5.375
X27.189 Y24.885 Z-5.381
X27.339 Y24.798 Z-5.387
X27.496 Y24.725 Z-5.393
X27.658 Y24.666 Z-5.399
X27.826 Y24.622 Z-5.405
X27.997 Y24.594 Z-5.411
X28.169 Y24.581 Z-5.418
X28.343 Y24.585 Z-5.424
X28.515 Y24.603 Z-5.43
X28.684 Y24.638 Z-5.436
X28.85 Y24.688 Z-5.442
X29.011 Y24.752 Z-5.448
X29.165 Y24.831 Z-5.454
X29.311 Y24.924 Z-5.46
X29.448 Y25.03 Z-5.466
X29.575 Y25.147 Z-5.472
X29.691 Y25.276 Z-5.478
X29.794 Y25.415 Z-5.484
X29.885 Y25.563 Z-5.49
X29.961 Y25.718 Z-5.496
X30.024 Y25.879 Z-5.502
X30.071 Y26.046 Z-5.508
X30.103 Y26.216 Z-5.514
X30.119 Y26.388 Z-5.52
X30.12 Y26.562 Z-5.526
X30.104 Y26.734 Z-5.532
X30.074 Y26.904 Z-5.538
X30.027 Y27.071 Z-5.545
X29.966 Y27.233 Z-5.551
X29.89 Y27.389 Z-5.557
X29.801 Y27.537 Z-5.563
X29.698 Y27.676 Z-5.569
X29.583 Y27.806 Z-5.575
X29.457 Y27.924 Z-5.581
X29.32 Y28.031 Z-5.587
X29.175 Y28.124 Z-5.593
X29.021 Y28.204 Z-5.599
X28.861 Y28.27 Z-5.605
X28.695 Y28.321 Z-5.611
X28.526 Y28.356 Z-5.617
X28.354 Y28.376 Z-5.623
X28.181 Y28.38 Z-5.629
X28.008 Y28.369 Z-5.635
X27.837 Y28.341 Z-5.641
X27.669 Y28.299 Z-5.647
X27.506 Y28.241 Z-5.653
X27.349 Y28.169 Z-5.659
X27.199 Y28.082 Z-5.665
X27.057 Y27.982 Z-5.672
X26.926 Y27.87 Z-5.678
X26.804 Y27.747 Z-5.684
X26.695 Y27.612 Z-5.69
X26.598 Y27.469 Z-5.696
X26.515 Y27.317 Z-5.702
X26.446 Y27.158 Z-5.708
X26.392 Y26.994 Z-5.714
X26.353 Y26.825 Z-5.72
X26.329 Y26.654 Z-5.726
X26.321 Y26.481 Z-5.732
G3 X26.64 Y26.162 R0.319
X26.959 Y26.481 R0.319
X25.44 Y28. R1.519
X23.921 Y26.481 R1.519
X26.64 Y23.762 R2.719
X29.359 Y26.481 R2.719
X25.44 Y30.4 R3.919
X21.521 Y26.481 R3.919
X25.44 Y22.562 R3.919
X29.359 Y26.481 R3.919
G2 X30.188 Y28.251 R2.305
G3 X30.408 Y30.193 R1.414
G1 X29.969 Y30.769
X28.931 Y31.648
X27.741 Y32.277
X26.444 Y32.636
X25.09 Y32.707
X23.791 Y32.494
X23.453 Y32.364
X22.516 Y31.99
X21.414 Y31.243
X20.483 Y30.264
X19.776 Y29.09
X19.346 Y27.808
X19.203 Y26.472
X19.349 Y25.136
X19.513 Y24.648
X19.782 Y23.854
X20.474 Y22.705
X21.401 Y21.725
X22.518 Y20.968
X23.765 Y20.472
X23.785 Y20.467
X25.09 Y20.253
X26.444 Y20.324
X27.741 Y20.683
X28.946 Y21.321
X29.959 Y22.182
X30.791 Y23.277
X31.353 Y24.495
X31.642 Y25.818
Y27.133
X31.355 Y28.454
X31.221 Y28.753
X30.79 Y29.687
X30.759 Y29.73
X30.408 Y30.193
G3 X30.127 Y30.231 R0.2
X30.103 Y30.209 R0.2
G1 X29.081 Y29.134
X28.053 Y28.272
X28.029 Y28.259
X28.003 Y28.256
X27.977 Y28.262
X27.956 Y28.278
X27.914 Y28.322
X27.895 Y28.337
X27.872 Y28.344
X27.848
X27.68 Y28.302 Z-5.738
X27.517 Y28.245 Z-5.744
X27.359 Y28.174 Z-5.75
X27.209 Y28.088 Z-5.756
X27.067 Y27.989 Z-5.762
X26.934 Y27.878 Z-5.768
X26.812 Y27.755 Z-5.774
X26.702 Y27.622 Z-5.78
X26.604 Y27.478 Z-5.786
X26.52 Y27.327 Z-5.792
X26.45 Y27.169 Z-5.799
X26.395 Y27.005 Z-5.805
X26.355 Y26.836 Z-5.811
X26.33 Y26.665 Z-5.817
X26.321 Y26.492 Z-5.823
X26.328 Y26.319 Z-5.829
X26.351 Y26.147 Z-5.835
X26.389 Y25.979 Z-5.841
X26.442 Y25.814 Z-5.847
X26.51 Y25.655 Z-5.853
X26.593 Y25.502 Z-5.859
X26.688 Y25.358 Z-5.865
X26.797 Y25.223 Z-5.871
X26.917 Y25.099 Z-5.877
X27.048 Y24.986 Z-5.883
X27.189 Y24.885 Z-5.889
X27.339 Y24.798 Z-5.895
X27.496 Y24.725 Z-5.901
X27.658 Y24.666 Z-5.907
X27.826 Y24.622 Z-5.913
X27.997 Y24.594 Z-5.919
X28.169 Y24.581 Z-5.926
X28.343 Y24.585 Z-5.932
X28.515 Y24.603 Z-5.938
X28.684 Y24.638 Z-5.944
X28.85 Y24.688 Z-5.95
X29.011 Y24.752 Z-5.956
X29.165 Y24.831 Z-5.962
X29.311 Y24.924 Z-5.968
X29.448 Y25.03 Z-5.974
X29.575 Y25.147 Z-5.98
X29.691 Y25.276 Z-5.986
X29.794 Y25.415 Z-5.992
X29.885 Y25.563 Z-5.998
X29.961 Y25.718 Z-6.004
X30.024 Y25.879 Z-6.01
X30.071 Y26.046 Z-6.016
X30.103 Y26.216 Z-6.022
X30.119 Y26.388 Z-6.028
X30.12 Y26.562 Z-6.034
X30.104 Y26.734 Z-6.04
X30.074 Y26.904 Z-6.046
X30.027 Y27.071 Z-6.053
X29.966 Y27.233 Z-6.059
X29.89 Y27.389 Z-6.065
X29.801 Y27.537 Z-6.071
X29.698 Y27.676 Z-6.077
X29.583 Y27.806 Z-6.083
X29.457 Y27.924 Z-6.089
X29.32 Y28.031 Z-6.095
X29.175 Y28.124 Z-6.101
X29.021 Y28.204 Z-6.107
X28.861 Y28.27 Z-6.113
X28.695 Y28.321 Z-6.119
X28.526 Y28.356 Z-6.125
X28.354 Y28.376 Z-6.131
X28.181 Y28.38 Z-6.137
X28.008 Y28.369 Z-6.143
X27.837 Y28.341 Z-6.149
X27.669 Y28.299 Z-6.155
X27.506 Y28.241 Z-6.161
X27.349 Y28.169 Z-6.167
X27.199 Y28.082 Z-6.173
X27.057 Y27.982 Z-6.18
X26.926 Y27.87 Z-6.186
X26.804 Y27.747 Z-6.192
X26.695 Y27.612 Z-6.198
X26.598 Y27.469 Z-6.204
X26.515 Y27.317 Z-6.21
X26.446 Y27.158 Z-6.216
X26.392 Y26.994 Z-6.222
X26.353 Y26.825 Z-6.228
X26.329 Y26.654 Z-6.234
X26.321 Y26.481 Z-6.24
G3 X26.64 Y26.162 R0.319
X26.959 Y26.481 R0.319
X25.44 Y28. R1.519
X23.921 Y26.481 R1.519
X26.64 Y23.762 R2.719
X29.359 Y26.481 R2.719
X25.44 Y30.4 R3.919
X21.521 Y26.481 R3.919
X25.44 Y22.562 R3.919
X29.359 Y26.481 R3.919
G2 X30.188 Y28.251 R2.305
G3 X30.408 Y30.193 R1.414
G1 X29.969 Y30.769
X28.931 Y31.648
X27.741 Y32.277
X26.444 Y32.636
X25.09 Y32.707
X23.791 Y32.494
X23.453 Y32.364
X22.516 Y31.99
X21.414 Y31.243
X20.483 Y30.264
X19.776 Y29.09
X19.346 Y27.808
X19.203 Y26.472
X19.349 Y25.136
X19.513 Y24.648
X19.782 Y23.854
X20.474 Y22.705
X21.401 Y21.725
X22.518 Y20.968
X23.765 Y20.472
X23.785 Y20.467
X25.09 Y20.253
X26.444 Y20.324
X27.741 Y20.683
X28.946 Y21.321
X29.959 Y22.182
X30.791 Y23.277
X31.353 Y24.495
X31.642 Y25.818
Y27.133
X31.355 Y28.454
X31.221 Y28.753
X30.79 Y29.687
X30.759 Y29.73
X30.408 Y30.193
G3 X30.127 Y30.231 R0.2
X30.103 Y30.209 R0.2
G1 X29.081 Y29.134
X28.053 Y28.272
X28.029 Y28.259
X28.003 Y28.256
X27.977 Y28.262
X27.956 Y28.278
X27.914 Y28.322
X27.895 Y28.337
X27.872 Y28.344
X27.848
X27.68 Y28.302 Z-6.246
X27.517 Y28.245 Z-6.252
X27.359 Y28.174 Z-6.258
X27.209 Y28.088 Z-6.264
X27.067 Y27.989 Z-6.27
X26.934 Y27.878 Z-6.276
X26.812 Y27.755 Z-6.282
X26.702 Y27.622 Z-6.288
X26.604 Y27.478 Z-6.294
X26.52 Y27.327 Z-6.3
X26.45 Y27.169 Z-6.307
X26.395 Y27.005 Z-6.313
X26.355 Y26.836 Z-6.319
X26.33 Y26.665 Z-6.325
X26.321 Y26.492 Z-6.331
X26.328 Y26.319 Z-6.337
X26.351 Y26.147 Z-6.343
X26.389 Y25.979 Z-6.349
X26.442 Y25.814 Z-6.355
X26.51 Y25.655 Z-6.361
X26.593 Y25.502 Z-6.367
X26.688 Y25.358 Z-6.373
X26.797 Y25.223 Z-6.379
X26.917 Y25.099 Z-6.385
X27.048 Y24.986 Z-6.391
X27.189 Y24.885 Z-6.397
X27.339 Y24.798 Z-6.403
X27.496 Y24.725 Z-6.409
X27.658 Y24.666 Z-6.415
X27.826 Y24.622 Z-6.421
X27.997 Y24.594 Z-6.427
X28.169 Y24.581 Z-6.434
X28.343 Y24.585 Z-6.44
X28.515 Y24.603 Z-6.446
X28.684 Y24.638 Z-6.452
X28.85 Y24.688 Z-6.458
X29.011 Y24.752 Z-6.464
X29.165 Y24.831 Z-6.47
X29.311 Y24.924 Z-6.476
X29.448 Y25.03 Z-6.482
X29.575 Y25.147 Z-6.488
X29.691 Y25.276 Z-6.494
X29.794 Y25.415 Z-6.5
X29.885 Y25.563 Z-6.506
X29.961 Y25.718 Z-6.512
X30.024 Y25.879 Z-6.518
X30.071 Y26.046 Z-6.524
X30.103 Y26.216 Z-6.53
X30.119 Y26.388 Z-6.536
X30.12 Y26.562 Z-6.542
X30.104 Y26.734 Z-6.548
X30.074 Y26.904 Z-6.554
X30.027 Y27.071 Z-6.561
X29.966 Y27.233 Z-6.567
X29.89 Y27.389 Z-6.573
X29.801 Y27.537 Z-6.579
X29.698 Y27.676 Z-6.585
X29.583 Y27.806 Z-6.591
X29.457 Y27.924 Z-6.597
X29.32 Y28.031 Z-6.603
X29.175 Y28.124 Z-6.609
X29.021 Y28.204 Z-6.615
X28.861 Y28.27 Z-6.621
X28.695 Y28.321 Z-6.627
X28.526 Y28.356 Z-6.633
X28.354 Y28.376 Z-6.639
X28.181 Y28.38 Z-6.645
X28.008 Y28.369 Z-6.651
X27.837 Y28.341 Z-6.657
X27.669 Y28.299 Z-6.663
X27.506 Y28.241 Z-6.669
X27.349 Y28.169 Z-6.675
X27.199 Y28.082 Z-6.681
X27.057 Y27.982 Z-6.688
X26.926 Y27.87 Z-6.694
X26.804 Y27.747 Z-6.7
X26.695 Y27.612 Z-6.706
X26.598 Y27.469 Z-6.712
X26.515 Y27.317 Z-6.718
X26.446 Y27.158 Z-6.724
X26.392 Y26.994 Z-6.73
X26.353 Y26.825 Z-6.736
X26.329 Y26.654 Z-6.742
X26.321 Y26.481 Z-6.748
G3 X26.64 Y26.162 R0.319
X26.959 Y26.481 R0.319
X25.44 Y28. R1.519
X23.921 Y26.481 R1.519
X26.64 Y23.762 R2.719
X29.359 Y26.481 R2.719
X25.44 Y30.4 R3.919
X21.521 Y26.481 R3.919
X25.44 Y22.562 R3.919
X29.359 Y26.481 R3.919
G2 X30.188 Y28.251 R2.305
G3 X30.408 Y30.193 R1.414
G1 X29.969 Y30.769
X28.931 Y31.648
X27.741 Y32.277
X26.444 Y32.636
X25.09 Y32.707
X23.791 Y32.494
X23.453 Y32.364
X22.516 Y31.99
X21.414 Y31.243
X20.483 Y30.264
X19.776 Y29.09
X19.346 Y27.808
X19.203 Y26.472
X19.349 Y25.136
X19.513 Y24.648
X19.782 Y23.854
X20.474 Y22.705
X21.401 Y21.725
X22.518 Y20.968
X23.765 Y20.472
X23.785 Y20.467
X25.09 Y20.253
X26.444 Y20.324
X27.741 Y20.683
X28.946 Y21.321
X29.959 Y22.182
X30.791 Y23.277
X31.353 Y24.495
X31.642 Y25.818
Y27.133
X31.355 Y28.454
X31.221 Y28.753
X30.79 Y29.687
X30.759 Y29.73
X30.408 Y30.193
G3 X30.127 Y30.231 R0.2
X30.103 Y30.209 R0.2
G1 X29.081 Y29.134
X28.053 Y28.272
X28.029 Y28.259
X28.003 Y28.256
X27.977 Y28.262
X27.956 Y28.278
X27.914 Y28.322
X27.895 Y28.337
X27.872 Y28.344
X27.848
X27.68 Y28.302 Z-6.754
X27.517 Y28.245 Z-6.76
X27.359 Y28.174 Z-6.766
X27.209 Y28.088 Z-6.772
X27.067 Y27.989 Z-6.778
X26.934 Y27.878 Z-6.784
X26.812 Y27.755 Z-6.79
X26.702 Y27.622 Z-6.796
X26.604 Y27.478 Z-6.802
X26.52 Y27.327 Z-6.808
X26.45 Y27.169 Z-6.815
X26.395 Y27.005 Z-6.821
X26.355 Y26.836 Z-6.827
X26.33 Y26.665 Z-6.833
X26.321 Y26.492 Z-6.839
X26.328 Y26.319 Z-6.845
X26.351 Y26.147 Z-6.851
X26.389 Y25.979 Z-6.857
X26.442 Y25.814 Z-6.863
X26.51 Y25.655 Z-6.869
X26.593 Y25.502 Z-6.875
X26.688 Y25.358 Z-6.881
X26.797 Y25.223 Z-6.887
X26.917 Y25.099 Z-6.893
X27.048 Y24.986 Z-6.899
X27.189 Y24.885 Z-6.905
X27.339 Y24.798 Z-6.911
X27.496 Y24.725 Z-6.917
X27.658 Y24.666 Z-6.923
X27.826 Y24.622 Z-6.929
X27.997 Y24.594 Z-6.935
X28.169 Y24.581 Z-6.942
X28.343 Y24.585 Z-6.948
X28.515 Y24.603 Z-6.954
X28.684 Y24.638 Z-6.96
X28.85 Y24.688 Z-6.966
X29.011 Y24.752 Z-6.972
X29.165 Y24.831 Z-6.978
X29.311 Y24.924 Z-6.984
X29.448 Y25.03 Z-6.99
X29.575 Y25.147 Z-6.996
X29.691 Y25.276 Z-7.002
X29.794 Y25.415 Z-7.008
X29.885 Y25.563 Z-7.014
X29.961 Y25.718 Z-7.02
X30.024 Y25.879 Z-7.026
X30.071 Y26.046 Z-7.032
X30.103 Y26.216 Z-7.038
X30.119 Y26.388 Z-7.044
X30.12 Y26.562 Z-7.05
X30.104 Y26.734 Z-7.056
X30.074 Y26.904 Z-7.062
X30.027 Y27.071 Z-7.069
X29.966 Y27.233 Z-7.075
X29.89 Y27.389 Z-7.081
X29.801 Y27.537 Z-7.087
X29.698 Y27.676 Z-7.093
X29.583 Y27.806 Z-7.099
X29.457 Y27.924 Z-7.105
X29.32 Y28.031 Z-7.111
X29.175 Y28.124 Z-7.117
X29.021 Y28.204 Z-7.123
X28.861 Y28.27 Z-7.129
X28.695 Y28.321 Z-7.135
X28.526 Y28.356 Z-7.141
X28.354 Y28.376 Z-7.147
X28.181 Y28.38 Z-7.153
X28.008 Y28.369 Z-7.159
X27.837 Y28.341 Z-7.165
X27.669 Y28.299 Z-7.171
X27.506 Y28.241 Z-7.177
X27.349 Y28.169 Z-7.183
X27.199 Y28.082 Z-7.189
X27.057 Y27.982 Z-7.196
X26.926 Y27.87 Z-7.202
X26.804 Y27.747 Z-7.208
X26.695 Y27.612 Z-7.214
X26.598 Y27.469 Z-7.22
X26.515 Y27.317 Z-7.226
X26.446 Y27.158 Z-7.232
X26.392 Y26.994 Z-7.238
X26.353 Y26.825 Z-7.244
X26.329 Y26.654 Z-7.25
X26.321 Y26.481 Z-7.256
G3 X26.64 Y26.162 R0.319
X26.959 Y26.481 R0.319
X25.44 Y28. R1.519
X23.921 Y26.481 R1.519
X26.64 Y23.762 R2.719
X29.359 Y26.481 R2.719
X25.44 Y30.4 R3.919
X21.521 Y26.481 R3.919
X25.44 Y22.562 R3.919
X29.359 Y26.481 R3.919
G2 X30.188 Y28.251 R2.305
G3 X30.408 Y30.193 R1.414
G1 X29.969 Y30.769
X28.931 Y31.648
X27.741 Y32.277
X26.444 Y32.636
X25.09 Y32.707
X23.791 Y32.494
X23.453 Y32.364
X22.516 Y31.99
X21.414 Y31.243
X20.483 Y30.264
X19.776 Y29.09
X19.346 Y27.808
X19.203 Y26.472
X19.349 Y25.136
X19.513 Y24.648
X19.782 Y23.854
X20.474 Y22.705
X21.401 Y21.725
X22.518 Y20.968
X23.765 Y20.472
X23.785 Y20.467
X25.09 Y20.253
X26.444 Y20.324
X27.741 Y20.683
X28.946 Y21.321
X29.959 Y22.182
X30.791 Y23.277
X31.353 Y24.495
X31.642 Y25.818
Y27.133
X31.355 Y28.454
X31.221 Y28.753
X30.79 Y29.687
X30.759 Y29.73
X30.408 Y30.193
G3 X30.127 Y30.231 R0.2
X30.103 Y30.209 R0.2
G1 X29.081 Y29.134
X28.053 Y28.272
X28.029 Y28.259
X28.003 Y28.256
X27.977 Y28.262
X27.956 Y28.278
X27.914 Y28.322
X27.895 Y28.337
X27.872 Y28.344
X27.848
X27.68 Y28.302 Z-7.262
X27.517 Y28.245 Z-7.268
X27.359 Y28.174 Z-7.274
X27.209 Y28.088 Z-7.28
X27.067 Y27.989 Z-7.286
X26.934 Y27.878 Z-7.292
X26.812 Y27.755 Z-7.298
X26.702 Y27.622 Z-7.304
X26.604 Y27.478 Z-7.31
X26.52 Y27.327 Z-7.316
X26.45 Y27.169 Z-7.323
X26.395 Y27.005 Z-7.329
X26.355 Y26.836 Z-7.335
X26.33 Y26.665 Z-7.341
X26.321 Y26.492 Z-7.347
X26.328 Y26.319 Z-7.353
X26.351 Y26.147 Z-7.359
X26.389 Y25.979 Z-7.365
X26.442 Y25.814 Z-7.371
X26.51 Y25.655 Z-7.377
X26.593 Y25.502 Z-7.383
X26.688 Y25.358 Z-7.389
X26.797 Y25.223 Z-7.395
X26.917 Y25.099 Z-7.401
X27.048 Y24.986 Z-7.407
X27.189 Y24.885 Z-7.413
X27.339 Y24.798 Z-7.419
X27.496 Y24.725 Z-7.425
X27.658 Y24.666 Z-7.431
X27.826 Y24.622 Z-7.437
X27.997 Y24.594 Z-7.443
X28.169 Y24.581 Z-7.45
X28.343 Y24.585 Z-7.456
X28.515 Y24.603 Z-7.462
X28.684 Y24.638 Z-7.468
X28.85 Y24.688 Z-7.474
X29.011 Y24.752 Z-7.48
X29.165 Y24.831 Z-7.486
X29.311 Y24.924 Z-7.492
X29.448 Y25.03 Z-7.498
X29.575 Y25.147 Z-7.504
X29.691 Y25.276 Z-7.51
X29.794 Y25.415 Z-7.516
X29.885 Y25.563 Z-7.522
X29.961 Y25.718 Z-7.528
X30.024 Y25.879 Z-7.534
X30.071 Y26.046 Z-7.54
X30.103 Y26.216 Z-7.546
X30.119 Y26.388 Z-7.552
X30.12 Y26.562 Z-7.558
X30.104 Y26.734 Z-7.564
X30.074 Y26.904 Z-7.57
X30.027 Y27.071 Z-7.577
X29.966 Y27.233 Z-7.583
X29.89 Y27.389 Z-7.589
X29.801 Y27.537 Z-7.595
X29.698 Y27.676 Z-7.601
X29.583 Y27.806 Z-7.607
X29.457 Y27.924 Z-7.613
X29.32 Y28.031 Z-7.619
X29.175 Y28.124 Z-7.625
X29.021 Y28.204 Z-7.631
X28.861 Y28.27 Z-7.637
X28.695 Y28.321 Z-7.643
X28.526 Y28.356 Z-7.649
X28.354 Y28.376 Z-7.655
X28.181 Y28.38 Z-7.661
X28.008 Y28.369 Z-7.667
X27.837 Y28.341 Z-7.673
X27.669 Y28.299 Z-7.679
X27.506 Y28.241 Z-7.685
X27.349 Y28.169 Z-7.691
X27.199 Y28.082 Z-7.697
X27.057 Y27.982 Z-7.704
X26.926 Y27.87 Z-7.71
X26.804 Y27.747 Z-7.716
X26.695 Y27.612 Z-7.722
X26.598 Y27.469 Z-7.728
X26.515 Y27.317 Z-7.734
X26.446 Y27.158 Z-7.74
X26.392 Y26.994 Z-7.746
X26.353 Y26.825 Z-7.752
X26.329 Y26.654 Z-7.758
X26.321 Y26.481 Z-7.764
G3 X26.64 Y26.162 R0.319
X26.959 Y26.481 R0.319
X25.44 Y28. R1.519
X23.921 Y26.481 R1.519
X26.64 Y23.762 R2.719
X29.359 Y26.481 R2.719
X25.44 Y30.4 R3.919
X21.521 Y26.481 R3.919
X25.44 Y22.562 R3.919
X29.359 Y26.481 R3.919
G2 X30.188 Y28.251 R2.305
G3 X30.408 Y30.193 R1.414
G1 X29.969 Y30.769
X28.931 Y31.648
X27.741 Y32.277
X26.444 Y32.636
X25.09 Y32.707
X23.791 Y32.494
X23.453 Y32.364
X22.516 Y31.99
X21.414 Y31.243
X20.483 Y30.264
X19.776 Y29.09
X19.346 Y27.808
X19.203 Y26.472
X19.349 Y25.136
X19.513 Y24.648
X19.782 Y23.854
X20.474 Y22.705
X21.401 Y21.725
X22.518 Y20.968
X23.765 Y20.472
X23.785 Y20.467
X25.09 Y20.253
X26.444 Y20.324
X27.741 Y20.683
X28.946 Y21.321
X29.959 Y22.182
X30.791 Y23.277
X31.353 Y24.495
X31.642 Y25.818
Y27.133
X31.355 Y28.454
X31.221 Y28.753
X30.79 Y29.687
X30.759 Y29.73
X30.408 Y30.193
G3 X30.127 Y30.231 R0.2
X30.103 Y30.209 R0.2
G1 X29.081 Y29.134
X28.053 Y28.272
X28.029 Y28.259
X28.003 Y28.256
X27.977 Y28.262
X27.956 Y28.278
X27.914 Y28.322
X27.895 Y28.337
X27.872 Y28.344
X27.848
X27.68 Y28.302 Z-7.77
X27.517 Y28.245 Z-7.776
X27.359 Y28.174 Z-7.782
X27.209 Y28.088 Z-7.788
X27.067 Y27.989 Z-7.794
X26.934 Y27.878 Z-7.8
X26.812 Y27.755 Z-7.806
X26.702 Y27.622 Z-7.812
X26.604 Y27.478 Z-7.818
X26.52 Y27.327 Z-7.824
X26.45 Y27.169 Z-7.831
X26.395 Y27.005 Z-7.837
X26.355 Y26.836 Z-7.843
X26.33 Y26.665 Z-7.849
X26.321 Y26.492 Z-7.855
X26.328 Y26.319 Z-7.861
X26.351 Y26.147 Z-7.867
X26.389 Y25.979 Z-7.873
X26.442 Y25.814 Z-7.879
X26.51 Y25.655 Z-7.885
X26.593 Y25.502 Z-7.891
X26.688 Y25.358 Z-7.897
X26.797 Y25.223 Z-7.903
X26.917 Y25.099 Z-7.909
X27.048 Y24.986 Z-7.915
X27.189 Y24.885 Z-7.921
X27.339 Y24.798 Z-7.927
X27.496 Y24.725 Z-7.933
X27.658 Y24.666 Z-7.939
X27.826 Y24.622 Z-7.945
X27.997 Y24.594 Z-7.951
X28.169 Y24.581 Z-7.958
X28.343 Y24.585 Z-7.964
X28.515 Y24.603 Z-7.97
X28.684 Y24.638 Z-7.976
X28.85 Y24.688 Z-7.982
X29.011 Y24.752 Z-7.988
X29.165 Y24.831 Z-7.994
X29.311 Y24.924 Z-8.
X29.448 Y25.03 Z-8.006
X29.575 Y25.147 Z-8.012
X29.691 Y25.276 Z-8.018
X29.794 Y25.415 Z-8.024
X29.885 Y25.563 Z-8.03
X29.961 Y25.718 Z-8.036
X30.024 Y25.879 Z-8.042
X30.071 Y26.046 Z-8.048
X30.103 Y26.216 Z-8.054
X30.119 Y26.388 Z-8.06
X30.12 Y26.562 Z-8.066
X30.104 Y26.734 Z-8.072
X30.074 Y26.904 Z-8.078
X30.027 Y27.071 Z-8.085
X29.966 Y27.233 Z-8.091
X29.89 Y27.389 Z-8.097
X29.801 Y27.537 Z-8.103
X29.698 Y27.676 Z-8.109
X29.583 Y27.806 Z-8.115
X29.457 Y27.924 Z-8.121
X29.32 Y28.031 Z-8.127
X29.175 Y28.124 Z-8.133
X29.021 Y28.204 Z-8.139
X28.861 Y28.27 Z-8.145
X28.695 Y28.321 Z-8.151
X28.526 Y28.356 Z-8.157
X28.354 Y28.376 Z-8.163
X28.181 Y28.38 Z-8.169
X28.008 Y28.369 Z-8.175
X27.837 Y28.341 Z-8.181
X27.669 Y28.299 Z-8.187
X27.506 Y28.241 Z-8.193
X27.349 Y28.169 Z-8.199
X27.199 Y28.082 Z-8.205
X27.057 Y27.982 Z-8.212
X26.926 Y27.87 Z-8.218
X26.804 Y27.747 Z-8.224
X26.695 Y27.612 Z-8.23
X26.598 Y27.469 Z-8.236
X26.515 Y27.317 Z-8.242
X26.446 Y27.158 Z-8.248
X26.392 Y26.994 Z-8.254
X26.353 Y26.825 Z-8.26
X26.329 Y26.654 Z-8.266
X26.321 Y26.481 Z-8.272
G3 X26.64 Y26.162 R0.319
X26.959 Y26.481 R0.319
X25.44 Y28. R1.519
X23.921 Y26.481 R1.519
X26.64 Y23.762 R2.719
X29.359 Y26.481 R2.719
X25.44 Y30.4 R3.919
X21.521 Y26.481 R3.919
X25.44 Y22.562 R3.919
X29.359 Y26.481 R3.919
G2 X30.188 Y28.251 R2.305
G3 X30.408 Y30.193 R1.414
G1 X29.969 Y30.769
X28.931 Y31.648
X27.741 Y32.277
X26.444 Y32.636
X25.09 Y32.707
X23.791 Y32.494
X23.453 Y32.364
X22.516 Y31.99
X21.414 Y31.243
X20.483 Y30.264
X19.776 Y29.09
X19.346 Y27.808
X19.203 Y26.472
X19.349 Y25.136
X19.513 Y24.648
X19.782 Y23.854
X20.474 Y22.705
X21.401 Y21.725
X22.518 Y20.968
X23.765 Y20.472
X23.785 Y20.467
X25.09 Y20.253
X26.444 Y20.324
X27.741 Y20.683
X28.946 Y21.321
X29.959 Y22.182
X30.791 Y23.277
X31.353 Y24.495
X31.642 Y25.818
Y27.133
X31.355 Y28.454
X31.221 Y28.753
X30.79 Y29.687
X30.759 Y29.73
X30.408 Y30.193
X30.388 Y30.177
X26.348 Y26.797
X26.327 Y26.626 Z-8.278
X26.322 Y26.454 Z-8.284
X26.332 Y26.281 Z-8.29
X26.358 Y26.111 Z-8.296
X26.399 Y25.943 Z-8.302
X26.455 Y25.78 Z-8.308
X26.526 Y25.623 Z-8.314
X26.611 Y25.472 Z-8.32
X26.709 Y25.331 Z-8.326
X26.82 Y25.198 Z-8.332
X26.942 Y25.076 Z-8.338
X27.074 Y24.966 Z-8.344
X27.217 Y24.868 Z-8.35
X27.367 Y24.784 Z-8.356
X27.525 Y24.713 Z-8.362
X27.688 Y24.657 Z-8.368
X27.855 Y24.616 Z-8.374
X28.026 Y24.591 Z-8.381
X28.198 Y24.581 Z-8.387
X28.371 Y24.587 Z-8.393
X28.542 Y24.608 Z-8.399
X28.711 Y24.645 Z-8.405
X28.875 Y24.697 Z-8.411
X29.034 Y24.763 Z-8.417
X29.187 Y24.844 Z-8.423
X29.331 Y24.939 Z-8.429
X29.467 Y25.046 Z-8.435
X29.592 Y25.165 Z-8.441
X29.706 Y25.294 Z-8.447
X29.807 Y25.434 Z-8.453
X29.895 Y25.582 Z-8.459
X29.97 Y25.738 Z-8.465
X30.03 Y25.899 Z-8.471
X30.076 Y26.066 Z-8.477
X30.106 Y26.236 Z-8.483
X30.12 Y26.408 Z-8.489
X30.119 Y26.58 Z-8.495
X30.102 Y26.752 Z-8.501
X30.069 Y26.922 Z-8.507
X30.022 Y27.088 Z-8.513
X29.959 Y27.248 Z-8.519
X29.883 Y27.403 Z-8.525
X29.792 Y27.55 Z-8.531
X29.689 Y27.688 Z-8.537
X29.573 Y27.816 Z-8.543
X29.446 Y27.933 Z-8.549
X29.309 Y28.038 Z-8.555
X29.164 Y28.131 Z-8.561
X29.01 Y28.209 Z-8.567
X28.85 Y28.274 Z-8.573
X28.685 Y28.323 Z-8.579
X28.516 Y28.358 Z-8.585
X28.344 Y28.377 Z-8.591
X28.171 Y28.38 Z-8.598
X27.999 Y28.368 Z-8.604
X27.829 Y28.34 Z-8.61
X27.662 Y28.296 Z-8.616
X27.5 Y28.238 Z-8.622
X27.343 Y28.165 Z-8.628
X27.194 Y28.079 Z-8.634
X27.053 Y27.979 Z-8.64
X26.922 Y27.867 Z-8.646
X26.802 Y27.743 Z-8.652
X26.693 Y27.609 Z-8.658
X26.597 Y27.466 Z-8.664
X26.514 Y27.314 Z-8.67
X26.445 Y27.156 Z-8.676
X26.391 Y26.992 Z-8.682
X26.353 Y26.824 Z-8.688
X26.329 Y26.653 Z-8.694
X26.321 Y26.481 Z-8.7
G3 X26.64 Y26.162 R0.319
X26.959 Y26.481 R0.319
X25.44 Y28. R1.519
X23.921 Y26.481 R1.519
X26.64 Y23.762 R2.719
X29.359 Y26.481 R2.719
X25.44 Y30.4 R3.919
X21.521 Y26.481 R3.919
X25.44 Y22.562 R3.919
X29.359 Y26.481 R3.919
G2 X30.188 Y28.251 R2.305
G3 X30.408 Y30.193 R1.414
G1 X29.969 Y30.769
X28.931 Y31.648
X27.741 Y32.277
X26.444 Y32.636
X25.09 Y32.707
X23.791 Y32.494
X23.453 Y32.364
X22.516 Y31.99
X21.414 Y31.243
X20.483 Y30.264
X19.776 Y29.09
X19.346 Y27.808
X19.203 Y26.472
X19.349 Y25.136
X19.513 Y24.648
X19.782 Y23.854
X20.474 Y22.705
X21.401 Y21.725
X22.518 Y20.968
X23.765 Y20.472
X23.785 Y20.467
X25.09 Y20.253
X26.444 Y20.324
X27.741 Y20.683
X28.946 Y21.321
X29.959 Y22.182
X30.791 Y23.277
X31.353 Y24.495
X31.642 Y25.818
Y27.133
X31.355 Y28.454
X31.221 Y28.753
X30.79 Y29.687
X30.759 Y29.73
X30.408 Y30.193
G3 X30.127 Y30.231 R0.2
X30.103 Y30.209 R0.2
G1 X29.081 Y29.134
X28.053 Y28.272
X28.029 Y28.259
X28.003 Y28.256
X27.977 Y28.262
X27.956 Y28.278
X27.914 Y28.322
X27.895 Y28.337
X27.872 Y28.344
X27.848
X27.68 Y28.302 Z-8.706
X27.517 Y28.245 Z-8.712
X27.359 Y28.174 Z-8.718
X27.209 Y28.088 Z-8.724
X27.067 Y27.989 Z-8.73
X26.934 Y27.878 Z-8.736
X26.812 Y27.755 Z-8.742
X26.702 Y27.622 Z-8.748
X26.604 Y27.478 Z-8.754
X26.52 Y27.327 Z-8.76
X26.45 Y27.169 Z-8.767
X26.395 Y27.005 Z-8.773
X26.355 Y26.836 Z-8.779
X26.33 Y26.665 Z-8.785
X26.321 Y26.492 Z-8.791
X26.328 Y26.319 Z-8.797
X26.351 Y26.147 Z-8.803
X26.389 Y25.979 Z-8.809
X26.442 Y25.814 Z-8.815
X26.51 Y25.655 Z-8.821
X26.593 Y25.502 Z-8.827
X26.688 Y25.358 Z-8.833
X26.797 Y25.223 Z-8.839
X26.917 Y25.099 Z-8.845
X27.048 Y24.986 Z-8.851
X27.189 Y24.885 Z-8.857
X27.339 Y24.798 Z-8.863
X27.496 Y24.725 Z-8.869
X27.658 Y24.666 Z-8.875
X27.826 Y24.622 Z-8.881
X27.997 Y24.594 Z-8.887
X28.169 Y24.581 Z-8.894
X28.343 Y24.585 Z-8.9
X28.515 Y24.603 Z-8.906
X28.684 Y24.638 Z-8.912
X28.85 Y24.688 Z-8.918
X29.011 Y24.752 Z-8.924
X29.165 Y24.831 Z-8.93
X29.311 Y24.924 Z-8.936
X29.448 Y25.03 Z-8.942
X29.575 Y25.147 Z-8.948
X29.691 Y25.276 Z-8.954
X29.794 Y25.415 Z-8.96
X29.885 Y25.563 Z-8.966
X29.961 Y25.718 Z-8.972
X30.024 Y25.879 Z-8.978
X30.071 Y26.046 Z-8.984
X30.103 Y26.216 Z-8.99
X30.119 Y26.388 Z-8.996
X30.12 Y26.562 Z-9.002
X30.104 Y26.734 Z-9.008
X30.074 Y26.904 Z-9.014
X30.027 Y27.071 Z-9.021
X29.966 Y27.233 Z-9.027
X29.89 Y27.389 Z-9.033
X29.801 Y27.537 Z-9.039
X29.698 Y27.676 Z-9.045
X29.583 Y27.806 Z-9.051
X29.457 Y27.924 Z-9.057
X29.32 Y28.031 Z-9.063
X29.175 Y28.124 Z-9.069
X29.021 Y28.204 Z-9.075
X28.861 Y28.27 Z-9.081
X28.695 Y28.321 Z-9.087
X28.526 Y28.356 Z-9.093
X28.354 Y28.376 Z-9.099
X28.181 Y28.38 Z-9.105
X28.008 Y28.369 Z-9.111
X27.837 Y28.341 Z-9.117
X27.669 Y28.299 Z-9.123
X27.506 Y28.241 Z-9.129
X27.349 Y28.169 Z-9.135
X27.199 Y28.082 Z-9.141
X27.057 Y27.982 Z-9.148
X26.926 Y27.87 Z-9.154
X26.804 Y27.747 Z-9.16
X26.695 Y27.612 Z-9.166
X26.598 Y27.469 Z-9.172
X26.515 Y27.317 Z-9.178
X26.446 Y27.158 Z-9.184
X26.392 Y26.994 Z-9.19
X26.353 Y26.825 Z-9.196
X26.329 Y26.654 Z-9.202
X26.321 Y26.481 Z-9.208
G3 X26.64 Y26.162 R0.319
X26.959 Y26.481 R0.319
X25.44 Y28. R1.519
X23.921 Y26.481 R1.519
X26.64 Y23.762 R2.719
X29.359 Y26.481 R2.719
X25.44 Y30.4 R3.919
X21.521 Y26.481 R3.919
X25.44 Y22.562 R3.919
X29.359 Y26.481 R3.919
G2 X30.188 Y28.251 R2.305
G3 X30.408 Y30.193 R1.414
G1 X29.969 Y30.769
X28.931 Y31.648
X27.741 Y32.277
X26.444 Y32.636
X25.09 Y32.707
X23.791 Y32.494
X23.453 Y32.364
X22.516 Y31.99
X21.414 Y31.243
X20.483 Y30.264
X19.776 Y29.09
X19.346 Y27.808
X19.203 Y26.472
X19.349 Y25.136
X19.513 Y24.648
X19.782 Y23.854
X20.474 Y22.705
X21.401 Y21.725
X22.518 Y20.968
X23.765 Y20.472
X23.785 Y20.467
X25.09 Y20.253
X26.444 Y20.324
X27.741 Y20.683
X28.946 Y21.321
X29.959 Y22.182
X30.791 Y23.277
X31.353 Y24.495
X31.642 Y25.818
Y27.133
X31.355 Y28.454
X31.221 Y28.753
X30.79 Y29.687
X30.759 Y29.73
X30.408 Y30.193
G3 X30.127 Y30.231 R0.2
X30.103 Y30.209 R0.2
G1 X29.081 Y29.134
X28.053 Y28.272
X28.029 Y28.259
X28.003 Y28.256
X27.977 Y28.262
X27.956 Y28.278
X27.914 Y28.322
X27.895 Y28.337
X27.872 Y28.344
X27.848
X27.68 Y28.302 Z-9.214
X27.517 Y28.245 Z-9.22
X27.359 Y28.174 Z-9.226
X27.209 Y28.088 Z-9.232
X27.067 Y27.989 Z-9.238
X26.934 Y27.878 Z-9.244
X26.812 Y27.755 Z-9.25
X26.702 Y27.622 Z-9.256
X26.604 Y27.478 Z-9.262
X26.52 Y27.327 Z-9.268
X26.45 Y27.169 Z-9.275
X26.395 Y27.005 Z-9.281
X26.355 Y26.836 Z-9.287
X26.33 Y26.665 Z-9.293
X26.321 Y26.492 Z-9.299
X26.328 Y26.319 Z-9.305
X26.351 Y26.147 Z-9.311
X26.389 Y25.979 Z-9.317
X26.442 Y25.814 Z-9.323
X26.51 Y25.655 Z-9.329
X26.593 Y25.502 Z-9.335
X26.688 Y25.358 Z-9.341
X26.797 Y25.223 Z-9.347
X26.917 Y25.099 Z-9.353
X27.048 Y24.986 Z-9.359
X27.189 Y24.885 Z-9.365
X27.339 Y24.798 Z-9.371
X27.496 Y24.725 Z-9.377
X27.658 Y24.666 Z-9.383
X27.826 Y24.622 Z-9.389
X27.997 Y24.594 Z-9.395
X28.169 Y24.581 Z-9.402
X28.343 Y24.585 Z-9.408
X28.515 Y24.603 Z-9.414
X28.684 Y24.638 Z-9.42
X28.85 Y24.688 Z-9.426
X29.011 Y24.752 Z-9.432
X29.165 Y24.831 Z-9.438
X29.311 Y24.924 Z-9.444
X29.448 Y25.03 Z-9.45
X29.575 Y25.147 Z-9.456
X29.691 Y25.276 Z-9.462
X29.794 Y25.415 Z-9.468
X29.885 Y25.563 Z-9.474
X29.961 Y25.718 Z-9.48
X30.024 Y25.879 Z-9.486
X30.071 Y26.046 Z-9.492
X30.103 Y26.216 Z-9.498
X30.119 Y26.388 Z-9.504
X30.12 Y26.562 Z-9.51
X30.104 Y26.734 Z-9.516
X30.074 Y26.904 Z-9.522
X30.027 Y27.071 Z-9.529
X29.966 Y27.233 Z-9.535
X29.89 Y27.389 Z-9.541
X29.801 Y27.537 Z-9.547
X29.698 Y27.676 Z-9.553
X29.583 Y27.806 Z-9.559
X29.457 Y27.924 Z-9.565
X29.32 Y28.031 Z-9.571
X29.175 Y28.124 Z-9.577
X29.021 Y28.204 Z-9.583
X28.861 Y28.27 Z-9.589
X28.695 Y28.321 Z-9.595
X28.526 Y28.356 Z-9.601
X28.354 Y28.376 Z-9.607
X28.181 Y28.38 Z-9.613
X28.008 Y28.369 Z-9.619
X27.837 Y28.341 Z-9.625
X27.669 Y28.299 Z-9.631
X27.506 Y28.241 Z-9.637
X27.349 Y28.169 Z-9.643
X27.199 Y28.082 Z-9.649
X27.057 Y27.982 Z-9.656
X26.926 Y27.87 Z-9.662
X26.804 Y27.747 Z-9.668
X26.695 Y27.612 Z-9.674
X26.598 Y27.469 Z-9.68
X26.515 Y27.317 Z-9.686
X26.446 Y27.158 Z-9.692
X26.392 Y26.994 Z-9.698
X26.353 Y26.825 Z-9.704
X26.329 Y26.654 Z-9.71
X26.321 Y26.481 Z-9.716
G3 X26.64 Y26.162 R0.319
X26.959 Y26.481 R0.319
X25.44 Y28. R1.519
X23.921 Y26.481 R1.519
X26.64 Y23.762 R2.719
X29.359 Y26.481 R2.719
X25.44 Y30.4 R3.919
X21.521 Y26.481 R3.919
X25.44 Y22.562 R3.919
X29.359 Y26.481 R3.919
G2 X30.188 Y28.251 R2.305
G3 X30.408 Y30.193 R1.414
G1 X29.969 Y30.769
X28.931 Y31.648
X27.741 Y32.277
X26.444 Y32.636
X25.09 Y32.707
X23.791 Y32.494
X23.453 Y32.364
X22.516 Y31.99
X21.414 Y31.243
X20.483 Y30.264
X19.776 Y29.09
X19.346 Y27.808
X19.203 Y26.472
X19.349 Y25.136
X19.513 Y24.648
X19.782 Y23.854
X20.474 Y22.705
X21.401 Y21.725
X22.518 Y20.968
X23.765 Y20.472
X23.785 Y20.467
X25.09 Y20.253
X26.444 Y20.324
X27.741 Y20.683
X28.946 Y21.321
X29.959 Y22.182
X30.791 Y23.277
X31.353 Y24.495
X31.642 Y25.818
Y27.133
X31.355 Y28.454
X31.221 Y28.753
X30.79 Y29.687
X30.759 Y29.73
X30.408 Y30.193
G3 X30.127 Y30.231 R0.2
X30.103 Y30.209 R0.2
G1 X29.081 Y29.134
X28.053 Y28.272
X28.029 Y28.259
X28.003 Y28.256
X27.977 Y28.262
X27.956 Y28.278
X27.914 Y28.322
X27.895 Y28.337
X27.872 Y28.344
X27.848
X27.68 Y28.302 Z-9.722
X27.517 Y28.245 Z-9.728
X27.359 Y28.174 Z-9.734
X27.209 Y28.088 Z-9.74
X27.067 Y27.989 Z-9.746
X26.934 Y27.878 Z-9.752
X26.812 Y27.755 Z-9.758
X26.702 Y27.622 Z-9.764
X26.604 Y27.478 Z-9.77
X26.52 Y27.327 Z-9.776
X26.45 Y27.169 Z-9.783
X26.395 Y27.005 Z-9.789
X26.355 Y26.836 Z-9.795
X26.33 Y26.665 Z-9.801
X26.321 Y26.492 Z-9.807
X26.328 Y26.319 Z-9.813
X26.351 Y26.147 Z-9.819
X26.389 Y25.979 Z-9.825
X26.442 Y25.814 Z-9.831
X26.51 Y25.655 Z-9.837
X26.593 Y25.502 Z-9.843
X26.688 Y25.358 Z-9.849
X26.797 Y25.223 Z-9.855
X26.917 Y25.099 Z-9.861
X27.048 Y24.986 Z-9.867
X27.189 Y24.885 Z-9.873
X27.339 Y24.798 Z-9.879
X27.496 Y24.725 Z-9.885
X27.658 Y24.666 Z-9.891
X27.826 Y24.622 Z-9.897
X27.997 Y24.594 Z-9.903
X28.169 Y24.581 Z-9.91
X28.343 Y24.585 Z-9.916
X28.515 Y24.603 Z-9.922
X28.684 Y24.638 Z-9.928
X28.85 Y24.688 Z-9.934
X29.011 Y24.752 Z-9.94
X29.165 Y24.831 Z-9.946
X29.311 Y24.924 Z-9.952
X29.448 Y25.03 Z-9.958
X29.575 Y25.147 Z-9.964
X29.691 Y25.276 Z-9.97
X29.794 Y25.415 Z-9.976
X29.885 Y25.563 Z-9.982
X29.961 Y25.718 Z-9.988
X30.024 Y25.879 Z-9.994
X30.071 Y26.046 Z-10.
X30.103 Y26.216 Z-10.006
X30.119 Y26.388 Z-10.012
X30.12 Y26.562 Z-10.018
X30.104 Y26.734 Z-10.024
X30.074 Y26.904 Z-10.03
X30.027 Y27.071 Z-10.037
X29.966 Y27.233 Z-10.043
X29.89 Y27.389 Z-10.049
X29.801 Y27.537 Z-10.055
X29.698 Y27.676 Z-10.061
X29.583 Y27.806 Z-10.067
X29.457 Y27.924 Z-10.073
X29.32 Y28.031 Z-10.079
X29.175 Y28.124 Z-10.085
X29.021 Y28.204 Z-10.091
X28.861 Y28.27 Z-10.097
X28.695 Y28.321 Z-10.103
X28.526 Y28.356 Z-10.109
X28.354 Y28.376 Z-10.115
X28.181 Y28.38 Z-10.121
X28.008 Y28.369 Z-10.127
X27.837 Y28.341 Z-10.133
X27.669 Y28.299 Z-10.139
X27.506 Y28.241 Z-10.145
X27.349 Y28.169 Z-10.151
X27.199 Y28.082 Z-10.157
X27.057 Y27.982 Z-10.164
X26.926 Y27.87 Z-10.17
X26.804 Y27.747 Z-10.176
X26.695 Y27.612 Z-10.182
X26.598 Y27.469 Z-10.188
X26.515 Y27.317 Z-10.194
X26.446 Y27.158 Z-10.2
X26.392 Y26.994 Z-10.206
X26.353 Y26.825 Z-10.212
X26.329 Y26.654 Z-10.218
X26.321 Y26.481 Z-10.224
G3 X26.64 Y26.162 R0.319
X26.959 Y26.481 R0.319
X25.44 Y28. R1.519
X23.921 Y26.481 R1.519
X26.64 Y23.762 R2.719
X29.359 Y26.481 R2.719
X25.44 Y30.4 R3.919
X21.521 Y26.481 R3.919
X25.44 Y22.562 R3.919
X29.359 Y26.481 R3.919
G2 X30.188 Y28.251 R2.305
G3 X30.408 Y30.193 R1.414
G1 X29.969 Y30.769
X28.931 Y31.648
X27.741 Y32.277
X26.444 Y32.636
X25.09 Y32.707
X23.791 Y32.494
X23.453 Y32.364
X22.516 Y31.99
X21.414 Y31.243
X20.483 Y30.264
X19.776 Y29.09
X19.346 Y27.808
X19.203 Y26.472
X19.349 Y25.136
X19.513 Y24.648
X19.782 Y23.854
X20.474 Y22.705
X21.401 Y21.725
X22.518 Y20.968
X23.765 Y20.472
X23.785 Y20.467
X25.09 Y20.253
X26.444 Y20.324
X27.741 Y20.683
X28.946 Y21.321
X29.959 Y22.182
X30.791 Y23.277
X31.353 Y24.495
X31.642 Y25.818
Y27.133
X31.355 Y28.454
X31.221 Y28.753
X30.79 Y29.687
X30.759 Y29.73
X30.408 Y30.193
G3 X30.127 Y30.231 R0.2
X30.103 Y30.209 R0.2
G1 X29.081 Y29.134
X28.053 Y28.272
X28.029 Y28.259
X28.003 Y28.256
X27.977 Y28.262
X27.956 Y28.278
X27.914 Y28.322
X27.895 Y28.337
X27.872 Y28.344
X27.848
X27.68 Y28.302 Z-10.23
X27.517 Y28.245 Z-10.236
X27.359 Y28.174 Z-10.242
X27.209 Y28.088 Z-10.248
X27.067 Y27.989 Z-10.254
X26.934 Y27.878 Z-10.26
X26.812 Y27.755 Z-10.266
X26.702 Y27.622 Z-10.272
X26.604 Y27.478 Z-10.278
X26.52 Y27.327 Z-10.284
X26.45 Y27.169 Z-10.291
X26.395 Y27.005 Z-10.297
X26.355 Y26.836 Z-10.303
X26.33 Y26.665 Z-10.309
X26.321 Y26.492 Z-10.315
X26.328 Y26.319 Z-10.321
X26.351 Y26.147 Z-10.327
X26.389 Y25.979 Z-10.333
X26.442 Y25.814 Z-10.339
X26.51 Y25.655 Z-10.345
X26.593 Y25.502 Z-10.351
X26.688 Y25.358 Z-10.357
X26.797 Y25.223 Z-10.363
X26.917 Y25.099 Z-10.369
X27.048 Y24.986 Z-10.375
X27.189 Y24.885 Z-10.381
X27.339 Y24.798 Z-10.387
X27.496 Y24.725 Z-10.393
X27.658 Y24.666 Z-10.399
X27.826 Y24.622 Z-10.405
X27.997 Y24.594 Z-10.411
X28.169 Y24.581 Z-10.418
X28.343 Y24.585 Z-10.424
X28.515 Y24.603 Z-10.43
X28.684 Y24.638 Z-10.436
X28.85 Y24.688 Z-10.442
X29.011 Y24.752 Z-10.448
X29.165 Y24.831 Z-10.454
X29.311 Y24.924 Z-10.46
X29.448 Y25.03 Z-10.466
X29.575 Y25.147 Z-10.472
X29.691 Y25.276 Z-10.478
X29.794 Y25.415 Z-10.484
X29.885 Y25.563 Z-10.49
X29.961 Y25.718 Z-10.496
X30.024 Y25.879 Z-10.502
X30.071 Y26.046 Z-10.508
X30.103 Y26.216 Z-10.514
X30.119 Y26.388 Z-10.52
X30.12 Y26.562 Z-10.526
X30.104 Y26.734 Z-10.532
X30.074 Y26.904 Z-10.538
X30.027 Y27.071 Z-10.545
X29.966 Y27.233 Z-10.551
X29.89 Y27.389 Z-10.557
X29.801 Y27.537 Z-10.563
X29.698 Y27.676 Z-10.569
X29.583 Y27.806 Z-10.575
X29.457 Y27.924 Z-10.581
X29.32 Y28.031 Z-10.587
X29.175 Y28.124 Z-10.593
X29.021 Y28.204 Z-10.599
X28.861 Y28.27 Z-10.605
X28.695 Y28.321 Z-10.611
X28.526 Y28.356 Z-10.617
X28.354 Y28.376 Z-10.623
X28.181 Y28.38 Z-10.629
X28.008 Y28.369 Z-10.635
X27.837 Y28.341 Z-10.641
X27.669 Y28.299 Z-10.647
X27.506 Y28.241 Z-10.653
X27.349 Y28.169 Z-10.659
X27.199 Y28.082 Z-10.665
X27.057 Y27.982 Z-10.672
X26.926 Y27.87 Z-10.678
X26.804 Y27.747 Z-10.684
X26.695 Y27.612 Z-10.69
X26.598 Y27.469 Z-10.696
X26.515 Y27.317 Z-10.702
X26.446 Y27.158 Z-10.708
X26.392 Y26.994 Z-10.714
X26.353 Y26.825 Z-10.72
X26.329 Y26.654 Z-10.726
X26.321 Y26.481 Z-10.732
G3 X26.64 Y26.162 R0.319
X26.959 Y26.481 R0.319
X25.44 Y28. R1.519
X23.921 Y26.481 R1.519
X26.64 Y23.762 R2.719
X29.359 Y26.481 R2.719
X25.44 Y30.4 R3.919
X21.521 Y26.481 R3.919
X25.44 Y22.562 R3.919
X29.359 Y26.481 R3.919
G2 X30.188 Y28.251 R2.305
G3 X30.408 Y30.193 R1.414
G1 X29.969 Y30.769
X28.931 Y31.648
X27.741 Y32.277
X26.444 Y32.636
X25.09 Y32.707
X23.791 Y32.494
X23.453 Y32.364
X22.516 Y31.99
X21.414 Y31.243
X20.483 Y30.264
X19.776 Y29.09
X19.346 Y27.808
X19.203 Y26.472
X19.349 Y25.136
X19.513 Y24.648
X19.782 Y23.854
X20.474 Y22.705
X21.401 Y21.725
X22.518 Y20.968
X23.765 Y20.472
X23.785 Y20.467
X25.09 Y20.253
X26.444 Y20.324
X27.741 Y20.683
X28.946 Y21.321
X29.959 Y22.182
X30.791 Y23.277
X31.353 Y24.495
X31.642 Y25.818
Y27.133
X31.355 Y28.454
X31.221 Y28.753
X30.79 Y29.687
X30.759 Y29.73
X30.408 Y30.193
G3 X30.127 Y30.231 R0.2
X30.103 Y30.209 R0.2
G1 X29.081 Y29.134
X28.053 Y28.272
X28.029 Y28.259
X28.003 Y28.256
X27.977 Y28.262
X27.956 Y28.278
X27.914 Y28.322
X27.895 Y28.337
X27.872 Y28.344
X27.848
X27.68 Y28.302 Z-10.738
X27.517 Y28.245 Z-10.744
X27.359 Y28.174 Z-10.75
X27.209 Y28.088 Z-10.756
X27.067 Y27.989 Z-10.762
X26.934 Y27.878 Z-10.768
X26.812 Y27.755 Z-10.774
X26.702 Y27.622 Z-10.78
X26.604 Y27.478 Z-10.786
X26.52 Y27.327 Z-10.792
X26.45 Y27.169 Z-10.799
X26.395 Y27.005 Z-10.805
X26.355 Y26.836 Z-10.811
X26.33 Y26.665 Z-10.817
X26.321 Y26.492 Z-10.823
X26.328 Y26.319 Z-10.829
X26.351 Y26.147 Z-10.835
X26.389 Y25.979 Z-10.841
X26.442 Y25.814 Z-10.847
X26.51 Y25.655 Z-10.853
X26.593 Y25.502 Z-10.859
X26.688 Y25.358 Z-10.865
X26.797 Y25.223 Z-10.871
X26.917 Y25.099 Z-10.877
X27.048 Y24.986 Z-10.883
X27.189 Y24.885 Z-10.889
X27.339 Y24.798 Z-10.895
X27.496 Y24.725 Z-10.901
X27.658 Y24.666 Z-10.907
X27.826 Y24.622 Z-10.913
X27.997 Y24.594 Z-10.919
X28.169 Y24.581 Z-10.926
X28.343 Y24.585 Z-10.932
X28.515 Y24.603 Z-10.938
X28.684 Y24.638 Z-10.944
X28.85 Y24.688 Z-10.95
X29.011 Y24.752 Z-10.956
X29.165 Y24.831 Z-10.962
X29.311 Y24.924 Z-10.968
X29.448 Y25.03 Z-10.974
X29.575 Y25.147 Z-10.98
X29.691 Y25.276 Z-10.986
X29.794 Y25.415 Z-10.992
X29.885 Y25.563 Z-10.998
X29.961 Y25.718 Z-11.004
X30.024 Y25.879 Z-11.01
X30.071 Y26.046 Z-11.016
X30.103 Y26.216 Z-11.022
X30.119 Y26.388 Z-11.028
X30.12 Y26.562 Z-11.034
X30.104 Y26.734 Z-11.04
X30.074 Y26.904 Z-11.046
X30.027 Y27.071 Z-11.053
X29.966 Y27.233 Z-11.059
X29.89 Y27.389 Z-11.065
X29.801 Y27.537 Z-11.071
X29.698 Y27.676 Z-11.077
X29.583 Y27.806 Z-11.083
X29.457 Y27.924 Z-11.089
X29.32 Y28.031 Z-11.095
X29.175 Y28.124 Z-11.101
X29.021 Y28.204 Z-11.107
X28.861 Y28.27 Z-11.113
X28.695 Y28.321 Z-11.119
X28.526 Y28.356 Z-11.125
X28.354 Y28.376 Z-11.131
X28.181 Y28.38 Z-11.137
X28.008 Y28.369 Z-11.143
X27.837 Y28.341 Z-11.149
X27.669 Y28.299 Z-11.155
X27.506 Y28.241 Z-11.161
X27.349 Y28.169 Z-11.167
X27.199 Y28.082 Z-11.173
X27.057 Y27.982 Z-11.18
X26.926 Y27.87 Z-11.186
X26.804 Y27.747 Z-11.192
X26.695 Y27.612 Z-11.198
X26.598 Y27.469 Z-11.204
X26.515 Y27.317 Z-11.21
X26.446 Y27.158 Z-11.216
X26.392 Y26.994 Z-11.222
X26.353 Y26.825 Z-11.228
X26.329 Y26.654 Z-11.234
X26.321 Y26.481 Z-11.24
G3 X26.64 Y26.162 R0.319
X26.959 Y26.481 R0.319
X25.44 Y28. R1.519
X23.921 Y26.481 R1.519
X26.64 Y23.762 R2.719
X29.359 Y26.481 R2.719
X25.44 Y30.4 R3.919
X21.521 Y26.481 R3.919
X25.44 Y22.562 R3.919
X29.359 Y26.481 R3.919
G2 X30.188 Y28.251 R2.305
G3 X30.408 Y30.193 R1.414
G1 X29.969 Y30.769
X28.931 Y31.648
X27.741 Y32.277
X26.444 Y32.636
X25.09 Y32.707
X23.791 Y32.494
X23.453 Y32.364
X22.516 Y31.99
X21.414 Y31.243
X20.483 Y30.264
X19.776 Y29.09
X19.346 Y27.808
X19.203 Y26.472
X19.349 Y25.136
X19.513 Y24.648
X19.782 Y23.854
X20.474 Y22.705
X21.401 Y21.725
X22.518 Y20.968
X23.765 Y20.472
X23.785 Y20.467
X25.09 Y20.253
X26.444 Y20.324
X27.741 Y20.683
X28.946 Y21.321
X29.959 Y22.182
X30.791 Y23.277
X31.353 Y24.495
X31.642 Y25.818
Y27.133
X31.355 Y28.454
X31.221 Y28.753
X30.79 Y29.687
X30.759 Y29.73
X30.408 Y30.193
G3 X30.127 Y30.231 R0.2
X30.103 Y30.209 R0.2
G1 X29.081 Y29.134
X28.053 Y28.272
X28.029 Y28.259
X28.003 Y28.256
X27.977 Y28.262
X27.956 Y28.278
X27.914 Y28.322
X27.895 Y28.337
X27.872 Y28.344
X27.848
X27.68 Y28.302 Z-11.246
X27.517 Y28.245 Z-11.252
X27.359 Y28.174 Z-11.258
X27.209 Y28.088 Z-11.264
X27.067 Y27.989 Z-11.27
X26.934 Y27.878 Z-11.276
X26.812 Y27.755 Z-11.282
X26.702 Y27.622 Z-11.288
X26.604 Y27.478 Z-11.294
X26.52 Y27.327 Z-11.3
X26.45 Y27.169 Z-11.307
X26.395 Y27.005 Z-11.313
X26.355 Y26.836 Z-11.319
X26.33 Y26.665 Z-11.325
X26.321 Y26.492 Z-11.331
X26.328 Y26.319 Z-11.337
X26.351 Y26.147 Z-11.343
X26.389 Y25.979 Z-11.349
X26.442 Y25.814 Z-11.355
X26.51 Y25.655 Z-11.361
X26.593 Y25.502 Z-11.367
X26.688 Y25.358 Z-11.373
X26.797 Y25.223 Z-11.379
X26.917 Y25.099 Z-11.385
X27.048 Y24.986 Z-11.391
X27.189 Y24.885 Z-11.397
X27.339 Y24.798 Z-11.403
X27.496 Y24.725 Z-11.409
X27.658 Y24.666 Z-11.415
X27.826 Y24.622 Z-11.421
X27.997 Y24.594 Z-11.427
X28.169 Y24.581 Z-11.434
X28.343 Y24.585 Z-11.44
X28.515 Y24.603 Z-11.446
X28.684 Y24.638 Z-11.452
X28.85 Y24.688 Z-11.458
X29.011 Y24.752 Z-11.464
X29.165 Y24.831 Z-11.47
X29.311 Y24.924 Z-11.476
X29.448 Y25.03 Z-11.482
X29.575 Y25.147 Z-11.488
X29.691 Y25.276 Z-11.494
X29.794 Y25.415 Z-11.5
X29.885 Y25.563 Z-11.506
X29.961 Y25.718 Z-11.512
X30.024 Y25.879 Z-11.518
X30.071 Y26.046 Z-11.524
X30.103 Y26.216 Z-11.53
X30.119 Y26.388 Z-11.536
X30.12 Y26.562 Z-11.542
X30.104 Y26.734 Z-11.548
X30.074 Y26.904 Z-11.554
X30.027 Y27.071 Z-11.561
X29.966 Y27.233 Z-11.567
X29.89 Y27.389 Z-11.573
X29.801 Y27.537 Z-11.579
X29.698 Y27.676 Z-11.585
X29.583 Y27.806 Z-11.591
X29.457 Y27.924 Z-11.597
X29.32 Y28.031 Z-11.603
X29.175 Y28.124 Z-11.609
X29.021 Y28.204 Z-11.615
X28.861 Y28.27 Z-11.621
X28.695 Y28.321 Z-11.627
X28.526 Y28.356 Z-11.633
X28.354 Y28.376 Z-11.639
X28.181 Y28.38 Z-11.645
X28.008 Y28.369 Z-11.651
X27.837 Y28.341 Z-11.657
X27.669 Y28.299 Z-11.663
X27.506 Y28.241 Z-11.669
X27.349 Y28.169 Z-11.675
X27.199 Y28.082 Z-11.681
X27.057 Y27.982 Z-11.688
X26.926 Y27.87 Z-11.694
X26.804 Y27.747 Z-11.7
X26.695 Y27.612 Z-11.706
X26.598 Y27.469 Z-11.712
X26.515 Y27.317 Z-11.718
X26.446 Y27.158 Z-11.724
X26.392 Y26.994 Z-11.73
X26.353 Y26.825 Z-11.736
X26.329 Y26.654 Z-11.742
X26.321 Y26.481 Z-11.748
G3 X26.64 Y26.162 R0.319
X26.959 Y26.481 R0.319
X25.44 Y28. R1.519
X23.921 Y26.481 R1.519
X26.64 Y23.762 R2.719
X29.359 Y26.481 R2.719
X25.44 Y30.4 R3.919
X21.521 Y26.481 R3.919
X25.44 Y22.562 R3.919
X29.359 Y26.481 R3.919
G2 X30.188 Y28.251 R2.305
G3 X30.408 Y30.193 R1.414
G1 X29.969 Y30.769
X28.931 Y31.648
X27.741 Y32.277
X26.444 Y32.636
X25.09 Y32.707
X23.791 Y32.494
X23.453 Y32.364
X22.516 Y31.99
X21.414 Y31.243
X20.483 Y30.264
X19.776 Y29.09
X19.346 Y27.808
X19.203 Y26.472
X19.349 Y25.136
X19.513 Y24.648
X19.782 Y23.854
X20.474 Y22.705
X21.401 Y21.725
X22.518 Y20.968
X23.765 Y20.472
X23.785 Y20.467
X25.09 Y20.253
X26.444 Y20.324
X27.741 Y20.683
X28.946 Y21.321
X29.959 Y22.182
X30.791 Y23.277
X31.353 Y24.495
X31.642 Y25.818
Y27.133
X31.355 Y28.454
X31.221 Y28.753
X30.79 Y29.687
X30.759 Y29.73
X30.408 Y30.193
G3 X30.26 Y30.271 R0.2
X30.104 Y30.211 R0.2
G1 X29.162 Y29.233
X29.141 Y29.214
X26.911 Y27.463
X26.888 Y27.451
X26.863 Y27.449
X26.646 Y27.473
X26.621 Y27.47
X26.598 Y27.459
X26.581 Y27.44
X26.501 Y27.287 Z-11.754
X26.435 Y27.128 Z-11.76
X26.384 Y26.963 Z-11.766
X26.347 Y26.794 Z-11.772
X26.327 Y26.623 Z-11.778
X26.322 Y26.451 Z-11.784
X26.332 Y26.279 Z-11.79
X26.358 Y26.108 Z-11.796
X26.4 Y25.941 Z-11.802
X26.456 Y25.778 Z-11.808
X26.527 Y25.62 Z-11.814
X26.612 Y25.47 Z-11.82
X26.711 Y25.328 Z-11.826
X26.821 Y25.196 Z-11.832
X26.944 Y25.074 Z-11.838
X27.076 Y24.964 Z-11.844
X27.219 Y24.867 Z-11.85
X27.369 Y24.782 Z-11.856
X27.527 Y24.712 Z-11.863
X27.69 Y24.656 Z-11.869
X27.858 Y24.616 Z-11.875
X28.028 Y24.59 Z-11.881
X28.201 Y24.581 Z-11.887
X28.373 Y24.587 Z-11.893
X28.544 Y24.608 Z-11.899
X28.713 Y24.645 Z-11.905
X28.877 Y24.697 Z-11.911
X29.036 Y24.764 Z-11.917
X29.189 Y24.845 Z-11.923
X29.333 Y24.94 Z-11.929
X29.468 Y25.047 Z-11.935
X29.593 Y25.166 Z-11.941
X29.707 Y25.296 Z-11.947
X29.808 Y25.435 Z-11.953
X29.896 Y25.584 Z-11.959
X29.971 Y25.739 Z-11.965
X30.031 Y25.901 Z-11.971
X30.076 Y26.068 Z-11.977
X30.106 Y26.237 Z-11.983
X30.12 Y26.409 Z-11.989
X30.119 Y26.582 Z-11.995
X30.102 Y26.754 Z-12.001
X30.069 Y26.923 Z-12.007
X30.021 Y27.089 Z-12.013
X29.959 Y27.25 Z-12.019
X29.882 Y27.404 Z-12.025
X29.791 Y27.551 Z-12.031
X29.688 Y27.689 Z-12.037
X29.572 Y27.817 Z-12.043
X29.445 Y27.934 Z-12.049
X29.309 Y28.039 Z-12.055
X29.163 Y28.131 Z-12.061
X29.009 Y28.21 Z-12.067
X28.849 Y28.274 Z-12.073
X28.684 Y28.324 Z-12.079
X28.515 Y28.358 Z-12.085
X28.343 Y28.377 Z-12.092
X28.171 Y28.38 Z-12.098
X27.999 Y28.368 Z-12.104
X27.828 Y28.34 Z-12.11
X27.661 Y28.296 Z-12.116
X27.499 Y28.238 Z-12.122
X27.343 Y28.165 Z-12.128
X27.193 Y28.079 Z-12.134
X27.053 Y27.979 Z-12.14
X26.922 Y27.867 Z-12.146
X26.801 Y27.743 Z-12.152
X26.693 Y27.609 Z-12.158
X26.597 Y27.466 Z-12.164
X26.514 Y27.314 Z-12.17
X26.445 Y27.156 Z-12.176
X26.391 Y26.992 Z-12.182
X26.353 Y26.824 Z-12.188
X26.329 Y26.653 Z-12.194
X26.321 Y26.481 Z-12.2
G3 X26.64 Y26.162 R0.319
X26.959 Y26.481 R0.319
X25.44 Y28. R1.519
X23.921 Y26.481 R1.519
X26.64 Y23.762 R2.719
X29.359 Y26.481 R2.719
X25.44 Y30.4 R3.919
X21.521 Y26.481 R3.919
X25.44 Y22.562 R3.919
X29.359 Y26.481 R3.919
G2 X30.188 Y28.251 R2.305
G3 X30.408 Y30.193 R1.414
G1 X29.969 Y30.769
X28.931 Y31.648
X27.741 Y32.277
X26.444 Y32.636
X25.09 Y32.707
X23.791 Y32.494
X23.453 Y32.364
X22.516 Y31.99
X21.414 Y31.243
X20.483 Y30.264
X19.776 Y29.09
X19.346 Y27.808
X19.203 Y26.472
X19.349 Y25.136
X19.513 Y24.648
X19.782 Y23.854
X20.474 Y22.705
X21.401 Y21.725
X22.518 Y20.968
X23.765 Y20.472
X23.785 Y20.467
X25.09 Y20.253
X26.444 Y20.324
X27.741 Y20.683
X28.946 Y21.321
X29.959 Y22.182
X30.791 Y23.277
X31.353 Y24.495
X31.642 Y25.818
Y27.133
X31.355 Y28.454
X31.221 Y28.753
X30.79 Y29.687
X30.759 Y29.73
X30.408 Y30.193
G3 X30.127 Y30.231 R0.2
X30.103 Y30.209 R0.2
G1 X29.081 Y29.134
X28.053 Y28.272
X28.029 Y28.259
X28.003 Y28.256
X27.977 Y28.262
X27.956 Y28.278
X27.914 Y28.322
X27.895 Y28.337
X27.872 Y28.344
X27.848
X27.68 Y28.302 Z-12.206
X27.517 Y28.245 Z-12.212
X27.359 Y28.174 Z-12.218
X27.209 Y28.088 Z-12.224
X27.067 Y27.989 Z-12.23
X26.934 Y27.878 Z-12.236
X26.812 Y27.755 Z-12.242
X26.702 Y27.622 Z-12.248
X26.604 Y27.478 Z-12.254
X26.52 Y27.327 Z-12.26
X26.45 Y27.169 Z-12.267
X26.395 Y27.005 Z-12.273
X26.355 Y26.836 Z-12.279
X26.33 Y26.665 Z-12.285
X26.321 Y26.492 Z-12.291
X26.328 Y26.319 Z-12.297
X26.351 Y26.147 Z-12.303
X26.389 Y25.979 Z-12.309
X26.442 Y25.814 Z-12.315
X26.51 Y25.655 Z-12.321
X26.593 Y25.502 Z-12.327
X26.688 Y25.358 Z-12.333
X26.797 Y25.223 Z-12.339
X26.917 Y25.099 Z-12.345
X27.048 Y24.986 Z-12.351
X27.189 Y24.885 Z-12.357
X27.339 Y24.798 Z-12.363
X27.496 Y24.725 Z-12.369
X27.658 Y24.666 Z-12.375
X27.826 Y24.622 Z-12.381
X27.997 Y24.594 Z-12.387
X28.169 Y24.581 Z-12.394
X28.343 Y24.585 Z-12.4
X28.515 Y24.603 Z-12.406
X28.684 Y24.638 Z-12.412
X28.85 Y24.688 Z-12.418
X29.011 Y24.752 Z-12.424
X29.165 Y24.831 Z-12.43
X29.311 Y24.924 Z-12.436
X29.448 Y25.03 Z-12.442
X29.575 Y25.147 Z-12.448
X29.691 Y25.276 Z-12.454
X29.794 Y25.415 Z-12.46
X29.885 Y25.563 Z-12.466
X29.961 Y25.718 Z-12.472
X30.024 Y25.879 Z-12.478
X30.071 Y26.046 Z-12.484
X30.103 Y26.216 Z-12.49
X30.119 Y26.388 Z-12.496
X30.12 Y26.562 Z-12.502
X30.104 Y26.734 Z-12.508
X30.074 Y26.904 Z-12.514
X30.027 Y27.071 Z-12.521
X29.966 Y27.233 Z-12.527
X29.89 Y27.389 Z-12.533
X29.801 Y27.537 Z-12.539
X29.698 Y27.676 Z-12.545
X29.583 Y27.806 Z-12.551
X29.457 Y27.924 Z-12.557
X29.32 Y28.031 Z-12.563
X29.175 Y28.124 Z-12.569
X29.021 Y28.204 Z-12.575
X28.861 Y28.27 Z-12.581
X28.695 Y28.321 Z-12.587
X28.526 Y28.356 Z-12.593
X28.354 Y28.376 Z-12.599
X28.181 Y28.38 Z-12.605
X28.008 Y28.369 Z-12.611
X27.837 Y28.341 Z-12.617
X27.669 Y28.299 Z-12.623
X27.506 Y28.241 Z-12.629
X27.349 Y28.169 Z-12.635
X27.199 Y28.082 Z-12.641
X27.057 Y27.982 Z-12.648
X26.926 Y27.87 Z-12.654
X26.804 Y27.747 Z-12.66
X26.695 Y27.612 Z-12.666
X26.598 Y27.469 Z-12.672
X26.515 Y27.317 Z-12.678
X26.446 Y27.158 Z-12.684
X26.392 Y26.994 Z-12.69
X26.353 Y26.825 Z-12.696
X26.329 Y26.654 Z-12.702
X26.321 Y26.481 Z-12.708
G3 X26.64 Y26.162 R0.319
X26.959 Y26.481 R0.319
X25.44 Y28. R1.519
X23.921 Y26.481 R1.519
X26.64 Y23.762 R2.719
X29.359 Y26.481 R2.719
X25.44 Y30.4 R3.919
X21.521 Y26.481 R3.919
X25.44 Y22.562 R3.919
X29.359 Y26.481 R3.919
G2 X30.188 Y28.251 R2.305
G3 X30.408 Y30.193 R1.414
G1 X29.969 Y30.769
X28.931 Y31.648
X27.741 Y32.277
X26.444 Y32.636
X25.09 Y32.707
X23.791 Y32.494
X23.453 Y32.364
X22.516 Y31.99
X21.414 Y31.243
X20.483 Y30.264
X19.776 Y29.09
X19.346 Y27.808
X19.203 Y26.472
X19.349 Y25.136
X19.513 Y24.648
X19.782 Y23.854
X20.474 Y22.705
X21.401 Y21.725
X22.518 Y20.968
X23.765 Y20.472
X23.785 Y20.467
X25.09 Y20.253
X26.444 Y20.324
X27.741 Y20.683
X28.946 Y21.321
X29.959 Y22.182
X30.791 Y23.277
X31.353 Y24.495
X31.642 Y25.818
Y27.133
X31.355 Y28.454
X31.221 Y28.753
X30.79 Y29.687
X30.759 Y29.73
X30.408 Y30.193
G3 X30.264 Y30.271 R0.2
X30.11 Y30.216 R0.2
G1 X28.77 Y28.934
X27.728 Y28.125
X27.698 Y28.11
X27.664 Y28.108
X27.633 Y28.119
X27.493 Y28.198
X27.468 Y28.207
X27.441 Y28.208
X27.414 Y28.201
X27.26 Y28.12 Z-12.714
X27.115 Y28.025 Z-12.72
X26.978 Y27.917 Z-12.726
X26.852 Y27.798 Z-12.732
X26.737 Y27.667 Z-12.738
X26.635 Y27.526 Z-12.744
X26.546 Y27.377 Z-12.751
X26.471 Y27.22 Z-12.757
X26.411 Y27.057 Z-12.763
X26.366 Y26.889 Z-12.769
X26.336 Y26.718 Z-12.775
X26.322 Y26.544 Z-12.781
X26.325 Y26.371 Z-12.787
X26.343 Y26.198 Z-12.793
X26.376 Y26.027 Z-12.799
X26.426 Y25.86 Z-12.805
X26.49 Y25.699 Z-12.811
X26.568 Y25.544 Z-12.817
X26.661 Y25.396 Z-12.823
X26.767 Y25.258 Z-12.829
X26.885 Y25.13 Z-12.836
X27.014 Y25.014 Z-12.842
X27.153 Y24.91 Z-12.848
X27.301 Y24.819 Z-12.854
X27.457 Y24.741 Z-12.86
X27.619 Y24.679 Z-12.866
X27.786 Y24.631 Z-12.872
X27.957 Y24.599 Z-12.878
X28.13 Y24.583 Z-12.884
X28.304 Y24.582 Z-12.89
X28.477 Y24.598 Z-12.896
X28.648 Y24.629 Z-12.902
X28.816 Y24.676 Z-12.908
X28.978 Y24.738 Z-12.915
X29.134 Y24.814 Z-12.921
X29.283 Y24.905 Z-12.927
X29.422 Y25.008 Z-12.933
X29.552 Y25.124 Z-12.939
X29.67 Y25.252 Z-12.945
X29.777 Y25.389 Z-12.951
X29.87 Y25.536 Z-12.957
X29.949 Y25.691 Z-12.963
X30.014 Y25.852 Z-12.969
X30.064 Y26.019 Z-12.975
X30.099 Y26.189 Z-12.981
X30.118 Y26.362 Z-12.987
X30.121 Y26.536 Z-12.993
X30.108 Y26.709 Z-13.
X30.079 Y26.881 Z-13.006
X30.034 Y27.049 Z-13.012
X29.975 Y27.212 Z-13.018
X29.901 Y27.369 Z-13.024
X29.812 Y27.519 Z-13.03
X29.711 Y27.66 Z-13.036
X29.597 Y27.792 Z-13.042
X29.471 Y27.912 Z-13.048
X29.335 Y28.02 Z-13.054
X29.19 Y28.115 Z-13.06
X29.036 Y28.197 Z-13.066
X28.876 Y28.264 Z-13.072
X28.71 Y28.317 Z-13.079
X28.54 Y28.354 Z-13.085
X28.368 Y28.375 Z-13.091
X28.194 Y28.38 Z-13.097
X28.02 Y28.37 Z-13.103
X27.848 Y28.344 Z-13.109
X27.68 Y28.302 Z-13.115
X27.515 Y28.245 Z-13.121
X27.357 Y28.173 Z-13.127
X27.206 Y28.087 Z-13.133
X27.063 Y27.987 Z-13.139
X26.931 Y27.875 Z-13.145
X26.809 Y27.751 Z-13.151
X26.698 Y27.617 Z-13.157
X26.601 Y27.473 Z-13.164
X26.517 Y27.32 Z-13.17
X26.447 Y27.161 Z-13.176
X26.393 Y26.996 Z-13.182
X26.353 Y26.827 Z-13.188
X26.329 Y26.654 Z-13.194
X26.321 Y26.481 Z-13.2
G3 X26.64 Y26.162 R0.319
X26.959 Y26.481 R0.319
X25.44 Y28. R1.519
X23.921 Y26.481 R1.519
X26.64 Y23.762 R2.719
X29.359 Y26.481 R2.719
X25.44 Y30.4 R3.919
X21.521 Y26.481 R3.919
X25.44 Y22.562 R3.919
X29.359 Y26.481 R3.919
G2 X30.188 Y28.251 R2.305
G3 X30.408 Y30.193 R1.414
G1 X29.969 Y30.769
X28.931 Y31.648
X27.741 Y32.277
X26.444 Y32.636
X25.09 Y32.707
X23.791 Y32.494
X23.453 Y32.364
X22.516 Y31.99
X21.414 Y31.243
X20.483 Y30.264
X19.776 Y29.09
X19.346 Y27.808
X19.203 Y26.472
X19.349 Y25.136
X19.513 Y24.648
X19.782 Y23.854
X20.474 Y22.705
X21.401 Y21.725
X22.518 Y20.968
X23.765 Y20.472
X23.785 Y20.467
X25.09 Y20.253
X26.444 Y20.324
X27.741 Y20.683
X28.946 Y21.321
X29.959 Y22.182
X30.791 Y23.277
X31.353 Y24.495
X31.642 Y25.818
Y27.133
X31.355 Y28.454
X31.221 Y28.753
X30.79 Y29.687
X30.759 Y29.73
X30.408 Y30.193
X30.367 Y30.239 Z-13.19
X30.319 Y30.278 Z-13.18
X30.271 Y30.307 Z-13.152
X30.22 Y30.329 Z-13.124
X30.177 Y30.341 Z-13.079
X30.134 Y30.348 Z-13.035
X30.077 Y30.351 Z-12.924
X30.058 Y30.35 Z-12.8
G0 Z5.
X36.024 Y15.62
Z0.933
G1 X36.007 Y15.611 Z0.812 F1500.
X35.96 Y15.584 Z0.703
X35.888 Y15.54 Z0.615
X35.799 Y15.478 Z0.556
X35.704 Y15.404 Z0.533
X35.576 Y15.287 Z0.527
X35.46 Y15.159 Z0.521
X35.355 Y15.021 Z0.515
X35.264 Y14.874 Z0.509
X35.186 Y14.719 Z0.503
X35.123 Y14.558 Z0.497
X35.074 Y14.391 Z0.491
X35.041 Y14.221 Z0.485
X35.024 Y14.049 Z0.479
X35.022 Y13.875 Z0.473
X35.037 Y13.703 Z0.467
X35.067 Y13.532 Z0.461
X35.112 Y13.365 Z0.455
X35.172 Y13.202 Z0.449
X35.247 Y13.046 Z0.443
X35.336 Y12.897 Z0.437
X35.438 Y12.757 Z0.43
X35.553 Y12.627 Z0.424
X35.679 Y12.508 Z0.418
X35.815 Y12.4 Z0.412
X35.96 Y12.306 Z0.406
X36.114 Y12.225 Z0.4
X36.274 Y12.159 Z0.394
X36.439 Y12.107 Z0.388
X36.609 Y12.071 Z0.382
X36.781 Y12.05 Z0.376
X36.954 Y12.045 Z0.37
X37.127 Y12.056 Z0.364
X37.298 Y12.083 Z0.358
X37.466 Y12.125 Z0.352
X37.63 Y12.182 Z0.346
X37.788 Y12.254 Z0.34
X37.938 Y12.34 Z0.334
X38.08 Y12.44 Z0.328
X38.213 Y12.552 Z0.321
X38.334 Y12.675 Z0.315
X38.444 Y12.809 Z0.309
X38.541 Y12.953 Z0.303
X38.625 Y13.104 Z0.297
X38.694 Y13.263 Z0.291
X38.749 Y13.428 Z0.285
X38.789 Y13.596 Z0.279
X38.813 Y13.768 Z0.273
X38.821 Y13.941 Z0.267
X38.814 Y14.114 Z0.261
X38.79 Y14.286 Z0.255
X38.751 Y14.455 Z0.249
X38.697 Y14.62 Z0.243
X38.629 Y14.779 Z0.237
X38.545 Y14.931 Z0.231
X38.449 Y15.075 Z0.225
X38.34 Y15.209 Z0.219
X38.219 Y15.333 Z0.213
X38.087 Y15.446 Z0.206
X37.945 Y15.546 Z0.2
X37.795 Y15.632 Z0.194
X37.638 Y15.705 Z0.188
X37.474 Y15.763 Z0.182
X37.306 Y15.806 Z0.176
X37.135 Y15.833 Z0.17
X36.962 Y15.845 Z0.164
X36.789 Y15.841 Z0.158
X36.617 Y15.821 Z0.152
X36.447 Y15.785 Z0.146
X36.281 Y15.734 Z0.14
X36.121 Y15.669 Z0.134
X35.967 Y15.588 Z0.128
X35.822 Y15.495 Z0.122
X35.685 Y15.388 Z0.116
X35.559 Y15.269 Z0.11
X35.444 Y15.14 Z0.104
X35.341 Y15. Z0.097
X35.251 Y14.852 Z0.091
X35.176 Y14.696 Z0.085
X35.115 Y14.534 Z0.079
X35.068 Y14.367 Z0.073
X35.038 Y14.196 Z0.067
X35.023 Y14.023 Z0.061
Y13.85 Z0.055
X35.04 Y13.677 Z0.049
X35.072 Y13.507 Z0.043
X35.12 Y13.34 Z0.037
X35.183 Y13.179 Z0.031
X35.26 Y13.024 Z0.025
X35.35 Y12.876 Z0.019
X35.454 Y12.737 Z0.013
X35.571 Y12.609 Z0.007
X35.698 Y12.491 Z0.001
X35.836 Y12.386 Z-0.005
X35.982 Y12.293 Z-0.012
X36.137 Y12.215 Z-0.018
X36.298 Y12.15 Z-0.024
X36.464 Y12.101 Z-0.03
X36.634 Y12.067 Z-0.036
X36.806 Y12.049 Z-0.042
X36.979 Y12.046 Z-0.048
X37.152 Y12.059 Z-0.054
X37.323 Y12.088 Z-0.06
X37.491 Y12.133 Z-0.066
X37.653 Y12.192 Z-0.072
X37.81 Y12.266 Z-0.078
X37.959 Y12.354 Z-0.084
X38.1 Y12.455 Z-0.09
X38.231 Y12.569 Z-0.096
X38.351 Y12.694 Z-0.102
X38.459 Y12.829 Z-0.108
X38.554 Y12.974 Z-0.114
X38.636 Y13.127 Z-0.121
X38.703 Y13.287 Z-0.127
X38.756 Y13.452 Z-0.133
X38.793 Y13.621 Z-0.139
X38.815 Y13.793 Z-0.145
X38.821 Y13.966 Z-0.151
X38.811 Y14.139 Z-0.157
X38.786 Y14.311 Z-0.163
X38.745 Y14.479 Z-0.169
X38.688 Y14.643 Z-0.175
X38.617 Y14.801 Z-0.181
X38.532 Y14.952 Z-0.187
X38.434 Y15.095 Z-0.193
X38.323 Y15.228 Z-0.199
X38.2 Y15.35 Z-0.205
X38.067 Y15.461 Z-0.211
X37.924 Y15.559 Z-0.217
X37.772 Y15.644 Z-0.223
X37.614 Y15.714 Z-0.229
X37.45 Y15.77 Z-0.236
X37.281 Y15.811 Z-0.242
X37.11 Y15.836 Z-0.248
X36.937 Y15.845 Z-0.254
X36.764 Y15.839 Z-0.26
X36.592 Y15.816 Z-0.266
X36.423 Y15.779 Z-0.272
X36.258 Y15.726 Z-0.278
X36.098 Y15.658 Z-0.284
X35.946 Y15.576 Z-0.29
X35.801 Y15.48 Z-0.296
X35.666 Y15.371 Z-0.302
X35.541 Y15.251 Z-0.308
X35.428 Y15.12 Z-0.314
X35.327 Y14.979 Z-0.32
X35.239 Y14.829 Z-0.326
X35.166 Y14.672 Z-0.332
X35.107 Y14.509 Z-0.338
X35.063 Y14.342 Z-0.345
X35.035 Y14.171 Z-0.351
X35.022 Y13.998 Z-0.357
X35.025 Y13.825 Z-0.363
X35.044 Y13.652 Z-0.369
X35.078 Y13.482 Z-0.375
X35.128 Y13.316 Z-0.381
X35.193 Y13.156 Z-0.387
X35.272 Y13.002 Z-0.393
X35.365 Y12.855 Z-0.399
X35.471 Y12.718 Z-0.405
X35.589 Y12.591 Z-0.411
X35.718 Y12.475 Z-0.417
X35.856 Y12.371 Z-0.423
X36.004 Y12.281 Z-0.429
X36.16 Y12.204 Z-0.435
X36.322 Y12.142 Z-0.441
X36.488 Y12.095 Z-0.447
X36.659 Y12.063 Z-0.454
X36.831 Y12.047 Z-0.46
X37.005 Z-0.466
X37.177 Y12.063 Z-0.472
X37.348 Y12.094 Z-0.478
X37.515 Y12.14 Z-0.484
X37.677 Y12.202 Z-0.49
X37.832 Y12.278 Z-0.496
X37.981 Y12.368 Z-0.502
X38.12 Y12.471 Z-0.508
G3 X38.721 Y13.064 R4.418
X39.703 Y15.156 R4.533
X39.912 Y17.458 R12.784
X39.626 Y17.744 R0.286
X39.379 Y17.602 R0.286
G2 X37.461 Y15.116 R12.071
X35.131 Y13.011 R32.592
X34.079 Y12.36 R4.679
G3 X32.967 Y11.816 R18.363
X32.85 Y11.433 R0.283
X33.1 Y11.283 R0.283
X36.108 Y11.549 R17.133
X38.12 Y12.471 R4.418
G1 X38.215 Y12.55 Z-0.488
X38.298 Y12.624 Z-0.432
X38.363 Y12.684 Z-0.343
X38.404 Y12.724 Z-0.232
X38.418 Y12.737 Z-0.108
G0 Z5.
X15.804 Y15.105
Z0.933
G1 X15.792 Y15.12 Z0.812 F1500.
X15.758 Y15.162 Z0.703
X15.701 Y15.225 Z0.615
X15.626 Y15.302 Z0.556
X15.537 Y15.383 Z0.533
X15.4 Y15.489 Z0.527
X15.253 Y15.582 Z0.521
X15.099 Y15.661 Z0.515
X14.939 Y15.726 Z0.509
X14.773 Y15.777 Z0.503
X14.603 Y15.811 Z0.497
X14.431 Y15.83 Z0.491
X14.257 Y15.834 Z0.485
X14.084 Y15.821 Z0.479
X13.913 Y15.793 Z0.473
X13.746 Y15.75 Z0.467
X13.583 Y15.691 Z0.461
X13.426 Y15.618 Z0.455
X13.276 Y15.53 Z0.449
X13.135 Y15.43 Z0.443
X13.003 Y15.317 Z0.437
X12.883 Y15.192 Z0.43
X12.774 Y15.057 Z0.424
X12.678 Y14.913 Z0.418
X12.596 Y14.76 Z0.412
X12.528 Y14.601 Z0.406
X12.474 Y14.436 Z0.4
X12.436 Y14.267 Z0.394
X12.414 Y14.095 Z0.388
X12.407 Y13.922 Z0.382
X12.416 Y13.749 Z0.376
X12.441 Y13.577 Z0.37
X12.481 Y13.409 Z0.364
X12.537 Y13.244 Z0.358
X12.607 Y13.086 Z0.352
X12.692 Y12.935 Z0.346
X12.789 Y12.791 Z0.34
X12.9 Y12.658 Z0.334
X13.022 Y12.535 Z0.328
X13.155 Y12.424 Z0.321
X13.297 Y12.325 Z0.315
X13.448 Y12.24 Z0.309
X13.606 Y12.168 Z0.303
X13.77 Y12.112 Z0.297
X13.938 Y12.071 Z0.291
X14.11 Y12.045 Z0.285
X14.283 Y12.035 Z0.279
X14.456 Y12.04 Z0.273
X14.628 Y12.062 Z0.267
X14.797 Y12.099 Z0.261
X14.963 Y12.151 Z0.255
X15.122 Y12.218 Z0.249
X15.275 Y12.3 Z0.243
X15.42 Y12.395 Z0.237
X15.556 Y12.503 Z0.231
X15.681 Y12.622 Z0.225
X15.795 Y12.753 Z0.219
X15.897 Y12.894 Z0.213
X15.985 Y13.043 Z0.206
X16.059 Y13.199 Z0.2
X16.119 Y13.362 Z0.194
X16.163 Y13.53 Z0.188
X16.193 Y13.7 Z0.182
X16.206 Y13.873 Z0.176
X16.204 Y14.047 Z0.17
X16.186 Y14.219 Z0.164
X16.152 Y14.389 Z0.158
X16.103 Y14.555 Z0.152
X16.039 Y14.716 Z0.146
X15.96 Y14.871 Z0.14
X15.868 Y15.018 Z0.134
X15.763 Y15.155 Z0.128
X15.646 Y15.283 Z0.122
X15.517 Y15.399 Z0.116
X15.379 Y15.503 Z0.11
X15.231 Y15.595 Z0.104
X15.076 Y15.672 Z0.097
X14.915 Y15.735 Z0.091
X14.748 Y15.783 Z0.085
X14.578 Y15.815 Z0.079
X14.405 Y15.832 Z0.073
X14.232 Y15.833 Z0.067
X14.059 Y15.818 Z0.061
X13.889 Y15.788 Z0.055
X13.722 Y15.742 Z0.049
X13.559 Y15.681 Z0.043
X13.403 Y15.606 Z0.037
X13.255 Y15.516 Z0.031
X13.115 Y15.414 Z0.025
X12.985 Y15.299 Z0.019
X12.866 Y15.173 Z0.013
X12.759 Y15.037 Z0.007
X12.665 Y14.891 Z0.001
X12.585 Y14.737 Z-0.005
X12.519 Y14.577 Z-0.012
X12.468 Y14.411 Z-0.018
X12.432 Y14.242 Z-0.024
X12.412 Y14.07 Z-0.03
X12.408 Y13.896 Z-0.036
X12.419 Y13.723 Z-0.042
X12.446 Y13.552 Z-0.048
X12.489 Y13.384 Z-0.054
X12.546 Y13.221 Z-0.06
X12.619 Y13.063 Z-0.066
X12.705 Y12.913 Z-0.072
X12.805 Y12.771 Z-0.078
X12.917 Y12.639 Z-0.084
X13.041 Y12.518 Z-0.09
X13.175 Y12.408 Z-0.096
X13.319 Y12.312 Z-0.102
X13.471 Y12.228 Z-0.108
X13.63 Y12.159 Z-0.114
X13.794 Y12.105 Z-0.121
X13.963 Y12.066 Z-0.127
X14.135 Y12.042 Z-0.133
X14.308 Y12.035 Z-0.139
X14.481 Y12.043 Z-0.145
X14.653 Y12.066 Z-0.151
X14.822 Y12.106 Z-0.157
X14.986 Y12.16 Z-0.163
X15.145 Y12.229 Z-0.169
X15.297 Y12.313 Z-0.175
X15.441 Y12.41 Z-0.181
X15.575 Y12.519 Z-0.187
X15.699 Y12.641 Z-0.193
X15.811 Y12.773 Z-0.199
X15.91 Y12.915 Z-0.205
X15.997 Y13.065 Z-0.211
X16.069 Y13.223 Z-0.217
X16.126 Y13.386 Z-0.223
X16.169 Y13.554 Z-0.229
X16.196 Y13.726 Z-0.236
X16.207 Y13.899 Z-0.242
X16.202 Y14.072 Z-0.248
X16.182 Y14.244 Z-0.254
X16.146 Y14.413 Z-0.26
X16.094 Y14.579 Z-0.266
X16.028 Y14.739 Z-0.272
X15.948 Y14.893 Z-0.278
X15.854 Y15.038 Z-0.284
X15.747 Y15.175 Z-0.29
X15.628 Y15.301 Z-0.296
X15.498 Y15.415 Z-0.302
X15.358 Y15.518 Z-0.308
X15.209 Y15.607 Z-0.314
X15.053 Y15.682 Z-0.32
X14.891 Y15.743 Z-0.326
X14.723 Y15.788 Z-0.332
X14.553 Y15.819 Z-0.338
X14.38 Y15.833 Z-0.345
X14.207 Y15.832 Z-0.351
X14.034 Y15.815 Z-0.357
X13.864 Y15.782 Z-0.363
X13.698 Y15.734 Z-0.369
X13.536 Y15.671 Z-0.375
X13.381 Y15.594 Z-0.381
X13.234 Y15.502 Z-0.387
X13.095 Y15.398 Z-0.393
X12.967 Y15.281 Z-0.399
X12.85 Y15.154 Z-0.405
X12.745 Y15.016 Z-0.411
X12.653 Y14.869 Z-0.417
X12.574 Y14.714 Z-0.423
X12.511 Y14.553 Z-0.429
X12.462 Y14.387 Z-0.435
X12.428 Y14.217 Z-0.441
X12.41 Y14.044 Z-0.447
X12.408 Y13.871 Z-0.454
X12.422 Y13.698 Z-0.46
X12.451 Y13.527 Z-0.466
X12.496 Y13.36 Z-0.472
X12.556 Y13.197 Z-0.478
X12.63 Y13.041 Z-0.484
X12.719 Y12.892 Z-0.49
X12.82 Y12.751 Z-0.496
X12.934 Y12.621 Z-0.502
X13.06 Y12.501 Z-0.508
G3 X14.443 Y11.687 R4.387
X16.094 Y11.339 R6.013
X17.781 Y11.283 R25.343
X18.064 Y11.566 R0.283
X17.914 Y11.816 R0.283
X16.789 Y12.367 R19.252
G2 X15.726 Y13.028 R4.74
G3 X14.41 Y14.098 R152.536
G2 X13.206 Y15.293 R8.132
X12.481 Y16.223 R25.827
G1 X11.843 Y17.082
G3 X11.412 Y17.146 R0.308
X11.288 Y16.899 R0.308
X12.043 Y13.795 R6.755
X13.06 Y12.501 R4.387
G2 X13.565 Y10.915 R1.602
G3 X14.424 Y9.489 R1.183
X14.833 Y9.399 R6.516
X15.512 Y9.316 R5.571
X16.196 Y9.28 R39.509
G1 X35.004
G3 X38.442 Y10.2 R8.221
X41.012 Y12.663 R6.347
X41.672 Y14.344 R6.097
X41.915 Y16.134 R10.009
G1 Y31.596
G3 X40.326 Y35.95 R7.709
X36.374 Y38.371 R6.475
X35.338 Y38.511 R10.681
X34.294 Y38.556 R12.206
X33.968 Y38.23 R0.326
X34.087 Y37.979 R0.326
X35.168 Y37.144 R21.67
G2 X36.163 Y36.207 R5.269
X38.498 Y32.82 R25.239
X39.752 Y28.901 R9.772
X39.91 Y25.917 R33.202
X39.503 Y22.957 R10.405
X37.238 Y18.105 R17.198
X33.426 Y14.344 R13.544
X29.753 Y12.692 R12.875
X25.793 Y11.966 R23.933
X22.296 Y12.307 R9.098
X18.385 Y13.817 R28.205
X15.038 Y16.343 R10.367
X11.858 Y21.577 R17.637
X11.004 Y27.64 R13.338
X12.333 Y32.636 R15.424
X15.333 Y36.845 R13.617
X16.054 Y37.426 R5.631
G3 X16.797 Y37.98 R10.3
X16.843 Y38.437 R0.325
X16.591 Y38.556 R0.325
X13.442 Y37.927 R8.201
X10.855 Y36.025 R6.754
X9.706 Y33.94 R6.211
X9.285 Y31.596 R8.966
G1 Y16.134
G3 X10.884 Y11.799 R7.601
X14.424 Y9.489 R6.516
G2 X15.752 Y8.157 R1.833
G3 X17.235 Y7. R1.528
G1 X35.103
X36.734 Y7.142
X37.403 Y7.316
X38.261 Y7.546
X39.671 Y8.201
X40.604 Y8.848
X40.97 Y9.104
X42.1 Y10.236
X42.995 Y11.52
X43.645 Y12.915
X44.051 Y14.422
X44.195 Y16.032
Y31.698
X44.051 Y33.308
X43.645 Y34.815
X42.995 Y36.21
X42.1 Y37.494
X40.97 Y38.626
X39.697 Y39.517
X38.261 Y40.184
X36.785 Y40.58
X36.558 Y40.604
X35.103 Y40.73
X16.097
X14.466 Y40.588
X13.797 Y40.414
X12.939 Y40.184
X11.529 Y39.529
X10.596 Y38.882
X10.23 Y38.626
X9.1 Y37.494
X8.205 Y36.21
X7.555 Y34.815
X7.149 Y33.308
X7.005 Y31.698
Y16.032
X7.149 Y14.422
X7.555 Y12.915
X8.205 Y11.52
X9.1 Y10.236
X10.23 Y9.104
X11.503 Y8.213
X12.939 Y7.546
X14.415 Y7.15
X14.642 Y7.126
X16.097 Y7.
X17.235
G3 X17.377 Y7.06 R0.2
X17.435 Y7.203 R0.2
G1 X17.262 Y17.32
X17.257 Y17.363
X17.242 Y17.403
X17.219 Y17.44
X17.189 Y17.471
X16.868 Y17.735
X16.807 Y17.789
X16.752 Y17.848
X16.601 Y18.019
X16.578 Y18.046
X15.822 Y18.972
X15.309 Y19.601
X15.252 Y19.678
X15.202 Y19.762
X14.167 Y21.698
X14.126 Y21.784
X14.093 Y21.875
X13.724 Y23.074
X13.589 Y23.516
X13.586 Y23.528
X13.443 Y24.021
X13.421 Y24.11
X13.408 Y24.202
X13.195 Y26.374
X13.19 Y26.468
X13.194 Y26.563
X13.274 Y27.432
X13.275 Y27.44
X13.405 Y28.743
X13.416 Y28.818
X13.432 Y28.891
X13.479 Y29.077
X13.491 Y29.12
X14.069 Y31.023
X14.098 Y31.103
X14.131 Y31.187
X14.177 Y31.286
X15.171 Y33.149
X15.23 Y33.245
X15.314 Y33.368
X15.365 Y33.436
X16.676 Y35.032
X16.76 Y35.121
X16.872 Y35.228
X16.928 Y35.277
X18.54 Y36.596
X18.612 Y36.65
X18.688 Y36.697
X19.086 Y36.918
X19.102 Y36.926
X20.672 Y37.759
X20.759 Y37.8
X20.85 Y37.833
X22.922 Y38.464
X22.985 Y38.481
X23.049 Y38.493
X23.175 Y38.514
X23.242 Y38.523
X25.315 Y38.725
X25.391 Y38.729
X25.467 Y38.728
X25.656 Y38.718
X25.699 Y38.714
X27.709 Y38.514
X27.791 Y38.502
X27.872 Y38.484
X28.123 Y38.415
X28.153 Y38.407
X30.034 Y37.832
X30.124 Y37.799
X30.211 Y37.758
X32.099 Y36.755
X32.193 Y36.698
X32.328 Y36.606
X32.399 Y36.552
X34.017 Y35.22
X34.083 Y35.161
X34.143 Y35.096
X34.401 Y34.793
X34.413 Y34.778
X35.562 Y33.372
X35.619 Y33.296
X35.667 Y33.215
X36.172 Y32.284
X36.175 Y32.278
X36.703 Y31.285
X36.738 Y31.212
X36.768 Y31.137
X36.852 Y30.888
X36.862 Y30.856
X37.425 Y28.995
X37.441 Y28.932
X37.454 Y28.869
X37.474 Y28.745
X37.483 Y28.679
X37.684 Y26.631
X37.688 Y26.564
Y26.497
X37.681 Y26.311
X37.677 Y26.248
X37.472 Y24.2
X37.459 Y24.11
X37.437 Y24.023
X37.312 Y23.588
X37.308 Y23.573
X36.796 Y21.897
X36.764 Y21.809
X36.725 Y21.724
X36.301 Y20.918
X36.297 Y20.91
X35.694 Y19.786
X35.649 Y19.71
X35.597 Y19.639
X35.309 Y19.274
X35.297 Y19.258
X34.193 Y17.917
X34.142 Y17.859
X34.087 Y17.806
X33.921 Y17.658
X33.889 Y17.631
X32.367 Y16.383
X32.281 Y16.32
X32.177 Y16.252
X32.099 Y16.205
X30.215 Y15.203
X30.127 Y15.162
X30.037 Y15.13
X27.964 Y14.498
X27.891 Y14.479
X27.817 Y14.465
X27.617 Y14.436
X27.57 Y14.43
X25.571 Y14.235
X25.446 Y14.231
X25.32 Y14.235
X25.249 Y14.239
X23.147 Y14.451
X23.051 Y14.465
X22.957 Y14.489
X20.851 Y15.127
X20.759 Y15.159
X20.672 Y15.201
X18.787 Y16.202
X18.704 Y16.252
X18.578 Y16.335
X18.496 Y16.396
X17.189 Y17.471
X17.173 Y17.478
X17.155 Y17.476
X17.141 Y17.466
X17.033 Y17.339
X12.702 Y14.876
X12.657
X12.578 Y14.722 Z-0.514
X12.514 Y14.561 Z-0.52
X12.464 Y14.396 Z-0.526
X12.43 Y14.226 Z-0.532
X12.411 Y14.054 Z-0.538
X12.408 Y13.881 Z-0.544
X12.421 Y13.708 Z-0.55
X12.449 Y13.537 Z-0.556
X12.493 Y13.37 Z-0.562
X12.552 Y13.207 Z-0.568
X12.625 Y13.05 Z-0.575
X12.713 Y12.901 Z-0.581
X12.814 Y12.76 Z-0.587
X12.927 Y12.629 Z-0.593
X13.051 Y12.509 Z-0.599
X13.186 Y12.4 Z-0.605
X13.331 Y12.305 Z-0.611
X13.483 Y12.223 Z-0.617
X13.642 Y12.155 Z-0.623
X13.807 Y12.102 Z-0.629
X13.976 Y12.064 Z-0.635
X14.147 Y12.041 Z-0.641
X14.32 Y12.035 Z-0.647
X14.493 Y12.044 Z-0.653
X14.665 Y12.068 Z-0.659
X14.833 Y12.109 Z-0.665
X14.997 Y12.164 Z-0.671
X15.155 Y12.234 Z-0.677
X15.307 Y12.319 Z-0.683
X15.45 Y12.416 Z-0.689
X15.583 Y12.527 Z-0.695
X15.706 Y12.649 Z-0.702
X15.817 Y12.781 Z-0.708
X15.916 Y12.923 Z-0.714
X16.001 Y13.074 Z-0.72
X16.072 Y13.232 Z-0.726
X16.129 Y13.395 Z-0.732
X16.171 Y13.563 Z-0.738
X16.197 Y13.735 Z-0.744
X16.207 Y13.907 Z-0.75
X16.202 Y14.08 Z-0.756
X16.18 Y14.252 Z-0.762
X16.144 Y14.421 Z-0.768
X16.092 Y14.587 Z-0.774
X16.025 Y14.746 Z-0.78
X15.944 Y14.899 Z-0.786
X15.849 Y15.044 Z-0.792
X15.742 Y15.18 Z-0.798
X15.623 Y15.306 Z-0.804
X15.492 Y15.42 Z-0.81
X15.352 Y15.521 Z-0.816
X15.203 Y15.61 Z-0.822
X15.047 Y15.684 Z-0.829
X14.885 Y15.745 Z-0.835
X14.718 Y15.79 Z-0.841
X14.547 Y15.819 Z-0.847
X14.375 Y15.833 Z-0.853
X14.202 Y15.832 Z-0.859
X14.029 Y15.814 Z-0.865
X13.859 Y15.781 Z-0.871
X13.693 Y15.733 Z-0.877
X13.532 Y15.669 Z-0.883
X13.377 Y15.591 Z-0.889
X13.23 Y15.5 Z-0.895
X13.092 Y15.395 Z-0.901
X12.964 Y15.279 Z-0.907
X12.848 Y15.151 Z-0.913
X12.743 Y15.013 Z-0.919
X12.651 Y14.866 Z-0.925
X12.573 Y14.712 Z-0.931
X12.51 Y14.551 Z-0.937
X12.461 Y14.384 Z-0.943
X12.428 Y14.215 Z-0.949
X12.41 Y14.042 Z-0.956
X12.408 Y13.869 Z-0.962
X12.422 Y13.697 Z-0.968
X12.452 Y13.526 Z-0.974
X12.496 Y13.359 Z-0.98
X12.556 Y13.196 Z-0.986
X12.631 Y13.04 Z-0.992
X12.719 Y12.891 Z-0.998
X12.821 Y12.751 Z-1.004
X12.935 Y12.621 Z-1.01
X13.06 Y12.501 Z-1.016
G3 X14.443 Y11.687 R4.387
X16.094 Y11.339 R6.013
X17.781 Y11.283 R25.343
X18.064 Y11.566 R0.283
X17.914 Y11.816 R0.283
X16.789 Y12.367 R19.252
G2 X15.726 Y13.028 R4.74
G3 X14.41 Y14.098 R152.536
G2 X13.206 Y15.293 R8.132
X12.481 Y16.223 R25.827
G1 X11.843 Y17.082
G3 X11.412 Y17.146 R0.308
X11.288 Y16.899 R0.308
X12.043 Y13.795 R6.755
X13.06 Y12.501 R4.387
G1 X13.154 Y12.421 Z-0.996
X13.241 Y12.352 Z-0.94
X13.312 Y12.298 Z-0.851
X13.357 Y12.264 Z-0.74
X13.373 Y12.253 Z-0.616
G0 Z5.
X36.023 Y15.619
Z0.425
G1 X36.007 Y15.61 Z0.304 F1500.
X35.959 Y15.583 Z0.195
X35.887 Y15.538 Z0.107
X35.798 Y15.478 Z0.048
X35.703 Y15.404 Z0.025
X35.575 Y15.287 Z0.019
X35.458 Y15.159 Z0.013
X35.353 Y15.021 Z0.007
X35.262 Y14.874 Z0.001
X35.184 Y14.719 Z-0.005
X35.12 Y14.558 Z-0.011
X35.071 Y14.392 Z-0.017
X35.038 Y14.222 Z-0.023
X35.021 Y14.049 Z-0.029
X35.019 Y13.876 Z-0.035
X35.033 Y13.703 Z-0.041
X35.062 Y13.532 Z-0.047
X35.107 Y13.365 Z-0.053
X35.167 Y13.202 Z-0.059
X35.242 Y13.046 Z-0.065
X35.331 Y12.897 Z-0.071
X35.433 Y12.757 Z-0.078
X35.547 Y12.626 Z-0.084
X35.672 Y12.507 Z-0.09
X35.808 Y12.4 Z-0.096
X35.954 Y12.305 Z-0.102
X36.107 Y12.224 Z-0.108
X36.267 Y12.157 Z-0.114
X36.432 Y12.105 Z-0.12
X36.602 Y12.069 Z-0.126
X36.774 Y12.048 Z-0.132
X36.947 Y12.042 Z-0.138
X37.12 Y12.053 Z-0.144
X37.291 Y12.079 Z-0.15
X37.459 Y12.121 Z-0.156
X37.623 Y12.178 Z-0.162
X37.781 Y12.25 Z-0.168
X37.932 Y12.335 Z-0.174
X38.074 Y12.435 Z-0.18
X38.206 Y12.546 Z-0.187
X38.328 Y12.669 Z-0.193
X38.438 Y12.803 Z-0.199
X38.536 Y12.947 Z-0.205
X38.62 Y13.098 Z-0.211
X38.69 Y13.257 Z-0.217
X38.745 Y13.421 Z-0.223
X38.785 Y13.59 Z-0.229
X38.809 Y13.762 Z-0.235
X38.818 Y13.935 Z-0.241
X38.81 Y14.108 Z-0.247
X38.787 Y14.28 Z-0.253
X38.749 Y14.449 Z-0.259
X38.695 Y14.613 Z-0.265
X38.626 Y14.773 Z-0.271
X38.544 Y14.925 Z-0.277
X38.447 Y15.069 Z-0.283
X38.338 Y15.204 Z-0.289
X38.218 Y15.328 Z-0.295
X38.086 Y15.441 Z-0.302
X37.944 Y15.541 Z-0.308
X37.794 Y15.628 Z-0.314
X37.637 Y15.701 Z-0.32
X37.474 Y15.759 Z-0.326
X37.306 Y15.802 Z-0.332
X37.135 Y15.83 Z-0.338
X36.962 Y15.842 Z-0.344
X36.789 Y15.838 Z-0.35
X36.617 Y15.818 Z-0.356
X36.447 Y15.783 Z-0.362
X36.281 Y15.732 Z-0.368
X36.121 Y15.667 Z-0.374
X35.967 Y15.587 Z-0.38
X35.821 Y15.494 Z-0.386
X35.684 Y15.387 Z-0.392
X35.557 Y15.269 Z-0.398
X35.442 Y15.14 Z-0.404
X35.339 Y15. Z-0.411
X35.249 Y14.852 Z-0.417
X35.173 Y14.696 Z-0.423
X35.112 Y14.534 Z-0.429
X35.066 Y14.367 Z-0.435
X35.035 Y14.196 Z-0.441
X35.019 Y14.024 Z-0.447
X35.02 Y13.851 Z-0.453
X35.036 Y13.678 Z-0.459
X35.068 Y13.508 Z-0.465
X35.115 Y13.341 Z-0.471
X35.178 Y13.179 Z-0.477
X35.254 Y13.024 Z-0.483
X35.345 Y12.876 Z-0.489
X35.449 Y12.737 Z-0.495
X35.565 Y12.608 Z-0.501
X35.692 Y12.491 Z-0.507
X35.829 Y12.385 Z-0.513
X35.976 Y12.292 Z-0.52
