(NMJPLATE0PT0PT4_TOP_STEP1_4MM)
(T8  D=4. CR=0. - ZMIN=-16.5 - FLAT END MILL)
G0 G90 G94 G17
G21
G53 G0 Z0.

(FACE 4MM)
M5
T8
M3 S16000
G55
M8
G0 X155.987 Y-0.245
Z15.
Z5.
G1 Z-0.1 F380.
X155.979 Z-0.178 F1500.
X155.957 Z-0.253
X155.92 Z-0.322
X155.87 Z-0.383
X155.809 Z-0.433
X155.74 Z-0.47
X155.665 Z-0.492
X155.587 Z-0.5
X155.41
X-3.01
G2 X-4.374 Y1.119 R1.364
X-3.01 Y2.483 R1.364
G1 X155.41
G3 X156.774 Y3.847 R1.364
X155.41 Y5.21 R1.364
G1 X-3.01
G2 X-4.374 Y6.574 R1.364
X-3.01 Y7.938 R1.364
G1 X155.41
G3 X156.774 Y9.302 R1.364
X155.41 Y10.665 R1.364
G1 X-3.01
G2 X-4.374 Y12.029 R1.364
X-3.01 Y13.393 R1.364
G1 X155.41
G3 X156.774 Y14.757 R1.364
X155.41 Y16.12 R1.364
G1 X-3.01
G2 X-4.374 Y17.484 R1.364
X-3.01 Y18.848 R1.364
G1 X155.41
G3 X156.774 Y20.212 R1.364
X155.41 Y21.575 R1.364
G1 X-3.01
G2 X-4.374 Y22.939 R1.364
X-3.01 Y24.303 R1.364
G1 X155.41
G3 X156.774 Y25.666 R1.364
X155.41 Y27.03 R1.364
G1 X-3.01
G2 X-4.374 Y28.394 R1.364
X-3.01 Y29.758 R1.364
G1 X155.41
G3 X156.774 Y31.121 R1.364
X155.41 Y32.485 R1.364
G1 X-3.01
G2 X-4.374 Y33.849 R1.364
X-3.01 Y35.213 R1.364
G1 X155.41
G3 X156.774 Y36.576 R1.364
X155.41 Y37.94 R1.364
G1 X-3.01
G2 X-4.374 Y39.304 R1.364
X-3.01 Y40.668 R1.364
G1 X155.41
G3 X156.774 Y42.031 R1.364
X155.41 Y43.395 R1.364
G1 X-3.01
G2 X-4.374 Y44.759 R1.364
X-3.01 Y46.123 R1.364
G1 X155.41
G3 X156.774 Y47.486 R1.364
X155.41 Y48.85 R1.364
G1 X-3.01
G2 X-4.374 Y50.214 R1.364
X-3.01 Y51.577 R1.364
G1 X155.41
G3 X156.774 Y52.941 R1.364
X155.41 Y54.305 R1.364
G1 X-3.01
G2 X-4.374 Y55.669 R1.364
X-3.01 Y57.032 R1.364
G1 X155.41
G3 X156.774 Y58.396 R1.364
X155.41 Y59.76 R1.364
G1 X-3.01
G2 X-4.374 Y61.124 R1.364
X-3.01 Y62.487 R1.364
G1 X155.41
G3 X156.774 Y63.851 R1.364
X155.41 Y65.215 R1.364
G1 X-3.01
G2 X-4.374 Y66.579 R1.364
X-3.01 Y67.942 R1.364
G1 X155.41
G3 X156.774 Y69.306 R1.364
X155.41 Y70.67 R1.364
G1 X-3.01
G2 X-4.374 Y72.034 R1.364
X-3.01 Y73.397 R1.364
G1 X155.41
G3 X156.774 Y74.761 R1.364
X155.41 Y76.125 R1.364
G1 X-3.01
G2 X-4.374 Y77.488 R1.364
X-3.01 Y78.852 R1.364
G1 X155.41
G3 X156.774 Y80.216 R1.364
X155.41 Y81.58 R1.364
G1 X-3.01
G2 X-4.374 Y82.943 R1.364
X-3.01 Y84.307 R1.364
G1 X155.41
G3 X156.774 Y85.671 R1.364
X155.41 Y87.035 R1.364
G1 X-3.01
G2 X-4.374 Y88.398 R1.364
X-3.01 Y89.762 R1.364
G1 X155.41
G3 X156.774 Y91.126 R1.364
X155.41 Y92.49 R1.364
G1 X-3.01
G2 X-4.374 Y93.853 R1.364
X-3.01 Y95.217 R1.364
G1 X155.41
G3 X156.774 Y96.581 R1.364
X155.41 Y97.945 R1.364
G1 X-3.01
G2 X-4.374 Y99.308 R1.364
X-3.01 Y100.672 R1.364
G1 X155.41
X155.488 Z-0.492
X155.563 Z-0.47
X155.632 Z-0.433
X155.693 Z-0.383
X155.743 Z-0.322
X155.78 Z-0.253
X155.802 Z-0.178
X155.81 Z-0.1
G0 Z5.
X155.987 Y-0.245
G1 Z-0.6 F380.
X155.979 Z-0.678 F1500.
X155.957 Z-0.753
X155.92 Z-0.822
X155.87 Z-0.883
X155.809 Z-0.933
X155.74 Z-0.97
X155.665 Z-0.992
X155.587 Z-1.
X155.41
X-3.01
G2 X-4.374 Y1.119 R1.364
X-3.01 Y2.483 R1.364
G1 X155.41
G3 X156.774 Y3.847 R1.364
X155.41 Y5.21 R1.364
G1 X-3.01
G2 X-4.374 Y6.574 R1.364
X-3.01 Y7.938 R1.364
G1 X155.41
G3 X156.774 Y9.302 R1.364
X155.41 Y10.665 R1.364
G1 X-3.01
G2 X-4.374 Y12.029 R1.364
X-3.01 Y13.393 R1.364
G1 X155.41
G3 X156.774 Y14.757 R1.364
X155.41 Y16.12 R1.364
G1 X-3.01
G2 X-4.374 Y17.484 R1.364
X-3.01 Y18.848 R1.364
G1 X155.41
G3 X156.774 Y20.212 R1.364
X155.41 Y21.575 R1.364
G1 X-3.01
G2 X-4.374 Y22.939 R1.364
X-3.01 Y24.303 R1.364
G1 X155.41
G3 X156.774 Y25.666 R1.364
X155.41 Y27.03 R1.364
G1 X-3.01
G2 X-4.374 Y28.394 R1.364
X-3.01 Y29.758 R1.364
G1 X155.41
G3 X156.774 Y31.121 R1.364
X155.41 Y32.485 R1.364
G1 X-3.01
G2 X-4.374 Y33.849 R1.364
X-3.01 Y35.213 R1.364
G1 X155.41
G3 X156.774 Y36.576 R1.364
X155.41 Y37.94 R1.364
G1 X-3.01
G2 X-4.374 Y39.304 R1.364
X-3.01 Y40.668 R1.364
G1 X155.41
G3 X156.774 Y42.031 R1.364
X155.41 Y43.395 R1.364
G1 X-3.01
G2 X-4.374 Y44.759 R1.364
X-3.01 Y46.123 R1.364
G1 X155.41
G3 X156.774 Y47.486 R1.364
X155.41 Y48.85 R1.364
G1 X-3.01
G2 X-4.374 Y50.214 R1.364
X-3.01 Y51.577 R1.364
G1 X155.41
G3 X156.774 Y52.941 R1.364
X155.41 Y54.305 R1.364
G1 X-3.01
G2 X-4.374 Y55.669 R1.364
X-3.01 Y57.032 R1.364
G1 X155.41
G3 X156.774 Y58.396 R1.364
X155.41 Y59.76 R1.364
G1 X-3.01
G2 X-4.374 Y61.124 R1.364
X-3.01 Y62.487 R1.364
G1 X155.41
G3 X156.774 Y63.851 R1.364
X155.41 Y65.215 R1.364
G1 X-3.01
G2 X-4.374 Y66.579 R1.364
X-3.01 Y67.942 R1.364
G1 X155.41
G3 X156.774 Y69.306 R1.364
X155.41 Y70.67 R1.364
G1 X-3.01
G2 X-4.374 Y72.034 R1.364
X-3.01 Y73.397 R1.364
G1 X155.41
G3 X156.774 Y74.761 R1.364
X155.41 Y76.125 R1.364
G1 X-3.01
G2 X-4.374 Y77.488 R1.364
X-3.01 Y78.852 R1.364
G1 X155.41
G3 X156.774 Y80.216 R1.364
X155.41 Y81.58 R1.364
G1 X-3.01
G2 X-4.374 Y82.943 R1.364
X-3.01 Y84.307 R1.364
G1 X155.41
G3 X156.774 Y85.671 R1.364
X155.41 Y87.035 R1.364
G1 X-3.01
G2 X-4.374 Y88.398 R1.364
X-3.01 Y89.762 R1.364
G1 X155.41
G3 X156.774 Y91.126 R1.364
X155.41 Y92.49 R1.364
G1 X-3.01
G2 X-4.374 Y93.853 R1.364
X-3.01 Y95.217 R1.364
G1 X155.41
G3 X156.774 Y96.581 R1.364
X155.41 Y97.945 R1.364
G1 X-3.01
G2 X-4.374 Y99.308 R1.364
X-3.01 Y100.672 R1.364
G1 X155.41
X155.488 Z-0.992
X155.563 Z-0.97
X155.632 Z-0.933
X155.693 Z-0.883
X155.743 Z-0.822
X155.78 Z-0.753
X155.802 Z-0.678
X155.81 Z-0.6
G0 Z5.
X155.987 Y-0.245
G1 Z-1.1 F380.
X155.979 Z-1.178 F1500.
X155.957 Z-1.253
X155.92 Z-1.322
X155.87 Z-1.383
X155.809 Z-1.433
X155.74 Z-1.47
X155.665 Z-1.492
X155.587 Z-1.5
X155.41
X-3.01
G2 X-4.374 Y1.119 R1.364
X-3.01 Y2.483 R1.364
G1 X155.41
G3 X156.774 Y3.847 R1.364
X155.41 Y5.21 R1.364
G1 X-3.01
G2 X-4.374 Y6.574 R1.364
X-3.01 Y7.938 R1.364
G1 X155.41
G3 X156.774 Y9.302 R1.364
X155.41 Y10.665 R1.364
G1 X-3.01
G2 X-4.374 Y12.029 R1.364
X-3.01 Y13.393 R1.364
G1 X155.41
G3 X156.774 Y14.757 R1.364
X155.41 Y16.12 R1.364
G1 X-3.01
G2 X-4.374 Y17.484 R1.364
X-3.01 Y18.848 R1.364
G1 X155.41
G3 X156.774 Y20.212 R1.364
X155.41 Y21.575 R1.364
G1 X-3.01
G2 X-4.374 Y22.939 R1.364
X-3.01 Y24.303 R1.364
G1 X155.41
G3 X156.774 Y25.666 R1.364
X155.41 Y27.03 R1.364
G1 X-3.01
G2 X-4.374 Y28.394 R1.364
X-3.01 Y29.758 R1.364
G1 X155.41
G3 X156.774 Y31.121 R1.364
X155.41 Y32.485 R1.364
G1 X-3.01
G2 X-4.374 Y33.849 R1.364
X-3.01 Y35.213 R1.364
G1 X155.41
G3 X156.774 Y36.576 R1.364
X155.41 Y37.94 R1.364
G1 X-3.01
G2 X-4.374 Y39.304 R1.364
X-3.01 Y40.668 R1.364
G1 X155.41
G3 X156.774 Y42.031 R1.364
X155.41 Y43.395 R1.364
G1 X-3.01
G2 X-4.374 Y44.759 R1.364
X-3.01 Y46.123 R1.364
G1 X155.41
G3 X156.774 Y47.486 R1.364
X155.41 Y48.85 R1.364
G1 X-3.01
G2 X-4.374 Y50.214 R1.364
X-3.01 Y51.577 R1.364
G1 X155.41
G3 X156.774 Y52.941 R1.364
X155.41 Y54.305 R1.364
G1 X-3.01
G2 X-4.374 Y55.669 R1.364
X-3.01 Y57.032 R1.364
G1 X155.41
G3 X156.774 Y58.396 R1.364
X155.41 Y59.76 R1.364
G1 X-3.01
G2 X-4.374 Y61.124 R1.364
X-3.01 Y62.487 R1.364
G1 X155.41
G3 X156.774 Y63.851 R1.364
X155.41 Y65.215 R1.364
G1 X-3.01
G2 X-4.374 Y66.579 R1.364
X-3.01 Y67.942 R1.364
G1 X155.41
G3 X156.774 Y69.306 R1.364
X155.41 Y70.67 R1.364
G1 X-3.01
G2 X-4.374 Y72.034 R1.364
X-3.01 Y73.397 R1.364
G1 X155.41
G3 X156.774 Y74.761 R1.364
X155.41 Y76.125 R1.364
G1 X-3.01
G2 X-4.374 Y77.488 R1.364
X-3.01 Y78.852 R1.364
G1 X155.41
G3 X156.774 Y80.216 R1.364
X155.41 Y81.58 R1.364
G1 X-3.01
G2 X-4.374 Y82.943 R1.364
X-3.01 Y84.307 R1.364
G1 X155.41
G3 X156.774 Y85.671 R1.364
X155.41 Y87.035 R1.364
G1 X-3.01
G2 X-4.374 Y88.398 R1.364
X-3.01 Y89.762 R1.364
G1 X155.41
G3 X156.774 Y91.126 R1.364
X155.41 Y92.49 R1.364
G1 X-3.01
G2 X-4.374 Y93.853 R1.364
X-3.01 Y95.217 R1.364
G1 X155.41
G3 X156.774 Y96.581 R1.364
X155.41 Y97.945 R1.364
G1 X-3.01
G2 X-4.374 Y99.308 R1.364
X-3.01 Y100.672 R1.364
G1 X155.41
X155.488 Z-1.492
X155.563 Z-1.47
X155.632 Z-1.433
X155.693 Z-1.383
X155.743 Z-1.322
X155.78 Z-1.253
X155.802 Z-1.178
X155.81 Z-1.1
G0 Z5.
X155.987 Y-0.245
G1 Z-1.6 F380.
X155.979 Z-1.678 F1500.
X155.957 Z-1.753
X155.92 Z-1.822
X155.87 Z-1.883
X155.809 Z-1.933
X155.74 Z-1.97
X155.665 Z-1.992
X155.587 Z-2.
X155.41
X-3.01
G2 X-4.374 Y1.119 R1.364
X-3.01 Y2.483 R1.364
G1 X155.41
G3 X156.774 Y3.847 R1.364
X155.41 Y5.21 R1.364
G1 X-3.01
G2 X-4.374 Y6.574 R1.364
X-3.01 Y7.938 R1.364
G1 X155.41
G3 X156.774 Y9.302 R1.364
X155.41 Y10.665 R1.364
G1 X-3.01
G2 X-4.374 Y12.029 R1.364
X-3.01 Y13.393 R1.364
G1 X155.41
G3 X156.774 Y14.757 R1.364
X155.41 Y16.12 R1.364
G1 X-3.01
G2 X-4.374 Y17.484 R1.364
X-3.01 Y18.848 R1.364
G1 X155.41
G3 X156.774 Y20.212 R1.364
X155.41 Y21.575 R1.364
G1 X-3.01
G2 X-4.374 Y22.939 R1.364
X-3.01 Y24.303 R1.364
G1 X155.41
G3 X156.774 Y25.666 R1.364
X155.41 Y27.03 R1.364
G1 X-3.01
G2 X-4.374 Y28.394 R1.364
X-3.01 Y29.758 R1.364
G1 X155.41
G3 X156.774 Y31.121 R1.364
X155.41 Y32.485 R1.364
G1 X-3.01
G2 X-4.374 Y33.849 R1.364
X-3.01 Y35.213 R1.364
G1 X155.41
G3 X156.774 Y36.576 R1.364
X155.41 Y37.94 R1.364
G1 X-3.01
G2 X-4.374 Y39.304 R1.364
X-3.01 Y40.668 R1.364
G1 X155.41
G3 X156.774 Y42.031 R1.364
X155.41 Y43.395 R1.364
G1 X-3.01
G2 X-4.374 Y44.759 R1.364
X-3.01 Y46.123 R1.364
G1 X155.41
G3 X156.774 Y47.486 R1.364
X155.41 Y48.85 R1.364
G1 X-3.01
G2 X-4.374 Y50.214 R1.364
X-3.01 Y51.577 R1.364
G1 X155.41
G3 X156.774 Y52.941 R1.364
X155.41 Y54.305 R1.364
G1 X-3.01
G2 X-4.374 Y55.669 R1.364
X-3.01 Y57.032 R1.364
G1 X155.41
G3 X156.774 Y58.396 R1.364
X155.41 Y59.76 R1.364
G1 X-3.01
G2 X-4.374 Y61.124 R1.364
X-3.01 Y62.487 R1.364
G1 X155.41
G3 X156.774 Y63.851 R1.364
X155.41 Y65.215 R1.364
G1 X-3.01
G2 X-4.374 Y66.579 R1.364
X-3.01 Y67.942 R1.364
G1 X155.41
G3 X156.774 Y69.306 R1.364
X155.41 Y70.67 R1.364
G1 X-3.01
G2 X-4.374 Y72.034 R1.364
X-3.01 Y73.397 R1.364
G1 X155.41
G3 X156.774 Y74.761 R1.364
X155.41 Y76.125 R1.364
G1 X-3.01
G2 X-4.374 Y77.488 R1.364
X-3.01 Y78.852 R1.364
G1 X155.41
G3 X156.774 Y80.216 R1.364
X155.41 Y81.58 R1.364
G1 X-3.01
G2 X-4.374 Y82.943 R1.364
X-3.01 Y84.307 R1.364
G1 X155.41
G3 X156.774 Y85.671 R1.364
X155.41 Y87.035 R1.364
G1 X-3.01
G2 X-4.374 Y88.398 R1.364
X-3.01 Y89.762 R1.364
G1 X155.41
G3 X156.774 Y91.126 R1.364
X155.41 Y92.49 R1.364
G1 X-3.01
G2 X-4.374 Y93.853 R1.364
X-3.01 Y95.217 R1.364
G1 X155.41
G3 X156.774 Y96.581 R1.364
X155.41 Y97.945 R1.364
G1 X-3.01
G2 X-4.374 Y99.308 R1.364
X-3.01 Y100.672 R1.364
G1 X155.41
X155.488 Z-1.992
X155.563 Z-1.97
X155.632 Z-1.933
X155.693 Z-1.883
X155.743 Z-1.822
X155.78 Z-1.753
X155.802 Z-1.678
X155.81 Z-1.6
G0 Z5.
X155.987 Y-0.245
G1 Z-2.1 F380.
X155.979 Z-2.178 F1500.
X155.957 Z-2.253
X155.92 Z-2.322
X155.87 Z-2.383
X155.809 Z-2.433
X155.74 Z-2.47
X155.665 Z-2.492
X155.587 Z-2.5
X155.41
X-3.01
G2 X-4.374 Y1.119 R1.364
X-3.01 Y2.483 R1.364
G1 X155.41
G3 X156.774 Y3.847 R1.364
X155.41 Y5.21 R1.364
G1 X-3.01
G2 X-4.374 Y6.574 R1.364
X-3.01 Y7.938 R1.364
G1 X155.41
G3 X156.774 Y9.302 R1.364
X155.41 Y10.665 R1.364
G1 X-3.01
G2 X-4.374 Y12.029 R1.364
X-3.01 Y13.393 R1.364
G1 X155.41
G3 X156.774 Y14.757 R1.364
X155.41 Y16.12 R1.364
G1 X-3.01
G2 X-4.374 Y17.484 R1.364
X-3.01 Y18.848 R1.364
G1 X155.41
G3 X156.774 Y20.212 R1.364
X155.41 Y21.575 R1.364
G1 X-3.01
G2 X-4.374 Y22.939 R1.364
X-3.01 Y24.303 R1.364
G1 X155.41
G3 X156.774 Y25.666 R1.364
X155.41 Y27.03 R1.364
G1 X-3.01
G2 X-4.374 Y28.394 R1.364
X-3.01 Y29.758 R1.364
G1 X155.41
G3 X156.774 Y31.121 R1.364
X155.41 Y32.485 R1.364
G1 X-3.01
G2 X-4.374 Y33.849 R1.364
X-3.01 Y35.213 R1.364
G1 X155.41
G3 X156.774 Y36.576 R1.364
X155.41 Y37.94 R1.364
G1 X-3.01
G2 X-4.374 Y39.304 R1.364
X-3.01 Y40.668 R1.364
G1 X155.41
G3 X156.774 Y42.031 R1.364
X155.41 Y43.395 R1.364
G1 X-3.01
G2 X-4.374 Y44.759 R1.364
X-3.01 Y46.123 R1.364
G1 X155.41
G3 X156.774 Y47.486 R1.364
X155.41 Y48.85 R1.364
G1 X-3.01
G2 X-4.374 Y50.214 R1.364
X-3.01 Y51.577 R1.364
G1 X155.41
G3 X156.774 Y52.941 R1.364
X155.41 Y54.305 R1.364
G1 X-3.01
G2 X-4.374 Y55.669 R1.364
X-3.01 Y57.032 R1.364
G1 X155.41
G3 X156.774 Y58.396 R1.364
X155.41 Y59.76 R1.364
G1 X-3.01
G2 X-4.374 Y61.124 R1.364
X-3.01 Y62.487 R1.364
G1 X155.41
G3 X156.774 Y63.851 R1.364
X155.41 Y65.215 R1.364
G1 X-3.01
G2 X-4.374 Y66.579 R1.364
X-3.01 Y67.942 R1.364
G1 X155.41
G3 X156.774 Y69.306 R1.364
X155.41 Y70.67 R1.364
G1 X-3.01
G2 X-4.374 Y72.034 R1.364
X-3.01 Y73.397 R1.364
G1 X155.41
G3 X156.774 Y74.761 R1.364
X155.41 Y76.125 R1.364
G1 X-3.01
G2 X-4.374 Y77.488 R1.364
X-3.01 Y78.852 R1.364
G1 X155.41
G3 X156.774 Y80.216 R1.364
X155.41 Y81.58 R1.364
G1 X-3.01
G2 X-4.374 Y82.943 R1.364
X-3.01 Y84.307 R1.364
G1 X155.41
G3 X156.774 Y85.671 R1.364
X155.41 Y87.035 R1.364
G1 X-3.01
G2 X-4.374 Y88.398 R1.364
X-3.01 Y89.762 R1.364
G1 X155.41
G3 X156.774 Y91.126 R1.364
X155.41 Y92.49 R1.364
G1 X-3.01
G2 X-4.374 Y93.853 R1.364
X-3.01 Y95.217 R1.364
G1 X155.41
G3 X156.774 Y96.581 R1.364
X155.41 Y97.945 R1.364
G1 X-3.01
G2 X-4.374 Y99.308 R1.364
X-3.01 Y100.672 R1.364
G1 X155.41
X155.488 Z-2.492
X155.563 Z-2.47
X155.632 Z-2.433
X155.693 Z-2.383
X155.743 Z-2.322
X155.78 Z-2.253
X155.802 Z-2.178
X155.81 Z-2.1
G0 Z5.
X155.987 Y-0.245
G1 Z-2.6 F380.
X155.979 Z-2.678 F1500.
X155.957 Z-2.753
X155.92 Z-2.822
X155.87 Z-2.883
X155.809 Z-2.933
X155.74 Z-2.97
X155.665 Z-2.992
X155.587 Z-3.
X155.41
X-3.01
G2 X-4.374 Y1.119 R1.364
X-3.01 Y2.483 R1.364
G1 X155.41
G3 X156.774 Y3.847 R1.364
X155.41 Y5.21 R1.364
G1 X-3.01
G2 X-4.374 Y6.574 R1.364
X-3.01 Y7.938 R1.364
G1 X155.41
G3 X156.774 Y9.302 R1.364
X155.41 Y10.665 R1.364
G1 X-3.01
G2 X-4.374 Y12.029 R1.364
X-3.01 Y13.393 R1.364
G1 X155.41
G3 X156.774 Y14.757 R1.364
X155.41 Y16.12 R1.364
G1 X-3.01
G2 X-4.374 Y17.484 R1.364
X-3.01 Y18.848 R1.364
G1 X155.41
G3 X156.774 Y20.212 R1.364
X155.41 Y21.575 R1.364
G1 X-3.01
G2 X-4.374 Y22.939 R1.364
X-3.01 Y24.303 R1.364
G1 X155.41
G3 X156.774 Y25.666 R1.364
X155.41 Y27.03 R1.364
G1 X-3.01
G2 X-4.374 Y28.394 R1.364
X-3.01 Y29.758 R1.364
G1 X155.41
G3 X156.774 Y31.121 R1.364
X155.41 Y32.485 R1.364
G1 X-3.01
G2 X-4.374 Y33.849 R1.364
X-3.01 Y35.213 R1.364
G1 X155.41
G3 X156.774 Y36.576 R1.364
X155.41 Y37.94 R1.364
G1 X-3.01
G2 X-4.374 Y39.304 R1.364
X-3.01 Y40.668 R1.364
G1 X155.41
G3 X156.774 Y42.031 R1.364
X155.41 Y43.395 R1.364
G1 X-3.01
G2 X-4.374 Y44.759 R1.364
X-3.01 Y46.123 R1.364
G1 X155.41
G3 X156.774 Y47.486 R1.364
X155.41 Y48.85 R1.364
G1 X-3.01
G2 X-4.374 Y50.214 R1.364
X-3.01 Y51.577 R1.364
G1 X155.41
G3 X156.774 Y52.941 R1.364
X155.41 Y54.305 R1.364
G1 X-3.01
G2 X-4.374 Y55.669 R1.364
X-3.01 Y57.032 R1.364
G1 X155.41
G3 X156.774 Y58.396 R1.364
X155.41 Y59.76 R1.364
G1 X-3.01
G2 X-4.374 Y61.124 R1.364
X-3.01 Y62.487 R1.364
G1 X155.41
G3 X156.774 Y63.851 R1.364
X155.41 Y65.215 R1.364
G1 X-3.01
G2 X-4.374 Y66.579 R1.364
X-3.01 Y67.942 R1.364
G1 X155.41
G3 X156.774 Y69.306 R1.364
X155.41 Y70.67 R1.364
G1 X-3.01
G2 X-4.374 Y72.034 R1.364
X-3.01 Y73.397 R1.364
G1 X155.41
G3 X156.774 Y74.761 R1.364
X155.41 Y76.125 R1.364
G1 X-3.01
G2 X-4.374 Y77.488 R1.364
X-3.01 Y78.852 R1.364
G1 X155.41
G3 X156.774 Y80.216 R1.364
X155.41 Y81.58 R1.364
G1 X-3.01
G2 X-4.374 Y82.943 R1.364
X-3.01 Y84.307 R1.364
G1 X155.41
G3 X156.774 Y85.671 R1.364
X155.41 Y87.035 R1.364
G1 X-3.01
G2 X-4.374 Y88.398 R1.364
X-3.01 Y89.762 R1.364
G1 X155.41
G3 X156.774 Y91.126 R1.364
X155.41 Y92.49 R1.364
G1 X-3.01
G2 X-4.374 Y93.853 R1.364
X-3.01 Y95.217 R1.364
G1 X155.41
G3 X156.774 Y96.581 R1.364
X155.41 Y97.945 R1.364
G1 X-3.01
G2 X-4.374 Y99.308 R1.364
X-3.01 Y100.672 R1.364
G1 X155.41
X155.488 Z-2.992
X155.563 Z-2.97
X155.632 Z-2.933
X155.693 Z-2.883
X155.743 Z-2.822
X155.78 Z-2.753
X155.802 Z-2.678
X155.81 Z-2.6
G0 Z5.
X155.987 Y-0.245
G1 Z-3.1 F380.
X155.979 Z-3.178 F1500.
X155.957 Z-3.253
X155.92 Z-3.322
X155.87 Z-3.383
X155.809 Z-3.433
X155.74 Z-3.47
X155.665 Z-3.492
X155.587 Z-3.5
X155.41
X-3.01
G2 X-4.374 Y1.119 R1.364
X-3.01 Y2.483 R1.364
G1 X155.41
G3 X156.774 Y3.847 R1.364
X155.41 Y5.21 R1.364
G1 X-3.01
G2 X-4.374 Y6.574 R1.364
X-3.01 Y7.938 R1.364
G1 X155.41
G3 X156.774 Y9.302 R1.364
X155.41 Y10.665 R1.364
G1 X-3.01
G2 X-4.374 Y12.029 R1.364
X-3.01 Y13.393 R1.364
G1 X155.41
G3 X156.774 Y14.757 R1.364
X155.41 Y16.12 R1.364
G1 X-3.01
G2 X-4.374 Y17.484 R1.364
X-3.01 Y18.848 R1.364
G1 X155.41
G3 X156.774 Y20.212 R1.364
X155.41 Y21.575 R1.364
G1 X-3.01
G2 X-4.374 Y22.939 R1.364
X-3.01 Y24.303 R1.364
G1 X155.41
G3 X156.774 Y25.666 R1.364
X155.41 Y27.03 R1.364
G1 X-3.01
G2 X-4.374 Y28.394 R1.364
X-3.01 Y29.758 R1.364
G1 X155.41
G3 X156.774 Y31.121 R1.364
X155.41 Y32.485 R1.364
G1 X-3.01
G2 X-4.374 Y33.849 R1.364
X-3.01 Y35.213 R1.364
G1 X155.41
G3 X156.774 Y36.576 R1.364
X155.41 Y37.94 R1.364
G1 X-3.01
G2 X-4.374 Y39.304 R1.364
X-3.01 Y40.668 R1.364
G1 X155.41
G3 X156.774 Y42.031 R1.364
X155.41 Y43.395 R1.364
G1 X-3.01
G2 X-4.374 Y44.759 R1.364
X-3.01 Y46.123 R1.364
G1 X155.41
G3 X156.774 Y47.486 R1.364
X155.41 Y48.85 R1.364
G1 X-3.01
G2 X-4.374 Y50.214 R1.364
X-3.01 Y51.577 R1.364
G1 X155.41
G3 X156.774 Y52.941 R1.364
X155.41 Y54.305 R1.364
G1 X-3.01
G2 X-4.374 Y55.669 R1.364
X-3.01 Y57.032 R1.364
G1 X155.41
G3 X156.774 Y58.396 R1.364
X155.41 Y59.76 R1.364
G1 X-3.01
G2 X-4.374 Y61.124 R1.364
X-3.01 Y62.487 R1.364
G1 X155.41
G3 X156.774 Y63.851 R1.364
X155.41 Y65.215 R1.364
G1 X-3.01
G2 X-4.374 Y66.579 R1.364
X-3.01 Y67.942 R1.364
G1 X155.41
G3 X156.774 Y69.306 R1.364
X155.41 Y70.67 R1.364
G1 X-3.01
G2 X-4.374 Y72.034 R1.364
X-3.01 Y73.397 R1.364
G1 X155.41
G3 X156.774 Y74.761 R1.364
X155.41 Y76.125 R1.364
G1 X-3.01
G2 X-4.374 Y77.488 R1.364
X-3.01 Y78.852 R1.364
G1 X155.41
G3 X156.774 Y80.216 R1.364
X155.41 Y81.58 R1.364
G1 X-3.01
G2 X-4.374 Y82.943 R1.364
X-3.01 Y84.307 R1.364
G1 X155.41
G3 X156.774 Y85.671 R1.364
X155.41 Y87.035 R1.364
G1 X-3.01
G2 X-4.374 Y88.398 R1.364
X-3.01 Y89.762 R1.364
G1 X155.41
G3 X156.774 Y91.126 R1.364
X155.41 Y92.49 R1.364
G1 X-3.01
G2 X-4.374 Y93.853 R1.364
X-3.01 Y95.217 R1.364
G1 X155.41
G3 X156.774 Y96.581 R1.364
X155.41 Y97.945 R1.364
G1 X-3.01
G2 X-4.374 Y99.308 R1.364
X-3.01 Y100.672 R1.364
G1 X155.41
X155.488 Z-3.492
X155.563 Z-3.47
X155.632 Z-3.433
X155.693 Z-3.383
X155.743 Z-3.322
X155.78 Z-3.253
X155.802 Z-3.178
X155.81 Z-3.1
G0 Z5.
X155.987 Y-0.245
G1 Z-3.6 F380.
X155.979 Z-3.678 F1500.
X155.957 Z-3.753
X155.92 Z-3.822
X155.87 Z-3.883
X155.809 Z-3.933
X155.74 Z-3.97
X155.665 Z-3.992
X155.587 Z-4.
X155.41
X-3.01
G2 X-4.374 Y1.119 R1.364
X-3.01 Y2.483 R1.364
G1 X155.41
G3 X156.774 Y3.847 R1.364
X155.41 Y5.21 R1.364
G1 X-3.01
G2 X-4.374 Y6.574 R1.364
X-3.01 Y7.938 R1.364
G1 X155.41
G3 X156.774 Y9.302 R1.364
X155.41 Y10.665 R1.364
G1 X-3.01
G2 X-4.374 Y12.029 R1.364
X-3.01 Y13.393 R1.364
G1 X155.41
G3 X156.774 Y14.757 R1.364
X155.41 Y16.12 R1.364
G1 X-3.01
G2 X-4.374 Y17.484 R1.364
X-3.01 Y18.848 R1.364
G1 X155.41
G3 X156.774 Y20.212 R1.364
X155.41 Y21.575 R1.364
G1 X-3.01
G2 X-4.374 Y22.939 R1.364
X-3.01 Y24.303 R1.364
G1 X155.41
G3 X156.774 Y25.666 R1.364
X155.41 Y27.03 R1.364
G1 X-3.01
G2 X-4.374 Y28.394 R1.364
X-3.01 Y29.758 R1.364
G1 X155.41
G3 X156.774 Y31.121 R1.364
X155.41 Y32.485 R1.364
G1 X-3.01
G2 X-4.374 Y33.849 R1.364
X-3.01 Y35.213 R1.364
G1 X155.41
G3 X156.774 Y36.576 R1.364
X155.41 Y37.94 R1.364
G1 X-3.01
G2 X-4.374 Y39.304 R1.364
X-3.01 Y40.668 R1.364
G1 X155.41
G3 X156.774 Y42.031 R1.364
X155.41 Y43.395 R1.364
G1 X-3.01
G2 X-4.374 Y44.759 R1.364
X-3.01 Y46.123 R1.364
G1 X155.41
G3 X156.774 Y47.486 R1.364
X155.41 Y48.85 R1.364
G1 X-3.01
G2 X-4.374 Y50.214 R1.364
X-3.01 Y51.577 R1.364
G1 X155.41
G3 X156.774 Y52.941 R1.364
X155.41 Y54.305 R1.364
G1 X-3.01
G2 X-4.374 Y55.669 R1.364
X-3.01 Y57.032 R1.364
G1 X155.41
G3 X156.774 Y58.396 R1.364
X155.41 Y59.76 R1.364
G1 X-3.01
G2 X-4.374 Y61.124 R1.364
X-3.01 Y62.487 R1.364
G1 X155.41
G3 X156.774 Y63.851 R1.364
X155.41 Y65.215 R1.364
G1 X-3.01
G2 X-4.374 Y66.579 R1.364
X-3.01 Y67.942 R1.364
G1 X155.41
G3 X156.774 Y69.306 R1.364
X155.41 Y70.67 R1.364
G1 X-3.01
G2 X-4.374 Y72.034 R1.364
X-3.01 Y73.397 R1.364
G1 X155.41
G3 X156.774 Y74.761 R1.364
X155.41 Y76.125 R1.364
G1 X-3.01
G2 X-4.374 Y77.488 R1.364
X-3.01 Y78.852 R1.364
G1 X155.41
G3 X156.774 Y80.216 R1.364
X155.41 Y81.58 R1.364
G1 X-3.01
G2 X-4.374 Y82.943 R1.364
X-3.01 Y84.307 R1.364
G1 X155.41
G3 X156.774 Y85.671 R1.364
X155.41 Y87.035 R1.364
G1 X-3.01
G2 X-4.374 Y88.398 R1.364
X-3.01 Y89.762 R1.364
G1 X155.41
G3 X156.774 Y91.126 R1.364
X155.41 Y92.49 R1.364
G1 X-3.01
G2 X-4.374 Y93.853 R1.364
X-3.01 Y95.217 R1.364
G1 X155.41
G3 X156.774 Y96.581 R1.364
X155.41 Y97.945 R1.364
G1 X-3.01
G2 X-4.374 Y99.308 R1.364
X-3.01 Y100.672 R1.364
G1 X155.41
X155.488 Z-3.992
X155.563 Z-3.97
X155.632 Z-3.933
X155.693 Z-3.883
X155.743 Z-3.822
X155.78 Z-3.753
X155.802 Z-3.678
X155.81 Z-3.6
G0 Z5.
X155.987 Y-0.245
G1 Z-4.1 F380.
X155.979 Z-4.178 F1500.
X155.957 Z-4.253
X155.92 Z-4.322
X155.87 Z-4.383
X155.809 Z-4.433
X155.74 Z-4.47
X155.665 Z-4.492
X155.587 Z-4.5
X155.41
X-3.01
G2 X-4.374 Y1.119 R1.364
X-3.01 Y2.483 R1.364
G1 X155.41
G3 X156.774 Y3.847 R1.364
X155.41 Y5.21 R1.364
G1 X-3.01
G2 X-4.374 Y6.574 R1.364
X-3.01 Y7.938 R1.364
G1 X155.41
G3 X156.774 Y9.302 R1.364
X155.41 Y10.665 R1.364
G1 X-3.01
G2 X-4.374 Y12.029 R1.364
X-3.01 Y13.393 R1.364
G1 X155.41
G3 X156.774 Y14.757 R1.364
X155.41 Y16.12 R1.364
G1 X-3.01
G2 X-4.374 Y17.484 R1.364
X-3.01 Y18.848 R1.364
G1 X155.41
G3 X156.774 Y20.212 R1.364
X155.41 Y21.575 R1.364
G1 X-3.01
G2 X-4.374 Y22.939 R1.364
X-3.01 Y24.303 R1.364
G1 X155.41
G3 X156.774 Y25.666 R1.364
X155.41 Y27.03 R1.364
G1 X-3.01
G2 X-4.374 Y28.394 R1.364
X-3.01 Y29.758 R1.364
G1 X155.41
G3 X156.774 Y31.121 R1.364
X155.41 Y32.485 R1.364
G1 X-3.01
G2 X-4.374 Y33.849 R1.364
X-3.01 Y35.213 R1.364
G1 X155.41
G3 X156.774 Y36.576 R1.364
X155.41 Y37.94 R1.364
G1 X-3.01
G2 X-4.374 Y39.304 R1.364
X-3.01 Y40.668 R1.364
G1 X155.41
G3 X156.774 Y42.031 R1.364
X155.41 Y43.395 R1.364
G1 X-3.01
G2 X-4.374 Y44.759 R1.364
X-3.01 Y46.123 R1.364
G1 X155.41
G3 X156.774 Y47.486 R1.364
X155.41 Y48.85 R1.364
G1 X-3.01
G2 X-4.374 Y50.214 R1.364
X-3.01 Y51.577 R1.364
G1 X155.41
G3 X156.774 Y52.941 R1.364
X155.41 Y54.305 R1.364
G1 X-3.01
G2 X-4.374 Y55.669 R1.364
X-3.01 Y57.032 R1.364
G1 X155.41
G3 X156.774 Y58.396 R1.364
X155.41 Y59.76 R1.364
G1 X-3.01
G2 X-4.374 Y61.124 R1.364
X-3.01 Y62.487 R1.364
G1 X155.41
G3 X156.774 Y63.851 R1.364
X155.41 Y65.215 R1.364
G1 X-3.01
G2 X-4.374 Y66.579 R1.364
X-3.01 Y67.942 R1.364
G1 X155.41
G3 X156.774 Y69.306 R1.364
X155.41 Y70.67 R1.364
G1 X-3.01
G2 X-4.374 Y72.034 R1.364
X-3.01 Y73.397 R1.364
G1 X155.41
G3 X156.774 Y74.761 R1.364
X155.41 Y76.125 R1.364
G1 X-3.01
G2 X-4.374 Y77.488 R1.364
X-3.01 Y78.852 R1.364
G1 X155.41
G3 X156.774 Y80.216 R1.364
X155.41 Y81.58 R1.364
G1 X-3.01
G2 X-4.374 Y82.943 R1.364
X-3.01 Y84.307 R1.364
G1 X155.41
G3 X156.774 Y85.671 R1.364
X155.41 Y87.035 R1.364
G1 X-3.01
G2 X-4.374 Y88.398 R1.364
X-3.01 Y89.762 R1.364
G1 X155.41
G3 X156.774 Y91.126 R1.364
X155.41 Y92.49 R1.364
G1 X-3.01
G2 X-4.374 Y93.853 R1.364
X-3.01 Y95.217 R1.364
G1 X155.41
G3 X156.774 Y96.581 R1.364
X155.41 Y97.945 R1.364
G1 X-3.01
G2 X-4.374 Y99.308 R1.364
X-3.01 Y100.672 R1.364
G1 X155.41
X155.488 Z-4.492
X155.563 Z-4.47
X155.632 Z-4.433
X155.693 Z-4.383
X155.743 Z-4.322
X155.78 Z-4.253
X155.802 Z-4.178
X155.81 Z-4.1
G0 Z15.

(OUTLINE 4MM)
G55
G0 X30.719 Y93.555
Z15.
Z-2.992
G1 Z-3.567 F380.
X30.712 Z-3.645 F1500.
X30.689 Z-3.72
X30.652 Z-3.789
X30.602 Z-3.849
X30.542 Z-3.899
X30.473 Z-3.936
X30.398 Z-3.959
X30.32 Z-3.967
X19.57 Z-3.98
X19.486 Y93.552
X19.403 Y93.541
X19.215 Y93.509
X19.119 Y93.488
X19.026 Y93.458
X18.837 Y93.386 Z-3.981
X18.747 Y93.347
X18.661 Y93.298
X18.497 Y93.195
X18.42 Y93.142
X18.348 Y93.081
X18.185 Y92.929 Z-3.982
X18.159 Y92.904
X12.961 Y87.706 Z-3.991
X12.939 Y87.683
X12.788 Y87.523
X12.729 Y87.454
X12.676 Y87.379
X12.573 Y87.219
X12.523 Y87.133 Z-3.992
X12.483 Y87.044
X12.409 Y86.855
X12.377 Y86.762
X12.355 Y86.666
X12.321 Y86.478
X12.31 Y86.39
X12.306 Y86.301 Z-3.993
Y15.299 Z-4.079
X12.31 Y15.21
X12.321 Y15.122 Z-4.08
X12.355 Y14.934
X12.377 Y14.838
X12.409 Y14.745
X12.483 Y14.557
X12.523 Y14.467
X12.573 Y14.381
X12.676 Y14.221 Z-4.081
X12.729 Y14.146
X12.788 Y14.077
X12.939 Y13.917
X12.961 Y13.894
X18.282 Y8.577 Z-4.09
X18.346 Y8.518 Z-4.091
X18.415 Y8.465
X18.578 Y8.351
X18.659 Y8.3
X18.745 Y8.257
X18.911 Y8.183
X18.999 Y8.148
X19.089 Y8.122 Z-4.092
X19.277 Y8.078
X19.368 Y8.061
X19.459 Y8.052
X19.647 Y8.043
X19.695 Y8.042
X137.163 Y8.046 Z-4.236
X137.252 Y8.05
X137.34 Y8.062
X137.528 Y8.095
X137.614 Y8.115
X138.175 Y8.268 Z-4.237
X138.254 Y8.293
X138.331 Y8.324
X138.515 Y8.409
X138.597 Y8.451 Z-4.238
X138.674 Y8.5
X138.807 Y8.594
X138.875 Y8.647
X138.938 Y8.705
X139.44 Y9.208 Z-4.239
X139.497 Y9.27
X139.549 Y9.337
X139.636 Y9.46
X139.684 Y9.535
X139.725 Y9.614 Z-4.24
X139.812 Y9.798
X139.845 Y9.878
X139.871 Y9.961
X140.04 Y10.584 Z-4.241
X140.056 Y10.654
X140.067 Y10.725
X140.09 Y10.913
X140.097 Y11.034
X140.094 Y90.629 Z-4.339
X140.09 Y90.721
X140.077 Y90.812
X140.042 Y91.
X140.023 Y91.08
X139.87 Y91.641 Z-4.34
X139.844 Y91.723
X139.811 Y91.802
X139.725 Y91.986
X139.682 Y92.068
X139.633 Y92.145 Z-4.341
X139.538 Y92.277
X139.486 Y92.343
X139.43 Y92.404
X138.926 Y92.906 Z-4.342
X138.861 Y92.965
X138.792 Y93.018
X138.669 Y93.103
X138.594 Y93.151
X138.515 Y93.191
X138.331 Y93.276 Z-4.343
X138.253 Y93.308
X138.173 Y93.333
X137.549 Y93.501 Z-4.344
X137.476 Y93.518
X137.403 Y93.529
X137.215 Y93.551
X137.1 Y93.558
X19.57 Y93.555 Z-4.488
X19.486 Y93.552
X19.403 Y93.541
X19.215 Y93.509
X19.119 Y93.488
X19.026 Y93.458
X18.837 Y93.386 Z-4.489
X18.747 Y93.347
X18.661 Y93.298
X18.497 Y93.195
X18.42 Y93.142
X18.348 Y93.081
X18.185 Y92.929 Z-4.49
X18.159 Y92.904
X12.961 Y87.706 Z-4.499
X12.939 Y87.683
X12.788 Y87.523
X12.729 Y87.454
X12.676 Y87.379
X12.573 Y87.219
X12.523 Y87.133 Z-4.5
X12.483 Y87.044
X12.409 Y86.855
X12.377 Y86.762
X12.355 Y86.666
X12.321 Y86.478
X12.31 Y86.39
X12.306 Y86.301 Z-4.501
Y15.299 Z-4.587
X12.31 Y15.21
X12.321 Y15.122 Z-4.588
X12.355 Y14.934
X12.377 Y14.838
X12.409 Y14.745
X12.483 Y14.557
X12.523 Y14.467
X12.573 Y14.381
X12.676 Y14.221 Z-4.589
X12.729 Y14.146
X12.788 Y14.077
X12.939 Y13.917
X12.961 Y13.894
X18.282 Y8.577 Z-4.598
X18.346 Y8.518 Z-4.599
X18.415 Y8.465
X18.578 Y8.351
X18.659 Y8.3
X18.745 Y8.257
X18.911 Y8.183
X18.999 Y8.148
X19.089 Y8.122 Z-4.6
X19.277 Y8.078
X19.368 Y8.061
X19.459 Y8.052
X19.647 Y8.043
X19.695 Y8.042
X137.163 Y8.046 Z-4.744
X137.252 Y8.05
X137.34 Y8.062
X137.528 Y8.095
X137.614 Y8.115
X138.175 Y8.268 Z-4.745
X138.254 Y8.293
X138.331 Y8.324
X138.515 Y8.409
X138.597 Y8.451 Z-4.746
X138.674 Y8.5
X138.807 Y8.594
X138.875 Y8.647
X138.938 Y8.705
X139.44 Y9.208 Z-4.747
X139.497 Y9.27
X139.549 Y9.337
X139.636 Y9.46
X139.684 Y9.535
X139.725 Y9.614 Z-4.748
X139.812 Y9.798
X139.845 Y9.878
X139.871 Y9.961
X140.04 Y10.584 Z-4.749
X140.056 Y10.654
X140.067 Y10.725
X140.09 Y10.913
X140.097 Y11.034
X140.094 Y90.629 Z-4.847
X140.09 Y90.721
X140.077 Y90.812
X140.042 Y91.
X140.023 Y91.08
X139.87 Y91.641 Z-4.848
X139.844 Y91.723
X139.811 Y91.802
X139.725 Y91.986
X139.682 Y92.068
X139.633 Y92.145 Z-4.849
X139.538 Y92.277
X139.486 Y92.343
X139.43 Y92.404
X138.926 Y92.906 Z-4.85
X138.861 Y92.965
X138.792 Y93.018
X138.669 Y93.103
X138.594 Y93.151
X138.515 Y93.191
X138.331 Y93.276 Z-4.851
X138.253 Y93.308
X138.173 Y93.333
X137.549 Y93.501 Z-4.852
X137.476 Y93.518
X137.403 Y93.529
X137.215 Y93.551
X137.1 Y93.558
X19.57 Y93.555 Z-4.996
X19.486 Y93.552
X19.403 Y93.541
X19.215 Y93.509
X19.119 Y93.488
X19.026 Y93.458
X18.837 Y93.386 Z-4.997
X18.747 Y93.347
X18.661 Y93.298
X18.497 Y93.195
X18.42 Y93.142
X18.348 Y93.081
X18.185 Y92.929 Z-4.998
X18.159 Y92.904
X12.961 Y87.706 Z-5.007
X12.939 Y87.683
X12.788 Y87.523
X12.729 Y87.454
X12.676 Y87.379
X12.573 Y87.219
X12.523 Y87.133 Z-5.008
X12.483 Y87.044
X12.409 Y86.855
X12.382 Y86.779
X12.355 Y86.666
X12.321 Y86.478
X12.31 Y86.39
X12.306 Y86.301
Y15.299
X12.31 Y15.21
X12.321 Y15.122
X12.355 Y14.934
X12.377 Y14.838
X12.409 Y14.745
X12.483 Y14.557
X12.523 Y14.467
X12.573 Y14.381
X12.676 Y14.221
X12.729 Y14.146
X12.788 Y14.077
X12.939 Y13.917
X12.961 Y13.894
X18.282 Y8.577
X18.346 Y8.518
X18.415 Y8.465
X18.578 Y8.351
X18.659 Y8.3
X18.745 Y8.257
X18.911 Y8.183
X18.999 Y8.148
X19.089 Y8.122
X19.277 Y8.078
X19.368 Y8.061
X19.459 Y8.052
X19.647 Y8.043
X19.695 Y8.042
X137.163 Y8.046
X137.252 Y8.05
X137.34 Y8.062
X137.528 Y8.095
X137.614 Y8.115
X138.175 Y8.268
X138.254 Y8.293
X138.331 Y8.324
X138.515 Y8.409
X138.597 Y8.451
X138.674 Y8.5
X138.807 Y8.594
X138.875 Y8.647
X138.938 Y8.705
X139.44 Y9.208
X139.497 Y9.27
X139.549 Y9.337
X139.636 Y9.46
X139.684 Y9.535
X139.725 Y9.614
X139.812 Y9.798
X139.845 Y9.878
X139.871 Y9.961
X140.04 Y10.584
X140.056 Y10.654
X140.067 Y10.725
X140.09 Y10.913
X140.097 Y11.034
X140.094 Y90.629
X140.09 Y90.721
X140.077 Y90.812
X140.042 Y91.
X140.023 Y91.08
X139.87 Y91.641
X139.844 Y91.723
X139.811 Y91.802
X139.725 Y91.986
X139.682 Y92.068
X139.633 Y92.145
X139.538 Y92.277
X139.486 Y92.343
X139.43 Y92.404
X138.926 Y92.906
X138.861 Y92.965
X138.792 Y93.018
X138.669 Y93.103
X138.594 Y93.151
X138.515 Y93.191
X138.331 Y93.276
X138.253 Y93.308
X138.173 Y93.333
X137.549 Y93.501
X137.476 Y93.518
X137.403 Y93.529
X137.215 Y93.551
X137.1 Y93.558
X19.57 Y93.555
X19.486 Y93.552
X19.403 Y93.541
X19.215 Y93.509
X19.119 Y93.488
X19.026 Y93.458
X18.837 Y93.386
X18.747 Y93.347
X18.661 Y93.298
X18.497 Y93.195
X18.42 Y93.142
X18.348 Y93.081
X18.185 Y92.929
X18.159 Y92.904
X12.961 Y87.706
X12.939 Y87.683
X12.788 Y87.523
X12.729 Y87.454
X12.676 Y87.379
X12.573 Y87.219
X12.523 Y87.133
X12.483 Y87.044
X12.409 Y86.855
X12.382 Y86.779
G2 X12.28 Y86.658 R0.2
X12.121 Y86.65 R0.2
G1 X10.78 Y87.153
X10.737 Y87.175
X10.7 Y87.207
X10.673 Y87.247
X10.656 Y87.292
X10.65 Y87.34
Y87.738
X18.123 Y95.211
X136.943
X138.068 Y95.084
X139.088 Y94.725
X139.966 Y94.173
X140.706 Y93.433
X140.729 Y93.399
X141.266 Y92.544
X141.335 Y92.36
X141.623 Y91.535
X141.755 Y90.344
X141.75 Y11.188
X141.624 Y10.066
X141.275 Y9.069
X140.712 Y8.174
X139.972 Y7.433
X139.939 Y7.41
X139.088 Y6.875
X138.069 Y6.516
X136.876 Y6.385
X18.123 Y6.389
X10.65 Y13.862
Y87.34
X10.655 Y87.402 Z-4.998
X10.669 Y87.462 Z-4.988
X10.689 Y87.514 Z-4.96
X10.717 Y87.562 Z-4.932
X10.744 Y87.597 Z-4.887
X10.774 Y87.63 Z-4.843
X10.818 Y87.666 Z-4.732
X10.834 Y87.677 Z-4.608
G0 Z5.
X16.622 Y7.889
Z-4.075
G1 X16.617 Y7.895 Z-4.153 F1500.
X16.601 Y7.911 Z-4.228
X16.575 Y7.937 Z-4.297
X16.54 Y7.972 Z-4.357
X16.497 Y8.015 Z-4.407
X16.448 Y8.064 Z-4.444
X16.395 Y8.117 Z-4.467
X16.34 Y8.172 Z-4.475
X10.65 Y13.862 Z-4.484
Y87.738 Z-4.572
X18.123 Y95.211 Z-4.585
X136.943 Z-4.726
X138.068 Y95.084 Z-4.727
X139.088 Y94.725 Z-4.729
X139.966 Y94.173 Z-4.73
X140.706 Y93.433 Z-4.731
X140.729 Y93.399
X141.266 Y92.544 Z-4.732
X141.335 Y92.36 Z-4.733
X141.623 Y91.535 Z-4.734
X141.755 Y90.344 Z-4.735
X141.75 Y11.188 Z-4.829
X141.624 Y10.066 Z-4.831
X141.275 Y9.069 Z-4.832
X140.712 Y8.174 Z-4.833
X139.972 Y7.433 Z-4.834
X139.939 Y7.41
X139.088 Y6.875 Z-4.836
X138.069 Y6.516 Z-4.837
X136.876 Y6.385 Z-4.838
X18.123 Y6.389 Z-4.98
X10.65 Y13.862 Z-4.992
Y87.738 Z-5.08
X18.123 Y95.211 Z-5.093
X136.943 Z-5.234
X138.068 Y95.084 Z-5.235
X139.088 Y94.725 Z-5.237
X139.966 Y94.173 Z-5.238
X140.706 Y93.433 Z-5.239
X140.729 Y93.399
X141.266 Y92.544 Z-5.24
X141.335 Y92.36 Z-5.241
X141.623 Y91.535 Z-5.242
X141.755 Y90.344 Z-5.243
X141.75 Y11.188 Z-5.337
X141.624 Y10.066 Z-5.339
X141.275 Y9.069 Z-5.34
X140.712 Y8.174 Z-5.341
X139.972 Y7.433 Z-5.342
X139.939 Y7.41
X139.088 Y6.875 Z-5.344
X138.069 Y6.516 Z-5.345
X136.876 Y6.385 Z-5.346
X18.123 Y6.389 Z-5.488
X10.753 Y13.758 Z-5.5
X10.65 Y13.862
Y87.738
X18.123 Y95.211
X136.943
X138.068 Y95.084
X139.088 Y94.725
X139.966 Y94.173
X140.706 Y93.433
X140.729 Y93.399
X141.266 Y92.544
X141.335 Y92.36
X141.623 Y91.535
X141.755 Y90.344
X141.75 Y11.188
X141.624 Y10.066
X141.275 Y9.069
X140.712 Y8.174
X139.972 Y7.433
X139.939 Y7.41
X139.088 Y6.875
X138.069 Y6.516
X136.876 Y6.385
X18.123 Y6.389
X10.753 Y13.758
G2 Y14.041 R0.2
X10.812 Y14.082 R0.2
G1 X12.18 Y14.702
G2 X12.338 Y14.705 R0.2
X12.449 Y14.592 R0.2
G1 X12.46 Y14.564
X12.495 Y14.483
X12.537 Y14.405
X12.616 Y14.276
X12.66 Y14.209
X12.71 Y14.145
X12.82 Y14.016
X12.875 Y13.956
X18.267 Y8.567
X18.32 Y8.518
X18.377 Y8.472
X18.509 Y8.374
X18.577 Y8.327
X18.65 Y8.286
X18.8 Y8.209
X18.884 Y8.172
X18.97 Y8.141
X19.158 Y8.085
X19.237 Y8.065
X19.317 Y8.052
X19.442 Y8.036
X19.506 Y8.03
X19.57 Y8.028
X137.163 Y8.029
X137.252 Y8.033
X137.34 Y8.045
X137.528 Y8.079
X137.613 Y8.098
X138.178 Y8.251
X138.256 Y8.276
X138.331 Y8.307
X138.52 Y8.393
X138.605 Y8.436
X138.685 Y8.488
X138.826 Y8.589
X138.893 Y8.64
X138.955 Y8.697
X139.455 Y9.199
X139.512 Y9.261
X139.563 Y9.328
X139.652 Y9.454
X139.7 Y9.53
X139.742 Y9.61
X139.829 Y9.798
X139.862 Y9.877
X139.887 Y9.958
X140.057 Y10.585
X140.073 Y10.655
X140.084 Y10.725
X140.107 Y10.913
X140.114 Y11.034
X140.111 Y90.629
X140.106 Y90.721
X140.094 Y90.812
X140.059 Y91.
X140.041 Y91.08
X139.887 Y91.644
X139.861 Y91.724
X139.829 Y91.802
X139.742 Y91.99
X139.698 Y92.075
X139.645 Y92.155
X139.543 Y92.297
X139.493 Y92.361
X139.437 Y92.421
X138.935 Y92.92
X138.871 Y92.978
X138.802 Y93.031
X138.676 Y93.118
X138.6 Y93.166
X138.52 Y93.207
X138.331 Y93.293
X138.255 Y93.325
X138.176 Y93.349
X137.548 Y93.518
X137.476 Y93.535
X137.403 Y93.546
X137.215 Y93.568
X137.1 Y93.574
X19.57 Y93.572
X19.49 Y93.569
X19.41 Y93.56
X19.222 Y93.529
X19.126 Y93.509
X19.033 Y93.479
X18.844 Y93.409
X18.763 Y93.375
X18.685 Y93.333
X18.553 Y93.255
X18.485 Y93.211
X18.421 Y93.162
X18.289 Y93.052
X18.223 Y92.992
X12.961 Y87.73
X12.943 Y87.711
X12.779 Y87.538
X12.725 Y87.477
X12.676 Y87.411
X12.589 Y87.282
X12.544 Y87.209
X12.505 Y87.133
X12.429 Y86.964
X12.394 Y86.876
X12.368 Y86.785
X12.322 Y86.597
X12.305 Y86.506
X12.296 Y86.414
X12.287 Y86.226
X12.285 Y86.175
X12.288 Y15.299
X12.292 Y15.214
X12.303 Y15.129
X12.335 Y14.941
X12.357 Y14.845
X12.387 Y14.752
X12.449 Y14.592
X12.467 Y14.533 Z-5.49
X12.475 Y14.472 Z-5.48
X12.474 Y14.416 Z-5.452
X12.466 Y14.361 Z-5.424
X12.454 Y14.318 Z-5.379
X12.437 Y14.277 Z-5.335
X12.409 Y14.228 Z-5.224
X12.398 Y14.212 Z-5.1
G0 Z5.
X30.647 Y93.591
Z-2.992
G1 Z-4.567 F380.
X30.639 Z-4.645 F1500.
X30.616 Z-4.72
X30.579 Z-4.789
X30.53 Z-4.849
X30.469 Z-4.899
X30.4 Z-4.936
X30.325 Z-4.959
X30.247 Z-4.967
X19.57 Z-4.98
X19.493 Y93.588
X19.418 Y93.579
X19.229 Y93.551
X19.134 Y93.531
X19.04 Y93.502
X18.852 Y93.434 Z-4.981
X18.768 Y93.399
X18.687 Y93.356
X18.546 Y93.274
X18.473 Y93.226
X18.404 Y93.173
X18.263 Y93.053
X18.204 Y92.998
X12.961 Y87.755 Z-4.991
X12.946 Y87.74
X12.768 Y87.555
X12.713 Y87.492
X12.663 Y87.425
X12.569 Y87.286
X12.522 Y87.21
X12.482 Y87.13 Z-4.992
X12.406 Y86.958
X12.371 Y86.869
X12.345 Y86.777
X12.302 Y86.589
X12.285 Y86.5
X12.277 Y86.409
X12.268 Y86.221 Z-4.993
X12.267 Y86.175
X12.27 Y15.299 Z-5.079
X12.273 Y15.218
X12.283 Y15.137
X12.314 Y14.949 Z-5.08
X12.335 Y14.853
X12.364 Y14.759
X12.435 Y14.571
X12.471 Y14.488
X12.514 Y14.408
X12.598 Y14.268 Z-5.081
X12.645 Y14.197
X12.699 Y14.129
X12.819 Y13.99
X12.868 Y13.937
X18.251 Y8.557 Z-5.09
X18.302 Y8.509
X18.357 Y8.464 Z-5.091
X18.498 Y8.358
X18.571 Y8.309
X18.648 Y8.265
X18.805 Y8.186
X18.89 Y8.148
X18.978 Y8.118
X19.166 Y8.064 Z-5.092
X19.244 Y8.044
X19.324 Y8.031
X19.45 Y8.016
X19.57 Y8.009
X137.163 Y8.011 Z-5.236
X137.252 Y8.015
X137.34 Y8.027
X137.528 Y8.061
X137.612 Y8.079
X138.177 Y8.232 Z-5.237
X138.251 Y8.255
X138.322 Y8.284
X138.511 Y8.367
X138.603 Y8.414
X138.69 Y8.471 Z-5.238
X138.859 Y8.593
X138.924 Y8.644
X138.984 Y8.7
X139.48 Y9.202 Z-5.239
X139.539 Y9.267
X139.592 Y9.337
X139.679 Y9.463
X139.727 Y9.539
X139.767 Y9.619 Z-5.24
X139.852 Y9.807
X139.882 Y9.882
X139.906 Y9.959
X140.075 Y10.586 Z-5.241
X140.091 Y10.655
X140.102 Y10.725
X140.125 Y10.913
X140.132 Y11.034
X140.129 Y90.629 Z-5.338
X140.124 Y90.721 Z-5.339
X140.112 Y90.812
X140.077 Y91.
X140.059 Y91.079
X139.906 Y91.643 Z-5.34
X139.882 Y91.719
X139.852 Y91.793
X139.767 Y91.981
X139.727 Y92.061
X139.679 Y92.137
X139.592 Y92.263 Z-5.341
X139.539 Y92.333
X139.48 Y92.398
X138.984 Y92.9 Z-5.342
X138.924 Y92.956
X138.859 Y93.007
X138.69 Y93.129
X138.603 Y93.186
X138.511 Y93.233
X138.322 Y93.316 Z-5.343
X138.25 Y93.345
X138.175 Y93.368
X137.547 Y93.537 Z-5.344
X137.476 Y93.553
X137.403 Y93.564
X137.215 Y93.586
X137.1 Y93.592
X19.57 Y93.591 Z-5.488
X19.493 Y93.588
X19.418 Y93.579
X19.229 Y93.551
X19.134 Y93.531
X19.04 Y93.502
X18.852 Y93.434 Z-5.489
X18.768 Y93.399
X18.687 Y93.356
X18.546 Y93.274
X18.473 Y93.226
X18.404 Y93.173
X18.263 Y93.053
X18.204 Y92.998
X12.961 Y87.755 Z-5.499
X12.946 Y87.74
X12.768 Y87.555
X12.713 Y87.492
X12.663 Y87.425
X12.569 Y87.286
X12.522 Y87.21
X12.482 Y87.13 Z-5.5
X12.406 Y86.958
X12.371 Y86.869
X12.345 Y86.777
X12.302 Y86.589
X12.285 Y86.5
X12.277 Y86.409
X12.268 Y86.221 Z-5.501
X12.267 Y86.175
X12.27 Y15.299 Z-5.587
X12.273 Y15.218
X12.283 Y15.137
X12.314 Y14.949 Z-5.588
X12.335 Y14.853
X12.364 Y14.759
X12.435 Y14.571
X12.471 Y14.488
X12.514 Y14.408
X12.598 Y14.268 Z-5.589
X12.645 Y14.197
X12.699 Y14.129
X12.819 Y13.99
X12.868 Y13.937
X18.251 Y8.557 Z-5.598
X18.302 Y8.509
X18.357 Y8.464 Z-5.599
X18.498 Y8.358
X18.571 Y8.309
X18.648 Y8.265
X18.805 Y8.186
X18.89 Y8.148
X18.978 Y8.118
X19.166 Y8.064 Z-5.6
X19.244 Y8.044
X19.324 Y8.031
X19.45 Y8.016
X19.57 Y8.009
X137.163 Y8.011 Z-5.744
X137.252 Y8.015
X137.34 Y8.027
X137.528 Y8.061
X137.612 Y8.079
X138.177 Y8.232 Z-5.745
X138.251 Y8.255
X138.322 Y8.284
X138.511 Y8.367
X138.603 Y8.414
X138.69 Y8.471 Z-5.746
X138.859 Y8.593
X138.924 Y8.644
X138.984 Y8.7
X139.48 Y9.202 Z-5.747
X139.539 Y9.267
X139.592 Y9.337
X139.679 Y9.463
X139.727 Y9.539
X139.767 Y9.619 Z-5.748
X139.852 Y9.807
X139.882 Y9.882
X139.906 Y9.959
X140.075 Y10.586 Z-5.749
X140.091 Y10.655
X140.102 Y10.725
X140.125 Y10.913
X140.132 Y11.034
X140.129 Y90.629 Z-5.846
X140.124 Y90.721 Z-5.847
X140.112 Y90.812
X140.077 Y91.
X140.059 Y91.079
X139.906 Y91.643 Z-5.848
X139.882 Y91.719
X139.852 Y91.793
X139.767 Y91.981
X139.727 Y92.061
X139.679 Y92.137
X139.592 Y92.263 Z-5.849
X139.539 Y92.333
X139.48 Y92.398
X138.984 Y92.9 Z-5.85
X138.924 Y92.956
X138.859 Y93.007
X138.69 Y93.129
X138.603 Y93.186
X138.511 Y93.233
X138.322 Y93.316 Z-5.851
X138.25 Y93.345
X138.175 Y93.368
X137.547 Y93.537 Z-5.852
X137.476 Y93.553
X137.403 Y93.564
X137.215 Y93.586
X137.1 Y93.592
X19.57 Y93.591 Z-5.996
X19.493 Y93.588
X19.418 Y93.579
X19.229 Y93.551
X19.134 Y93.531
X19.04 Y93.502
X18.852 Y93.434 Z-5.997
X18.768 Y93.399
X18.687 Y93.356
X18.546 Y93.274
X18.473 Y93.226
X18.404 Y93.173
X18.263 Y93.053
X18.204 Y92.998
X12.961 Y87.755 Z-6.007
X12.946 Y87.74
X12.768 Y87.555
X12.713 Y87.492
X12.663 Y87.425
X12.569 Y87.286
X12.522 Y87.21
X12.482 Y87.13 Z-6.008
X12.406 Y86.958
X12.371 Y86.869
X12.345 Y86.777
X12.34 Y86.754
X12.302 Y86.589
X12.285 Y86.5
X12.277 Y86.409
X12.268 Y86.221
X12.267 Y86.175
X12.27 Y15.299
X12.273 Y15.218
X12.283 Y15.137
X12.314 Y14.949
X12.335 Y14.853
X12.364 Y14.759
X12.435 Y14.571
X12.471 Y14.488
X12.514 Y14.408
X12.598 Y14.268
X12.645 Y14.197
X12.699 Y14.129
X12.819 Y13.99
X12.868 Y13.937
X18.251 Y8.557
X18.302 Y8.509
X18.357 Y8.464
X18.498 Y8.358
X18.571 Y8.309
X18.648 Y8.265
X18.805 Y8.186
X18.89 Y8.148
X18.978 Y8.118
X19.166 Y8.064
X19.244 Y8.044
X19.324 Y8.031
X19.45 Y8.016
X19.57 Y8.009
X137.163 Y8.011
X137.252 Y8.015
X137.34 Y8.027
X137.528 Y8.061
X137.612 Y8.079
X138.177 Y8.232
X138.251 Y8.255
X138.322 Y8.284
X138.511 Y8.367
X138.603 Y8.414
X138.69 Y8.471
X138.859 Y8.593
X138.924 Y8.644
X138.984 Y8.7
X139.48 Y9.202
X139.539 Y9.267
X139.592 Y9.337
X139.679 Y9.463
X139.727 Y9.539
X139.767 Y9.619
X139.852 Y9.807
X139.882 Y9.882
X139.906 Y9.959
X140.075 Y10.586
X140.091 Y10.655
X140.102 Y10.725
X140.125 Y10.913
X140.132 Y11.034
X140.129 Y90.629
X140.124 Y90.721
X140.112 Y90.812
X140.077 Y91.
X140.059 Y91.079
X139.906 Y91.643
X139.882 Y91.719
X139.852 Y91.793
X139.767 Y91.981
X139.727 Y92.061
X139.679 Y92.137
X139.592 Y92.263
X139.539 Y92.333
X139.48 Y92.398
X138.984 Y92.9
X138.924 Y92.956
X138.859 Y93.007
X138.69 Y93.129
X138.603 Y93.186
X138.511 Y93.233
X138.322 Y93.316
X138.25 Y93.345
X138.175 Y93.368
X137.547 Y93.537
X137.476 Y93.553
X137.403 Y93.564
X137.215 Y93.586
X137.1 Y93.592
X19.57 Y93.591
X19.493 Y93.588
X19.418 Y93.579
X19.229 Y93.551
X19.134 Y93.531
X19.04 Y93.502
X18.852 Y93.434
X18.768 Y93.399
X18.687 Y93.356
X18.546 Y93.274
X18.473 Y93.226
X18.404 Y93.173
X18.263 Y93.053
X18.204 Y92.998
X12.961 Y87.755
X12.946 Y87.74
X12.768 Y87.555
X12.713 Y87.492
X12.663 Y87.425
X12.569 Y87.286
X12.522 Y87.21
X12.482 Y87.13
X12.406 Y86.958
X12.371 Y86.869
X12.345 Y86.777
X12.34 Y86.754
G2 X12.1 Y86.604 R0.2
X12.067 Y86.615 R0.2
G1 X10.772 Y87.164
X10.731 Y87.187
X10.697 Y87.219
X10.671 Y87.258
X10.655 Y87.302
X10.65 Y87.348
Y87.738
X18.123 Y95.211
X136.943
X138.068 Y95.084
X139.088 Y94.725
X139.966 Y94.173
X140.706 Y93.433
X140.729 Y93.399
X141.266 Y92.544
X141.335 Y92.36
X141.623 Y91.535
X141.755 Y90.344
X141.75 Y11.188
X141.624 Y10.066
X141.275 Y9.069
X140.712 Y8.174
X139.972 Y7.433
X139.939 Y7.41
X139.088 Y6.875
X138.069 Y6.516
X136.876 Y6.385
X18.123 Y6.389
X10.65 Y13.862
Y87.348
X10.658 Y87.386
X10.68 Y87.418
X10.713 Y87.439
X10.751 Y87.445
X10.789 Y87.436
X10.82 Y87.412
X10.839 Y87.379
X10.936 Y87.087
X10.941 Y87.057
X10.906 Y73.308
X10.902 Y73.282
X10.816 Y73.025
X10.799 Y72.996
X10.772 Y72.975
X10.739 Y72.967
X10.705 Y72.973
X10.676 Y72.991
X10.657 Y73.019
X10.65 Y73.052
Y87.6 Z-6.516
Y87.738
X18.123 Y95.211
X136.943
X138.068 Y95.084
X139.088 Y94.725
X139.966 Y94.173
X140.706 Y93.433
X140.729 Y93.399
X141.266 Y92.544
X141.335 Y92.36
X141.623 Y91.535
X141.755 Y90.344
X141.75 Y11.188
X141.624 Y10.066
X141.275 Y9.069
X140.712 Y8.174
X139.972 Y7.433
X139.939 Y7.41
X139.088 Y6.875
X138.069 Y6.516
X136.876 Y6.385
X18.123 Y6.389
X10.65 Y13.862
Y87.6
G2 X10.85 Y87.8 R0.2
X10.92 Y87.787 R0.2
G1 X12.292 Y87.27
G2 X12.406 Y87.161 R0.2
X12.405 Y87.003 R0.2
G1 X12.383 Y86.952
X12.349 Y86.863
X12.323 Y86.77
X12.281 Y86.582
X12.266 Y86.493
X12.258 Y86.404
X12.25 Y86.216
Y86.176
X12.251 Y15.299
X12.254 Y15.221
X12.263 Y15.144
X12.293 Y14.956
X12.313 Y14.86
X12.342 Y14.767
X12.411 Y14.579
X12.447 Y14.492
X12.491 Y14.41
X12.58 Y14.261
X12.63 Y14.186
X12.687 Y14.115
X12.817 Y13.966
X12.862 Y13.918
X18.235 Y8.547
X18.285 Y8.5
X18.337 Y8.457
X18.488 Y8.343
X18.564 Y8.29
X18.646 Y8.245
X18.809 Y8.163
X18.895 Y8.125
X18.985 Y8.095
X19.173 Y8.042
X19.252 Y8.024
X19.331 Y8.011
X19.457 Y7.997
X19.57 Y7.991
X137.163 Y7.993
X137.252 Y7.997
X137.34 Y8.009
X137.528 Y8.043
X137.619 Y8.064
X138.247 Y8.238
X138.328 Y8.264
X138.406 Y8.298
X138.532 Y8.357
X138.596 Y8.39
X138.658 Y8.428
X138.784 Y8.512
X138.88 Y8.584
X138.949 Y8.643
X139.006 Y8.696
X139.439 Y9.129
X139.513 Y9.211
X139.618 Y9.343
X139.664 Y9.406
X139.706 Y9.472
X139.777 Y9.597
X139.817 Y9.674
X139.849 Y9.753
X139.917 Y9.941
X139.945 Y10.031
X140.107 Y10.659
X140.124 Y10.739
X140.135 Y10.82
X140.146 Y10.945
X140.15 Y11.034
X140.146 Y90.629
X140.142 Y90.721
X140.13 Y90.812
X140.095 Y91.
X140.077 Y91.078
X139.924 Y91.642
X139.902 Y91.714
X139.874 Y91.784
X139.792 Y91.972
X139.752 Y92.052
X139.705 Y92.128
X139.621 Y92.254
X139.547 Y92.35
X139.488 Y92.418
X139.439 Y92.471
X139.006 Y92.904
X138.919 Y92.981
X138.787 Y93.085
X138.724 Y93.131
X138.658 Y93.172
X138.532 Y93.243
X138.456 Y93.282
X138.377 Y93.314
X138.188 Y93.381
X138.11 Y93.405
X137.545 Y93.555
X137.474 Y93.571
X137.403 Y93.582
X137.215 Y93.604
X137.1 Y93.61
X19.57 Y93.609
X19.497 Y93.607
X19.425 Y93.599
X19.237 Y93.571
X19.141 Y93.552
X19.047 Y93.524
X18.859 Y93.458
X18.772 Y93.422
X18.689 Y93.379
X18.539 Y93.291
X18.461 Y93.241
X18.389 Y93.184
X18.238 Y93.054
X18.185 Y93.004
X12.961 Y87.78
X12.949 Y87.768
X12.757 Y87.57
X12.701 Y87.506
X12.65 Y87.438
X12.549 Y87.289
X12.5 Y87.21
X12.459 Y87.127
X12.405 Y87.003
G2 X12.142 Y86.9 R0.2
X12.022 Y87.097 R0.2
G1 X12.085 Y87.963
X12.093 Y88.006
X12.111 Y88.046
X12.136 Y88.082
G2 X16.636 Y92.344 R39.482
X22.48 Y94.41 R9.297
G1 X22.525 Y94.405
X22.568 Y94.39
X23.352 Y94.006
G2 X23.444 Y93.738 R0.2
X23.264 Y93.626 R0.2
G1 X19.57 Z-6.645
X19.501 Y93.624 Z-6.647
X19.432 Y93.617 Z-6.65
X19.244 Y93.59 Z-6.656
X19.148 Y93.572 Z-6.66
X19.054 Y93.545 Z-6.663
X18.866 Y93.48 Z-6.67
X18.777 Y93.444 Z-6.674
X18.692 Y93.4 Z-6.677
X18.532 Y93.308 Z-6.683
X18.451 Y93.255 Z-6.687
X18.375 Y93.195 Z-6.69
X18.216 Y93.056 Z-6.698
X18.167 Y93.01 Z-6.7
X12.961 Y87.804 Z-6.957
X12.951 Y87.794
X12.747 Y87.584 Z-6.968
X12.69 Y87.52 Z-6.971
X12.638 Y87.45 Z-6.974
X12.531 Y87.293 Z-6.98
X12.48 Y87.211 Z-6.984
X12.438 Y87.125 Z-6.987
X12.362 Y86.947 Z-6.994
X12.331 Y86.865 Z-6.997
X12.307 Y86.78 Z-7.
X12.303 Y86.763
X12.262 Y86.575
X12.246 Y86.475
X12.24 Y86.374
X12.233 Y85.684
Y85.674
X12.234 Y15.299
X12.237 Y15.225
X12.245 Y15.151
X12.274 Y14.963
X12.293 Y14.867
X12.321 Y14.774
X12.389 Y14.585
X12.425 Y14.497
X12.47 Y14.412
X12.564 Y14.255
X12.616 Y14.176
X12.676 Y14.101
X12.815 Y13.944
X12.856 Y13.901
X18.22 Y8.537
X18.268 Y8.492
X18.319 Y8.451
X18.478 Y8.329
X18.558 Y8.273
X18.644 Y8.226
X18.813 Y8.142
X18.901 Y8.104
X18.992 Y8.074
X19.18 Y8.023
X19.259 Y8.005
X19.338 Y7.993
X19.464 Y7.98
X19.57 Y7.974
X137.163 Y7.976
X137.252 Y7.98
X137.34 Y7.992
X137.528 Y8.026
X137.618 Y8.047
X138.245 Y8.22
X138.323 Y8.245
X138.398 Y8.276
X138.524 Y8.334
X138.601 Y8.374
X138.674 Y8.42
X138.846 Y8.539
X138.917 Y8.593
X138.983 Y8.653
X139.482 Y9.152
X139.54 Y9.215
X139.593 Y9.284
X139.713 Y9.455
X139.769 Y9.543
X139.814 Y9.636
X139.895 Y9.824
X139.921 Y9.891
X139.942 Y9.96
X140.11 Y10.587
X140.126 Y10.656
X140.136 Y10.725
X140.159 Y10.913
X140.167 Y11.034
X140.163 Y90.629
X140.159 Y90.721
X140.146 Y90.812
X140.111 Y91.
X140.092 Y91.084
X139.918 Y91.712
X139.892 Y91.791
X139.859 Y91.869
X139.801 Y91.994
X139.76 Y92.071
X139.713 Y92.145
X139.593 Y92.316
X139.54 Y92.385
X139.482 Y92.448
X138.983 Y92.947
X138.917 Y93.007
X138.846 Y93.061
X138.674 Y93.18
X138.586 Y93.234
X138.493 Y93.279
X138.305 Y93.359
X138.24 Y93.384
X138.174 Y93.404
X137.546 Y93.571
X137.475 Y93.587
X137.403 Y93.598
X137.215 Y93.62
X137.1 Y93.627
X19.57 Y93.626
X19.501 Y93.624
X19.432 Y93.617
X19.244 Y93.59
X19.148 Y93.572
X19.054 Y93.545
X18.866 Y93.48
X18.777 Y93.444
X18.692 Y93.4
X18.532 Y93.308
X18.451 Y93.255
X18.375 Y93.195
X18.216 Y93.056
X18.167 Y93.01
X12.961 Y87.804
X12.951 Y87.794
X12.747 Y87.584
X12.69 Y87.52
X12.638 Y87.45
X12.531 Y87.293
X12.48 Y87.211
X12.438 Y87.125
X12.362 Y86.947
X12.331 Y86.865
X12.307 Y86.78
G2 X12.066 Y86.631 R0.2
X12.035 Y86.641 R0.2
G1 X10.772 Y87.171
X10.732 Y87.194
X10.697 Y87.226
X10.671 Y87.265
X10.655 Y87.309
X10.65 Y87.355
Y87.738
X18.123 Y95.211
X136.943
X138.068 Y95.084
X139.088 Y94.725
X139.966 Y94.173
X140.706 Y93.433
X140.729 Y93.399
X141.266 Y92.544
X141.335 Y92.36
X141.623 Y91.535
X141.755 Y90.344
X141.75 Y11.188
X141.624 Y10.066
X141.275 Y9.069
X140.712 Y8.174
X139.972 Y7.433
X139.939 Y7.41
X139.088 Y6.875
X138.069 Y6.516
X136.876 Y6.385
X18.123 Y6.389
X10.65 Y13.862
Y87.355
X10.658 Y87.393
X10.679 Y87.424
X10.712 Y87.445
X10.75 Y87.451
X10.787 Y87.441
X10.817 Y87.418
X10.836 Y87.385
X10.928 Y87.1
X10.932 Y87.069
X10.903 Y84.621
X10.899 Y84.595
X10.812 Y84.343
X10.795 Y84.315
X10.769 Y84.295
X10.736 Y84.287
X10.703 Y84.293
X10.675 Y84.311
X10.657 Y84.338
X10.65 Y84.371
Y87.738 Z-7.118
X18.123 Y95.211 Z-7.487
X18.734 Z-7.508
X136.943
X138.068 Y95.084
X139.088 Y94.725
X139.966 Y94.173
X140.706 Y93.433
X140.729 Y93.399
X141.266 Y92.544
X141.335 Y92.36
X141.623 Y91.535
X141.755 Y90.344
X141.75 Y11.188
X141.624 Y10.066
X141.275 Y9.069
X140.712 Y8.174
X139.972 Y7.433
X139.939 Y7.41
X139.088 Y6.875
X138.069 Y6.516
X136.876 Y6.385
X18.123 Y6.389
X10.65 Y13.862
Y87.738
X18.123 Y95.211
X18.734
G2 X18.934 Y95.016 R0.2
G1 X18.965 Y93.678
X18.961 Y93.63
X18.945 Y93.585
X18.918 Y93.545
X18.883 Y93.512
X18.841 Y93.488
X18.757 Y93.454
X18.667 Y93.411
X18.581 Y93.36
X18.412 Y93.247
X18.334 Y93.189
X18.261 Y93.123
X12.961 Y87.83
X12.953 Y87.821
X12.735 Y87.599
X12.677 Y87.534
X12.625 Y87.464
X12.511 Y87.297
X12.459 Y87.212
X12.415 Y87.122
X12.339 Y86.941
X12.305 Y86.85
X12.281 Y86.756
X12.242 Y86.567
X12.226 Y86.469
X12.221 Y86.369
X12.215 Y85.177
X12.216 Y15.299
X12.218 Y15.229
X12.226 Y15.158
X12.253 Y14.97
X12.271 Y14.875
X12.299 Y14.781
X12.364 Y14.593
X12.401 Y14.502
X12.447 Y14.415
X12.546 Y14.248
X12.581 Y14.192
X12.62 Y14.139
X12.664 Y14.083
X12.744 Y13.993
X18.261 Y8.477
X18.333 Y8.411
X18.412 Y8.353
X18.581 Y8.24
X18.667 Y8.189
X18.757 Y8.146
X18.939 Y8.072
X19.031 Y8.039
X19.125 Y8.016
X19.314 Y7.979
X19.41 Y7.964
X19.507 Y7.96
X137.163 Y7.958
X137.252 Y7.962
X137.34 Y7.974
X137.528 Y8.008
X137.616 Y8.028
X138.244 Y8.201
X138.318 Y8.224
X138.389 Y8.253
X138.515 Y8.309
X138.579 Y8.341
X138.641 Y8.377
X138.766 Y8.457
X138.829 Y8.5
X138.888 Y8.548
X139.005 Y8.65
X139.056 Y8.698
X139.497 Y9.142
X139.543 Y9.192
X139.586 Y9.245
X139.677 Y9.366
X139.719 Y9.426
X139.757 Y9.489
X139.825 Y9.615
X139.862 Y9.69
X139.893 Y9.769
X139.958 Y9.957
X139.98 Y10.031
X140.142 Y10.659
X140.159 Y10.739
X140.17 Y10.82
X140.181 Y10.945
X140.185 Y11.034
X140.181 Y90.629
X140.177 Y90.721
X140.164 Y90.812
X140.129 Y91.
X140.11 Y91.083
X139.937 Y91.71
X139.913 Y91.786
X139.883 Y91.86
X139.825 Y91.985
X139.793 Y92.049
X139.757 Y92.111
X139.676 Y92.236
X139.632 Y92.299
X139.585 Y92.357
X139.482 Y92.473
X139.437 Y92.521
X138.993 Y92.962
X138.941 Y93.01
X138.885 Y93.054
X138.764 Y93.144
X138.704 Y93.186
X138.64 Y93.223
X138.515 Y93.29
X138.44 Y93.327
X138.362 Y93.357
X138.174 Y93.42
X138.11 Y93.44
X137.545 Y93.59
X137.474 Y93.606
X137.403 Y93.617
X137.215 Y93.638
X137.1 Y93.645
X19.507 Y93.64
X19.41 Y93.636
X19.314 Y93.621
X19.125 Y93.584
X19.031 Y93.561
X18.939 Y93.528
X18.841 Y93.488
X18.805 Y93.481
X18.769 Y93.489
X18.738 Y93.51
X18.718 Y93.541
X18.711 Y93.577
X18.719 Y93.613
X18.74 Y93.644
X18.771 Y93.664
X18.984 Y93.747
X19.017 Y93.753
X32.864 Y93.899
X32.89 Y93.895
X33.131 Y93.817
X33.16 Y93.801
X33.179 Y93.775
X33.187 Y93.744
X33.182 Y93.712
X33.165 Y93.684
X33.138 Y93.666
X33.107 Y93.659
X19.507 Z-7.983
X19.414 Y93.654 Z-7.986
X19.321 Y93.641 Z-7.989
X19.133 Y93.606 Z-7.996
X19.038 Y93.583 Z-8.
X18.945 Y93.551 Z-8.003
X18.76 Y93.476 Z-8.01
X18.683 Y93.441 Z-8.013
X18.609 Y93.4 Z-8.016
X18.605 Y93.398
X18.49 Y93.327
X18.428 Y93.286
X18.37 Y93.24
X18.251 Y93.14
X18.189 Y93.082
X12.961 Y87.855
X12.954 Y87.848
X12.724 Y87.613
X12.676 Y87.561
X12.632 Y87.505
X12.545 Y87.388
X12.497 Y87.315
X12.455 Y87.239
X12.366 Y87.059
X12.326 Y86.968
X12.295 Y86.874
X12.245 Y86.686
X12.227 Y86.607
X12.216 Y86.528
X12.203 Y86.402
X12.198 Y86.301
Y15.299
X12.2 Y15.232
X12.207 Y15.166
X12.232 Y14.978
X12.25 Y14.882
X12.277 Y14.789
X12.341 Y14.6
X12.378 Y14.507
X12.425 Y14.417
X12.528 Y14.241
X12.565 Y14.182
X12.607 Y14.125
X12.653 Y14.067
X12.73 Y13.98
X18.248 Y8.464
X18.307 Y8.409
X18.371 Y8.359
X18.49 Y8.274
X18.562 Y8.226
X18.639 Y8.185
X18.821 Y8.097
X18.912 Y8.058
X19.007 Y8.029
X19.195 Y7.981
X19.274 Y7.964
X19.353 Y7.953
X19.479 Y7.942
X19.57 Y7.938
X137.163 Y7.941
X137.252 Y7.945
X137.34 Y7.956
X137.528 Y7.99
X137.615 Y8.01
X138.243 Y8.182
X138.329 Y8.21
X138.413 Y8.245
X138.601 Y8.336
X138.684 Y8.381
X138.762 Y8.433
X138.895 Y8.532
X138.953 Y8.578
X139.007 Y8.628
X139.507 Y9.127
X139.556 Y9.179
X139.6 Y9.235
X139.7 Y9.368
X139.753 Y9.446
X139.798 Y9.528
X139.89 Y9.717
X139.928 Y9.803
X139.957 Y9.893
X140.144 Y10.583
X140.161 Y10.654
X140.172 Y10.725
X140.195 Y10.913
X140.202 Y11.034
X140.199 Y90.629
X140.195 Y90.721
X140.182 Y90.812
X140.147 Y91.
X140.128 Y91.082
X139.956 Y91.709
X139.927 Y91.798
X139.89 Y91.884
X139.798 Y92.072
X139.753 Y92.154
X139.7 Y92.232
X139.6 Y92.365
X139.556 Y92.421
X139.507 Y92.473
X139.007 Y92.972
X138.953 Y93.022
X138.895 Y93.068
X138.762 Y93.167
X138.684 Y93.219
X138.601 Y93.264
X138.413 Y93.355
X138.328 Y93.391
X138.241 Y93.419
X137.55 Y93.606
X137.477 Y93.623
X137.403 Y93.634
X137.215 Y93.656
X137.1 Y93.663
X19.507 Y93.659
X19.414 Y93.654
X19.321 Y93.641
X19.133 Y93.606
X19.038 Y93.583
X18.945 Y93.551
X18.76 Y93.476
X18.683 Y93.441
X18.609 Y93.4
X18.605 Y93.398
G2 X18.33 Y93.463 R0.2
X18.315 Y93.493 R0.2
G1 X17.813 Y94.729
X17.801 Y94.774
X17.799 Y94.821
X17.809 Y94.867
X17.828 Y94.909
X17.857 Y94.946
X18.123 Y95.211
X136.943
X138.068 Y95.084
X139.088 Y94.725
X139.966 Y94.173
X140.706 Y93.433
X140.729 Y93.399
X141.266 Y92.544
X141.335 Y92.36
X141.623 Y91.535
X141.755 Y90.344
X141.75 Y11.188
X141.624 Y10.066
X141.275 Y9.069
X140.712 Y8.174
X139.972 Y7.433
X139.939 Y7.41
X139.088 Y6.875
X138.069 Y6.516
X136.876 Y6.385
X18.123 Y6.389
X10.65 Y13.862
Y87.738
X17.857 Y94.946
G2 X18.14 R0.2
X18.185 Y94.732 R0.2
G1 X17.839 Y93.846
X17.818 Y93.806
X17.788 Y93.771
G3 X17.534 Y93.503 R2.682
G1 X12.037 Y86.844
G3 X11.424 Y85.137 R2.682
G1 X11.419 Y85.092
X11.404 Y85.05
X11.03 Y84.276
G2 X10.763 Y84.183 R0.2
X10.65 Y84.363 R0.2
G1 Y87.738 Z-8.134
X18.123 Y95.211 Z-8.503
X18.726 Z-8.524
X136.943
X138.068 Y95.084
X139.088 Y94.725
X139.966 Y94.173
X140.706 Y93.433
X140.729 Y93.399
X141.266 Y92.544
X141.335 Y92.36
X141.623 Y91.535
X141.755 Y90.344
X141.75 Y11.188
X141.624 Y10.066
X141.275 Y9.069
X140.712 Y8.174
X139.972 Y7.433
X139.939 Y7.41
X139.088 Y6.875
X138.069 Y6.516
X136.876 Y6.385
X18.123 Y6.389
X10.65 Y13.862
Y87.738
X18.123 Y95.211
X18.726
G2 X18.926 Y95.014 R0.2
G1 X18.943 Y93.708
X18.938 Y93.66
X18.921 Y93.615
X18.895 Y93.575
X18.859 Y93.543
X18.817 Y93.52
X18.763 Y93.498
X18.683 Y93.463
X18.607 Y93.42
X18.481 Y93.343
X18.388 Y93.279
X18.326 Y93.23
X18.236 Y93.15
X12.961 Y87.88
X12.956 Y87.874
X12.712 Y87.627
X12.664 Y87.575
X12.62 Y87.52
X12.529 Y87.396
X12.478 Y87.321
X12.435 Y87.242
X12.343 Y87.055
X12.303 Y86.963
X12.273 Y86.867
X12.224 Y86.678
X12.207 Y86.6
X12.196 Y86.521
X12.184 Y86.395
X12.18 Y86.301
X12.184 Y15.236
X12.188 Y15.141
X12.202 Y15.048
X12.238 Y14.859
X12.261 Y14.764
X12.294 Y14.671
X12.371 Y14.483
X12.407 Y14.404
X12.45 Y14.328
X12.528 Y14.204
X12.594 Y14.112
X12.643 Y14.05
X12.717 Y13.968
X18.236 Y8.45
X18.294 Y8.397
X18.356 Y8.348
X18.481 Y8.257
X18.557 Y8.207
X18.637 Y8.164
X18.825 Y8.075
X18.918 Y8.036
X19.014 Y8.007
X19.203 Y7.96
X19.281 Y7.944
X19.361 Y7.934
X19.486 Y7.923
X19.57 Y7.92
X137.163 Y7.923
X137.252 Y7.927
X137.34 Y7.939
X137.528 Y7.973
X137.614 Y7.992
X138.242 Y8.163
X138.324 Y8.189
X138.404 Y8.223
X138.592 Y8.311
X138.678 Y8.357
X138.759 Y8.41
X138.905 Y8.517
X138.964 Y8.564
X139.019 Y8.616
X139.519 Y9.115
X139.569 Y9.169
X139.615 Y9.225
X139.723 Y9.371
X139.777 Y9.451
X139.823 Y9.537
X139.913 Y9.725
X139.948 Y9.808
X139.976 Y9.894
X140.162 Y10.584
X140.179 Y10.654
X140.19 Y10.725
X140.213 Y10.913
X140.22 Y11.034
X140.217 Y90.629
X140.212 Y90.721
X140.2 Y90.812
X140.165 Y91.
X140.146 Y91.08
X139.975 Y91.708
X139.948 Y91.793
X139.913 Y91.875
X139.823 Y92.063
X139.777 Y92.149
X139.723 Y92.23
X139.615 Y92.375
X139.569 Y92.432
X139.519 Y92.485
X139.019 Y92.984
X138.964 Y93.036
X138.905 Y93.083
X138.759 Y93.19
X138.678 Y93.243
X138.592 Y93.289
X138.404 Y93.377
X138.323 Y93.411
X138.24 Y93.438
X137.549 Y93.624
X137.476 Y93.641
X137.403 Y93.652
X137.215 Y93.674
X137.1 Y93.68
X19.507 Y93.677
X19.417 Y93.673
X19.328 Y93.661
X19.14 Y93.627
X19.044 Y93.605
X18.951 Y93.573
X18.817 Y93.52
X18.781 Y93.513
X18.746 Y93.521
X18.716 Y93.542
X18.697 Y93.572
X18.69 Y93.607
X18.698 Y93.643
X18.718 Y93.672
X18.749 Y93.692
X18.959 Y93.774
X18.992 Y93.781
X31.927 Y93.929
X31.953 Y93.925
X32.189 Y93.849
X32.217 Y93.833
X32.236 Y93.808
X32.244 Y93.777
X32.239 Y93.746
X32.222 Y93.719
X32.196 Y93.701
X32.165 Y93.694
X19.507 Z-8.966
X19.421 Y93.69 Z-8.969
X19.335 Y93.679 Z-8.972
X19.147 Y93.646 Z-8.979
X19.051 Y93.625 Z-8.982
X18.958 Y93.594 Z-8.986
X18.769 Y93.521 Z-8.993
X18.689 Y93.486 Z-8.996
X18.613 Y93.444 Z-8.999
X18.582 Y93.425 Z-9.
X18.487 Y93.368
X18.422 Y93.325
X18.361 Y93.277
X18.235 Y93.172
X18.172 Y93.113
X12.697 Y87.635
X12.645 Y87.579
X12.598 Y87.519
X12.506 Y87.394
X12.459 Y87.322
X12.417 Y87.248
X12.334 Y87.081
X12.302 Y87.009
X12.276 Y86.935
X12.237 Y86.811
X12.218 Y86.739
X12.203 Y86.667
X12.178 Y86.502
X12.169 Y86.425
X12.166 Y86.348
Y15.252
X12.169 Y15.175
X12.178 Y15.098
X12.203 Y14.933
X12.22 Y14.85
X12.244 Y14.768
X12.299 Y14.603
X12.328 Y14.529
X12.362 Y14.458
X12.427 Y14.333
X12.464 Y14.268
X12.506 Y14.207
X12.598 Y14.081
X12.645 Y14.021
X12.698 Y13.965
X18.235 Y8.429
X18.296 Y8.373
X18.361 Y8.322
X18.487 Y8.233
X18.563 Y8.183
X18.643 Y8.141
X18.831 Y8.053
X18.925 Y8.015
X19.021 Y7.986
X19.209 Y7.941
X19.307 Y7.922
X19.405 Y7.914
X19.656 Y7.904
X19.695 Y7.903
X137.163 Y7.907
X137.252 Y7.911
X137.34 Y7.922
X137.528 Y7.956
X137.613 Y7.975
X138.241 Y8.146
X138.32 Y8.171
X138.396 Y8.202
X138.584 Y8.288
X138.673 Y8.335
X138.757 Y8.39
X138.914 Y8.504
X138.974 Y8.552
X139.031 Y8.604
X139.531 Y9.104
X139.581 Y9.158
X139.628 Y9.217
X139.743 Y9.373
X139.799 Y9.457
X139.846 Y9.545
X139.934 Y9.734
X139.967 Y9.813
X139.993 Y9.895
X140.179 Y10.585
X140.204 Y10.705
X140.225 Y10.853
X140.232 Y10.923
X140.235 Y10.994
Y90.606
X140.232 Y90.677
X140.225 Y90.747
X140.204 Y90.895
X140.179 Y91.015
X139.993 Y91.705
X139.967 Y91.787
X139.934 Y91.866
X139.846 Y92.055
X139.799 Y92.144
X139.743 Y92.227
X139.628 Y92.384
X139.581 Y92.442
X139.531 Y92.496
X139.031 Y92.996
X138.974 Y93.048
X138.914 Y93.096
X138.757 Y93.21
X138.673 Y93.265
X138.584 Y93.312
X138.396 Y93.398
X138.319 Y93.43
X138.239 Y93.455
X137.548 Y93.641
X137.476 Y93.657
X137.403 Y93.668
X137.215 Y93.69
X137.1 Y93.697
X19.507 Y93.694
X19.421 Y93.69
X19.335 Y93.679
X19.147 Y93.646
X19.051 Y93.625
X18.958 Y93.594
X18.769 Y93.521
X18.689 Y93.486
X18.613 Y93.444
X18.582 Y93.425
G2 X18.307 Y93.493 R0.2
X18.292 Y93.524 R0.2
G1 X17.818 Y94.737
X17.806 Y94.782
X17.805 Y94.828
X17.814 Y94.873
X17.834 Y94.915
X17.863 Y94.951
X18.123 Y95.211
X136.943
X138.068 Y95.084
X139.088 Y94.725
X139.966 Y94.173
X140.706 Y93.433
X140.729 Y93.399
X141.266 Y92.544
X141.335 Y92.36
X141.623 Y91.535
X141.755 Y90.344
X141.75 Y11.188
X141.624 Y10.066
X141.275 Y9.069
X140.712 Y8.174
X139.972 Y7.433
X139.939 Y7.41
X139.088 Y6.875
X138.069 Y6.516
X136.876 Y6.385
X18.123 Y6.389
X10.65 Y13.862
Y87.738
X17.863 Y94.951
X17.91 Y94.991 Z-8.99
X17.962 Y95.024 Z-8.98
X18.013 Y95.046 Z-8.952
X18.067 Y95.06 Z-8.924
X18.111 Y95.067 Z-8.879
X18.155 Y95.068 Z-8.835
X18.211 Y95.063 Z-8.724
X18.231 Y95.059 Z-8.6
G0 Z5.
X39.987 Y6.388
G1 Z-8.067 F380.
X39.979 Z-8.145 F1500.
X39.956 Z-8.22
X39.919 Z-8.289
X39.87 Z-8.349
X39.809 Z-8.399
X39.74 Z-8.436
X39.665 Z-8.459
X39.587 Z-8.467
X18.123 Y6.389 Z-8.492
X10.65 Y13.862 Z-8.505
Y87.738 Z-8.593
X18.123 Y95.211 Z-8.605
X136.943 Z-8.747
X138.068 Y95.084 Z-8.748
X139.088 Y94.725 Z-8.749
X139.966 Y94.173 Z-8.75
X140.706 Y93.433 Z-8.752
X140.729 Y93.399
X141.266 Y92.544 Z-8.753
X141.335 Y92.36
X141.623 Y91.535 Z-8.754
X141.755 Y90.344 Z-8.756
X141.75 Y11.188 Z-8.85
X141.624 Y10.066 Z-8.851
X141.275 Y9.069 Z-8.852
X140.712 Y8.174 Z-8.854
X139.972 Y7.433 Z-8.855
X139.939 Y7.41
X139.088 Y6.875 Z-8.856
X138.069 Y6.516 Z-8.857
X136.876 Y6.385 Z-8.859
X18.123 Y6.389 Z-9.
X10.65 Y13.862 Z-9.013
Y87.738 Z-9.101
X18.123 Y95.211 Z-9.113
X136.943 Z-9.255
X138.068 Y95.084 Z-9.256
X139.088 Y94.725 Z-9.257
X139.966 Y94.173 Z-9.258
X140.706 Y93.433 Z-9.26
X140.729 Y93.399
X141.266 Y92.544 Z-9.261
X141.335 Y92.36
X141.623 Y91.535 Z-9.262
X141.755 Y90.344 Z-9.264
X141.75 Y11.188 Z-9.358
X141.624 Y10.066 Z-9.359
X141.275 Y9.069 Z-9.36
X140.712 Y8.174 Z-9.362
X139.972 Y7.433 Z-9.363
X139.939 Y7.41
X139.088 Y6.875 Z-9.364
X138.069 Y6.516 Z-9.365
X136.876 Y6.385 Z-9.367
X18.239 Y6.389 Z-9.508
X18.123
X10.65 Y13.862
Y87.738
X18.123 Y95.211
X136.943
X138.068 Y95.084
X139.088 Y94.725
X139.966 Y94.173
X140.706 Y93.433
X140.729 Y93.399
X141.266 Y92.544
X141.335 Y92.36
X141.623 Y91.535
X141.755 Y90.344
X141.75 Y11.188
X141.624 Y10.066
X141.275 Y9.069
X140.712 Y8.174
X139.972 Y7.433
X139.939 Y7.41
X139.088 Y6.875
X138.069 Y6.516
X136.876 Y6.385
X18.239 Y6.389
G2 X18.039 Y6.589 R0.2
X18.053 Y6.663 R0.2
G1 X18.558 Y7.925
G2 X18.67 Y8.037 R0.2
X18.827 Y8.033 R0.2
G1 X18.906 Y8.001
X18.987 Y7.975
X19.14 Y7.935
X19.215 Y7.918
X19.291 Y7.907
X19.441 Y7.891
X19.546 Y7.886
X137.163 Y7.889
X137.229 Y7.891
X137.294 Y7.897
X137.391 Y7.91
X137.454 Y7.92
X137.516 Y7.935
X138.235 Y8.126
X138.312 Y8.149
X138.387 Y8.179
X138.575 Y8.263
X138.668 Y8.311
X138.755 Y8.367
X138.924 Y8.49
X138.985 Y8.538
X139.043 Y8.592
X139.543 Y9.092
X139.62 Y9.177
X139.704 Y9.283
X139.745 Y9.339
X139.783 Y9.399
X139.857 Y9.524
X139.89 Y9.586
X139.919 Y9.65
X139.971 Y9.775
X139.994 Y9.838
X140.013 Y9.902
X140.211 Y10.655
X140.228 Y10.737
X140.239 Y10.82
X140.251 Y10.945
X140.255 Y11.034
X140.251 Y90.629
X140.248 Y90.701
X140.24 Y90.774
X140.224 Y90.885
X140.201 Y90.999
X140.012 Y91.703
X139.987 Y91.781
X139.957 Y91.857
X139.871 Y92.045
X139.832 Y92.123
X139.786 Y92.197
X139.707 Y92.312
X139.655 Y92.382
X139.596 Y92.448
X139.157 Y92.896
X139.125 Y92.928
X138.966 Y93.076
X138.892 Y93.139
X138.812 Y93.194
X138.634 Y93.305
X138.558 Y93.348
X138.48 Y93.384
X138.354 Y93.435
X138.293 Y93.457
X138.231 Y93.475
X137.478 Y93.672
X137.394 Y93.69
X137.308 Y93.701
X137.183 Y93.711
X137.1 Y93.715
X19.546 Y93.714
X19.48 Y93.712
X19.415 Y93.706
X19.215 Y93.679
X19.126 Y93.663
X19.038 Y93.64
X18.885 Y93.59
X18.815 Y93.564
X18.746 Y93.533
X18.62 Y93.47
X18.556 Y93.435
X18.494 Y93.395
X18.369 Y93.308
X18.299 Y93.254
X18.235 Y93.195
X12.673 Y87.635
X12.618 Y87.576
X12.568 Y87.511
X12.478 Y87.386
X12.43 Y87.313
X12.389 Y87.237
X12.306 Y87.064
X12.272 Y86.985
X12.245 Y86.904
X12.204 Y86.761
X12.186 Y86.686
X12.174 Y86.611
X12.154 Y86.456
X12.146 Y86.331
Y15.269
X12.149 Y15.194
X12.157 Y15.12
X12.188 Y14.917
X12.205 Y14.829
X12.23 Y14.744
X12.279 Y14.6
X12.305 Y14.532
X12.336 Y14.466
X12.401 Y14.34
X12.437 Y14.276
X12.478 Y14.214
X12.568 Y14.089
X12.618 Y14.024
X12.673 Y13.965
X18.235 Y8.405
X18.299 Y8.346
X18.369 Y8.292
X18.494 Y8.205
X18.568 Y8.158
X18.645 Y8.118
X18.821 Y8.035
X18.827 Y8.033
X18.852 Y8.016
X18.869 Y7.993
X18.879 Y7.965
X18.911 Y7.772
X18.922 Y7.741
X18.943 Y7.716
X18.972 Y7.701
X21.989 Y6.7
X22.256 Y6.534
X22.28 Y6.511
X22.292 Y6.479
X22.29 Y6.446
X22.274 Y6.416
X22.247 Y6.396
X22.214 Y6.389
X18.123 Z-9.651
X10.729 Y13.783 Z-10.016
X10.65 Y13.862
Y87.738
X18.123 Y95.211
X136.943
X138.068 Y95.084
X139.088 Y94.725
X139.966 Y94.173
X140.706 Y93.433
X140.729 Y93.399
X141.266 Y92.544
X141.335 Y92.36
X141.623 Y91.535
X141.755 Y90.344
X141.75 Y11.188
X141.624 Y10.066
X141.275 Y9.069
X140.712 Y8.174
X139.972 Y7.433
X139.939 Y7.41
X139.088 Y6.875
X138.069 Y6.516
X136.876 Y6.385
X18.123 Y6.389
X10.729 Y13.783
G2 Y14.065 R0.2
X10.791 Y14.107 R0.2
G1 X12.022 Y14.643
G2 X12.179 Y14.644 R0.2
X12.288 Y14.532 R0.2
G1 X12.302 Y14.497
X12.335 Y14.421
X12.375 Y14.347
X12.45 Y14.222
X12.492 Y14.157
X12.539 Y14.096
X12.644 Y13.97
X12.706 Y13.902
X18.172 Y8.436
X18.25 Y8.366
X18.376 Y8.264
X18.437 Y8.218
X18.502 Y8.177
X18.628 Y8.104
X18.702 Y8.065
X18.78 Y8.032
X18.96 Y7.965
X19.052 Y7.935
X19.147 Y7.915
X19.34 Y7.883
X19.421 Y7.873
X19.503 Y7.87
X137.163 Y7.871
X137.249 Y7.875
X137.334 Y7.886
X137.51 Y7.916
X137.606 Y7.938
X138.309 Y8.133
X138.391 Y8.159
X138.471 Y8.193
X138.597 Y8.253
X138.66 Y8.286
X138.721 Y8.323
X138.843 Y8.404
X138.91 Y8.453
X138.973 Y8.507
X139.15 Y8.673
X139.175 Y8.697
X139.557 Y9.081
X139.634 Y9.167
X139.727 Y9.285
X139.771 Y9.345
X139.81 Y9.408
X139.882 Y9.533
X139.914 Y9.595
X139.943 Y9.659
X139.993 Y9.784
X140.03 Y9.897
X140.216 Y10.588
X140.232 Y10.658
X140.243 Y10.728
X140.265 Y10.914
X140.272 Y11.034
X140.269 Y90.629
X140.265 Y90.72
X140.252 Y90.81
X140.218 Y90.995
X140.198 Y91.082
X140.005 Y91.775
X139.977 Y91.86
X139.942 Y91.941
X139.882 Y92.067
X139.848 Y92.13
X139.811 Y92.191
X139.729 Y92.313
X139.68 Y92.378
X139.627 Y92.44
X139.46 Y92.617
X139.438 Y92.64
X139.054 Y93.022
X138.963 Y93.102
X138.845 Y93.194
X138.785 Y93.237
X138.722 Y93.276
X138.597 Y93.347
X138.535 Y93.379
X138.471 Y93.407
X138.345 Y93.456
X138.237 Y93.492
X137.54 Y93.678
X137.467 Y93.695
X137.393 Y93.706
X137.211 Y93.726
X137.1 Y93.732
X19.503 Y93.73
X19.421 Y93.727
X19.34 Y93.717
X19.147 Y93.685
X19.053 Y93.665
X18.96 Y93.635
X18.78 Y93.568
X18.702 Y93.535
X18.628 Y93.496
X18.502 Y93.423
X18.437 Y93.382
X18.376 Y93.336
X18.25 Y93.234
X18.172 Y93.164
X12.649 Y87.635
X12.591 Y87.572
X12.539 Y87.504
X12.45 Y87.379
X12.403 Y87.304
X12.362 Y87.226
X12.277 Y87.044
X12.252 Y86.985
X12.23 Y86.924
X12.213 Y86.868
X12.195 Y86.806
X12.182 Y86.743
X12.146 Y86.548
X12.135 Y86.46
X12.131 Y86.371
Y15.229
X12.135 Y15.14
X12.146 Y15.052
X12.182 Y14.857
X12.203 Y14.763
X12.234 Y14.671
X12.288 Y14.532
X12.306 Y14.473 Z-10.006
X12.315 Y14.412 Z-9.996
X12.314 Y14.356 Z-9.968
X12.306 Y14.301 Z-9.94
X12.294 Y14.258 Z-9.895
X12.278 Y14.217 Z-9.851
X12.25 Y14.167 Z-9.74
X12.239 Y14.151 Z-9.616
G0 Z5.
X39.772 Y93.747
G1 Z-9.083 F380.
X39.764 Z-9.161 F1500.
X39.742 Z-9.236
X39.705 Z-9.305
X39.655 Z-9.365
X39.594 Z-9.415
X39.525 Z-9.452
X39.45 Z-9.475
X39.372 Z-9.483
X19.47 Y93.746 Z-9.507
X19.381 Y93.742
X19.293 Y93.73
X19.123 Y93.7
X19.037 Y93.68
X18.953 Y93.653
X18.783 Y93.59 Z-9.508
X18.707 Y93.559
X18.635 Y93.521
X18.509 Y93.45
X18.445 Y93.41
X18.383 Y93.364
X18.258 Y93.265
X18.172 Y93.189 Z-9.509
X12.681 Y87.698 Z-9.518
X12.613 Y87.622
X12.51 Y87.497
X12.464 Y87.436
X12.423 Y87.371 Z-9.519
X12.349 Y87.245
X12.318 Y87.187
X12.29 Y87.127
X12.243 Y87.015
X12.217 Y86.946
X12.197 Y86.875
X12.153 Y86.705
X12.136 Y86.62 Z-9.52
X12.125 Y86.535
X12.113 Y86.365
X12.11 Y86.289
X12.111 Y15.254 Z-9.606
X12.113 Y15.188 Z-9.607
X12.12 Y15.122
X12.142 Y14.952
X12.157 Y14.868
X12.179 Y14.786
X12.23 Y14.624
X12.256 Y14.551
X12.287 Y14.48
X12.349 Y14.355 Z-9.608
X12.384 Y14.291
X12.423 Y14.229
X12.51 Y14.103
X12.564 Y14.033
X12.623 Y13.967
X13.87 Y12.712 Z-9.61
X18.172 Y8.411 Z-9.618
X18.258 Y8.335
X18.383 Y8.236
X18.445 Y8.19
X18.509 Y8.15
X18.635 Y8.079
X18.707 Y8.041 Z-9.619
X18.783 Y8.01
X18.953 Y7.947
X19.037 Y7.92
X19.123 Y7.9
X19.292 Y7.87
X19.381 Y7.858
X19.47 Y7.854
X137.163 Y7.853 Z-9.763
X137.243 Y7.856
X137.322 Y7.866
X137.475 Y7.89
X137.58 Y7.913
X138.307 Y8.113 Z-9.764
X138.386 Y8.139
X138.462 Y8.17
X138.588 Y8.228 Z-9.765
X138.653 Y8.261
X138.715 Y8.299
X138.843 Y8.383
X138.914 Y8.434
X138.98 Y8.491
X139.176 Y8.674
X139.199 Y8.697
X139.569 Y9.069 Z-9.766
X139.648 Y9.158
X139.75 Y9.288
X139.796 Y9.351 Z-9.767
X139.836 Y9.416
X139.906 Y9.542
X139.938 Y9.604
X139.966 Y9.668
X140.014 Y9.793
X140.049 Y9.898
X140.237 Y10.604 Z-9.768
X140.253 Y10.676
X140.264 Y10.749
X140.284 Y10.921 Z-9.769
X140.29 Y11.034
X140.286 Y90.629 Z-9.866
X140.283 Y90.713
X140.272 Y90.797
X140.246 Y90.953
X140.224 Y91.052
X140.024 Y91.773 Z-9.867
X139.998 Y91.854
X139.965 Y91.932
X139.906 Y92.058
X139.873 Y92.123 Z-9.868
X139.835 Y92.185
X139.75 Y92.313
X139.7 Y92.382
X139.643 Y92.447
X139.459 Y92.642
X139.438 Y92.664
X139.066 Y93.034 Z-9.869
X138.973 Y93.117
X138.842 Y93.217
X138.779 Y93.262
X138.713 Y93.302 Z-9.87
X138.588 Y93.371
X138.526 Y93.403
X138.462 Y93.43
X138.336 Y93.478
X138.235 Y93.511
X137.527 Y93.699 Z-9.871
X137.452 Y93.715
X137.376 Y93.727
X137.205 Y93.745
X137.1 Y93.75 Z-9.872
X19.47 Y93.746 Z-10.015
X19.381 Y93.742
X19.293 Y93.73
X19.123 Y93.7
X19.037 Y93.68
X18.953 Y93.653
X18.783 Y93.59 Z-10.016
X18.707 Y93.559
X18.635 Y93.521
X18.509 Y93.45
X18.445 Y93.41
X18.383 Y93.364
X18.258 Y93.265
X18.172 Y93.189 Z-10.017
X12.681 Y87.698 Z-10.026
X12.613 Y87.622
X12.51 Y87.497
X12.464 Y87.436
X12.423 Y87.371 Z-10.027
X12.349 Y87.245
X12.318 Y87.187
X12.29 Y87.127
X12.243 Y87.015
X12.217 Y86.946
X12.197 Y86.875
X12.153 Y86.705
X12.136 Y86.62 Z-10.028
X12.125 Y86.535
X12.113 Y86.365
X12.11 Y86.289
X12.111 Y15.254 Z-10.114
X12.113 Y15.188 Z-10.115
X12.12 Y15.122
X12.142 Y14.952
X12.157 Y14.868
X12.179 Y14.786
X12.23 Y14.624
X12.256 Y14.551
X12.287 Y14.48
X12.349 Y14.355 Z-10.116
X12.384 Y14.291
X12.423 Y14.229
X12.51 Y14.103
X12.564 Y14.033
X12.623 Y13.967
X13.87 Y12.712 Z-10.118
X18.172 Y8.411 Z-10.126
X18.258 Y8.335
X18.383 Y8.236
X18.445 Y8.19
X18.509 Y8.15
X18.635 Y8.079
X18.707 Y8.041 Z-10.127
X18.783 Y8.01
X18.953 Y7.947
X19.037 Y7.92
X19.123 Y7.9
X19.292 Y7.87
X19.381 Y7.858
X19.47 Y7.854
X137.163 Y7.853 Z-10.271
X137.243 Y7.856
X137.322 Y7.866
X137.475 Y7.89
X137.58 Y7.913
X138.307 Y8.113 Z-10.272
X138.386 Y8.139
X138.462 Y8.17
X138.588 Y8.228 Z-10.273
X138.653 Y8.261
X138.715 Y8.299
X138.843 Y8.383
X138.914 Y8.434
X138.98 Y8.491
X139.176 Y8.674
X139.199 Y8.697
X139.569 Y9.069 Z-10.274
X139.648 Y9.158
X139.75 Y9.288
X139.796 Y9.351 Z-10.275
X139.836 Y9.416
X139.906 Y9.542
X139.938 Y9.604
X139.966 Y9.668
X140.014 Y9.793
X140.049 Y9.898
X140.237 Y10.604 Z-10.276
X140.253 Y10.676
X140.264 Y10.749
X140.284 Y10.921 Z-10.277
X140.29 Y11.034
X140.286 Y90.629 Z-10.374
X140.283 Y90.713
X140.272 Y90.797
X140.246 Y90.953
X140.224 Y91.052
X140.024 Y91.773 Z-10.375
X139.998 Y91.854
X139.965 Y91.932
X139.906 Y92.058
X139.873 Y92.123 Z-10.376
X139.835 Y92.185
X139.75 Y92.313
X139.7 Y92.382
X139.643 Y92.447
X139.459 Y92.642
X139.438 Y92.664
X139.066 Y93.034 Z-10.377
X138.973 Y93.117
X138.842 Y93.217
X138.779 Y93.262
X138.713 Y93.302 Z-10.378
X138.588 Y93.371
X138.526 Y93.403
X138.462 Y93.43
X138.336 Y93.478
X138.235 Y93.511
X137.527 Y93.699 Z-10.379
X137.452 Y93.715
X137.376 Y93.727
X137.205 Y93.745
X137.1 Y93.75 Z-10.38
X19.47 Y93.746 Z-10.523
X19.381 Y93.742
X19.293 Y93.73
X19.123 Y93.7
X19.037 Y93.68
X18.953 Y93.653
X18.783 Y93.59 Z-10.524
X18.707 Y93.559
X18.635 Y93.521
X18.558 Y93.478
X18.509 Y93.45
X18.445 Y93.41
X18.383 Y93.364
X18.258 Y93.265
X18.172 Y93.189
X12.681 Y87.698
X12.613 Y87.622
X12.51 Y87.497
X12.464 Y87.436
X12.423 Y87.371
X12.349 Y87.245
X12.318 Y87.187
X12.29 Y87.127
X12.243 Y87.015
X12.217 Y86.946
X12.197 Y86.875
X12.153 Y86.705
X12.136 Y86.62
X12.125 Y86.535
X12.113 Y86.365
X12.11 Y86.289
X12.111 Y15.254
X12.113 Y15.188
X12.12 Y15.122
X12.142 Y14.952
X12.157 Y14.868
X12.179 Y14.786
X12.23 Y14.624
X12.256 Y14.551
X12.287 Y14.48
X12.349 Y14.355
X12.384 Y14.291
X12.423 Y14.229
X12.51 Y14.103
X12.564 Y14.033
X12.623 Y13.967
X13.87 Y12.712
X18.172 Y8.411
X18.258 Y8.335
X18.383 Y8.236
X18.445 Y8.19
X18.509 Y8.15
X18.635 Y8.079
X18.707 Y8.041
X18.783 Y8.01
X18.953 Y7.947
X19.037 Y7.92
X19.123 Y7.9
X19.292 Y7.87
X19.381 Y7.858
X19.47 Y7.854
X137.163 Y7.853
X137.243 Y7.856
X137.322 Y7.866
X137.475 Y7.89
X137.58 Y7.913
X138.307 Y8.113
X138.386 Y8.139
X138.462 Y8.17
X138.588 Y8.228
X138.653 Y8.261
X138.715 Y8.299
X138.843 Y8.383
X138.914 Y8.434
X138.98 Y8.491
X139.176 Y8.674
X139.199 Y8.697
X139.569 Y9.069
X139.648 Y9.158
X139.75 Y9.288
X139.796 Y9.351
X139.836 Y9.416
X139.906 Y9.542
X139.938 Y9.604
X139.966 Y9.668
X140.014 Y9.793
X140.049 Y9.898
X140.237 Y10.604
X140.253 Y10.676
X140.264 Y10.749
X140.284 Y10.921
X140.29 Y11.034
X140.286 Y90.629
X140.283 Y90.713
X140.272 Y90.797
X140.246 Y90.953
X140.224 Y91.052
X140.024 Y91.773
X139.998 Y91.854
X139.965 Y91.932
X139.906 Y92.058
X139.873 Y92.123
X139.835 Y92.185
X139.75 Y92.313
X139.7 Y92.382
X139.643 Y92.447
X139.459 Y92.642
X139.438 Y92.664
X139.066 Y93.034
X138.973 Y93.117
X138.842 Y93.217
X138.779 Y93.262
X138.713 Y93.302
X138.588 Y93.371
X138.526 Y93.403
X138.462 Y93.43
X138.336 Y93.478
X138.235 Y93.511
X137.527 Y93.699
X137.452 Y93.715
X137.376 Y93.727
X137.205 Y93.745
X137.1 Y93.75
X19.47 Y93.746
X19.381 Y93.742
X19.293 Y93.73
X19.123 Y93.7
X19.037 Y93.68
X18.953 Y93.653
X18.783 Y93.59
X18.707 Y93.559
X18.635 Y93.521
X18.558 Y93.478
G2 X18.392 Y93.463 R0.2
X18.272 Y93.58 R0.2
G1 X17.826 Y94.747
X17.814 Y94.791
Y94.837
X17.823 Y94.882
X17.843 Y94.924
X17.871 Y94.96
X18.123 Y95.211
X136.943
X138.068 Y95.084
X139.088 Y94.725
X139.966 Y94.173
X140.706 Y93.433
X140.729 Y93.399
X141.266 Y92.544
X141.335 Y92.36
X141.623 Y91.535
X141.755 Y90.344
X141.75 Y11.188
X141.624 Y10.066
X141.275 Y9.069
X140.712 Y8.174
X139.972 Y7.433
X139.939 Y7.41
X139.088 Y6.875
X138.069 Y6.516
X136.876 Y6.385
X18.123 Y6.389
X10.65 Y13.862
Y87.738
X17.871 Y94.96
X17.918 Y95. Z-10.514
X17.971 Y95.032 Z-10.504
X18.022 Y95.054 Z-10.476
X18.075 Y95.069 Z-10.448
X18.119 Y95.075 Z-10.403
X18.163 Y95.077 Z-10.359
X18.22 Y95.071 Z-10.248
X18.239 Y95.068 Z-10.124
G0 Z5.
X29.407 Y6.389
G1 Z-9.591 F380.
X29.399 Z-9.669 F1500.
X29.377 Z-9.744
X29.34 Z-9.813
X29.29 Z-9.873
X29.23 Z-9.923
X29.16 Z-9.96
X29.085 Z-9.983
X29.008 Z-9.991
X18.123 Z-10.004
X10.65 Y13.862 Z-10.016
Y87.738 Z-10.104
X18.123 Y95.211 Z-10.117
X136.943 Z-10.258
X138.068 Y95.084 Z-10.259
X139.088 Y94.725 Z-10.261
X139.966 Y94.173 Z-10.262
X140.706 Y93.433 Z-10.263
X140.729 Y93.399
X141.266 Y92.544 Z-10.264
X141.335 Y92.36 Z-10.265
X141.623 Y91.535 Z-10.266
X141.755 Y90.344 Z-10.267
X141.75 Y11.188 Z-10.361
X141.624 Y10.066 Z-10.363
X141.275 Y9.069 Z-10.364
X140.712 Y8.174 Z-10.365
X139.972 Y7.433 Z-10.366
X139.939 Y7.41
X139.088 Y6.875 Z-10.368
X138.069 Y6.516 Z-10.369
X136.876 Y6.385 Z-10.37
X18.123 Y6.389 Z-10.512
X10.65 Y13.862 Z-10.524
Y87.738 Z-10.612
X18.123 Y95.211 Z-10.625
X136.943 Z-10.766
X138.068 Y95.084 Z-10.767
X139.088 Y94.725 Z-10.769
X139.966 Y94.173 Z-10.77
X140.706 Y93.433 Z-10.771
X140.729 Y93.399
X141.266 Y92.544 Z-10.772
X141.335 Y92.36 Z-10.773
X141.623 Y91.535 Z-10.774
X141.755 Y90.344 Z-10.775
X141.75 Y11.188 Z-10.869
X141.624 Y10.066 Z-10.871
X141.275 Y9.069 Z-10.872
X140.712 Y8.174 Z-10.873
X139.972 Y7.433 Z-10.874
X139.939 Y7.41
X139.088 Y6.875 Z-10.876
X138.069 Y6.516 Z-10.877
X136.876 Y6.385 Z-10.878
X18.123 Y6.389 Z-11.02
X10.724 Y13.788 Z-11.032
X10.65 Y13.862
Y87.738
X18.123 Y95.211
X136.943
X138.068 Y95.084
X139.088 Y94.725
X139.966 Y94.173
X140.706 Y93.433
X140.729 Y93.399
X141.266 Y92.544
X141.335 Y92.36
X141.623 Y91.535
X141.755 Y90.344
X141.75 Y11.188
X141.624 Y10.066
X141.275 Y9.069
X140.712 Y8.174
X139.972 Y7.433
X139.939 Y7.41
X139.088 Y6.875
X138.069 Y6.516
X136.876 Y6.385
X18.123 Y6.389
X10.724 Y13.788
G2 Y14.071 R0.2
X10.788 Y14.114 R0.2
G1 X11.991 Y14.62
G2 X12.148 Y14.619 R0.2
X12.256 Y14.506 R0.2
G1 X12.289 Y14.427
X12.329 Y14.352
X12.401 Y14.228
X12.441 Y14.165
X12.487 Y14.104
X12.586 Y13.98
X12.658 Y13.9
X18.17 Y8.389
X18.26 Y8.309
X18.385 Y8.211
X18.446 Y8.167
X18.51 Y8.128
X18.634 Y8.058
X18.711 Y8.018
X18.792 Y7.986
X18.985 Y7.917
X19.08 Y7.889
X19.177 Y7.87
X19.365 Y7.843
X19.436 Y7.836
X19.507 Y7.833
X137.163 Y7.835
X137.251 Y7.839
X137.339 Y7.851
X137.524 Y7.884
X137.613 Y7.904
X138.306 Y8.094
X138.381 Y8.118
X138.453 Y8.147
X138.579 Y8.204
X138.655 Y8.243
X138.728 Y8.288
X138.898 Y8.403
X138.972 Y8.458
X139.041 Y8.52
X139.578 Y9.053
X139.622 Y9.099
X139.663 Y9.148
X139.773 Y9.29
X139.82 Y9.356
X139.862 Y9.425
X139.931 Y9.551
X139.962 Y9.613
X139.988 Y9.677
X140.036 Y9.802
X140.067 Y9.898
X140.251 Y10.587
X140.266 Y10.655
X140.277 Y10.724
X140.3 Y10.913
X140.308 Y11.034
X140.304 Y90.629
X140.3 Y90.721
X140.287 Y90.812
X140.252 Y91.002
X140.233 Y91.084
X140.043 Y91.772
X140.019 Y91.849
X139.988 Y91.924
X139.931 Y92.049
X139.897 Y92.116
X139.859 Y92.179
X139.771 Y92.313
X139.719 Y92.386
X139.66 Y92.454
X139.458 Y92.667
X139.435 Y92.691
X139.039 Y93.081
X138.971 Y93.143
X138.898 Y93.197
X138.728 Y93.312
X138.641 Y93.365
X138.548 Y93.409
X138.36 Y93.487
X138.299 Y93.51
X138.236 Y93.528
X137.544 Y93.713
X137.473 Y93.729
X137.401 Y93.74
X137.214 Y93.761
X137.1 Y93.768
X19.507 Y93.767
X19.436 Y93.764
X19.365 Y93.757
X19.177 Y93.73
X19.08 Y93.711
X18.985 Y93.683
X18.792 Y93.614
X18.712 Y93.582
X18.634 Y93.543
X18.51 Y93.472
X18.446 Y93.433
X18.385 Y93.389
X18.26 Y93.292
X18.17 Y93.211
X12.658 Y87.7
X12.586 Y87.62
X12.487 Y87.496
X12.441 Y87.436
X12.401 Y87.372
X12.329 Y87.248
X12.281 Y87.154
X12.253 Y87.092
X12.227 Y87.029
X12.206 Y86.965
X12.149 Y86.771
X12.126 Y86.676
X12.113 Y86.579
X12.096 Y86.39
X12.092 Y86.301
X12.094 Y15.236
X12.096 Y15.16
X12.105 Y15.084
X12.134 Y14.896
X12.154 Y14.799
X12.184 Y14.704
X12.255 Y14.511
X12.256 Y14.506
X12.262 Y14.472
X12.254 Y14.439
X12.235 Y14.412
X12.207 Y14.394
X12.173 Y14.388
X12.14 Y14.395
X12.112 Y14.413
X12.094 Y14.442
X12.009 Y14.645
X12.002 Y14.676
X11.86 Y19.285
X11.93 Y19.53
X11.945 Y19.556
X11.968 Y19.574
X11.997 Y19.582
X12.027 Y19.578
X12.052 Y19.562
X12.069 Y19.537
X12.075 Y19.508
Y15.236 Z-11.181
X12.078 Y15.164 Z-11.184
X12.086 Y15.091 Z-11.186
X12.114 Y14.903 Z-11.193
X12.132 Y14.81 Z-11.196
X12.159 Y14.718 Z-11.2
X12.222 Y14.539 Z-11.206
X12.258 Y14.45 Z-11.21
X12.302 Y14.364 Z-11.213
X12.4 Y14.196 Z-11.22
X12.455 Y14.112 Z-11.223
X12.518 Y14.035 Z-11.227
X12.668 Y13.867 Z-11.235
X12.707 Y13.825 Z-11.237
X18.208 Y8.332 Z-11.508
X18.282 Y8.264 Z-11.512
X18.363 Y8.205 Z-11.515
X18.531 Y8.094 Z-11.522
X18.615 Y8.044 Z-11.525
X18.703 Y8.003 Z-11.529
X18.876 Y7.932 Z-11.535
X18.938 Y7.909 Z-11.538
X19.001 Y7.89 Z-11.54
X19.058 Y7.877
X19.246 Y7.839
X19.344 Y7.824
X19.442 Y7.819
X21.702 Y7.814
X137.163 Y7.818
X137.24 Y7.821
X137.316 Y7.829
X137.457 Y7.851
X137.566 Y7.874
X138.304 Y8.075
X138.392 Y8.104
X138.477 Y8.14
X138.665 Y8.231
X138.754 Y8.28
X138.837 Y8.337
X138.992 Y8.455
X139.045 Y8.498
X139.094 Y8.545
X139.63 Y9.085
X139.681 Y9.139
X139.727 Y9.198
X139.812 Y9.313
X139.861 Y9.387
X139.903 Y9.464
X139.996 Y9.653
X140.033 Y9.74
X140.063 Y9.83
X140.263 Y10.565
X140.286 Y10.668
X140.309 Y10.811
X140.319 Y10.891
X140.322 Y10.971
Y90.629
X140.319 Y90.709
X140.309 Y90.79
X140.286 Y90.932
X140.263 Y91.035
X140.063 Y91.77
X140.033 Y91.86
X139.996 Y91.947
X139.903 Y92.136
X139.854 Y92.224
X139.796 Y92.307
X139.677 Y92.462
X139.635 Y92.512
X139.59 Y92.56
X139.05 Y93.095
X138.993 Y93.147
X138.933 Y93.195
X138.817 Y93.279
X138.743 Y93.327
X138.665 Y93.369
X138.477 Y93.46
X138.392 Y93.496
X138.304 Y93.525
X137.566 Y93.726
X137.496 Y93.742
X137.426 Y93.753
X137.222 Y93.778
X137.1 Y93.786
X19.507 Y93.785
X19.439 Y93.783
X19.372 Y93.776
X19.184 Y93.75
X19.09 Y93.733
X18.999 Y93.707
X18.819 Y93.646
X18.729 Y93.611
X18.644 Y93.568
X18.476 Y93.472
X18.391 Y93.418
X18.311 Y93.355
X18.143 Y93.208
X18.095 Y93.163
X12.6 Y87.662
X12.536 Y87.592
X12.479 Y87.516
X12.366 Y87.348
X12.33 Y87.292
X12.299 Y87.234
X12.271 Y87.178
X12.244 Y87.12
X12.222 Y87.061
X12.159 Y86.882
X12.132 Y86.79
X12.114 Y86.697
X12.086 Y86.509
X12.078 Y86.436
X12.075 Y86.364
Y15.236
X12.078 Y15.164
X12.086 Y15.091
X12.114 Y14.903
X12.132 Y14.81
X12.159 Y14.718
X12.222 Y14.539
X12.258 Y14.45
X12.302 Y14.364
X12.4 Y14.196
X12.455 Y14.112
X12.518 Y14.035
X12.668 Y13.867
X12.707 Y13.825
X18.208 Y8.332
X18.282 Y8.264
X18.363 Y8.205
X18.531 Y8.094
X18.615 Y8.044
X18.703 Y8.003
X18.876 Y7.932
X18.938 Y7.909
X19.001 Y7.89
G2 X19.13 Y7.785 R0.2
X19.133 Y7.618 R0.2
G1 X18.655 Y6.51
X18.632 Y6.469
X18.6 Y6.436
X18.561 Y6.41
X18.518 Y6.394
X18.471 Y6.389
X18.123
X10.65 Y13.862
Y87.738
X18.123 Y95.211
X136.943
X138.068 Y95.084
X139.088 Y94.725
X139.966 Y94.173
X140.706 Y93.433
X140.729 Y93.399
X141.266 Y92.544
X141.335 Y92.36
X141.623 Y91.535
X141.755 Y90.344
X141.75 Y11.188
X141.624 Y10.066
X141.275 Y9.069
X140.712 Y8.174
X139.972 Y7.433
X139.939 Y7.41
X139.088 Y6.875
X138.069 Y6.516
X136.876 Y6.385
X18.471 Y6.389
X18.41 Y6.394 Z-11.53
X18.35 Y6.408 Z-11.52
X18.298 Y6.428 Z-11.492
X18.25 Y6.456 Z-11.464
X18.214 Y6.483 Z-11.419
X18.182 Y6.513 Z-11.375
X18.146 Y6.557 Z-11.264
X18.135 Y6.573 Z-11.14
G0 Z5.
X10.65 Y77.135
G1 Z-10.607 F380.
Y77.143 Z-10.685 F1500.
Y77.166 Z-10.76
Y77.202 Z-10.829
Y77.252 Z-10.889
Y77.313 Z-10.939
Y77.382 Z-10.976
Y77.457 Z-10.999
Y77.535 Z-11.007
Y87.738 Z-11.019
X18.123 Y95.211 Z-11.031
X136.943 Z-11.173
X138.068 Y95.084 Z-11.174
X139.088 Y94.725 Z-11.175
X139.966 Y94.173 Z-11.177
X140.706 Y93.433 Z-11.178
X140.729 Y93.399
X141.266 Y92.544 Z-11.179
X141.335 Y92.36
X141.623 Y91.535 Z-11.18
X141.755 Y90.344 Z-11.182
X141.75 Y11.188 Z-11.276
X141.624 Y10.066 Z-11.277
X141.275 Y9.069 Z-11.279
X140.712 Y8.174 Z-11.28
X139.972 Y7.433 Z-11.281
X139.939 Y7.41
X139.088 Y6.875 Z-11.282
X138.069 Y6.516 Z-11.284
X136.876 Y6.385 Z-11.285
X18.123 Y6.389 Z-11.426
X10.65 Y13.862 Z-11.439
Y87.738 Z-11.527
X18.123 Y95.211 Z-11.539
X136.943 Z-11.681
X138.068 Y95.084 Z-11.682
X139.088 Y94.725 Z-11.683
X139.966 Y94.173 Z-11.685
X140.706 Y93.433 Z-11.686
X140.729 Y93.399
X141.266 Y92.544 Z-11.687
X141.335 Y92.36
X141.623 Y91.535 Z-11.688
X141.755 Y90.344 Z-11.69
X141.75 Y11.188 Z-11.784
X141.624 Y10.066 Z-11.785
X141.275 Y9.069 Z-11.787
X140.712 Y8.174 Z-11.788
X139.972 Y7.433 Z-11.789
X139.939 Y7.41
X139.088 Y6.875 Z-11.79
X138.069 Y6.516 Z-11.792
X136.876 Y6.385 Z-11.793
X18.123 Y6.389 Z-11.934
X10.65 Y13.862 Z-11.947
Y87.738 Z-12.035
X18.123 Y95.211 Z-12.047
X18.7 Z-12.048
X136.943
X138.068 Y95.084
X139.088 Y94.725
X139.966 Y94.173
X140.706 Y93.433
X140.729 Y93.399
X141.266 Y92.544
X141.335 Y92.36
X141.623 Y91.535
X141.755 Y90.344
X141.75 Y11.188
X141.624 Y10.066
X141.275 Y9.069
X140.712 Y8.174
X139.972 Y7.433
X139.939 Y7.41
X139.088 Y6.875
X138.069 Y6.516
X136.876 Y6.385
X18.123 Y6.389
X10.65 Y13.862
Y87.738
X18.123 Y95.211
X18.7
G2 X18.842 Y95.152 R0.2
X18.9 Y95.01 R0.2
G1 X18.891 Y93.829
X18.886 Y93.782
X18.869 Y93.737
X18.842 Y93.698
X18.806 Y93.666
X18.765 Y93.644
X18.727 Y93.629
X18.647 Y93.593
X18.57 Y93.551
X18.419 Y93.458
X18.32 Y93.389
X18.27 Y93.349
X18.185 Y93.273
X12.595 Y87.684
X12.54 Y87.625
X12.49 Y87.561
X12.381 Y87.409
X12.316 Y87.306
X12.289 Y87.255
X12.239 Y87.151
X12.174 Y86.99
X12.143 Y86.904
X12.121 Y86.815
X12.082 Y86.627
X12.067 Y86.531
X12.062 Y86.434
X12.056 Y85.681
Y85.674
X12.057 Y15.236
X12.06 Y15.167
X12.067 Y15.099
X12.093 Y14.911
X12.11 Y14.819
X12.136 Y14.728
X12.195 Y14.554
X12.227 Y14.471
X12.266 Y14.391
X12.349 Y14.241
X12.387 Y14.177
X12.43 Y14.116
X12.508 Y14.016
X12.55 Y13.964
X12.595 Y13.916
X18.185 Y8.327
X18.249 Y8.268
X18.318 Y8.215
X18.469 Y8.11
X18.543 Y8.062
X18.62 Y8.022
X18.77 Y7.952
X18.854 Y7.918
X18.94 Y7.891
X19.128 Y7.842
X19.221 Y7.822
X19.315 Y7.811
X19.503 Y7.799
X19.57 Y7.796
X137.163 Y7.8
X137.244 Y7.803
X137.325 Y7.813
X137.482 Y7.839
X137.582 Y7.861
X138.304 Y8.057
X138.387 Y8.083
X138.468 Y8.117
X138.656 Y8.206
X138.737 Y8.248
X138.813 Y8.298
X138.938 Y8.387
X139.002 Y8.437
X139.062 Y8.493
X139.642 Y9.073
X139.696 Y9.131
X139.745 Y9.193
X139.836 Y9.317
X139.886 Y9.393
X139.929 Y9.473
X140.019 Y9.662
X140.054 Y9.746
X140.082 Y9.833
X140.289 Y10.6
X140.306 Y10.673
X140.317 Y10.747
X140.337 Y10.921
X140.343 Y11.034
X140.34 Y90.629
X140.336 Y90.714
X140.325 Y90.798
X140.298 Y90.957
X140.277 Y91.051
X140.081 Y91.77
X140.054 Y91.856
X140.019 Y91.939
X139.928 Y92.127
X139.886 Y92.207
X139.836 Y92.283
X139.745 Y92.407
X139.696 Y92.469
X139.642 Y92.527
X139.062 Y93.107
X139.002 Y93.163
X138.938 Y93.213
X138.813 Y93.302
X138.737 Y93.352
X138.656 Y93.394
X138.468 Y93.483
X138.386 Y93.517
X138.301 Y93.544
X137.532 Y93.751
X137.456 Y93.768
X137.38 Y93.779
X137.207 Y93.798
X137.1 Y93.803
X19.444 Y93.799
X19.348 Y93.794
X19.254 Y93.781
X19.065 Y93.744
X18.976 Y93.723
X18.89 Y93.693
X18.765 Y93.644
X18.706 Y93.626 Z-12.038
X18.645 Y93.617 Z-12.028
X18.589 Z-12.
X18.534 Y93.625 Z-11.972
X18.491 Y93.637 Z-11.927
X18.45 Y93.653 Z-11.883
X18.4 Y93.681 Z-11.772
X18.384 Y93.692 Z-11.648
G0 Z5.
X12.043 Y26.175
G1 Z-11.115 F380.
Y26.168 Z-11.193 F1500.
Y26.145 Z-11.268
Y26.108 Z-11.337
Y26.058 Z-11.397
Y25.998 Z-11.447
Y25.929 Z-11.484
Y25.854 Z-11.507
Y25.776 Z-11.515
X12.044 Y15.174 Z-11.527
X12.048 Y15.076 Z-11.528
X12.062 Y14.98
X12.099 Y14.792
X12.119 Y14.711
X12.145 Y14.632
X12.195 Y14.5
X12.227 Y14.425
X12.265 Y14.353 Z-11.529
X12.357 Y14.193
X12.398 Y14.129
X12.442 Y14.068
X12.515 Y13.977
X12.589 Y13.895
X18.164 Y8.321 Z-11.539
X18.219 Y8.27
X18.276 Y8.224
X18.412 Y8.124
X18.49 Y8.072
X18.572 Y8.027
X18.759 Y7.937 Z-11.54
X18.851 Y7.898
X18.947 Y7.869
X19.135 Y7.821
X19.227 Y7.802
X19.321 Y7.792
X19.509 Y7.781 Z-11.541
X19.57 Y7.779
X137.163 Y7.782 Z-11.684
X137.248 Y7.786
X137.333 Y7.797
X137.507 Y7.827
X137.598 Y7.847
X138.303 Y8.038 Z-11.685
X138.382 Y8.063
X138.459 Y8.095
X138.648 Y8.181 Z-11.686
X138.73 Y8.224
X138.808 Y8.274
X138.943 Y8.369
X139.009 Y8.421
X139.071 Y8.477
X139.658 Y9.063 Z-11.687
X139.713 Y9.123
X139.763 Y9.188
X139.859 Y9.322 Z-11.688
X139.91 Y9.4
X139.954 Y9.482
X140.041 Y9.67
X140.074 Y9.75
X140.1 Y9.833
X140.305 Y10.592 Z-11.689
X140.321 Y10.662
X140.332 Y10.734
X140.354 Y10.916 Z-11.69
X140.361 Y11.034
X140.357 Y90.629 Z-11.787
X140.353 Y90.718
X140.342 Y90.806
X140.31 Y90.982
X140.291 Y91.067
X140.1 Y91.769 Z-11.788
X140.074 Y91.851
X140.041 Y91.93
X139.953 Y92.118
X139.91 Y92.2 Z-11.789
X139.859 Y92.279
X139.763 Y92.412
X139.713 Y92.477
X139.658 Y92.537
X139.071 Y93.123 Z-11.79
X139.009 Y93.179
X138.943 Y93.231
X138.808 Y93.326 Z-11.791
X138.73 Y93.376
X138.648 Y93.419
X138.459 Y93.505
X138.381 Y93.537
X138.301 Y93.563
X137.54 Y93.767 Z-11.792
X137.467 Y93.784
X137.392 Y93.795
X137.211 Y93.815 Z-11.793
X137.1 Y93.821
X19.444 Y93.817 Z-11.936
X19.352 Y93.813
X19.261 Y93.801
X19.073 Y93.766
X18.992 Y93.747
X18.912 Y93.722
X18.779 Y93.673 Z-11.937
X18.703 Y93.642
X18.631 Y93.604
X18.47 Y93.513
X18.406 Y93.474
X18.345 Y93.43
X18.255 Y93.36
X18.164 Y93.279 Z-11.938
X12.589 Y87.705 Z-11.947
X12.542 Y87.654
X12.498 Y87.601
X12.395 Y87.465
X12.333 Y87.372 Z-11.948
X12.306 Y87.327
X12.258 Y87.236
X12.194 Y87.097
X12.161 Y87.017
X12.135 Y86.934
X12.085 Y86.745
X12.065 Y86.653 Z-11.949
X12.054 Y86.558
X12.041 Y86.37
X12.039 Y86.301
X12.044 Y15.174 Z-12.035
X12.048 Y15.076 Z-12.036
X12.062 Y14.98
X12.099 Y14.792
X12.119 Y14.711
X12.145 Y14.632
X12.195 Y14.5
X12.227 Y14.425
X12.265 Y14.353 Z-12.037
X12.357 Y14.193
X12.398 Y14.129
X12.442 Y14.068
X12.515 Y13.977
X12.589 Y13.895
X18.164 Y8.321 Z-12.047
X18.219 Y8.27
X18.276 Y8.224
X18.412 Y8.124
X18.49 Y8.072
X18.572 Y8.027
X18.759 Y7.937 Z-12.048
X18.851 Y7.898
X18.947 Y7.869
X19.135 Y7.821
X19.227 Y7.802
X19.321 Y7.792
X19.509 Y7.781 Z-12.049
X19.57 Y7.779
X137.163 Y7.782 Z-12.192
X137.248 Y7.786
X137.333 Y7.797
X137.507 Y7.827
X137.598 Y7.847
X138.303 Y8.038 Z-12.193
X138.382 Y8.063
X138.459 Y8.095
X138.648 Y8.181 Z-12.194
X138.73 Y8.224
X138.808 Y8.274
X138.943 Y8.369
X139.009 Y8.421
X139.071 Y8.477
X139.658 Y9.063 Z-12.195
X139.713 Y9.123
X139.763 Y9.188
X139.859 Y9.322 Z-12.196
X139.91 Y9.4
X139.954 Y9.482
X140.041 Y9.67
X140.074 Y9.75
X140.1 Y9.833
X140.305 Y10.592 Z-12.197
X140.321 Y10.662
X140.332 Y10.734
X140.354 Y10.916 Z-12.198
X140.361 Y11.034
X140.357 Y90.629 Z-12.295
X140.353 Y90.718
X140.342 Y90.806
X140.31 Y90.982
X140.291 Y91.067
X140.1 Y91.769 Z-12.296
X140.074 Y91.851
X140.041 Y91.93
X139.953 Y92.118
X139.91 Y92.2 Z-12.297
X139.859 Y92.279
X139.763 Y92.412
X139.713 Y92.477
X139.658 Y92.537
X139.071 Y93.123 Z-12.298
X139.009 Y93.179
X138.943 Y93.231
X138.808 Y93.326 Z-12.299
X138.73 Y93.376
X138.648 Y93.419
X138.459 Y93.505
X138.381 Y93.537
X138.301 Y93.563
X137.54 Y93.767 Z-12.3
X137.467 Y93.784
X137.392 Y93.795
X137.211 Y93.815 Z-12.301
X137.1 Y93.821
X19.444 Y93.817 Z-12.444
X19.352 Y93.813
X19.261 Y93.801
X19.073 Y93.766
X18.992 Y93.747
X18.912 Y93.722
X18.779 Y93.673 Z-12.445
X18.703 Y93.642
X18.631 Y93.604
X18.47 Y93.513
X18.406 Y93.474
X18.345 Y93.43
X18.255 Y93.36
X18.164 Y93.279 Z-12.446
X12.589 Y87.705 Z-12.455
X12.542 Y87.654
X12.498 Y87.601
X12.395 Y87.465
X12.333 Y87.372 Z-12.456
X12.306 Y87.327
X12.258 Y87.236
X12.194 Y87.097
X12.161 Y87.017
X12.135 Y86.934
X12.085 Y86.745
X12.065 Y86.653 Z-12.457
X12.054 Y86.558
X12.041 Y86.37
X12.039 Y86.301
X12.044 Y15.174 Z-12.543
X12.048 Y15.076 Z-12.544
X12.062 Y14.98
X12.099 Y14.792
X12.119 Y14.711
X12.145 Y14.632
X12.195 Y14.5
X12.227 Y14.425
X12.265 Y14.353 Z-12.545
X12.357 Y14.193
X12.398 Y14.129
X12.442 Y14.068
X12.515 Y13.977
X12.589 Y13.895
X18.164 Y8.321 Z-12.555
X18.219 Y8.27
X18.276 Y8.224
X18.412 Y8.124
X18.49 Y8.072
X18.572 Y8.027
X18.759 Y7.937 Z-12.556
X18.851 Y7.898
X18.947 Y7.869
X19.012 Y7.852
X19.135 Y7.821
X19.227 Y7.802
X19.321 Y7.792
X19.509 Y7.781
X19.57 Y7.779
X137.163 Y7.782
X137.248 Y7.786
X137.333 Y7.797
X137.507 Y7.827
X137.598 Y7.847
X138.303 Y8.038
X138.382 Y8.063
X138.459 Y8.095
X138.648 Y8.181
X138.73 Y8.224
X138.808 Y8.274
X138.943 Y8.369
X139.009 Y8.421
X139.071 Y8.477
X139.658 Y9.063
X139.713 Y9.123
X139.763 Y9.188
X139.859 Y9.322
X139.91 Y9.4
X139.954 Y9.482
X140.041 Y9.67
X140.074 Y9.75
X140.1 Y9.833
X140.305 Y10.592
X140.321 Y10.662
X140.332 Y10.734
X140.354 Y10.916
X140.361 Y11.034
X140.357 Y90.629
X140.353 Y90.718
X140.342 Y90.806
X140.31 Y90.982
X140.291 Y91.067
X140.1 Y91.769
X140.074 Y91.851
X140.041 Y91.93
X139.953 Y92.118
X139.91 Y92.2
X139.859 Y92.279
X139.763 Y92.412
X139.713 Y92.477
X139.658 Y92.537
X139.071 Y93.123
X139.009 Y93.179
X138.943 Y93.231
X138.808 Y93.326
X138.73 Y93.376
X138.648 Y93.419
X138.459 Y93.505
X138.381 Y93.537
X138.301 Y93.563
X137.54 Y93.767
X137.467 Y93.784
X137.392 Y93.795
X137.211 Y93.815
X137.1 Y93.821
X19.444 Y93.817
X19.352 Y93.813
X19.261 Y93.801
X19.073 Y93.766
X18.992 Y93.747
X18.912 Y93.722
X18.779 Y93.673
X18.703 Y93.642
X18.631 Y93.604
X18.47 Y93.513
X18.406 Y93.474
X18.345 Y93.43
X18.255 Y93.36
X18.164 Y93.279
X12.589 Y87.705
X12.542 Y87.654
X12.498 Y87.601
X12.395 Y87.465
X12.333 Y87.372
X12.306 Y87.327
X12.258 Y87.236
X12.194 Y87.097
X12.161 Y87.017
X12.135 Y86.934
X12.085 Y86.745
X12.065 Y86.653
X12.054 Y86.558
X12.041 Y86.37
X12.039 Y86.301
X12.044 Y15.174
X12.048 Y15.076
X12.062 Y14.98
X12.099 Y14.792
X12.119 Y14.711
X12.145 Y14.632
X12.195 Y14.5
X12.227 Y14.425
X12.265 Y14.353
X12.357 Y14.193
X12.398 Y14.129
X12.442 Y14.068
X12.515 Y13.977
X12.589 Y13.895
X18.164 Y8.321
X18.219 Y8.27
X18.276 Y8.224
X18.412 Y8.124
X18.49 Y8.072
X18.572 Y8.027
X18.759 Y7.937
X18.851 Y7.898
X18.947 Y7.869
X19.012 Y7.852
G2 X19.157 Y7.609 R0.2
X19.144 Y7.574 R0.2
G1 X18.644 Y6.504
X18.621 Y6.466
X18.589 Y6.433
X18.551 Y6.409
X18.508 Y6.394
X18.463 Y6.389
X18.123
X10.65 Y13.862
Y87.738
X18.123 Y95.211
X136.943
X138.068 Y95.084
X139.088 Y94.725
X139.966 Y94.173
X140.706 Y93.433
X140.729 Y93.399
X141.266 Y92.544
X141.335 Y92.36
X141.623 Y91.535
X141.755 Y90.344
X141.75 Y11.188
X141.624 Y10.066
X141.275 Y9.069
X140.712 Y8.174
X139.972 Y7.433
X139.939 Y7.41
X139.088 Y6.875
X138.069 Y6.516
X136.876 Y6.385
X18.463 Y6.389
G2 X18.263 Y6.589 R0.2
X18.463 Y6.789 R0.2
G1 X32.759 Y6.788
G2 X32.959 Y6.588 R0.2
X32.9 Y6.447 R0.2
X32.759 Y6.388 R0.2
G1 X18.212 Y6.389 Z-13.064
X18.123
X10.65 Y13.862
Y87.738
X18.123 Y95.211
X136.943
X138.068 Y95.084
X139.088 Y94.725
X139.966 Y94.173
X140.706 Y93.433
X140.729 Y93.399
X141.266 Y92.544
X141.335 Y92.36
X141.623 Y91.535
X141.755 Y90.344
X141.75 Y11.188
X141.624 Y10.066
X141.275 Y9.069
X140.712 Y8.174
X139.972 Y7.433
X139.939 Y7.41
X139.088 Y6.875
X138.069 Y6.516
X136.876 Y6.385
X18.212 Y6.389
G2 X18.012 Y6.589 R0.2
X18.027 Y6.665 R0.2
G1 X18.495 Y7.808
G2 X18.605 Y7.917 R0.2
X18.76 Y7.915 R0.2
G1 X18.793 Y7.901
X18.873 Y7.87
X18.954 Y7.846
X19.143 Y7.8
X19.206 Y7.787
X19.269 Y7.778
X19.332 Y7.77
X19.444 Y7.764
X137.163
X137.252 Y7.768
X137.34 Y7.78
X137.528 Y7.814
X137.612 Y7.833
X138.306 Y8.021
X138.381 Y8.044
X138.455 Y8.074
X138.64 Y8.157
X138.724 Y8.2
X138.804 Y8.251
X138.948 Y8.351
X139.016 Y8.404
X139.08 Y8.462
X139.673 Y9.054
X139.73 Y9.116
X139.781 Y9.183
X139.883 Y9.326
X139.934 Y9.405
X139.977 Y9.488
X140.06 Y9.67
X140.092 Y9.747
X140.117 Y9.826
X140.321 Y10.585
X140.337 Y10.655
X140.349 Y10.725
X140.371 Y10.913
X140.379 Y11.034
X140.375 Y90.629
X140.371 Y90.721
X140.358 Y90.812
X140.323 Y91.
X140.305 Y91.079
X140.116 Y91.775
X140.091 Y91.854
X140.06 Y91.93
X139.977 Y92.112
X139.934 Y92.195
X139.883 Y92.274
X139.781 Y92.417
X139.73 Y92.484
X139.673 Y92.546
X139.08 Y93.138
X139.016 Y93.196
X138.948 Y93.249
X138.804 Y93.349
X138.724 Y93.4
X138.64 Y93.443
X138.455 Y93.526
X138.38 Y93.556
X138.304 Y93.58
X137.548 Y93.783
X137.476 Y93.799
X137.403 Y93.811
X137.215 Y93.832
X137.1 Y93.839
X19.444 Y93.836
X19.356 Y93.832
X19.269 Y93.82
X19.08 Y93.787
X18.994 Y93.767
X18.91 Y93.74
X18.757 Y93.684
X18.674 Y93.649
X18.594 Y93.607
X18.424 Y93.506
X18.36 Y93.465
X18.3 Y93.419
X18.219 Y93.353
X18.145 Y93.286
X12.545 Y87.683
X12.49 Y87.622
X12.439 Y87.557
X12.352 Y87.435
X12.305 Y87.362
X12.264 Y87.286
X12.179 Y87.109
X12.142 Y87.019
X12.113 Y86.926
X12.064 Y86.738
X12.045 Y86.646
X12.035 Y86.552
X12.023 Y86.364
X12.021 Y86.301
X12.025 Y15.174
X12.029 Y15.08
X12.043 Y14.988
X12.078 Y14.8
X12.098 Y14.714
X12.126 Y14.63
X12.184 Y14.479
X12.219 Y14.396
X12.262 Y14.317
X12.365 Y14.148
X12.407 Y14.084
X12.453 Y14.024
X12.521 Y13.942
X12.582 Y13.876
X18.186 Y8.279
X18.26 Y8.211
X18.341 Y8.152
X18.507 Y8.042
X18.581 Y7.998
X18.658 Y7.96
X18.76 Y7.915
G2 X18.864 Y7.652 R0.2
X18.654 Y7.534 R0.2
G1 X17.929 Y7.629
X17.89 Y7.638
X17.853 Y7.655
X17.821 Y7.679
G2 X14.456 Y10.763 R327.416
X11.444 Y14.191 R22.65
X11.036 Y16.45 R2.686
G3 X11.337 Y18.727 R8.749
G1 X11.341 Y18.765
X11.352 Y18.801
X11.621 Y19.471
G2 X11.881 Y19.581 R0.2
X12.007 Y19.396 R0.2
G1 Y15.174 Z-13.211
X12.011 Y15.084 Z-13.215
X12.023 Y14.995 Z-13.218
X12.057 Y14.807 Z-13.224
X12.078 Y14.716 Z-13.228
X12.107 Y14.628 Z-13.231
X12.172 Y14.459 Z-13.237
X12.206 Y14.38 Z-13.24
X12.247 Y14.303 Z-13.243
X12.332 Y14.161 Z-13.249
X12.374 Y14.097 Z-13.252
X12.421 Y14.036 Z-13.254
X12.511 Y13.927 Z-13.259
X12.574 Y13.858 Z-13.263
X18.163 Y8.274 Z-13.539
X18.229 Y8.213 Z-13.542
X18.301 Y8.159 Z-13.545
X18.462 Y8.047 Z-13.552
X18.541 Y7.998 Z-13.555
X18.625 Y7.956 Z-13.558
X18.786 Y7.884 Z-13.564
X18.873 Y7.85 Z-13.568
X18.962 Y7.824 Z-13.571
X18.995 Y7.816 Z-13.572
X19.15 Y7.78
X19.25 Y7.761
X19.352 Y7.753
X19.666 Y7.744
X19.695 Y7.743
X137.163 Y7.747
X137.252 Y7.751
X137.34 Y7.762
X137.528 Y7.796
X137.614 Y7.816
X138.332 Y8.011
X138.408 Y8.035
X138.483 Y8.065
X138.643 Y8.138
X138.724 Y8.179
X138.8 Y8.227
X138.953 Y8.333
X139.023 Y8.387
X139.089 Y8.447
X139.688 Y9.045
X139.747 Y9.109
X139.799 Y9.178
X139.906 Y9.33
X139.955 Y9.405
X139.996 Y9.485
X140.068 Y9.642
X140.101 Y9.72
X140.126 Y9.8
X140.339 Y10.584
X140.355 Y10.654
X140.366 Y10.725
X140.389 Y10.913
X140.396 Y11.034
X140.393 Y90.629
X140.389 Y90.721
X140.376 Y90.812
X140.341 Y91.
X140.323 Y91.08
X140.126 Y91.802
X140.1 Y91.881
X140.068 Y91.958
X139.996 Y92.115
X139.955 Y92.195
X139.906 Y92.27
X139.799 Y92.422
X139.747 Y92.491
X139.688 Y92.555
X139.089 Y93.153
X139.023 Y93.213
X138.953 Y93.267
X138.8 Y93.373
X138.724 Y93.421
X138.643 Y93.462
X138.482 Y93.535
X138.407 Y93.565
X138.33 Y93.589
X137.549 Y93.8
X137.476 Y93.817
X137.403 Y93.828
X137.215 Y93.85
X137.1 Y93.857
X19.444 Y93.854
X19.36 Y93.851
X19.276 Y93.84
X19.088 Y93.808
X18.996 Y93.788
X18.908 Y93.759
X18.737 Y93.696
X18.657 Y93.662
X18.58 Y93.622
X18.436 Y93.537
X18.372 Y93.496
X18.311 Y93.451
X18.203 Y93.363
X18.127 Y93.294
X12.54 Y87.705
X12.493 Y87.654
X12.449 Y87.6
X12.367 Y87.492
X12.322 Y87.427
X12.282 Y87.358
X12.198 Y87.199
X12.159 Y87.116
X12.127 Y87.03
X12.071 Y86.851
X12.051 Y86.776
X12.036 Y86.699
X12.018 Y86.573
X12.009 Y86.5
X12.007 Y86.426
Y15.174
X12.011 Y15.084
X12.023 Y14.995
X12.057 Y14.807
X12.078 Y14.716
X12.107 Y14.628
X12.172 Y14.459
X12.206 Y14.38
X12.247 Y14.303
X12.332 Y14.161
X12.374 Y14.097
X12.421 Y14.036
X12.511 Y13.927
X12.574 Y13.858
X18.163 Y8.274
X18.229 Y8.213
X18.301 Y8.159
X18.462 Y8.047
X18.541 Y7.998
X18.625 Y7.956
X18.786 Y7.884
X18.873 Y7.85
X18.962 Y7.824
X18.995 Y7.816
G2 X19.143 Y7.576 R0.2
X19.129 Y7.536 R0.2
G1 X18.636 Y6.503
X18.605 Y6.456
X18.562 Y6.42
X18.511 Y6.397
X18.456 Y6.389
X18.123
X10.65 Y13.862
Y87.738
X18.123 Y95.211
X136.943
X138.068 Y95.084
X139.088 Y94.725
X139.966 Y94.173
X140.706 Y93.433
X140.729 Y93.399
X141.266 Y92.544
X141.335 Y92.36
X141.623 Y91.535
X141.755 Y90.344
X141.75 Y11.188
X141.624 Y10.066
X141.275 Y9.069
X140.712 Y8.174
X139.972 Y7.433
X139.939 Y7.41
X139.088 Y6.875
X138.069 Y6.516
X136.876 Y6.385
X18.456 Y6.389
X18.394 Y6.394 Z-13.562
X18.334 Y6.408 Z-13.552
X18.282 Y6.428 Z-13.524
X18.234 Y6.456 Z-13.496
X18.199 Y6.483 Z-13.451
X18.166 Y6.513 Z-13.407
X18.13 Y6.557 Z-13.296
X18.119 Y6.573 Z-13.172
G0 Z5.
X10.65 Y65.908
G1 Z-12.639 F380.
Y65.916 Z-12.717 F1500.
Y65.939 Z-12.792
Y65.976 Z-12.861
Y66.025 Z-12.921
Y66.086 Z-12.971
Y66.155 Z-13.008
Y66.23 Z-13.031
Y66.308 Z-13.039
Y87.738 Z-13.064
X18.123 Y95.211 Z-13.077
X136.943 Z-13.218
X138.068 Y95.084 Z-13.219
X139.088 Y94.725 Z-13.221
X139.966 Y94.173 Z-13.222
X140.706 Y93.433 Z-13.223
X140.729 Y93.399
X141.266 Y92.544 Z-13.224
X141.335 Y92.36 Z-13.225
X141.623 Y91.535 Z-13.226
X141.755 Y90.344 Z-13.227
X141.75 Y11.188 Z-13.321
X141.624 Y10.066 Z-13.323
X141.275 Y9.069 Z-13.324
X140.712 Y8.174 Z-13.325
X139.972 Y7.433 Z-13.326
X139.939 Y7.41
X139.088 Y6.875 Z-13.328
X138.069 Y6.516 Z-13.329
X136.876 Y6.385 Z-13.33
X18.123 Y6.389 Z-13.472
X10.65 Y13.862 Z-13.484
Y87.738 Z-13.572
X18.123 Y95.211 Z-13.585
X136.943 Z-13.726
X138.068 Y95.084 Z-13.727
X139.088 Y94.725 Z-13.729
X139.966 Y94.173 Z-13.73
X140.706 Y93.433 Z-13.731
X140.729 Y93.399
X141.266 Y92.544 Z-13.732
X141.335 Y92.36 Z-13.733
X141.623 Y91.535 Z-13.734
X141.755 Y90.344 Z-13.735
X141.75 Y11.188 Z-13.829
X141.624 Y10.066 Z-13.831
X141.275 Y9.069 Z-13.832
X140.712 Y8.174 Z-13.833
X139.972 Y7.433 Z-13.834
X139.939 Y7.41
X139.088 Y6.875 Z-13.836
X138.069 Y6.516 Z-13.837
X136.876 Y6.385 Z-13.838
X18.123 Y6.389 Z-13.98
X10.65 Y13.862 Z-13.992
Y87.657 Z-14.08
Y87.738
X18.123 Y95.211
X136.943
X138.068 Y95.084
X139.088 Y94.725
X139.966 Y94.173
X140.706 Y93.433
X140.729 Y93.399
X141.266 Y92.544
X141.335 Y92.36
X141.623 Y91.535
X141.755 Y90.344
X141.75 Y11.188
X141.624 Y10.066
X141.275 Y9.069
X140.712 Y8.174
X139.972 Y7.433
X139.939 Y7.41
X139.088 Y6.875
X138.069 Y6.516
X136.876 Y6.385
X18.123 Y6.389
X10.65 Y13.862
Y87.657
X10.658 Y87.702
X10.68 Y87.742
X10.715 Y87.772
X10.758 Y87.789
X10.804 Y87.79
X10.848 Y87.776
X11.416 Y87.475
X11.447 Y87.463
X12.058 Y87.327
X12.101 Y87.31
X12.135 Y87.279
X12.157 Y87.238
X12.163 Y87.192
X12.155 Y87.147
X12.088 Y86.974
X12.057 Y86.881
X12.036 Y86.786
X12.003 Y86.598
X11.992 Y86.512
X11.988 Y86.426
Y15.174
X11.992 Y15.088
X12.003 Y15.003
X12.036 Y14.814
X12.057 Y14.719
X12.088 Y14.626
X12.159 Y14.441
X12.193 Y14.362
X12.234 Y14.287
X12.307 Y14.164
X12.349 Y14.1
X12.397 Y14.038
X12.503 Y13.91
X12.565 Y13.842
X18.11 Y8.297
X18.185 Y8.229
X18.312 Y8.126
X18.373 Y8.08
X18.438 Y8.038
X18.563 Y7.965
X18.639 Y7.925
X18.719 Y7.891
X18.906 Y7.821
X18.999 Y7.792
X19.095 Y7.771
X19.283 Y7.741
X19.363 Y7.731
X19.444 Y7.728
X137.163 Y7.729
X137.252 Y7.733
X137.34 Y7.745
X137.528 Y7.779
X137.615 Y7.798
X138.359 Y8.002
X138.436 Y8.026
X138.51 Y8.057
X138.646 Y8.119
X138.723 Y8.158
X138.796 Y8.204
X138.958 Y8.315
X139.031 Y8.37
X139.098 Y8.432
X139.703 Y9.036
X139.763 Y9.102
X139.817 Y9.173
X139.93 Y9.334
X139.981 Y9.416
X140.024 Y9.503
X140.102 Y9.679
X140.129 Y9.749
X140.152 Y9.821
X140.357 Y10.586
X140.373 Y10.655
X140.384 Y10.725
X140.407 Y10.913
X140.414 Y11.034
X140.411 Y90.629
X140.406 Y90.721
X140.394 Y90.812
X140.359 Y91.
X140.34 Y91.082
X140.134 Y91.828
X140.109 Y91.909
X140.076 Y91.986
X140.015 Y92.118
X139.975 Y92.194
X139.929 Y92.266
X139.817 Y92.427
X139.763 Y92.498
X139.703 Y92.564
X139.098 Y93.168
X139.031 Y93.23
X138.958 Y93.285
X138.796 Y93.396
X138.713 Y93.447
X138.624 Y93.491
X138.443 Y93.568
X138.376 Y93.594
X138.307 Y93.615
X137.547 Y93.819
X137.475 Y93.835
X137.403 Y93.846
X137.215 Y93.868
X137.1 Y93.874
X19.444 Y93.872
X19.363 Y93.869
X19.283 Y93.859
X19.095 Y93.829
X18.999 Y93.808
X18.906 Y93.779
X18.719 Y93.709
X18.639 Y93.675
X18.563 Y93.635
X18.438 Y93.562
X18.373 Y93.52
X18.312 Y93.474
X18.185 Y93.371
X18.11 Y93.302
X12.507 Y87.694
X12.461 Y87.644
X12.418 Y87.592
X12.37 Y87.528
X12.307 Y87.436
X12.234 Y87.313
X12.193 Y87.238
X12.159 Y87.159
X12.155 Y87.147
G2 X11.896 Y87.032 R0.2
X11.769 Y87.244 R0.2
G1 X11.855 Y87.925
X11.865 Y87.965
X11.882 Y88.003
X11.907 Y88.036
G3 X15.012 Y91.403 R350.972
G2 X18.444 Y94.435 R21.06
X20.702 Y94.839 R2.708
G3 X22.976 Y94.542 R8.842
G1 X23.012 Y94.538
X23.048 Y94.528
X23.699 Y94.277
G2 X23.814 Y94.018 R0.2
X23.627 Y93.89 R0.2
G1 X19.444 Z-14.226
X19.367 Y93.887 Z-14.229
X19.291 Y93.879 Z-14.231
X19.102 Y93.849 Z-14.238
X19.021 Y93.833 Z-14.241
X18.941 Y93.81 Z-14.244
X18.808 Y93.766 Z-14.249
X18.738 Y93.74 Z-14.251
X18.671 Y93.709 Z-14.254
X18.53 Y93.638 Z-14.26
X18.462 Y93.6 Z-14.262
X18.397 Y93.557 Z-14.265
X18.271 Y93.466 Z-14.27
X18.208 Y93.417 Z-14.273
X18.149 Y93.362 Z-14.276
X12.504 Y87.718 Z-14.555
X12.431 Y87.636 Z-14.559
X12.386 Y87.58 Z-14.561
X12.317 Y87.484 Z-14.565
X12.231 Y87.345 Z-14.571
X12.192 Y87.277 Z-14.574
X12.159 Y87.206 Z-14.576
X12.1 Y87.068 Z-14.582
X12.07 Y86.987 Z-14.585
X12.047 Y86.904 Z-14.588
X12.044 Y86.895
X12.003 Y86.716
X11.985 Y86.617
X11.977 Y86.517
X11.968 Y86.203
Y86.175
X11.97 Y15.174
X11.974 Y15.091
X11.984 Y15.01
X12.015 Y14.822
X12.032 Y14.741
X12.055 Y14.662
X12.101 Y14.529
X12.127 Y14.46
X12.159 Y14.394
X12.231 Y14.255
X12.269 Y14.187
X12.313 Y14.122
X12.405 Y13.997
X12.452 Y13.938
X12.504 Y13.882
X18.149 Y8.238
X18.208 Y8.183
X18.271 Y8.134
X18.396 Y8.043
X18.462 Y8.
X18.53 Y7.962
X18.671 Y7.891
X18.753 Y7.854
X18.839 Y7.824
X19.035 Y7.766
X19.115 Y7.746
X19.197 Y7.732
X19.323 Y7.717
X19.444 Y7.71
X137.163 Y7.711
