(NMJPLATE0PT0PT4_BOTTOM_STEP1_116IN)
(T3  D=1.587 CR=0. - ZMIN=-3.425 - FLAT END MILL)
G0 G90 G94 G17
G21
G53 G0 Z0.

(POCKET11)
M5
T3
M3 S10000
G55
M8
G0 X14.645 Y94.501
Z15.
Z1.25
G1 Z0.421 F146.
X14.655 Y94.495 Z0.362
X14.685 Y94.48 Z0.311
X14.73 Y94.459 Z0.276
X14.785 Y94.439 Z0.262
X14.892 Y94.413 Z0.259
X15. Y94.402 Z0.255
X15.11 Y94.408 Z0.251
X15.217 Y94.429 Z0.247
X15.32 Y94.465 Z0.243
X15.417 Y94.516 Z0.24
X15.505 Y94.581 Z0.236
X15.584 Y94.658 Z0.232
X15.65 Y94.745 Z0.228
X15.703 Y94.84 Z0.224
X15.741 Y94.943 Z0.22
X15.764 Y95.05 Z0.217
X15.772 Y95.159 Z0.213
X15.764 Y95.268 Z0.209
X15.74 Y95.375 Z0.205
X15.7 Y95.477 Z0.201
X15.647 Y95.572 Z0.197
X15.58 Y95.659 Z0.194
X15.501 Y95.735 Z0.19
X15.412 Y95.799 Z0.186
X15.315 Y95.849 Z0.182
X15.212 Y95.885 Z0.178
X15.104 Y95.905 Z0.175
X14.995 Y95.91 Z0.171
X14.886 Y95.899 Z0.167
X14.78 Y95.872 Z0.163
X14.679 Y95.83 Z0.159
X14.585 Y95.774 Z0.155
X14.5 Y95.704 Z0.152
X14.426 Y95.624 Z0.148
X14.365 Y95.533 Z0.144
X14.317 Y95.435 Z0.14
X14.284 Y95.33 Z0.136
X14.267 Y95.222 Z0.132
X14.265 Y95.113 Z0.129
X14.279 Y95.004 Z0.125
X14.309 Y94.899 Z0.121
X14.354 Y94.799 Z0.117
X14.412 Y94.707 Z0.113
X14.484 Y94.624 Z0.11
X14.566 Y94.552 Z0.106
X14.659 Y94.493 Z0.102
X14.758 Y94.448 Z0.098
X14.864 Y94.418 Z0.094
X14.972 Y94.404 Z0.09
X15.081 Y94.405 Z0.087
X15.19 Y94.422 Z0.083
X15.294 Y94.454 Z0.079
X15.393 Y94.502 Z0.075
X15.483 Y94.563 Z0.071
X15.564 Y94.637 Z0.067
X15.634 Y94.721 Z0.064
X15.69 Y94.815 Z0.06
X15.733 Y94.916 Z0.056
X15.76 Y95.022 Z0.052
X15.772 Y95.131 Z0.048
X15.767 Y95.24 Z0.044
X15.747 Y95.347 Z0.041
X15.712 Y95.451 Z0.037
X15.662 Y95.548 Z0.033
X15.598 Y95.637 Z0.029
X15.523 Y95.716 Z0.025
X15.436 Y95.784 Z0.022
X15.341 Y95.837 Z0.018
X15.239 Y95.877 Z0.014
X15.132 Y95.902 Z0.01
X15.023 Y95.91 Z0.006
X14.914 Y95.903 Z0.002
X14.807 Y95.88 Z-0.001
X14.705 Y95.842 Z-0.005
X14.609 Y95.789 Z-0.009
X14.521 Y95.724 Z-0.013
X14.444 Y95.646 Z-0.017
X14.38 Y95.557 Z-0.021
X14.328 Y95.461 Z-0.024
X14.291 Y95.358 Z-0.028
X14.27 Y95.251 Z-0.032
X14.264 Y95.141 Z-0.036
X14.274 Y95.032 Z-0.04
X14.3 Y94.926 Z-0.043
X14.341 Y94.824 Z-0.047
X14.396 Y94.73 Z-0.051
X14.464 Y94.644 Z-0.055
X14.544 Y94.57 Z-0.059
X14.634 Y94.507 Z-0.063
X14.732 Y94.458 Z-0.066
X14.836 Y94.424 Z-0.07
X14.944 Y94.406 Z-0.074
X15.053 Y94.403 Z-0.078
X15.162 Y94.416 Z-0.082
X15.267 Y94.445 Z-0.086
X15.368 Y94.488 Z-0.089
X15.461 Y94.546 Z-0.093
X15.544 Y94.616 Z-0.097
X15.617 Y94.698 Z-0.101
X15.677 Y94.79 Z-0.105
X15.723 Y94.889 Z-0.108
X15.754 Y94.994 Z-0.112
X15.77 Y95.102 Z-0.116
Y95.212 Z-0.12
X15.754 Y95.32 Z-0.124
X15.723 Y95.425 Z-0.128
X15.676 Y95.524 Z-0.131
X15.616 Y95.615 Z-0.135
X15.543 Y95.697 Z-0.139
X15.46 Y95.767 Z-0.143
X15.367 Y95.825 Z-0.147
X15.266 Y95.868 Z-0.151
X15.16 Y95.897 Z-0.154
X15.052 Y95.909 Z-0.158
X14.942 Y95.906 Z-0.162
X14.835 Y95.888 Z-0.166
X14.731 Y95.853 Z-0.17
X14.633 Y95.804 Z-0.174
X14.543 Y95.742 Z-0.177
X14.463 Y95.667 Z-0.181
X14.395 Y95.581 Z-0.185
X14.34 Y95.487 Z-0.189
X14.299 Y95.385 Z-0.193
X14.274 Y95.279 Z-0.196
X14.264 Y95.17 Z-0.2
X14.27 Y95.06 Z-0.204
X14.292 Y94.953 Z-0.208
X14.329 Y94.85 Z-0.212
X14.38 Y94.754 Z-0.216
X14.445 Y94.666 Z-0.219
X14.522 Y94.588 Z-0.223
X14.61 Y94.522 Z-0.227
X14.706 Y94.47 Z-0.231
X14.808 Y94.432 Z-0.235
X14.916 Y94.409 Z-0.239
X15.025 Y94.402 Z-0.242
X15.134 Y94.411 Z-0.246
X15.24 Y94.436 Z-0.25
G2 X15.508 Y94.503 R2.676 F437.
X15.856 Y94.538 R1.786
G1 X133.953 Y94.526
G2 X134.824 Y94.385 R9.091
X135.642 Y94.054 R2.524
X136.37 Y93.568 R15.279
X136.978 Y92.939 R2.376
X137.414 Y92.27 R74.505
X137.712 Y91.53 R2.119
G3 X137.835 Y90.965 R14.818
G2 X137.901 Y90.391 R2.493
G1 X137.888 Y10.619
G2 X137.741 Y9.747 R8.053
X137.405 Y8.93 R2.623
X136.49 Y7.772 R6.816
X135.244 Y6.982 R3.255
X134.511 Y6.775 R6.241
X133.754 Y6.693 R3.557
G1 X15.817 Y6.696
G2 X15.196 Y6.804 R1.849
X14.631 Y7.084 R2.661
X14.348 Y7.315 R1.786
G1 X8.348 Y13.322
G2 X8.004 Y13.829 R1.844
X7.814 Y14.411 R2.701
X7.777 Y14.769 R1.786
G1 X7.779 Y86.479
G2 X8.384 Y87.948 R2.086
G1 X14.376 Y93.938
G2 X14.9 Y94.305 R1.839
X15.24 Y94.436 R2.676
X15.685 Y94.277 R0.394
G3 X16.101 Y94.053 R0.499
G1 X133.899 Y94.044
G2 X134.664 Y93.928 R9.765
X135.385 Y93.644 R2.109
X136.031 Y93.222 R21.254
X136.573 Y92.673 R1.985
G3 X136.966 Y92.087 R50.731
G2 X137.237 Y91.437 R1.757
G3 X137.352 Y90.918 R10.426
G2 X137.417 Y90.391 R2.18
G1 X137.406 Y10.673
G2 X137.314 Y10.024 R10.908
X137.109 Y9.403 R2.238
X135.747 Y7.815 R4.341
X133.754 Y7.178 R3.436
G1 X15.817 Y7.18
G2 X15.335 Y7.268 R1.378
X14.897 Y7.49 R2.209
X14.69 Y7.658 R1.302
G1 X8.698 Y13.656
G2 X8.433 Y14.053 R1.375
X8.288 Y14.508 R2.253
X8.262 Y14.769 R1.302
G1 X8.263 Y86.479
G2 X8.383 Y87.088 R1.612
X8.727 Y87.605 R1.571
G1 X14.719 Y93.596
G2 X15.129 Y93.877 R1.369
X15.603 Y94.028 R2.227
X15.856 Y94.053 R1.302
G1 X16.101
G2 X16.78 Y93.601 R0.735
G3 X17.458 Y93.148 R0.735
G1 X133.754 Y93.147
X133.832 Y93.14
X134.681 Y92.971
X134.725 Y92.959
X134.768 Y92.943
X134.858 Y92.902
X134.916 Y92.87
X135.625 Y92.39
X135.673 Y92.352
X135.714 Y92.308
X135.798 Y92.203
X135.818 Y92.174
X136.26 Y91.505
X136.287 Y91.456
X136.307 Y91.404
X136.339 Y91.304
X136.349 Y91.263
X136.505 Y90.467
X136.512 Y90.391
X136.51 Y10.818
X136.502 Y10.74
X136.335 Y9.909
X136.321 Y9.858
X136.3 Y9.809
X136.246 Y9.701
X136.22 Y9.656
X135.749 Y8.963
X135.71 Y8.915
X135.664 Y8.873
X135.563 Y8.794
X135.538 Y8.776
X134.873 Y8.337
X134.822 Y8.309
X134.768 Y8.288
X134.651 Y8.253
X134.613 Y8.243
X133.83 Y8.09
X133.754 Y8.083
X15.817 Y8.085
X15.76 Y8.089
X15.704 Y8.102
X15.594 Y8.135
X15.54 Y8.155
X15.489 Y8.183
X15.393 Y8.246
X15.36 Y8.27
X15.33 Y8.297
X9.511 Y14.116
X9.504 Y14.122
X9.352 Y14.282
X9.317 Y14.323
X9.289 Y14.369
X9.238 Y14.465
X9.214 Y14.517
X9.199 Y14.572
X9.175 Y14.69
X9.169 Y14.729
X9.167 Y14.769
X9.168 Y86.479
X9.171 Y86.528
X9.18 Y86.576
X9.21 Y86.694
X9.228 Y86.747
X9.253 Y86.797
X9.305 Y86.886
X9.333 Y86.928
X9.366 Y86.965
X15.359 Y92.956
X15.403 Y92.994
X15.452 Y93.025
X15.552 Y93.078
X15.605 Y93.102
X15.662 Y93.117
X15.779 Y93.141
X15.856 Y93.148
X17.458
X17.493 Y93.155
X17.524 Y93.173
X17.546 Y93.2
X17.557 Y93.233
X17.556 Y93.269
X17.543 Y93.302
X17.519 Y93.328
X15.209 Y95.101
X15.18 Y95.117
X15.148 Y95.122
X15.112
X15.054 Y95.116
X14.999 Y95.1
X14.948 Y95.072
X14.903 Y95.036
X7.627 Y87.76
X7.592 Y87.714
X7.57 Y87.661
X7.563 Y87.604
Y13.972
X7.569 Y13.93
X7.585 Y13.891
X7.611 Y13.857
X14.942 Y6.526
X14.976 Y6.5
X15.015 Y6.484
X15.057 Y6.478
X133.975 Y6.549
G3 X134.922 Y6.689 R14.253
X135.832 Y6.986 R3.593
X138.366 Y10.565 R4.52
G2 X138.41 Y10.917 R12.693
G3 X138.445 Y11.27 R4.232
G1 X138.444 Y90.367
G3 X137.969 Y92.403 R6.101
X136.704 Y94.068 R4.253
X135.277 Y94.808 R4.168
X133.694 Y95.08 R7.036
G1 X15.148 Y95.122
G2 X14.847 Y95.287 R0.356
G3 X14.544 Y95.355 R0.22
X14.506 Y95.325 R0.22
G1 X7.288 Y88.107
G3 X7.078 Y87.599 R0.719
G1 Y13.926
G3 X7.235 Y13.546 R0.538
G1 X14.631 Y6.15
G3 X15.011 Y5.993 R0.538
G1 X134.03 Y6.067
G3 X135.057 Y6.222 R14.406
X136.043 Y6.546 R3.971
X138.847 Y10.511 R5.002
G2 X138.894 Y10.876 R13.178
G3 X138.93 Y11.243 R4.394
G1 X138.929 Y90.395
G3 X138.401 Y92.627 R6.584
X137.007 Y94.449 R4.72
X135.451 Y95.262 R4.62
X133.721 Y95.565 R7.51
G1 X15.086 Y95.607
G3 X14.578 Y95.397 R0.719
G1 X14.506 Y95.325
G2 X13.744 Y95.173 R0.7
G3 X12.982 Y95.02 R0.7
G1 X6.216 Y88.253
Y14.769
Y13.347
X6.315 Y13.247
X14.432 Y5.131
X133.81
X135.191 Y5.289
X136.438 Y5.726
X137.575 Y6.438
X138.526 Y7.389
X139.239 Y8.526
X139.675 Y9.772
X139.834 Y11.192
Y90.446
X139.675 Y91.827
X139.239 Y93.074
X138.526 Y94.211
X137.575 Y95.162
X136.438 Y95.874
X135.191 Y96.31
X133.771 Y96.469
X14.432
X12.982 Y95.02
X12.966 Y94.996
X12.959 Y94.967
X12.963 Y94.938
X12.978 Y94.913
X13.001 Y94.894
X13.484 Y94.633
X15.029 Y93.73
X15.069 Y93.628
X15.077 Y93.615
X15.092 Y93.609
X15.2 Y93.61 Z-0.254 F146.
X15.308 Y93.625 Z-0.258
X15.411 Y93.656 Z-0.261
X15.51 Y93.702 Z-0.265
X15.601 Y93.761 Z-0.269
X15.682 Y93.833 Z-0.273
X15.752 Y93.915 Z-0.277
X15.81 Y94.007 Z-0.28
X15.854 Y94.106 Z-0.284
X15.883 Y94.21 Z-0.288
X15.897 Y94.318 Z-0.292
X15.896 Y94.426 Z-0.295
X15.879 Y94.533 Z-0.299
X15.847 Y94.637 Z-0.303
X15.8 Y94.735 Z-0.307
X15.74 Y94.825 Z-0.311
X15.667 Y94.905 Z-0.314
X15.584 Y94.975 Z-0.318
X15.491 Y95.031 Z-0.322
X15.392 Y95.074 Z-0.326
X15.287 Y95.102 Z-0.33
X15.18 Y95.115 Z-0.333
X15.071 Y95.112 Z-0.337
X14.964 Y95.094 Z-0.341
X14.861 Y95.061 Z-0.345
X14.764 Y95.013 Z-0.348
X14.675 Y94.951 Z-0.352
X14.595 Y94.878 Z-0.356
X14.527 Y94.794 Z-0.36
X14.471 Y94.701 Z-0.364
X14.429 Y94.601 Z-0.367
X14.402 Y94.496 Z-0.371
X14.391 Y94.388 Z-0.375
X14.395 Y94.28 Z-0.379
X14.414 Y94.173 Z-0.383
X14.449 Y94.07 Z-0.386
X14.498 Y93.974 Z-0.39
X14.56 Y93.885 Z-0.394
X14.635 Y93.806 Z-0.398
X14.719 Y93.739 Z-0.402
X14.813 Y93.684 Z-0.405
X14.914 Y93.644 Z-0.409
X15.019 Y93.618 Z-0.413
X15.127 Y93.608 Z-0.417
X15.235 Y93.613 Z-0.42
X15.341 Y93.634 Z-0.424
X15.444 Y93.67 Z-0.428
X15.54 Y93.72 Z-0.432
X15.628 Y93.783 Z-0.436
X15.706 Y93.858 Z-0.439
X15.772 Y93.944 Z-0.443
X15.826 Y94.038 Z-0.447
X15.865 Y94.139 Z-0.451
X15.889 Y94.245 Z-0.455
X15.898 Y94.353 Z-0.458
X15.892 Y94.461 Z-0.462
X15.87 Y94.567 Z-0.466
X15.833 Y94.669 Z-0.47
X15.782 Y94.764 Z-0.473
X15.718 Y94.852 Z-0.477
X15.641 Y94.929 Z-0.481
X15.555 Y94.994 Z-0.485
X15.46 Y95.046 Z-0.489
X15.359 Y95.085 Z-0.492
X15.253 Y95.108 Z-0.496
X15.145 Y95.116 Z-0.5
X15.114 F437.
X15.057 Y95.11
X15.002 Y95.093
X14.951 Y95.066
X14.906 Y95.03
X7.634 Y87.757
X7.599 Y87.712
X7.577 Y87.659
X7.569 Y87.602
Y13.975
X7.575 Y13.933
X7.591 Y13.893
X7.617 Y13.859
X14.944 Y6.532
X14.978 Y6.506
X15.018 Y6.49
X15.06 Y6.484
X133.975 Y6.555
G3 X134.922 Y6.696 R14.44
X135.833 Y6.992 R3.578
X138.359 Y10.565 R4.514
G2 X138.404 Y10.917 R12.649
G3 X138.439 Y11.27 R4.217
G1 X138.438 Y90.367
G3 X137.965 Y92.397 R6.11
X136.706 Y94.058 R4.236
X135.279 Y94.8 R4.175
X133.694 Y95.074 R7.014
G1 X15.145 Y95.116
G2 X14.848 Y95.277 R0.353
G3 X14.548 Y95.342 R0.217
X14.512 Y95.313 R0.217
G1 X7.301 Y88.102
G3 X7.09 Y87.593 R0.719
G1 Y13.932
G3 X7.248 Y13.551 R0.538
G1 X14.636 Y6.163
G3 X15.017 Y6.005 R0.538
G1 X134.03 Y6.08
G3 X135.056 Y6.235 R14.572
X136.042 Y6.559 R3.949
X138.834 Y10.511 R4.988
G2 X138.881 Y10.877 R13.127
G3 X138.917 Y11.243 R4.377
G1 X138.916 Y90.394
G3 X138.392 Y92.618 R6.585
X137.007 Y94.434 R4.697
X135.45 Y95.249 R4.622
X133.72 Y95.552 R7.483
G1 X15.092 Y95.595
G3 X14.583 Y95.384 R0.719
G1 X14.512 Y95.313
G2 X13.75 Y95.161 R0.7
G3 X12.988 Y95.008 R0.7
G1 X6.228 Y88.248
Y13.352
X6.315 Y13.265
X14.437 Y5.143
X133.81 Y5.144
X135.191 Y5.303
X136.437 Y5.739
X137.575 Y6.455
X138.51 Y7.39
X139.226 Y8.527
X139.662 Y9.772
X139.822 Y11.192
X139.821 Y90.446
X139.662 Y91.827
X139.226 Y93.073
X138.51 Y94.21
X137.575 Y95.145
X136.437 Y95.861
X135.191 Y96.297
X133.771 Y96.457
X14.437
X12.988 Y95.008
X12.968 Y94.979
X12.959 Y94.944
X12.963 Y94.908
X12.98 Y94.876
X13.007 Y94.852
X13.04 Y94.839
X15.191 Y94.426
X15.215 Y94.424
X15.239 Y94.429
G2 X15.509 Y94.497 R2.67
X15.856 Y94.531 R1.78
G1 X133.953 Y94.519
G2 X134.824 Y94.379 R9.144
X135.641 Y94.047 R2.509
X136.366 Y93.563 R15.945
X136.973 Y92.936 R2.363
X137.408 Y92.268 R76.404
X137.706 Y91.528 R2.114
G3 X137.828 Y90.964 R14.749
G2 X137.895 Y90.391 R2.488
G1 X137.881 Y10.619
G2 X137.735 Y9.747 R8.095
X137.397 Y8.93 R2.606
X136.484 Y7.776 R6.88
X135.242 Y6.988 R3.243
X134.51 Y6.781 R6.235
X133.754 Y6.7 R3.551
G1 X15.817 Y6.702
G2 X15.198 Y6.81 R1.842
X14.635 Y7.09 R2.655
X14.352 Y7.319 R1.78
G1 X8.352 Y13.326
G2 X8.009 Y13.831 R1.838
X7.82 Y14.412 R2.695
X7.784 Y14.769 R1.78
G1 X7.785 Y86.479
G2 X8.389 Y87.944 R2.079
G1 X14.381 Y93.934
G2 X14.903 Y94.299 R1.833
X15.239 Y94.429 R2.67
X15.678 Y94.273 R0.389
G3 X16.089 Y94.053 R0.494
G1 X133.9 Y94.044
G2 X134.666 Y93.927 R9.846
X135.387 Y93.642 R2.1
X136.032 Y93.221 R22.767
X136.573 Y92.673 R1.979
G3 X136.966 Y92.087 R50.731
G2 X137.237 Y91.437 R1.757
G3 X137.352 Y90.918 R10.426
G2 X137.417 Y90.391 R2.18
G1 X137.406 Y10.672
G2 X137.283 Y9.905 R8.332
X136.993 Y9.185 R2.189
X136.186 Y8.15 R6.588
X135.084 Y7.439 R2.802
X134.43 Y7.252 R5.838
X133.754 Y7.178 R3.097
G1 X15.817 Y7.18
G2 X15.335 Y7.268 R1.378
X14.897 Y7.49 R2.209
X14.69 Y7.658 R1.302
G1 X8.698 Y13.656
G2 X8.433 Y14.053 R1.375
X8.288 Y14.508 R2.253
X8.262 Y14.769 R1.302
G1 X8.263 Y86.479
G2 X8.383 Y87.088 R1.612
X8.727 Y87.605 R1.571
G1 X14.719 Y93.596
G2 X15.129 Y93.877 R1.369
X15.603 Y94.028 R2.227
X15.856 Y94.053 R1.302
G1 X16.089
G2 X16.768 Y93.601 R0.735
G3 X17.446 Y93.148 R0.735
G1 X133.754 Y93.147
X133.832 Y93.14
X134.681 Y92.971
X134.725 Y92.959
X134.768 Y92.943
X134.858 Y92.902
X134.916 Y92.87
X135.625 Y92.39
X135.673 Y92.352
X135.714 Y92.308
X135.798 Y92.203
X135.818 Y92.174
X136.26 Y91.505
X136.287 Y91.456
X136.307 Y91.404
X136.339 Y91.304
X136.349 Y91.263
X136.505 Y90.467
X136.512 Y90.391
X136.51 Y10.818
X136.502 Y10.74
X136.335 Y9.909
X136.321 Y9.858
X136.3 Y9.809
X136.246 Y9.701
X136.22 Y9.656
X135.749 Y8.963
X135.71 Y8.915
X135.664 Y8.873
X135.563 Y8.794
X135.538 Y8.776
X134.873 Y8.337
X134.822 Y8.309
X134.768 Y8.288
X134.651 Y8.253
X134.613 Y8.243
X133.83 Y8.09
X133.754 Y8.083
X15.817 Y8.085
X15.76 Y8.089
X15.704 Y8.102
X15.594 Y8.135
X15.54 Y8.155
X15.489 Y8.183
X15.393 Y8.246
X15.36 Y8.27
X15.33 Y8.297
X9.511 Y14.116
X9.504 Y14.122
X9.352 Y14.282
X9.317 Y14.323
X9.289 Y14.369
X9.238 Y14.465
X9.214 Y14.517
X9.199 Y14.572
X9.175 Y14.69
X9.169 Y14.729
X9.167 Y14.769
X9.168 Y86.479
X9.171 Y86.528
X9.18 Y86.576
X9.21 Y86.694
X9.228 Y86.747
X9.253 Y86.797
X9.305 Y86.886
X9.333 Y86.928
X9.366 Y86.965
X15.359 Y92.956
X15.403 Y92.994
X15.452 Y93.025
X15.552 Y93.078
X15.605 Y93.102
X15.662 Y93.117
X15.779 Y93.141
X15.856 Y93.148
X17.446
X17.484 Y93.156
X17.517 Y93.177
X17.538 Y93.209
X17.546 Y93.247
X17.539 Y93.285
X17.518 Y93.318
X17.486 Y93.34
X17.449 Y93.348
X15.085 Y93.403
X15.047 Y93.412
X15.015 Y93.435
X14.994 Y93.468
X14.988 Y93.508
X14.998 Y93.546
X15.021 Y93.578
X15.055 Y93.598
X15.095 Y93.603
X15.203 Z-0.504 F146.
X15.31 Y93.619 Z-0.508
X15.414 Y93.65 Z-0.511
X15.513 Y93.695 Z-0.515
X15.603 Y93.754 Z-0.519
X15.685 Y93.826 Z-0.523
X15.755 Y93.909 Z-0.527
X15.813 Y94. Z-0.53
X15.857 Y94.099 Z-0.534
X15.886 Y94.204 Z-0.538
X15.9 Y94.311 Z-0.542
X15.898 Y94.419 Z-0.545
X15.881 Y94.527 Z-0.549
X15.849 Y94.63 Z-0.553
X15.803 Y94.728 Z-0.557
X15.742 Y94.818 Z-0.561
X15.67 Y94.898 Z-0.564
X15.586 Y94.968 Z-0.568
X15.494 Y95.024 Z-0.572
X15.395 Y95.067 Z-0.576
X15.29 Y95.095 Z-0.58
X15.182 Y95.108 Z-0.583
X15.074 Y95.105 Z-0.587
X14.967 Y95.087 Z-0.591
X14.864 Y95.054 Z-0.595
X14.767 Y95.006 Z-0.598
X14.677 Y94.945 Z-0.602
X14.598 Y94.871 Z-0.606
X14.529 Y94.787 Z-0.61
X14.474 Y94.694 Z-0.614
X14.432 Y94.594 Z-0.617
X14.405 Y94.489 Z-0.621
X14.394 Y94.381 Z-0.625
X14.398 Y94.273 Z-0.629
X14.417 Y94.166 Z-0.633
X14.452 Y94.064 Z-0.636
X14.501 Y93.967 Z-0.64
X14.563 Y93.878 Z-0.644
X14.637 Y93.799 Z-0.648
X14.722 Y93.732 Z-0.652
X14.816 Y93.678 Z-0.655
X14.916 Y93.637 Z-0.659
X15.022 Y93.611 Z-0.663
X15.13 Y93.601 Z-0.667
X15.238 Y93.606 Z-0.67
X15.344 Y93.627 Z-0.674
X15.446 Y93.663 Z-0.678
X15.543 Y93.713 Z-0.682
X15.631 Y93.776 Z-0.686
X15.709 Y93.851 Z-0.689
X15.775 Y93.937 Z-0.693
X15.828 Y94.031 Z-0.697
X15.868 Y94.132 Z-0.701
X15.892 Y94.238 Z-0.705
X15.901 Y94.346 Z-0.708
X15.895 Y94.454 Z-0.712
X15.873 Y94.56 Z-0.716
X15.836 Y94.662 Z-0.72
X15.785 Y94.758 Z-0.723
X15.72 Y94.845 Z-0.727
X15.644 Y94.922 Z-0.731
X15.558 Y94.987 Z-0.735
X15.463 Y95.04 Z-0.739
X15.361 Y95.078 Z-0.742
X15.256 Y95.101 Z-0.746
X15.147 Y95.109 Z-0.75
X15.117 F437.
X15.06 Y95.103
X15.004 Y95.087
X14.954 Y95.059
X14.909 Y95.023
X7.64 Y87.754
X7.605 Y87.709
X7.584 Y87.656
X7.576 Y87.599
Y13.978
X7.582 Y13.936
X7.598 Y13.896
X7.624 Y13.862
X14.947 Y6.539
X14.981 Y6.513
X15.021 Y6.497
X15.063 Y6.491
X133.976 Y6.562
G3 X134.923 Y6.703 R14.458
X135.833 Y7.001 R3.566
X138.355 Y10.571 R4.516
G2 X138.398 Y10.919 R12.773
G3 X138.432 Y11.267 R4.259
G1 X138.431 Y90.367
G3 X137.962 Y92.389 R6.115
X136.709 Y94.045 R4.217
X135.282 Y94.791 R4.203
X133.696 Y95.067 R6.887
G1 X15.147 Y95.109
G2 X14.855 Y95.269 R0.348
G3 X14.559 Y95.333 R0.214
X14.523 Y95.305 R0.214
G1 X7.314 Y88.096
G3 X7.104 Y87.588 R0.719
G1 Y13.937
G3 X7.261 Y13.557 R0.538
G1 X14.642 Y6.176
G3 X15.022 Y6.019 R0.538
G1 X134.03 Y6.094
G3 X135.055 Y6.249 R14.583
X136.04 Y6.574 R3.931
X138.824 Y10.519 R4.984
G2 X138.868 Y10.88 R13.245
G3 X138.903 Y11.241 R4.416
G1 Y90.394
G3 X138.382 Y92.607 R6.583
X137.006 Y94.416 R4.671
X135.451 Y95.233 R4.644
X133.722 Y95.538 R7.353
G1 X15.097 Y95.581
G3 X14.589 Y95.371 R0.719
G1 X14.523 Y95.305
G2 X13.761 Y95.152 R0.7
G3 X12.999 Y95. R0.7
G1 X6.242 Y88.243
Y13.357
X6.315 Y13.284
X14.442 Y5.157
X133.81
X135.191 Y5.317
X136.437 Y5.754
X137.574 Y6.473
X138.491 Y7.39
X139.21 Y8.527
X139.656 Y9.81
X139.808 Y11.192
X139.807 Y90.446
X139.648 Y91.827
X139.21 Y93.073
X138.491 Y94.21
X137.574 Y95.127
X136.437 Y95.846
X135.153 Y96.291
X133.772 Y96.443
X14.442
X12.999 Y95.
X12.979 Y94.97
X12.97 Y94.935
X12.974 Y94.9
X12.991 Y94.868
X13.018 Y94.844
X13.051 Y94.831
X15.197 Y94.421
X15.221 Y94.419
X15.245 Y94.423
G2 X15.511 Y94.491 R2.664
X15.856 Y94.525 R1.773
G1 X133.948 Y94.513
G2 X134.822 Y94.373 R8.926
X135.641 Y94.039 R2.504
X136.363 Y93.556 R16.741
X136.967 Y92.932 R2.35
X137.402 Y92.265 R78.588
X137.7 Y91.527 R2.109
G3 X137.821 Y90.964 R14.674
G2 X137.888 Y90.391 R2.484
G1 X137.875 Y10.624
G2 X137.729 Y9.75 R7.912
X137.39 Y8.931 R2.602
X136.479 Y7.782 R6.934
X135.241 Y6.995 R3.235
X134.51 Y6.788 R6.185
X133.754 Y6.706 R3.55
G1 X15.817 Y6.709
G2 X15.2 Y6.816 R1.836
X14.638 Y7.095 R2.648
X14.357 Y7.324 R1.773
G1 X8.357 Y13.331
G2 X8.015 Y13.835 R1.831
X7.826 Y14.414 R2.689
X7.79 Y14.769 R1.773
G1 X7.792 Y86.479
G2 X8.393 Y87.939 R2.073
G1 X14.386 Y93.929
G2 X14.907 Y94.293 R1.826
X15.245 Y94.423 R2.664
X15.678 Y94.27 R0.384
G3 X16.082 Y94.053 R0.486
G1 X133.754 Y94.052
G2 X134.511 Y93.968 R3.446
X135.232 Y93.726 R3.711
X135.926 Y93.321 R3.983
X136.506 Y92.766 R2.98
X136.91 Y92.202 R6.872
X137.203 Y91.572 R2.582
X137.354 Y90.99 R6.493
X137.417 Y90.391 R2.896
G1 X137.407 Y10.675
G2 X137.284 Y9.906 R8.099
X136.991 Y9.183 R2.189
X136.185 Y8.15 R6.653
X135.085 Y7.44 R2.801
X134.431 Y7.252 R5.79
X133.754 Y7.178 R3.102
G1 X15.817 Y7.18
G2 X15.335 Y7.268 R1.378
X14.897 Y7.49 R2.209
X14.69 Y7.658 R1.302
G1 X8.698 Y13.656
G2 X8.433 Y14.053 R1.375
X8.288 Y14.508 R2.253
X8.262 Y14.769 R1.302
G1 X8.263 Y86.479
G2 X8.383 Y87.088 R1.612
X8.727 Y87.605 R1.571
G1 X14.719 Y93.596
G2 X15.129 Y93.877 R1.369
X15.603 Y94.028 R2.227
X15.856 Y94.053 R1.302
G1 X16.082
G2 X16.761 Y93.601 R0.735
G3 X17.44 Y93.148 R0.735
G1 X133.754 Y93.147
X133.832 Y93.14
X134.681 Y92.971
X134.725 Y92.959
X134.768 Y92.943
X134.858 Y92.902
X134.916 Y92.87
X135.625 Y92.39
X135.673 Y92.352
X135.714 Y92.308
X135.798 Y92.203
X135.818 Y92.174
X136.26 Y91.505
X136.287 Y91.456
X136.307 Y91.404
X136.339 Y91.304
X136.349 Y91.263
X136.505 Y90.467
X136.512 Y90.391
X136.51 Y10.818
X136.502 Y10.74
X136.335 Y9.909
X136.321 Y9.858
X136.3 Y9.809
X136.246 Y9.701
X136.22 Y9.656
X135.749 Y8.963
X135.71 Y8.915
X135.664 Y8.873
X135.563 Y8.794
X135.538 Y8.776
X134.873 Y8.337
X134.822 Y8.309
X134.768 Y8.288
X134.651 Y8.253
X134.613 Y8.243
X133.83 Y8.09
X133.754 Y8.083
X15.817 Y8.085
X15.76 Y8.089
X15.704 Y8.102
X15.594 Y8.135
X15.54 Y8.155
X15.489 Y8.183
X15.393 Y8.246
X15.36 Y8.27
X15.33 Y8.297
X9.511 Y14.116
X9.504 Y14.122
X9.352 Y14.282
X9.317 Y14.323
X9.289 Y14.369
X9.238 Y14.465
X9.214 Y14.517
X9.199 Y14.572
X9.175 Y14.69
X9.169 Y14.729
X9.167 Y14.769
X9.168 Y86.479
X9.171 Y86.528
X9.18 Y86.576
X9.21 Y86.694
X9.228 Y86.747
X9.253 Y86.797
X9.305 Y86.886
X9.333 Y86.928
X9.366 Y86.965
X15.359 Y92.956
X15.403 Y92.994
X15.452 Y93.025
X15.552 Y93.078
X15.605 Y93.102
X15.662 Y93.117
X15.779 Y93.141
X15.856 Y93.148
X17.44
X17.478 Y93.156
X17.51 Y93.177
X17.532 Y93.209
X17.54 Y93.247
X17.533 Y93.285
X17.511 Y93.318
X17.48 Y93.34
X17.442 Y93.348
X15.091 Y93.396
X15.052 Y93.405
X15.02 Y93.428
X14.999 Y93.462
X14.993 Y93.501
X15.003 Y93.539
X15.026 Y93.571
X15.06 Y93.591
X15.1 Y93.596
X15.208 Y93.597 Z-0.754 F146.
X15.315 Y93.613 Z-0.758
X15.419 Y93.644 Z-0.761
X15.517 Y93.69 Z-0.765
X15.608 Y93.749 Z-0.769
X15.689 Y93.821 Z-0.773
X15.759 Y93.904 Z-0.777
X15.816 Y93.996 Z-0.78
X15.86 Y94.095 Z-0.784
X15.889 Y94.199 Z-0.788
X15.903 Y94.307 Z-0.792
X15.901 Y94.415 Z-0.795
X15.884 Y94.522 Z-0.799
X15.851 Y94.625 Z-0.803
X15.805 Y94.723 Z-0.807
X15.744 Y94.813 Z-0.811
X15.671 Y94.893 Z-0.814
X15.588 Y94.962 Z-0.818
X15.496 Y95.019 Z-0.822
X15.396 Y95.061 Z-0.826
X15.291 Y95.089 Z-0.83
X15.184 Y95.102 Z-0.833
X15.075 Y95.099 Z-0.837
X14.969 Y95.08 Z-0.841
X14.866 Y95.047 Z-0.845
X14.768 Y94.999 Z-0.848
X14.679 Y94.938 Z-0.852
X14.6 Y94.864 Z-0.856
X14.531 Y94.78 Z-0.86
X14.476 Y94.687 Z-0.864
X14.434 Y94.587 Z-0.867
X14.408 Y94.482 Z-0.871
X14.396 Y94.374 Z-0.875
X14.401 Y94.266 Z-0.879
X14.42 Y94.159 Z-0.883
X14.455 Y94.056 Z-0.886
X14.504 Y93.96 Z-0.89
X14.566 Y93.871 Z-0.894
X14.641 Y93.793 Z-0.898
X14.726 Y93.725 Z-0.901
X14.819 Y93.671 Z-0.905
X14.92 Y93.63 Z-0.909
X15.025 Y93.605 Z-0.913
X15.133 Y93.595 Z-0.917
X15.241 Y93.6 Z-0.92
X15.348 Y93.621 Z-0.924
X15.45 Y93.657 Z-0.928
X15.546 Y93.707 Z-0.932
X15.634 Y93.77 Z-0.936
X15.712 Y93.845 Z-0.939
X15.778 Y93.931 Z-0.943
X15.831 Y94.025 Z-0.947
X15.871 Y94.126 Z-0.951
X15.895 Y94.232 Z-0.954
X15.904 Y94.34 Z-0.958
X15.897 Y94.448 Z-0.962
X15.875 Y94.554 Z-0.966
X15.839 Y94.656 Z-0.97
X15.787 Y94.752 Z-0.973
X15.723 Y94.839 Z-0.977
X15.647 Y94.916 Z-0.981
X15.56 Y94.981 Z-0.985
X15.466 Y95.033 Z-0.989
X15.364 Y95.072 Z-0.992
X15.258 Y95.095 Z-0.996
X15.15 Y95.103 Z-1.
X15.12 F437.
X15.063 Y95.097
X15.007 Y95.08
X14.956 Y95.053
X14.912 Y95.016
X7.647 Y87.746
X7.612 Y87.7
X7.59 Y87.647
X7.582 Y87.591
Y13.98
X7.588 Y13.938
X7.604 Y13.899
X7.63 Y13.865
X14.95 Y6.545
X14.984 Y6.519
X15.023 Y6.503
X15.065 Y6.497
X133.972 Y6.567
G3 X134.923 Y6.71 R13.552
X135.837 Y7.01 R3.636
X138.348 Y10.569 R4.487
G2 X138.391 Y10.918 R12.671
G3 X138.426 Y11.268 R4.225
G1 X138.425 Y90.369
G3 X137.945 Y92.402 R5.998
X136.676 Y94.063 R4.302
X135.263 Y94.794 R4.09
X133.695 Y95.061 R7.044
G1 X15.15 Y95.103
G2 X14.861 Y95.261 R0.343
G3 X14.569 Y95.325 R0.212
X14.533 Y95.297 R0.212
G1 X7.327 Y88.085
G3 X7.116 Y87.577 R0.719
G1 Y13.942
G3 X7.274 Y13.562 R0.538
G1 X14.647 Y6.189
G3 X15.027 Y6.031 R0.538
G1 X134.025 Y6.105
G3 X135.053 Y6.262 R13.772
X136.04 Y6.588 R4.001
X138.81 Y10.517 R4.949
G2 X138.855 Y10.879 R13.137
G3 X138.891 Y11.242 R4.38
G1 X138.89 Y90.395
G3 X138.359 Y92.617 R6.464
X136.968 Y94.429 R4.751
X135.43 Y95.23 R4.523
X133.721 Y95.526 R7.495
G1 X15.103 Y95.569
G3 X14.594 Y95.358 R0.719
G1 X14.533 Y95.297
G2 X13.771 Y95.144 R0.7
G3 X13.009 Y94.991 R0.7
G1 X6.254 Y88.231
Y13.365
X6.318 Y13.299
X14.448 Y5.169
X133.81 Y5.17
X135.178 Y5.326
X136.436 Y5.768
X137.536 Y6.459
X138.505 Y7.429
X139.196 Y8.528
X139.639 Y9.785
X139.796 Y11.192
X139.795 Y90.447
X139.639 Y91.814
X139.196 Y93.072
X138.505 Y94.171
X137.536 Y95.141
X136.436 Y95.832
X135.179 Y96.274
X133.771 Y96.431
X15.856
X14.451
X14.384 Y96.367
X13.009 Y94.991
X12.989 Y94.962
X12.98 Y94.927
X12.985 Y94.891
X13.001 Y94.859
X13.028 Y94.835
X13.062 Y94.822
X15.2 Y94.415
X15.224 Y94.413
X15.248 Y94.418
G2 X15.512 Y94.484 R2.658
X15.856 Y94.518 R1.767
G1 X133.95 Y94.506
G2 X134.818 Y94.367 R9.049
X135.633 Y94.037 R2.505
X136.357 Y93.554 R15.766
X136.962 Y92.929 R2.356
G3 X137.328 Y92.393 R19.569
G2 X137.616 Y91.81 R2.068
X137.871 Y90.591 R6.566
G1 X137.88 Y10.818
G2 X137.47 Y9.086 R3.868
X137.014 Y8.34 R5.243
X136.405 Y7.713 R3.168
X135.248 Y7.05 R4.747
X133.954 Y6.724 R5.025
G1 X15.817 Y6.715
G2 X15.201 Y6.822 R1.83
X14.642 Y7.101 R2.642
X14.362 Y7.329 R1.767
G1 X8.362 Y13.335
G2 X8.021 Y13.837 R1.825
X7.833 Y14.415 R2.683
X7.797 Y14.769 R1.767
G1 X7.798 Y86.479
G2 X8.398 Y87.934 R2.066
G1 X14.39 Y93.924
G2 X14.909 Y94.288 R1.82
X15.248 Y94.418 R2.658
X15.674 Y94.266 R0.379
G3 X16.074 Y94.053 R0.48
G1 X133.898 Y94.044
G2 X134.665 Y93.928 R9.691
X135.386 Y93.643 R2.107
X136.032 Y93.221 R22.097
X136.573 Y92.673 R1.982
G3 X136.966 Y92.087 R50.731
G2 X137.237 Y91.437 R1.757
G3 X137.352 Y90.918 R10.426
G2 X137.417 Y90.391 R2.18
G1 X137.406 Y10.674
G2 X137.284 Y9.907 R8.213
X136.993 Y9.186 R2.198
X136.188 Y8.152 R6.534
X135.086 Y7.44 R2.813
X134.431 Y7.252 R5.747
X133.754 Y7.178 R3.107
G1 X15.817 Y7.18
G2 X15.335 Y7.268 R1.378
X14.897 Y7.49 R2.209
X14.69 Y7.658 R1.302
G3 X11.754 Y10.561 R371.28
G2 X8.85 Y13.497 R123.181
X8.433 Y14.076 R2.577
X8.262 Y14.769 R1.486
G1 X8.263 Y86.479
G2 X8.383 Y87.088 R1.612
X8.727 Y87.605 R1.571
G1 X14.719 Y93.596
G2 X15.129 Y93.877 R1.369
X15.603 Y94.028 R2.227
X15.856 Y94.053 R1.302
G1 X16.074
G2 X16.752 Y93.601 R0.735
G3 X17.431 Y93.148 R0.735
G1 X133.754 Y93.147
X133.832 Y93.14
X134.681 Y92.971
X134.725 Y92.959
X134.768 Y92.943
X134.858 Y92.902
X134.916 Y92.87
X135.625 Y92.39
X135.673 Y92.352
X135.714 Y92.308
X135.798 Y92.203
X135.818 Y92.174
X136.26 Y91.505
X136.287 Y91.456
X136.307 Y91.404
X136.339 Y91.304
X136.349 Y91.263
X136.505 Y90.467
X136.512 Y90.391
X136.51 Y10.818
X136.502 Y10.74
X136.335 Y9.909
X136.321 Y9.858
X136.3 Y9.809
X136.246 Y9.701
X136.22 Y9.656
X135.749 Y8.963
X135.71 Y8.915
X135.664 Y8.873
X135.563 Y8.794
X135.538 Y8.776
X134.873 Y8.337
X134.822 Y8.309
X134.768 Y8.288
X134.651 Y8.253
X134.613 Y8.243
X133.83 Y8.09
X133.754 Y8.083
X15.817 Y8.085
X15.76 Y8.089
X15.704 Y8.102
X15.594 Y8.135
X15.54 Y8.155
X15.489 Y8.183
X15.393 Y8.246
X15.36 Y8.27
X15.33 Y8.297
X9.511 Y14.116
X9.504 Y14.122
X9.352 Y14.282
X9.317 Y14.323
X9.289 Y14.369
X9.238 Y14.465
X9.214 Y14.517
X9.199 Y14.572
X9.175 Y14.69
X9.169 Y14.729
X9.167 Y14.769
X9.168 Y86.479
X9.171 Y86.528
X9.18 Y86.576
X9.21 Y86.694
X9.228 Y86.747
X9.253 Y86.797
X9.305 Y86.886
X9.333 Y86.928
X9.366 Y86.965
X15.359 Y92.956
X15.403 Y92.994
X15.452 Y93.025
X15.552 Y93.078
X15.605 Y93.102
X15.662 Y93.117
X15.779 Y93.141
X15.856 Y93.148
X17.431
X17.465 Y93.154
X17.495 Y93.172
X17.517 Y93.198
X17.529 Y93.231
Y93.266
X17.517 Y93.298
X17.495 Y93.325
X15.455 Y95.032
X15.427 Y95.048
X15.323 Y95.08 Z-1.004 F146.
X15.215 Y95.097 Z-1.008
X15.106 Z-1.011
X14.998 Y95.082 Z-1.015
X14.894 Y95.052 Z-1.019
X14.794 Y95.007 Z-1.023
X14.703 Y94.948 Z-1.027
X14.621 Y94.877 Z-1.03
X14.55 Y94.794 Z-1.034
X14.491 Y94.702 Z-1.038
X14.447 Y94.603 Z-1.042
X14.417 Y94.498 Z-1.046
X14.403 Y94.39 Z-1.049
X14.404 Y94.281 Z-1.053
X14.421 Y94.173 Z-1.057
X14.453 Y94.069 Z-1.061
X14.5 Y93.971 Z-1.065
X14.561 Y93.881 Z-1.068
X14.634 Y93.8 Z-1.072
X14.718 Y93.73 Z-1.076
X14.811 Y93.674 Z-1.08
X14.912 Y93.631 Z-1.084
X15.017 Y93.604 Z-1.087
X15.125 Y93.591 Z-1.091
X15.234 Y93.595 Z-1.095
X15.341 Y93.614 Z-1.099
X15.445 Y93.649 Z-1.103
X15.542 Y93.698 Z-1.107
X15.631 Y93.76 Z-1.11
X15.711 Y93.835 Z-1.114
X15.778 Y93.92 Z-1.118
X15.833 Y94.014 Z-1.122
X15.874 Y94.115 Z-1.126
X15.899 Y94.221 Z-1.129
X15.909 Y94.33 Z-1.133
X15.904 Y94.439 Z-1.137
X15.882 Y94.545 Z-1.141
X15.846 Y94.648 Z-1.145
X15.795 Y94.744 Z-1.148
X15.731 Y94.832 Z-1.152
X15.654 Y94.91 Z-1.156
X15.568 Y94.976 Z-1.16
X15.472 Y95.029 Z-1.164
X15.371 Y95.068 Z-1.167
X15.264 Y95.091 Z-1.171
X15.156 Y95.099 Z-1.175
X15.125 F437.
X15.068 Y95.093
X15.013 Y95.077
X14.962 Y95.049
X14.917 Y95.013
X7.65 Y87.748
X7.615 Y87.702
X7.594 Y87.649
X7.586 Y87.592
Y13.982
X7.592 Y13.94
X7.608 Y13.9
X7.634 Y13.867
X14.955 Y6.549
X14.989 Y6.523
X15.029 Y6.507
X15.071 Y6.501
X133.975 Y6.572
G3 X134.924 Y6.715 R14.04
X135.837 Y7.014 R3.619
X138.345 Y10.572 R4.484
G2 X138.388 Y10.919 R12.741
G3 X138.422 Y11.267 R4.248
G1 X138.421 Y90.367
G3 X137.943 Y92.397 R6.046
X136.68 Y94.056 R4.272
X135.266 Y94.789 R4.11
X133.697 Y95.057 R6.983
G1 X15.156 Y95.099
G2 X14.869 Y95.256 R0.339
G3 X14.581 Y95.32 R0.209
X14.545 Y95.292 R0.209
G1 X7.336 Y88.085
G3 X7.126 Y87.576 R0.719
G1 Y13.946
G3 X7.283 Y13.566 R0.538
G1 X14.655 Y6.198
G3 X15.035 Y6.041 R0.538
G1 X134.028 Y6.115
G3 X135.053 Y6.272 R14.207
X136.038 Y6.598 R3.977
X138.802 Y10.522 R4.94
G2 X138.847 Y10.881 R13.201
G3 X138.882 Y11.241 R4.401
G1 X138.881 Y90.394
G3 X138.353 Y92.61 R6.505
X136.968 Y94.418 R4.715
X135.43 Y95.22 R4.538
X133.722 Y95.517 R7.431
G1 X15.11 Y95.559
G3 X14.602 Y95.349 R0.719
G1 X14.545 Y95.292
G2 X13.783 Y95.14 R0.7
G3 X13.021 Y94.987 R0.7
G1 X6.264 Y88.231
Y13.367
X6.316 Y13.314
X14.456 Y5.179
X133.81
X135.188 Y5.339
X136.434 Y5.778
X137.536 Y6.47
X138.495 Y7.429
X138.861 Y8.013
X139.186 Y8.53
X139.634 Y9.809
X139.786 Y11.192
Y90.446
X139.626 Y91.824
X139.187 Y93.07
X138.495 Y94.171
X137.536 Y95.13
X136.434 Y95.822
X135.155 Y96.269
X133.772 Y96.421
X14.456
X13.021 Y94.987
X13.001 Y94.958
X12.992 Y94.923
X12.996 Y94.887
X13.013 Y94.855
X13.039 Y94.831
X13.073 Y94.818
X15.205 Y94.411
X15.229 Y94.409
X15.253 Y94.414
G2 X15.513 Y94.479 R2.652
X15.856 Y94.513 R1.761
G1 X133.947 Y94.501
G2 X134.815 Y94.362 R8.929
X135.63 Y94.032 R2.505
X136.353 Y93.55 R15.805
X136.957 Y92.926 R2.351
X137.391 Y92.261 R82.708
X137.688 Y91.525 R2.1
G3 X137.81 Y90.962 R14.545
G2 X137.877 Y90.391 R2.476
G1 X137.864 Y10.625
G2 X137.718 Y9.756 R7.903
X137.383 Y8.942 R2.605
X136.475 Y7.793 R6.818
X135.239 Y7.007 R3.24
X134.509 Y6.799 R6.117
X133.754 Y6.718 R3.547
G1 X15.817 Y6.721
G2 X15.03 Y6.882 R1.997
X14.365 Y7.333 R2.124
G1 X8.366 Y13.339
G2 X8.026 Y13.84 R1.82
X7.838 Y14.416 R2.677
X7.802 Y14.769 R1.761
G1 X7.804 Y86.479
G2 X8.402 Y87.93 R2.061
G1 X14.394 Y93.921
G2 X14.912 Y94.283 R1.815
X15.253 Y94.414 R2.652
X15.674 Y94.264 R0.375
G3 X16.068 Y94.053 R0.475
G1 X133.897 Y94.044
G2 X134.664 Y93.928 R9.516
X135.386 Y93.643 R2.111
X136.032 Y93.221 R22.097
X136.573 Y92.673 R1.982
G3 X136.966 Y92.087 R50.731
G2 X137.237 Y91.437 R1.757
G3 X137.352 Y90.918 R10.426
G2 X137.417 Y90.391 R2.18
G1 X137.407 Y10.675
G2 X137.284 Y9.907 R8.075
X136.993 Y9.186 R2.202
X136.188 Y8.152 R6.531
X135.087 Y7.44 R2.815
X134.431 Y7.252 R5.728
X133.754 Y7.178 R3.109
G1 X15.817 Y7.18
G2 X15.206 Y7.307 R1.538
X14.69 Y7.658 R1.665
G1 X8.698 Y13.656
G2 X8.433 Y14.053 R1.375
X8.288 Y14.508 R2.253
X8.262 Y14.769 R1.302
G1 X8.263 Y86.479
G2 X8.336 Y86.929 R1.428
X8.525 Y87.345 R2.17
X8.727 Y87.605 R1.302
G1 X14.719 Y93.596
G2 X15.129 Y93.877 R1.369
X15.603 Y94.028 R2.227
X15.856 Y94.053 R1.302
G1 X16.068
G2 X16.747 Y93.601 R0.735
G3 X17.426 Y93.148 R0.735
G1 X133.754 Y93.147
X133.832 Y93.14
X134.681 Y92.971
X134.725 Y92.959
X134.768 Y92.943
X134.858 Y92.902
X134.916 Y92.87
X135.625 Y92.39
X135.673 Y92.352
X135.714 Y92.308
X135.798 Y92.203
X135.818 Y92.174
X136.26 Y91.505
X136.287 Y91.456
X136.307 Y91.404
X136.339 Y91.304
X136.349 Y91.263
X136.505 Y90.467
X136.512 Y90.391
X136.51 Y10.818
X136.502 Y10.74
X136.335 Y9.909
X136.321 Y9.858
X136.3 Y9.809
X136.246 Y9.701
X136.22 Y9.656
X135.749 Y8.963
X135.71 Y8.915
X135.664 Y8.873
X135.563 Y8.794
X135.538 Y8.776
X134.873 Y8.337
X134.822 Y8.309
X134.768 Y8.288
X134.651 Y8.253
X134.613 Y8.243
X133.83 Y8.09
X133.754 Y8.083
X15.817 Y8.085
X15.76 Y8.089
X15.704 Y8.102
X15.594 Y8.135
X15.54 Y8.155
X15.489 Y8.183
X15.393 Y8.246
X15.36 Y8.27
X15.33 Y8.297
X9.511 Y14.116
X9.504 Y14.122
X9.352 Y14.282
X9.317 Y14.323
X9.289 Y14.369
X9.238 Y14.465
X9.214 Y14.517
X9.199 Y14.572
X9.175 Y14.69
X9.169 Y14.729
X9.167 Y14.769
X9.168 Y86.479
X9.171 Y86.528
X9.18 Y86.576
X9.21 Y86.694
X9.228 Y86.747
X9.253 Y86.797
X9.305 Y86.886
X9.333 Y86.928
X9.366 Y86.965
X15.359 Y92.956
X15.403 Y92.994
X15.452 Y93.025
X15.552 Y93.078
X15.605 Y93.102
X15.662 Y93.117
X15.779 Y93.141
X15.856 Y93.148
X17.426
X17.463 Y93.156
X17.495 Y93.176
X17.517 Y93.208
X17.525 Y93.245
X17.52 Y93.282
X17.5 Y93.315
X17.47 Y93.338
X17.433 Y93.348
X15.481 Y93.489
X15.446 Y93.498
X15.417 Y93.518
X15.397 Y93.548
X15.388 Y93.582
X15.392 Y93.618
X15.409 Y93.649
X15.435 Y93.673
X15.468 Y93.687
X15.572 Y93.716 Z-1.179 F146.
X15.671 Y93.76 Z-1.183
X15.763 Y93.818 Z-1.186
X15.845 Y93.888 Z-1.19
X15.917 Y93.97 Z-1.194
X15.976 Y94.061 Z-1.198
X16.021 Y94.159 Z-1.202
X16.052 Y94.263 Z-1.205
X16.068 Y94.37 Z-1.209
Y94.479 Z-1.213
X16.053 Y94.586 Z-1.217
X16.022 Y94.69 Z-1.221
X15.977 Y94.788 Z-1.224
X15.918 Y94.879 Z-1.228
X15.847 Y94.961 Z-1.232
X15.764 Y95.031 Z-1.236
X15.673 Y95.089 Z-1.239
X15.574 Y95.134 Z-1.243
X15.47 Y95.163 Z-1.247
X15.362 Y95.178 Z-1.251
X15.254 Y95.177 Z-1.255
X15.147 Y95.16 Z-1.258
X15.043 Y95.128 Z-1.262
X14.945 Y95.082 Z-1.266
X14.855 Y95.022 Z-1.27
X14.774 Y94.95 Z-1.274
X14.704 Y94.867 Z-1.277
X14.648 Y94.774 Z-1.281
X14.604 Y94.675 Z-1.285
X14.576 Y94.57 Z-1.289
X14.563 Y94.463 Z-1.292
X14.565 Y94.355 Z-1.296
X14.583 Y94.248 Z-1.3
X14.616 Y94.144 Z-1.304
X14.663 Y94.047 Z-1.308
X14.724 Y93.957 Z-1.311
X14.798 Y93.877 Z-1.315
X14.881 Y93.809 Z-1.319
X14.974 Y93.753 Z-1.323
X15.074 Y93.711 Z-1.327
X15.179 Y93.684 Z-1.33
X15.287 Y93.672 Z-1.334
X15.395 Y93.675 Z-1.338
X15.502 Y93.694 Z-1.342
X15.605 Y93.729 Z-1.346
X15.702 Y93.777 Z-1.349
X15.79 Y93.839 Z-1.353
X15.87 Y93.913 Z-1.357
X15.937 Y93.998 Z-1.361
X15.992 Y94.091 Z-1.364
X16.033 Y94.192 Z-1.368
X16.059 Y94.297 Z-1.372
X16.07 Y94.405 Z-1.376
X16.065 Y94.513 Z-1.38
X16.044 Y94.62 Z-1.383
X16.009 Y94.722 Z-1.387
X15.959 Y94.818 Z-1.391
X15.896 Y94.907 Z-1.395
X15.821 Y94.985 Z-1.399
X15.736 Y95.051 Z-1.402
X15.642 Y95.105 Z-1.406
X15.541 Y95.145 Z-1.41
X15.435 Y95.17 Z-1.414
X15.327 Y95.179 Z-1.417
X15.219 Y95.173 Z-1.421
X15.113 Y95.151 Z-1.425
G3 X14.69 Y94.4 R0.61
X15.441 Y93.977 R0.61
G1 X15.605 Y94.016 F437.
G2 X15.856 Y94.041 R1.289
G1 X29.166 Y93.998
G3 X29.348 Y94.18 R0.182
X29.166 Y94.362 R0.182
G1 X15.374
X15.33 Y94.356
X15.29 Y94.34
X15.256 Y94.313
X12.815 Y91.872
X12.795 Y91.843
X12.789 Y91.809
X12.795 Y91.774
X12.815 Y91.745
X12.844 Y91.725
X12.879 Y91.718
X12.913 Y91.725
X12.943 Y91.745
G3 X13.836 Y92.666 R38.416
G2 X14.729 Y93.587 R38.416
X15.135 Y93.867 R1.358
X15.441 Y93.977 R2.216
X16.254 Y93.616 R0.698
G3 X17.01 Y93.148 R0.845
G1 X30.262 Y93.149
Y95.211
X14.953
X11.486 Y91.745
X12.814 Y90.417
X15.359 Y92.956
X15.403 Y92.994
X15.452 Y93.025
X15.552 Y93.078
X15.605 Y93.102
X15.662 Y93.117
X15.779 Y93.141
X15.856 Y93.148
X17.01
X17.047 Y93.156
X17.079 Y93.176
X17.101 Y93.207
X17.11 Y93.244
X17.105 Y93.281
X17.086 Y93.314
X17.056 Y93.337
X17.019 Y93.348
X15.479 Y93.489
X15.445 Y93.499
X15.416 Y93.519
X15.396 Y93.549
X15.388 Y93.583
X15.393 Y93.618
X15.409 Y93.65
X15.435 Y93.673
X15.468 Y93.687
X15.572 Y93.716 Z-1.429 F146.
X15.671 Y93.76 Z-1.433
X15.763 Y93.818 Z-1.436
X15.845 Y93.888 Z-1.44
X15.917 Y93.97 Z-1.444
X15.976 Y94.061 Z-1.448
X16.021 Y94.159 Z-1.452
X16.052 Y94.263 Z-1.455
X16.068 Y94.37 Z-1.459
Y94.479 Z-1.463
X16.053 Y94.586 Z-1.467
X16.022 Y94.69 Z-1.471
X15.977 Y94.788 Z-1.474
X15.918 Y94.879 Z-1.478
X15.847 Y94.961 Z-1.482
X15.764 Y95.031 Z-1.486
X15.673 Y95.089 Z-1.489
X15.574 Y95.134 Z-1.493
X15.47 Y95.163 Z-1.497
X15.362 Y95.178 Z-1.501
X15.254 Y95.177 Z-1.505
X15.147 Y95.16 Z-1.508
X15.043 Y95.128 Z-1.512
X14.945 Y95.082 Z-1.516
X14.855 Y95.022 Z-1.52
X14.774 Y94.95 Z-1.524
X14.704 Y94.867 Z-1.527
X14.648 Y94.774 Z-1.531
X14.604 Y94.675 Z-1.535
X14.576 Y94.57 Z-1.539
X14.563 Y94.463 Z-1.542
X14.565 Y94.355 Z-1.546
X14.583 Y94.248 Z-1.55
X14.616 Y94.144 Z-1.554
X14.663 Y94.047 Z-1.558
X14.724 Y93.957 Z-1.561
X14.798 Y93.877 Z-1.565
X14.881 Y93.809 Z-1.569
X14.974 Y93.753 Z-1.573
X15.074 Y93.711 Z-1.577
X15.179 Y93.684 Z-1.58
X15.287 Y93.672 Z-1.584
X15.395 Y93.675 Z-1.588
X15.502 Y93.694 Z-1.592
X15.605 Y93.729 Z-1.596
X15.702 Y93.777 Z-1.599
X15.79 Y93.839 Z-1.603
X15.87 Y93.913 Z-1.607
X15.937 Y93.998 Z-1.611
X15.992 Y94.091 Z-1.614
X16.033 Y94.192 Z-1.618
X16.059 Y94.297 Z-1.622
X16.07 Y94.405 Z-1.626
X16.065 Y94.513 Z-1.63
X16.044 Y94.62 Z-1.633
X16.009 Y94.722 Z-1.637
X15.959 Y94.818 Z-1.641
X15.896 Y94.907 Z-1.645
X15.821 Y94.985 Z-1.649
X15.736 Y95.051 Z-1.652
X15.642 Y95.105 Z-1.656
X15.541 Y95.145 Z-1.66
X15.435 Y95.17 Z-1.664
X15.327 Y95.179 Z-1.667
X15.219 Y95.173 Z-1.671
X15.113 Y95.151 Z-1.675
G3 X14.69 Y94.4 R0.61
X15.441 Y93.977 R0.61
G1 X15.605 Y94.016 F437.
G2 X15.856 Y94.041 R1.289
G1 X29.166 Y93.998
G3 X29.348 Y94.18 R0.182
X29.166 Y94.362 R0.182
G1 X15.374
X15.33 Y94.356
X15.29 Y94.34
X15.256 Y94.313
X12.815 Y91.872
X12.795 Y91.843
X12.789 Y91.809
X12.795 Y91.774
X12.815 Y91.745
X12.844 Y91.725
X12.879 Y91.718
X12.913 Y91.725
X12.943 Y91.745
G3 X13.836 Y92.666 R38.416
G2 X14.729 Y93.587 R38.416
X15.135 Y93.867 R1.358
X15.441 Y93.977 R2.216
X16.254 Y93.616 R0.698
G3 X17.01 Y93.148 R0.845
G1 X30.262 Y93.149
Y95.211
X14.953
X11.486 Y91.745
X12.814 Y90.417
X15.359 Y92.956
X15.403 Y92.994
X15.452 Y93.025
X15.552 Y93.078
X15.605 Y93.102
X15.662 Y93.117
X15.779 Y93.141
X15.856 Y93.148
X17.01
X17.047 Y93.156
X17.079 Y93.176
X17.101 Y93.207
X17.11 Y93.244
X17.105 Y93.281
X17.086 Y93.314
X17.056 Y93.337
X17.019 Y93.348
X15.479 Y93.489
X15.445 Y93.499
X15.416 Y93.519
X15.396 Y93.549
X15.388 Y93.583
X15.393 Y93.618
X15.409 Y93.65
X15.435 Y93.673
X15.468 Y93.687
X15.572 Y93.716 Z-1.679 F146.
X15.671 Y93.76 Z-1.683
X15.763 Y93.818 Z-1.686
X15.845 Y93.888 Z-1.69
X15.917 Y93.97 Z-1.694
X15.976 Y94.061 Z-1.698
X16.021 Y94.159 Z-1.702
X16.052 Y94.263 Z-1.705
X16.068 Y94.37 Z-1.709
Y94.479 Z-1.713
X16.053 Y94.586 Z-1.717
X16.022 Y94.69 Z-1.721
X15.977 Y94.788 Z-1.724
X15.918 Y94.879 Z-1.728
X15.847 Y94.961 Z-1.732
X15.764 Y95.031 Z-1.736
X15.673 Y95.089 Z-1.739
X15.574 Y95.134 Z-1.743
X15.47 Y95.163 Z-1.747
X15.362 Y95.178 Z-1.751
X15.254 Y95.177 Z-1.755
X15.147 Y95.16 Z-1.758
X15.043 Y95.128 Z-1.762
X14.945 Y95.082 Z-1.766
X14.855 Y95.022 Z-1.77
X14.774 Y94.95 Z-1.774
X14.704 Y94.867 Z-1.777
X14.648 Y94.774 Z-1.781
X14.604 Y94.675 Z-1.785
X14.576 Y94.57 Z-1.789
X14.563 Y94.463 Z-1.792
X14.565 Y94.355 Z-1.796
X14.583 Y94.248 Z-1.8
X14.616 Y94.144 Z-1.804
X14.663 Y94.047 Z-1.808
X14.724 Y93.957 Z-1.811
X14.798 Y93.877 Z-1.815
X14.881 Y93.809 Z-1.819
X14.974 Y93.753 Z-1.823
X15.074 Y93.711 Z-1.827
X15.179 Y93.684 Z-1.83
X15.287 Y93.672 Z-1.834
X15.395 Y93.675 Z-1.838
X15.502 Y93.694 Z-1.842
X15.605 Y93.729 Z-1.846
X15.702 Y93.777 Z-1.849
X15.79 Y93.839 Z-1.853
X15.87 Y93.913 Z-1.857
X15.937 Y93.998 Z-1.861
X15.992 Y94.091 Z-1.864
X16.033 Y94.192 Z-1.868
X16.059 Y94.297 Z-1.872
X16.07 Y94.405 Z-1.876
X16.065 Y94.513 Z-1.88
X16.044 Y94.62 Z-1.883
X16.009 Y94.722 Z-1.887
X15.959 Y94.818 Z-1.891
X15.896 Y94.907 Z-1.895
X15.821 Y94.985 Z-1.899
X15.736 Y95.051 Z-1.902
X15.642 Y95.105 Z-1.906
X15.541 Y95.145 Z-1.91
X15.435 Y95.17 Z-1.914
X15.327 Y95.179 Z-1.917
X15.219 Y95.173 Z-1.921
X15.113 Y95.151 Z-1.925
G3 X14.69 Y94.4 R0.61
X15.441 Y93.977 R0.61
G1 X15.605 Y94.016 F437.
G2 X15.856 Y94.041 R1.289
G1 X29.166 Y93.998
G3 X29.348 Y94.18 R0.182
X29.166 Y94.362 R0.182
G1 X15.374
X15.33 Y94.356
X15.29 Y94.34
X15.256 Y94.313
X12.815 Y91.872
X12.795 Y91.843
X12.789 Y91.809
X12.795 Y91.774
X12.815 Y91.745
X12.844 Y91.725
X12.879 Y91.718
X12.913 Y91.725
X12.943 Y91.745
G3 X13.836 Y92.666 R38.416
G2 X14.729 Y93.587 R38.416
X15.135 Y93.867 R1.358
X15.441 Y93.977 R2.216
X16.254 Y93.616 R0.698
G3 X17.01 Y93.148 R0.845
G1 X30.262 Y93.149
Y95.211
X14.953
X11.486 Y91.745
X12.814 Y90.417
X15.359 Y92.956
X15.403 Y92.994
X15.452 Y93.025
X15.552 Y93.078
X15.605 Y93.102
X15.662 Y93.117
X15.779 Y93.141
X15.856 Y93.148
X17.01
X17.109 Y93.156 Z-1.926 F146.
X17.204 Y93.18 Z-1.928
X17.295 Y93.218 Z-1.929
X17.379 Y93.27 Z-1.93
X17.454 Y93.335 Z-1.931
X17.517 Y93.411 Z-1.932
X17.567 Y93.496 Z-1.934
X17.604 Y93.587 Z-1.935
X17.625 Y93.684 Z-1.936
X17.631 Y93.782 Z-1.937
X17.621 Y93.881 Z-1.939
X17.595 Y93.976 Z-1.94
X17.555 Y94.066 Z-1.941
X17.501 Y94.149 Z-1.942
X17.434 Y94.222 Z-1.944
X17.357 Y94.283 Z-1.945
X17.271 Y94.332 Z-1.946
X15.535 Y95.137 Z-1.97
X15.442 Y95.172 Z-1.971
X15.345 Y95.191 Z-1.973
X15.245 Y95.194 Z-1.974
X15.147 Y95.182 Z-1.975
X15.051 Y95.154 Z-1.976
X14.962 Y95.111 Z-1.978
X14.88 Y95.054 Z-1.979
X14.809 Y94.985 Z-1.98
X14.749 Y94.905 Z-1.981
X14.703 Y94.817 Z-1.982
X14.672 Y94.723 Z-1.984
X14.656 Y94.625 Z-1.985
Y94.525 Z-1.986
X14.671 Y94.427 Z-1.987
X14.703 Y94.333 Z-1.989
X14.749 Y94.245 Z-1.99
X14.808 Y94.165 Z-1.991
X14.879 Y94.096 Z-1.992
X14.961 Y94.039 Z-1.994
X15.05 Y93.996 Z-1.995
X15.146 Y93.967 Z-1.996
X15.244 Y93.955 Z-1.997
X15.344 Y93.958 Z-1.999
X15.441 Y93.977 Z-2.
X15.605 Y94.016 F437.
G2 X15.856 Y94.041 R1.289
G1 X29.166 Y93.998
G3 X29.348 Y94.18 R0.182
X29.166 Y94.362 R0.182
G1 X15.374
X15.33 Y94.356
X15.29 Y94.34
X15.256 Y94.313
X12.815 Y91.872
X12.795 Y91.843
X12.789 Y91.809
X12.795 Y91.774
X12.815 Y91.745
X12.844 Y91.725
X12.879 Y91.718
X12.913 Y91.725
X12.943 Y91.745
G3 X13.836 Y92.666 R38.416
G2 X14.729 Y93.587 R38.416
X15.135 Y93.867 R1.358
X15.441 Y93.977 R2.216
X16.254 Y93.616 R0.698
G3 X17.01 Y93.148 R0.845
G1 X30.262 Y93.149
Y95.211
X14.953
X11.486 Y91.745
X12.814 Y90.417
X15.359 Y92.956
X15.403 Y92.994
X15.452 Y93.025
X15.552 Y93.078
X15.605 Y93.102
X15.662 Y93.117
X15.779 Y93.141
X15.856 Y93.148
X17.01
X17.047 Y93.156
X17.079 Y93.176
X17.101 Y93.207
X17.11 Y93.244
X17.105 Y93.281
X17.086 Y93.314
X17.056 Y93.337
X17.019 Y93.348
X15.479 Y93.489
X15.445 Y93.499
X15.416 Y93.519
X15.396 Y93.549
X15.388 Y93.583
X15.393 Y93.618
X15.409 Y93.65
X15.435 Y93.673
X15.468 Y93.687
X15.572 Y93.716 Z-2.004 F146.
X15.671 Y93.76 Z-2.008
X15.763 Y93.818 Z-2.011
X15.845 Y93.888 Z-2.015
X15.917 Y93.97 Z-2.019
X15.976 Y94.061 Z-2.023
X16.021 Y94.159 Z-2.026
X16.052 Y94.263 Z-2.03
X16.068 Y94.37 Z-2.034
Y94.479 Z-2.038
X16.053 Y94.586 Z-2.042
X16.022 Y94.69 Z-2.045
X15.977 Y94.788 Z-2.049
X15.918 Y94.879 Z-2.053
X15.847 Y94.961 Z-2.057
X15.764 Y95.031 Z-2.061
X15.673 Y95.089 Z-2.064
X15.574 Y95.134 Z-2.068
X15.47 Y95.163 Z-2.072
X15.362 Y95.178 Z-2.076
X15.254 Y95.177 Z-2.079
X15.147 Y95.16 Z-2.083
X15.043 Y95.128 Z-2.087
X14.945 Y95.082 Z-2.091
X14.855 Y95.022 Z-2.095
X14.774 Y94.95 Z-2.098
X14.704 Y94.867 Z-2.102
X14.648 Y94.774 Z-2.106
X14.604 Y94.675 Z-2.11
X14.576 Y94.57 Z-2.114
X14.563 Y94.463 Z-2.117
X14.565 Y94.355 Z-2.121
X14.583 Y94.248 Z-2.125
X14.616 Y94.144 Z-2.129
X14.663 Y94.047 Z-2.133
X14.724 Y93.957 Z-2.136
X14.798 Y93.877 Z-2.14
X14.881 Y93.809 Z-2.144
X14.974 Y93.753 Z-2.148
X15.074 Y93.711 Z-2.151
X15.179 Y93.684 Z-2.155
X15.287 Y93.672 Z-2.159
X15.395 Y93.675 Z-2.163
X15.502 Y93.694 Z-2.167
X15.605 Y93.729 Z-2.17
X15.702 Y93.777 Z-2.174
X15.79 Y93.839 Z-2.178
X15.87 Y93.913 Z-2.182
X15.937 Y93.998 Z-2.186
X15.992 Y94.091 Z-2.189
X16.033 Y94.192 Z-2.193
X16.059 Y94.297 Z-2.197
X16.07 Y94.405 Z-2.201
X16.065 Y94.513 Z-2.204
X16.044 Y94.62 Z-2.208
X16.009 Y94.722 Z-2.212
X15.959 Y94.818 Z-2.216
X15.896 Y94.907 Z-2.22
X15.821 Y94.985 Z-2.223
X15.736 Y95.051 Z-2.227
X15.642 Y95.105 Z-2.231
X15.541 Y95.145 Z-2.235
X15.435 Y95.17 Z-2.239
X15.327 Y95.179 Z-2.242
X15.219 Y95.173 Z-2.246
X15.113 Y95.151 Z-2.25
G3 X14.69 Y94.4 R0.61
X15.441 Y93.977 R0.61
G1 X15.605 Y94.016 F437.
G2 X15.856 Y94.041 R1.289
G1 X29.166 Y93.998
G3 X29.348 Y94.18 R0.182
X29.166 Y94.362 R0.182
G1 X15.374
X15.33 Y94.356
X15.29 Y94.34
X15.256 Y94.313
X12.815 Y91.872
X12.795 Y91.843
X12.789 Y91.809
X12.795 Y91.774
X12.815 Y91.745
X12.844 Y91.725
X12.879 Y91.718
X12.913 Y91.725
X12.943 Y91.745
G3 X13.836 Y92.666 R38.416
G2 X14.729 Y93.587 R38.416
X15.135 Y93.867 R1.358
X15.441 Y93.977 R2.216
X16.254 Y93.616 R0.698
G3 X17.01 Y93.148 R0.845
G1 X30.262 Y93.149
Y95.211
X14.953
X11.486 Y91.745
X12.814 Y90.417
X15.359 Y92.956
X15.403 Y92.994
X15.452 Y93.025
X15.552 Y93.078
X15.605 Y93.102
X15.662 Y93.117
X15.779 Y93.141
X15.856 Y93.148
X17.01
X17.047 Y93.156
X17.079 Y93.176
X17.101 Y93.207
X17.11 Y93.244
X17.105 Y93.281
X17.086 Y93.314
X17.056 Y93.337
X17.019 Y93.348
X15.479 Y93.489
X15.445 Y93.499
X15.416 Y93.519
X15.396 Y93.549
X15.388 Y93.583
X15.393 Y93.618
X15.409 Y93.65
X15.435 Y93.673
X15.468 Y93.687
X15.572 Y93.716 Z-2.254 F146.
X15.671 Y93.76 Z-2.258
X15.763 Y93.818 Z-2.261
X15.845 Y93.888 Z-2.265
X15.917 Y93.97 Z-2.269
X15.976 Y94.061 Z-2.273
X16.021 Y94.159 Z-2.276
X16.052 Y94.263 Z-2.28
X16.068 Y94.37 Z-2.284
Y94.479 Z-2.288
X16.053 Y94.586 Z-2.292
X16.022 Y94.69 Z-2.295
X15.977 Y94.788 Z-2.299
X15.918 Y94.879 Z-2.303
X15.847 Y94.961 Z-2.307
X15.764 Y95.031 Z-2.311
X15.673 Y95.089 Z-2.314
X15.574 Y95.134 Z-2.318
X15.47 Y95.163 Z-2.322
X15.362 Y95.178 Z-2.326
X15.254 Y95.177 Z-2.329
X15.147 Y95.16 Z-2.333
X15.043 Y95.128 Z-2.337
X14.945 Y95.082 Z-2.341
X14.855 Y95.022 Z-2.345
X14.774 Y94.95 Z-2.348
X14.704 Y94.867 Z-2.352
X14.648 Y94.774 Z-2.356
X14.604 Y94.675 Z-2.36
X14.576 Y94.57 Z-2.364
X14.563 Y94.463 Z-2.367
X14.565 Y94.355 Z-2.371
X14.583 Y94.248 Z-2.375
X14.616 Y94.144 Z-2.379
X14.663 Y94.047 Z-2.383
X14.724 Y93.957 Z-2.386
X14.798 Y93.877 Z-2.39
X14.881 Y93.809 Z-2.394
X14.974 Y93.753 Z-2.398
X15.074 Y93.711 Z-2.401
X15.179 Y93.684 Z-2.405
X15.287 Y93.672 Z-2.409
X15.395 Y93.675 Z-2.413
X15.502 Y93.694 Z-2.417
X15.605 Y93.729 Z-2.42
X15.702 Y93.777 Z-2.424
X15.79 Y93.839 Z-2.428
X15.87 Y93.913 Z-2.432
X15.937 Y93.998 Z-2.436
X15.992 Y94.091 Z-2.439
X16.033 Y94.192 Z-2.443
X16.059 Y94.297 Z-2.447
X16.07 Y94.405 Z-2.451
X16.065 Y94.513 Z-2.454
X16.044 Y94.62 Z-2.458
X16.009 Y94.722 Z-2.462
X15.959 Y94.818 Z-2.466
X15.896 Y94.907 Z-2.47
X15.821 Y94.985 Z-2.473
X15.736 Y95.051 Z-2.477
X15.642 Y95.105 Z-2.481
X15.541 Y95.145 Z-2.485
X15.435 Y95.17 Z-2.489
X15.327 Y95.179 Z-2.492
X15.219 Y95.173 Z-2.496
X15.113 Y95.151 Z-2.5
G3 X14.69 Y94.4 R0.61
X15.441 Y93.977 R0.61
G1 X15.605 Y94.016 F437.
G2 X15.856 Y94.041 R1.289
G1 X29.166 Y93.998
G3 X29.348 Y94.18 R0.182
X29.166 Y94.362 R0.182
G1 X15.374
X15.33 Y94.356
X15.29 Y94.34
X15.256 Y94.313
X12.815 Y91.872
X12.795 Y91.843
X12.789 Y91.809
X12.795 Y91.774
X12.815 Y91.745
X12.844 Y91.725
X12.879 Y91.718
X12.913 Y91.725
X12.943 Y91.745
G3 X13.836 Y92.666 R38.416
G2 X14.729 Y93.587 R38.416
X15.135 Y93.867 R1.358
X15.441 Y93.977 R2.216
X16.254 Y93.616 R0.698
G3 X17.01 Y93.148 R0.845
G1 X30.262 Y93.149
Y95.211
X14.953
X11.486 Y91.745
X12.814 Y90.417
X15.359 Y92.956
X15.403 Y92.994
X15.452 Y93.025
X15.552 Y93.078
X15.605 Y93.102
X15.662 Y93.117
X15.779 Y93.141
X15.856 Y93.148
X17.01
X17.047 Y93.156
X17.079 Y93.176
X17.101 Y93.207
X17.11 Y93.244
X17.105 Y93.281
X17.086 Y93.314
X17.056 Y93.337
X17.019 Y93.348
X15.479 Y93.489
X15.445 Y93.499
X15.416 Y93.519
X15.396 Y93.549
X15.388 Y93.583
X15.393 Y93.618
X15.409 Y93.65
X15.435 Y93.673
X15.468 Y93.687
X15.572 Y93.716 Z-2.504 F146.
X15.671 Y93.76 Z-2.508
X15.763 Y93.818 Z-2.511
X15.845 Y93.888 Z-2.515
X15.917 Y93.97 Z-2.519
X15.976 Y94.061 Z-2.523
X16.021 Y94.159 Z-2.526
X16.052 Y94.263 Z-2.53
X16.068 Y94.37 Z-2.534
Y94.479 Z-2.538
X16.053 Y94.586 Z-2.542
X16.022 Y94.69 Z-2.545
X15.977 Y94.788 Z-2.549
X15.918 Y94.879 Z-2.553
X15.847 Y94.961 Z-2.557
X15.764 Y95.031 Z-2.561
X15.673 Y95.089 Z-2.564
X15.574 Y95.134 Z-2.568
X15.47 Y95.163 Z-2.572
X15.362 Y95.178 Z-2.576
X15.254 Y95.177 Z-2.579
X15.147 Y95.16 Z-2.583
X15.043 Y95.128 Z-2.587
X14.945 Y95.082 Z-2.591
X14.855 Y95.022 Z-2.595
X14.774 Y94.95 Z-2.598
X14.704 Y94.867 Z-2.602
X14.648 Y94.774 Z-2.606
X14.604 Y94.675 Z-2.61
X14.576 Y94.57 Z-2.614
X14.563 Y94.463 Z-2.617
X14.565 Y94.355 Z-2.621
X14.583 Y94.248 Z-2.625
X14.616 Y94.144 Z-2.629
X14.663 Y94.047 Z-2.633
X14.724 Y93.957 Z-2.636
X14.798 Y93.877 Z-2.64
X14.881 Y93.809 Z-2.644
X14.974 Y93.753 Z-2.648
X15.074 Y93.711 Z-2.651
X15.179 Y93.684 Z-2.655
X15.287 Y93.672 Z-2.659
X15.395 Y93.675 Z-2.663
X15.502 Y93.694 Z-2.667
X15.605 Y93.729 Z-2.67
X15.702 Y93.777 Z-2.674
X15.79 Y93.839 Z-2.678
X15.87 Y93.913 Z-2.682
X15.937 Y93.998 Z-2.686
X15.992 Y94.091 Z-2.689
X16.033 Y94.192 Z-2.693
X16.059 Y94.297 Z-2.697
X16.07 Y94.405 Z-2.701
X16.065 Y94.513 Z-2.704
X16.044 Y94.62 Z-2.708
X16.009 Y94.722 Z-2.712
X15.959 Y94.818 Z-2.716
X15.896 Y94.907 Z-2.72
X15.821 Y94.985 Z-2.723
X15.736 Y95.051 Z-2.727
X15.642 Y95.105 Z-2.731
X15.541 Y95.145 Z-2.735
X15.435 Y95.17 Z-2.739
X15.327 Y95.179 Z-2.742
X15.219 Y95.173 Z-2.746
X15.113 Y95.151 Z-2.75
G3 X14.69 Y94.4 R0.61
X15.441 Y93.977 R0.61
G1 X15.605 Y94.016 F437.
G2 X15.856 Y94.041 R1.289
G1 X29.166 Y93.998
G3 X29.348 Y94.18 R0.182
X29.166 Y94.362 R0.182
G1 X15.374
X15.33 Y94.356
X15.29 Y94.34
X15.256 Y94.313
X12.815 Y91.872
X12.795 Y91.843
X12.789 Y91.809
X12.795 Y91.774
X12.815 Y91.745
X12.844 Y91.725
X12.879 Y91.718
X12.913 Y91.725
X12.943 Y91.745
G3 X13.836 Y92.666 R38.416
G2 X14.729 Y93.587 R38.416
X15.135 Y93.867 R1.358
X15.441 Y93.977 R2.216
X16.254 Y93.616 R0.698
G3 X17.01 Y93.148 R0.845
G1 X30.262 Y93.149
Y95.211
X14.953
X11.486 Y91.745
X12.814 Y90.417
X15.359 Y92.956
X15.403 Y92.994
X15.452 Y93.025
X15.552 Y93.078
X15.605 Y93.102
X15.662 Y93.117
X15.779 Y93.141
X15.856 Y93.148
X17.01
X17.047 Y93.156
X17.079 Y93.176
X17.101 Y93.207
X17.11 Y93.244
X17.105 Y93.281
X17.086 Y93.314
X17.056 Y93.337
X17.019 Y93.348
X15.479 Y93.489
X15.445 Y93.499
X15.416 Y93.519
X15.396 Y93.549
X15.388 Y93.583
X15.393 Y93.618
X15.409 Y93.65
X15.435 Y93.673
X15.468 Y93.687
X15.572 Y93.716 Z-2.754 F146.
X15.671 Y93.76 Z-2.758
X15.763 Y93.818 Z-2.761
X15.845 Y93.888 Z-2.765
X15.917 Y93.97 Z-2.769
X15.976 Y94.061 Z-2.773
X16.021 Y94.159 Z-2.776
X16.052 Y94.263 Z-2.78
X16.068 Y94.37 Z-2.784
Y94.479 Z-2.788
X16.053 Y94.586 Z-2.792
X16.022 Y94.69 Z-2.795
X15.977 Y94.788 Z-2.799
X15.918 Y94.879 Z-2.803
X15.847 Y94.961 Z-2.807
X15.764 Y95.031 Z-2.811
X15.673 Y95.089 Z-2.814
X15.574 Y95.134 Z-2.818
X15.47 Y95.163 Z-2.822
X15.362 Y95.178 Z-2.826
X15.254 Y95.177 Z-2.829
X15.147 Y95.16 Z-2.833
X15.043 Y95.128 Z-2.837
X14.945 Y95.082 Z-2.841
X14.855 Y95.022 Z-2.845
X14.774 Y94.95 Z-2.848
X14.704 Y94.867 Z-2.852
X14.648 Y94.774 Z-2.856
X14.604 Y94.675 Z-2.86
X14.576 Y94.57 Z-2.864
X14.563 Y94.463 Z-2.867
X14.565 Y94.355 Z-2.871
X14.583 Y94.248 Z-2.875
X14.616 Y94.144 Z-2.879
X14.663 Y94.047 Z-2.883
X14.724 Y93.957 Z-2.886
X14.798 Y93.877 Z-2.89
X14.881 Y93.809 Z-2.894
X14.974 Y93.753 Z-2.898
X15.074 Y93.711 Z-2.901
X15.179 Y93.684 Z-2.905
X15.287 Y93.672 Z-2.909
X15.395 Y93.675 Z-2.913
X15.502 Y93.694 Z-2.917
X15.605 Y93.729 Z-2.92
X15.702 Y93.777 Z-2.924
X15.79 Y93.839 Z-2.928
X15.87 Y93.913 Z-2.932
X15.937 Y93.998 Z-2.936
X15.992 Y94.091 Z-2.939
X16.033 Y94.192 Z-2.943
X16.059 Y94.297 Z-2.947
X16.07 Y94.405 Z-2.951
X16.065 Y94.513 Z-2.954
X16.044 Y94.62 Z-2.958
X16.009 Y94.722 Z-2.962
X15.959 Y94.818 Z-2.966
X15.896 Y94.907 Z-2.97
X15.821 Y94.985 Z-2.973
X15.736 Y95.051 Z-2.977
X15.642 Y95.105 Z-2.981
X15.541 Y95.145 Z-2.985
X15.435 Y95.17 Z-2.989
X15.327 Y95.179 Z-2.992
X15.219 Y95.173 Z-2.996
X15.113 Y95.151 Z-3.
G3 X14.69 Y94.4 R0.61
X15.441 Y93.977 R0.61
G1 X15.605 Y94.016 F437.
G2 X15.856 Y94.041 R1.289
G1 X29.166 Y93.998
G3 X29.348 Y94.18 R0.182
X29.166 Y94.362 R0.182
G1 X15.374
X15.33 Y94.356
X15.29 Y94.34
X15.256 Y94.313
X12.815 Y91.872
X12.795 Y91.843
X12.789 Y91.809
X12.795 Y91.774
X12.815 Y91.745
X12.844 Y91.725
X12.879 Y91.718
X12.913 Y91.725
X12.943 Y91.745
G3 X13.836 Y92.666 R38.416
G2 X14.729 Y93.587 R38.416
X15.135 Y93.867 R1.358
X15.441 Y93.977 R2.216
X16.254 Y93.616 R0.698
G3 X17.01 Y93.148 R0.845
G1 X30.262 Y93.149
Y95.211
X14.953
X11.486 Y91.745
X12.814 Y90.417
X15.359 Y92.956
X15.403 Y92.994
X15.452 Y93.025
X15.552 Y93.078
X15.605 Y93.102
X15.662 Y93.117
X15.779 Y93.141
X15.856 Y93.148
X17.01
X17.047 Y93.156
X17.079 Y93.176
X17.101 Y93.207
X17.11 Y93.244
X17.105 Y93.281
X17.086 Y93.314
X17.056 Y93.337
X17.019 Y93.348
X15.479 Y93.489
X15.445 Y93.499
X15.416 Y93.519
X15.396 Y93.549
X15.388 Y93.583
X15.393 Y93.618
X15.409 Y93.65
X15.435 Y93.673
X15.468 Y93.687
X15.572 Y93.716 Z-3.004 F146.
X15.671 Y93.76 Z-3.008
X15.763 Y93.818 Z-3.011
X15.845 Y93.888 Z-3.015
X15.917 Y93.97 Z-3.019
X15.976 Y94.061 Z-3.023
X16.021 Y94.159 Z-3.026
X16.052 Y94.263 Z-3.03
X16.068 Y94.37 Z-3.034
Y94.479 Z-3.038
X16.053 Y94.586 Z-3.042
X16.022 Y94.69 Z-3.045
X15.977 Y94.788 Z-3.049
X15.918 Y94.879 Z-3.053
X15.847 Y94.961 Z-3.057
X15.764 Y95.031 Z-3.061
X15.673 Y95.089 Z-3.064
X15.574 Y95.134 Z-3.068
X15.47 Y95.163 Z-3.072
X15.362 Y95.178 Z-3.076
X15.254 Y95.177 Z-3.079
X15.147 Y95.16 Z-3.083
X15.043 Y95.128 Z-3.087
X14.945 Y95.082 Z-3.091
X14.855 Y95.022 Z-3.095
X14.774 Y94.95 Z-3.098
X14.704 Y94.867 Z-3.102
X14.648 Y94.774 Z-3.106
X14.604 Y94.675 Z-3.11
X14.576 Y94.57 Z-3.114
X14.563 Y94.463 Z-3.117
X14.565 Y94.355 Z-3.121
X14.583 Y94.248 Z-3.125
X14.616 Y94.144 Z-3.129
X14.663 Y94.047 Z-3.133
X14.724 Y93.957 Z-3.136
X14.798 Y93.877 Z-3.14
X14.881 Y93.809 Z-3.144
X14.974 Y93.753 Z-3.148
X15.074 Y93.711 Z-3.151
X15.179 Y93.684 Z-3.155
X15.287 Y93.672 Z-3.159
X15.395 Y93.675 Z-3.163
X15.502 Y93.694 Z-3.167
X15.605 Y93.729 Z-3.17
X15.702 Y93.777 Z-3.174
X15.79 Y93.839 Z-3.178
X15.87 Y93.913 Z-3.182
X15.937 Y93.998 Z-3.186
X15.992 Y94.091 Z-3.189
X16.033 Y94.192 Z-3.193
X16.059 Y94.297 Z-3.197
X16.07 Y94.405 Z-3.201
X16.065 Y94.513 Z-3.204
X16.044 Y94.62 Z-3.208
X16.009 Y94.722 Z-3.212
X15.959 Y94.818 Z-3.216
X15.896 Y94.907 Z-3.22
X15.821 Y94.985 Z-3.223
X15.736 Y95.051 Z-3.227
X15.642 Y95.105 Z-3.231
X15.541 Y95.145 Z-3.235
X15.435 Y95.17 Z-3.239
X15.327 Y95.179 Z-3.242
X15.219 Y95.173 Z-3.246
X15.113 Y95.151 Z-3.25
G3 X14.69 Y94.4 R0.61
X15.441 Y93.977 R0.61
G1 X15.605 Y94.016 F437.
G2 X15.856 Y94.041 R1.289
G1 X29.166 Y93.998
G3 X29.348 Y94.18 R0.182
X29.166 Y94.362 R0.182
G1 X15.374
X15.33 Y94.356
X15.29 Y94.34
X15.256 Y94.313
X12.815 Y91.872
X12.795 Y91.843
X12.789 Y91.809
X12.795 Y91.774
X12.815 Y91.745
X12.844 Y91.725
X12.879 Y91.718
X12.913 Y91.725
X12.943 Y91.745
G3 X13.836 Y92.666 R38.416
G2 X14.729 Y93.587 R38.416
X15.135 Y93.867 R1.358
X15.441 Y93.977 R2.216
X16.254 Y93.616 R0.698
G3 X17.01 Y93.148 R0.845
G1 X30.262 Y93.149
Y95.211
X14.953
X11.486 Y91.745
X12.814 Y90.417
X15.359 Y92.956
X15.403 Y92.994
X15.452 Y93.025
X15.552 Y93.078
X15.605 Y93.102
X15.662 Y93.117
X15.779 Y93.141
X15.856 Y93.148
X17.01
X17.109 Y93.156 Z-3.253 F146.
X17.204 Y93.18 Z-3.256
X17.295 Y93.218 Z-3.259
X17.379 Y93.27 Z-3.262
X17.454 Y93.335 Z-3.264
X17.517 Y93.411 Z-3.267
X17.567 Y93.496 Z-3.27
X17.604 Y93.587 Z-3.273
X17.625 Y93.684 Z-3.276
X17.631 Y93.782 Z-3.279
X17.621 Y93.881 Z-3.282
X17.595 Y93.976 Z-3.285
X17.555 Y94.066 Z-3.288
X17.501 Y94.149 Z-3.29
X17.434 Y94.222 Z-3.293
X17.357 Y94.283 Z-3.296
X17.271 Y94.332 Z-3.299
X15.535 Y95.137 Z-3.355
X15.442 Y95.172 Z-3.358
X15.345 Y95.191 Z-3.361
X15.245 Y95.194 Z-3.364
X15.147 Y95.182 Z-3.367
X15.051 Y95.154 Z-3.37
X14.962 Y95.111 Z-3.373
X14.88 Y95.054 Z-3.376
X14.809 Y94.985 Z-3.378
X14.749 Y94.905 Z-3.381
X14.703 Y94.817 Z-3.384
X14.672 Y94.723 Z-3.387
X14.656 Y94.625 Z-3.39
Y94.525 Z-3.393
X14.671 Y94.427 Z-3.396
X14.703 Y94.333 Z-3.399
X14.749 Y94.245 Z-3.402
X14.808 Y94.165 Z-3.405
X14.879 Y94.096 Z-3.408
X14.961 Y94.039 Z-3.411
X15.05 Y93.996 Z-3.413
X15.146 Y93.967 Z-3.416
X15.244 Y93.955 Z-3.419
X15.344 Y93.958 Z-3.422
X15.441 Y93.977 Z-3.425
X15.605 Y94.016 F437.
G2 X15.856 Y94.041 R1.289
G1 X29.166 Y93.998
G3 X29.348 Y94.18 R0.182
X29.166 Y94.362 R0.182
G1 X15.374
X15.33 Y94.356
X15.29 Y94.34
X15.256 Y94.313
X12.815 Y91.872
X12.795 Y91.843
X12.789 Y91.809
X12.795 Y91.774
X12.815 Y91.745
X12.844 Y91.725
X12.879 Y91.718
X12.913 Y91.725
X12.943 Y91.745
G3 X13.836 Y92.666 R38.416
G2 X14.729 Y93.587 R38.416
X15.135 Y93.867 R1.358
X15.441 Y93.977 R2.216
X16.254 Y93.616 R0.698
G3 X17.01 Y93.148 R0.845
G1 X30.262 Y93.149
Y95.211
X14.953
X11.486 Y91.745
X12.814 Y90.417
X15.359 Y92.956
X15.403 Y92.994
X15.452 Y93.025
X15.552 Y93.078
X15.605 Y93.102
X15.662 Y93.117
X15.779 Y93.141
X15.856 Y93.148
X17.01
X17.04 Y93.151 Z-3.419
X17.069 Y93.16 Z-3.413
X17.092 Y93.171 Z-3.396
X17.113 Y93.186 Z-3.379
X17.137 Y93.211 Z-3.327
X17.144 Y93.221 Z-3.266
G0 Z5.
X8.081 Y88.166
Z-0.754
G1 X8.07 Y88.164 Z-0.813 F146.
X8.038 Y88.155 Z-0.864
X7.991 Y88.138 Z-0.899
X7.937 Y88.115 Z-0.913
X7.841 Y88.061 Z-0.916
X7.755 Y87.994 Z-0.92
X7.679 Y87.915 Z-0.924
X7.616 Y87.826 Z-0.928
X7.566 Y87.728 Z-0.932
X7.531 Y87.625 Z-0.936
X7.511 Y87.517 Z-0.939
X7.507 Y87.408 Z-0.943
X7.518 Y87.299 Z-0.947
X7.546 Y87.193 Z-0.951
X7.588 Y87.092 Z-0.955
X7.644 Y86.999 Z-0.958
X7.714 Y86.914 Z-0.962
X7.795 Y86.84 Z-0.966
X7.886 Y86.779 Z-0.97
X7.984 Y86.732 Z-0.974
X8.089 Y86.7 Z-0.978
X8.197 Y86.683 Z-0.981
X8.306 Y86.681 Z-0.985
X8.415 Y86.696 Z-0.989
X8.52 Y86.726 Z-0.993
X8.62 Y86.771 Z-0.997
X8.712 Y86.83 Z-1.001
X8.795 Y86.902 Z-1.004
X8.866 Y86.985 Z-1.008
X8.925 Y87.077 Z-1.012
X8.969 Y87.177 Z-1.016
X8.999 Y87.283 Z-1.02
X9.013 Y87.391 Z-1.023
X9.011 Y87.501 Z-1.027
X8.994 Y87.609 Z-1.031
X8.961 Y87.713 Z-1.035
X8.913 Y87.811 Z-1.039
X8.851 Y87.902 Z-1.043
X8.778 Y87.983 Z-1.046
X8.693 Y88.052 Z-1.05
X8.599 Y88.108 Z-1.054
X8.498 Y88.15 Z-1.058
X8.392 Y88.177 Z-1.062
X8.283 Y88.188 Z-1.066
X8.173 Y88.183 Z-1.069
X8.066 Y88.163 Z-1.073
X7.962 Y88.127 Z-1.077
X7.865 Y88.076 Z-1.081
X7.777 Y88.013 Z-1.085
X7.698 Y87.936 Z-1.089
X7.631 Y87.85 Z-1.092
X7.578 Y87.754 Z-1.096
X7.538 Y87.652 Z-1.1
X7.514 Y87.545 Z-1.104
X7.506 Y87.436 Z-1.108
X7.514 Y87.327 Z-1.111
X7.537 Y87.22 Z-1.115
X7.576 Y87.118 Z-1.119
X7.629 Y87.022 Z-1.123
X7.695 Y86.935 Z-1.127
X7.773 Y86.858 Z-1.131
X7.861 Y86.794 Z-1.134
X7.958 Y86.743 Z-1.138
X8.061 Y86.707 Z-1.142
X8.169 Y86.685 Z-1.146
X8.278 Y86.68 Z-1.15
X8.387 Y86.691 Z-1.154
X8.493 Y86.717 Z-1.157
X8.595 Y86.758 Z-1.161
X8.689 Y86.814 Z-1.165
X8.774 Y86.882 Z-1.169
X8.849 Y86.962 Z-1.173
X8.911 Y87.053 Z-1.176
X8.959 Y87.151 Z-1.18
X8.993 Y87.255 Z-1.184
X9.011 Y87.363 Z-1.188
X9.013 Y87.472 Z-1.192
X9. Y87.581 Z-1.196
X8.971 Y87.686 Z-1.199
X8.927 Y87.787 Z-1.203
X8.869 Y87.879 Z-1.207
X8.798 Y87.963 Z-1.211
X8.716 Y88.035 Z-1.215
X8.624 Y88.095 Z-1.219
X8.524 Y88.14 Z-1.222
X8.419 Y88.171 Z-1.226
X8.311 Y88.186 Z-1.23
X8.202 Z-1.234
X8.093 Y88.169 Z-1.238
X7.989 Y88.138 Z-1.241
X7.89 Y88.091 Z-1.245
X7.799 Y88.03 Z-1.249
X7.717 Y87.957 Z-1.253
X7.647 Y87.873 Z-1.257
X7.59 Y87.78 Z-1.261
X7.547 Y87.679 Z-1.264
X7.519 Y87.573 Z-1.268
X7.507 Y87.465 Z-1.272
X7.51 Y87.355 Z-1.276
X7.529 Y87.248 Z-1.28
X7.564 Y87.144 Z-1.284
X7.613 Y87.046 Z-1.287
X7.676 Y86.957 Z-1.291
X7.752 Y86.877 Z-1.295
X7.838 Y86.809 Z-1.299
X7.932 Y86.755 Z-1.303
X8.034 Y86.715 Z-1.307
X8.141 Y86.689 Z-1.31
X8.25 Y86.68 Z-1.314
X8.359 Y86.686 Z-1.318
X8.466 Y86.709 Z-1.322
X8.569 Y86.746 Z-1.326
X8.665 Y86.798 Z-1.329
X8.753 Y86.863 Z-1.333
X8.83 Y86.941 Z-1.337
X8.896 Y87.028 Z-1.341
X8.948 Y87.125 Z-1.345
X8.985 Y87.227 Z-1.349
X9.008 Y87.335 Z-1.352
X9.014 Y87.444 Z-1.356
X9.005 Y87.553 Z-1.36
X8.98 Y87.659 Z-1.364
X8.94 Y87.761 Z-1.368
X8.885 Y87.856 Z-1.372
X8.817 Y87.942 Z-1.375
X8.738 Y88.017 Z-1.379
X8.649 Y88.08 Z-1.383
X8.551 Y88.13 Z-1.387
X8.447 Y88.165 Z-1.391
X8.339 Y88.184 Z-1.394
X8.23 Y88.187 Z-1.398
X8.121 Y88.175 Z-1.402
X8.015 Y88.147 Z-1.406
X7.915 Y88.104 Z-1.41
X7.821 Y88.047 Z-1.414
X7.737 Y87.977 Z-1.417
X7.664 Y87.896 Z-1.421
X7.604 Y87.805 Z-1.425
G3 X7.823 Y87.015 R0.579
X8.613 Y87.235 R0.579
G1 X8.638 Y87.279 F437.
G2 X8.823 Y87.504 R0.936
G3 X9.035 Y87.704 R4.762
Y87.965 R0.184
X8.775 Y87.964 R0.184
G1 X8.278 Y87.468
X8.252 Y87.433
X8.235 Y87.393
X8.23 Y87.35
Y70.545
X8.236 Y70.51
X8.256 Y70.481
X8.285 Y70.461
X8.32 Y70.454
X8.355 Y70.461
X8.384 Y70.481
X8.404 Y70.51
X8.41 Y70.545
X8.369 Y86.479
G2 X8.45 Y86.897 R1.121
X8.613 Y87.235 R2.839
X9.335 Y87.512 R0.608
G3 X10.088 Y87.69 R0.734
G1 X10.277 Y87.88
X8.949 Y89.208
X7.474 Y87.732
Y69.608
X9.166
X9.168 Y86.479
X9.171 Y86.528
X9.18 Y86.576
X9.21 Y86.694
X9.228 Y86.747
X9.253 Y86.797
X9.305 Y86.886
X9.333 Y86.927
X9.366 Y86.965
X10.088 Y87.69
X10.11 Y87.723
X10.118 Y87.761
X10.11 Y87.8
X10.088 Y87.832
X10.055 Y87.854
X10.016 Y87.861
X9.978 Y87.852
X9.946 Y87.83
X9.045 Y86.894
X9.015 Y86.873
X8.979 Y86.864
X8.943 Y86.868
X8.91 Y86.885
X8.886 Y86.913
X8.874 Y86.948
X8.875 Y86.985
X8.889 Y87.019
X8.943 Y87.113 Z-1.429 F146.
X8.981 Y87.214 Z-1.433
X9.006 Y87.32 Z-1.436
X9.014 Y87.428 Z-1.44
X9.007 Y87.536 Z-1.444
X8.985 Y87.642 Z-1.448
X8.948 Y87.744 Z-1.452
X8.896 Y87.839 Z-1.455
X8.831 Y87.926 Z-1.459
X8.755 Y88.003 Z-1.463
X8.668 Y88.068 Z-1.467
X8.573 Y88.12 Z-1.471
X8.472 Y88.158 Z-1.474
X8.366 Y88.181 Z-1.478
X8.257 Y88.188 Z-1.482
X8.149 Y88.18 Z-1.486
X8.044 Y88.156 Z-1.489
X7.942 Y88.118 Z-1.493
X7.848 Y88.065 Z-1.497
X7.761 Y88. Z-1.501
X7.685 Y87.922 Z-1.505
X7.621 Y87.835 Z-1.508
X7.571 Y87.739 Z-1.512
X7.534 Y87.637 Z-1.516
X7.512 Y87.531 Z-1.52
X7.506 Y87.423 Z-1.524
X7.516 Y87.315 Z-1.527
X7.54 Y87.209 Z-1.531
X7.58 Y87.108 Z-1.535
X7.634 Y87.014 Z-1.539
X7.7 Y86.929 Z-1.542
X7.779 Y86.854 Z-1.546
X7.867 Y86.791 Z-1.55
X7.963 Y86.741 Z-1.554
X8.065 Y86.706 Z-1.558
X8.172 Y86.685 Z-1.561
X8.28 Y86.68 Z-1.565
X8.388 Y86.691 Z-1.569
X8.493 Y86.717 Z-1.573
X8.594 Y86.758 Z-1.577
X8.687 Y86.813 Z-1.58
X8.772 Y86.88 Z-1.584
X8.846 Y86.959 Z-1.588
X8.908 Y87.048 Z-1.592
X8.957 Y87.145 Z-1.596
X8.991 Y87.248 Z-1.599
X9.01 Y87.354 Z-1.603
X9.014 Y87.463 Z-1.607
X9.002 Y87.57 Z-1.611
X8.975 Y87.675 Z-1.614
X8.933 Y87.775 Z-1.618
X8.877 Y87.868 Z-1.622
X8.808 Y87.952 Z-1.626
X8.728 Y88.025 Z-1.63
X8.639 Y88.086 Z-1.633
X8.541 Y88.134 Z-1.637
X8.438 Y88.167 Z-1.641
X8.331 Y88.185 Z-1.645
X8.223 Y88.187 Z-1.649
X8.115 Y88.174 Z-1.652
X8.011 Y88.146 Z-1.656
X7.911 Y88.102 Z-1.66
X7.819 Y88.045 Z-1.664
X7.736 Y87.976 Z-1.667
X7.664 Y87.895 Z-1.671
X7.604 Y87.805 Z-1.675
G3 X7.823 Y87.015 R0.579
X8.613 Y87.235 R0.579
G1 X8.638 Y87.279 F437.
G2 X8.823 Y87.504 R0.936
G3 X9.035 Y87.704 R4.762
Y87.965 R0.184
X8.775 Y87.964 R0.184
G1 X8.278 Y87.468
X8.252 Y87.433
X8.235 Y87.393
X8.23 Y87.35
Y70.545
X8.236 Y70.51
X8.256 Y70.481
X8.285 Y70.461
X8.32 Y70.454
X8.355 Y70.461
X8.384 Y70.481
X8.404 Y70.51
X8.41 Y70.545
X8.369 Y86.479
G2 X8.45 Y86.897 R1.121
X8.613 Y87.235 R2.839
X9.335 Y87.512 R0.608
G3 X10.088 Y87.69 R0.734
G1 X10.277 Y87.88
X8.949 Y89.208
X7.474 Y87.732
Y69.608
X9.166
X9.168 Y86.479
X9.171 Y86.528
X9.18 Y86.576
X9.21 Y86.694
X9.228 Y86.747
X9.253 Y86.797
X9.305 Y86.886
X9.333 Y86.927
X9.366 Y86.965
X10.088 Y87.69
X10.11 Y87.723
X10.118 Y87.761
X10.11 Y87.8
X10.088 Y87.832
X10.055 Y87.854
X10.016 Y87.861
X9.978 Y87.852
X9.946 Y87.83
X9.045 Y86.894
X9.015 Y86.873
X8.979 Y86.864
X8.943 Y86.868
X8.91 Y86.885
X8.886 Y86.913
X8.874 Y86.948
X8.875 Y86.985
X8.889 Y87.019
X8.943 Y87.113 Z-1.679 F146.
X8.981 Y87.214 Z-1.683
X9.006 Y87.32 Z-1.686
X9.014 Y87.428 Z-1.69
X9.007 Y87.536 Z-1.694
X8.985 Y87.642 Z-1.698
X8.948 Y87.744 Z-1.702
X8.896 Y87.839 Z-1.705
X8.831 Y87.926 Z-1.709
X8.755 Y88.003 Z-1.713
X8.668 Y88.068 Z-1.717
X8.573 Y88.12 Z-1.721
X8.472 Y88.158 Z-1.724
X8.366 Y88.181 Z-1.728
X8.257 Y88.188 Z-1.732
X8.149 Y88.18 Z-1.736
X8.044 Y88.156 Z-1.739
X7.942 Y88.118 Z-1.743
X7.848 Y88.065 Z-1.747
X7.761 Y88. Z-1.751
X7.685 Y87.922 Z-1.755
X7.621 Y87.835 Z-1.758
X7.571 Y87.739 Z-1.762
X7.534 Y87.637 Z-1.766
X7.512 Y87.531 Z-1.77
X7.506 Y87.423 Z-1.774
X7.516 Y87.315 Z-1.777
X7.54 Y87.209 Z-1.781
X7.58 Y87.108 Z-1.785
X7.634 Y87.014 Z-1.789
X7.7 Y86.929 Z-1.792
X7.779 Y86.854 Z-1.796
X7.867 Y86.791 Z-1.8
X7.963 Y86.741 Z-1.804
X8.065 Y86.706 Z-1.808
X8.172 Y86.685 Z-1.811
X8.28 Y86.68 Z-1.815
X8.388 Y86.691 Z-1.819
X8.493 Y86.717 Z-1.823
X8.594 Y86.758 Z-1.827
X8.687 Y86.813 Z-1.83
X8.772 Y86.88 Z-1.834
X8.846 Y86.959 Z-1.838
X8.908 Y87.048 Z-1.842
X8.957 Y87.145 Z-1.846
X8.991 Y87.248 Z-1.849
X9.01 Y87.354 Z-1.853
X9.014 Y87.463 Z-1.857
X9.002 Y87.57 Z-1.861
X8.975 Y87.675 Z-1.864
X8.933 Y87.775 Z-1.868
X8.877 Y87.868 Z-1.872
X8.808 Y87.952 Z-1.876
X8.728 Y88.025 Z-1.88
X8.639 Y88.086 Z-1.883
X8.541 Y88.134 Z-1.887
X8.438 Y88.167 Z-1.891
X8.331 Y88.185 Z-1.895
X8.223 Y88.187 Z-1.899
X8.115 Y88.174 Z-1.902
X8.011 Y88.146 Z-1.906
X7.911 Y88.102 Z-1.91
X7.819 Y88.045 Z-1.914
X7.736 Y87.976 Z-1.917
X7.664 Y87.895 Z-1.921
X7.604 Y87.805 Z-1.925
G3 X7.823 Y87.015 R0.579
X8.613 Y87.235 R0.579
G1 X8.638 Y87.279 F437.
G2 X8.823 Y87.504 R0.936
G3 X9.035 Y87.704 R4.762
Y87.965 R0.184
X8.775 Y87.964 R0.184
G1 X8.278 Y87.468
X8.252 Y87.433
X8.235 Y87.393
X8.23 Y87.35
Y70.545
X8.236 Y70.51
X8.256 Y70.481
X8.285 Y70.461
X8.32 Y70.454
X8.355 Y70.461
X8.384 Y70.481
X8.404 Y70.51
X8.41 Y70.545
X8.369 Y86.479
G2 X8.45 Y86.897 R1.121
X8.613 Y87.235 R2.839
X9.335 Y87.512 R0.608
G3 X10.088 Y87.69 R0.734
G1 X10.277 Y87.88
X8.949 Y89.208
X7.474 Y87.732
Y69.608
X9.166
X9.168 Y86.479
X9.171 Y86.528
X9.18 Y86.576
X9.21 Y86.694
X9.228 Y86.747
X9.253 Y86.797
X9.305 Y86.886
X9.333 Y86.927
X9.366 Y86.965
X10.088 Y87.69
X10.11 Y87.722
X10.118 Y87.759
X10.111 Y87.796
X10.091 Y87.828
X10.061 Y87.851
X10.024 Y87.861
X9.987 Y87.856
X9.954 Y87.838
X9.158 Y87.175
X9.128 Y87.157
X9.093 Y87.151
X9.058 Y87.158
X9.028 Y87.176
X9.006 Y87.204
X8.995 Y87.238
X8.997 Y87.273
X9.012 Y87.379 Z-1.929 F146.
Y87.486 Z-1.933
X8.997 Y87.592 Z-1.936
X8.968 Y87.695 Z-1.94
X8.924 Y87.792 Z-1.944
X8.866 Y87.883 Z-1.948
X8.796 Y87.964 Z-1.951
X8.716 Y88.035 Z-1.955
X8.626 Y88.093 Z-1.959
X8.529 Y88.138 Z-1.963
X8.427 Y88.169 Z-1.966
X8.321 Y88.186 Z-1.97
X8.214 Y88.187 Z-1.974
X8.108 Y88.172 Z-1.977
X8.004 Y88.143 Z-1.981
X7.907 Y88.1 Z-1.985
X7.816 Y88.043 Z-1.989
X7.734 Y87.974 Z-1.992
X7.663 Y87.894 Z-1.996
X7.604 Y87.805 Z-2.
G3 X7.823 Y87.015 R0.579
X8.613 Y87.235 R0.579
G1 X8.638 Y87.279 F437.
G2 X8.823 Y87.504 R0.936
G3 X9.035 Y87.704 R4.762
Y87.965 R0.184
X8.775 Y87.964 R0.184
G1 X8.278 Y87.468
X8.252 Y87.433
X8.235 Y87.393
X8.23 Y87.35
Y70.545
X8.236 Y70.51
X8.256 Y70.481
X8.285 Y70.461
X8.32 Y70.454
X8.355 Y70.461
X8.384 Y70.481
X8.404 Y70.51
X8.41 Y70.545
X8.369 Y86.479
G2 X8.45 Y86.897 R1.121
X8.613 Y87.235 R2.839
X9.335 Y87.512 R0.608
G3 X10.088 Y87.69 R0.734
G1 X10.277 Y87.88
X8.949 Y89.208
X7.474 Y87.732
Y69.608
X9.166
X9.168 Y86.479
X9.171 Y86.528
X9.18 Y86.576
X9.21 Y86.694
X9.228 Y86.747
X9.253 Y86.797
X9.305 Y86.886
X9.333 Y86.927
X9.366 Y86.965
X10.088 Y87.69
X10.11 Y87.723
X10.118 Y87.761
X10.11 Y87.8
X10.088 Y87.832
X10.055 Y87.854
X10.016 Y87.861
X9.978 Y87.852
X9.946 Y87.83
X9.045 Y86.894
X9.015 Y86.873
X8.979 Y86.864
X8.943 Y86.868
X8.91 Y86.885
X8.886 Y86.913
X8.874 Y86.948
X8.875 Y86.985
X8.889 Y87.019
X8.943 Y87.113 Z-2.004 F146.
X8.981 Y87.214 Z-2.008
X9.006 Y87.32 Z-2.011
X9.014 Y87.428 Z-2.015
X9.007 Y87.536 Z-2.019
X8.985 Y87.642 Z-2.023
X8.948 Y87.744 Z-2.026
X8.896 Y87.839 Z-2.03
X8.831 Y87.926 Z-2.034
X8.755 Y88.003 Z-2.038
X8.668 Y88.068 Z-2.042
X8.573 Y88.12 Z-2.045
X8.472 Y88.158 Z-2.049
X8.366 Y88.181 Z-2.053
X8.257 Y88.188 Z-2.057
X8.149 Y88.18 Z-2.061
X8.044 Y88.156 Z-2.064
X7.942 Y88.118 Z-2.068
X7.848 Y88.065 Z-2.072
X7.761 Y88. Z-2.076
X7.685 Y87.922 Z-2.079
X7.621 Y87.835 Z-2.083
X7.571 Y87.739 Z-2.087
X7.534 Y87.637 Z-2.091
X7.512 Y87.531 Z-2.095
X7.506 Y87.423 Z-2.098
X7.516 Y87.315 Z-2.102
X7.54 Y87.209 Z-2.106
X7.58 Y87.108 Z-2.11
X7.634 Y87.014 Z-2.114
X7.7 Y86.929 Z-2.117
X7.779 Y86.854 Z-2.121
X7.867 Y86.791 Z-2.125
X7.963 Y86.741 Z-2.129
X8.065 Y86.706 Z-2.133
X8.172 Y86.685 Z-2.136
X8.28 Y86.68 Z-2.14
X8.388 Y86.691 Z-2.144
X8.493 Y86.717 Z-2.148
X8.594 Y86.758 Z-2.151
X8.687 Y86.813 Z-2.155
X8.772 Y86.88 Z-2.159
X8.846 Y86.959 Z-2.163
X8.908 Y87.048 Z-2.167
X8.957 Y87.145 Z-2.17
X8.991 Y87.248 Z-2.174
X9.01 Y87.354 Z-2.178
X9.014 Y87.463 Z-2.182
X9.002 Y87.57 Z-2.186
X8.975 Y87.675 Z-2.189
X8.933 Y87.775 Z-2.193
X8.877 Y87.868 Z-2.197
X8.808 Y87.952 Z-2.201
X8.728 Y88.025 Z-2.204
X8.639 Y88.086 Z-2.208
X8.541 Y88.134 Z-2.212
X8.438 Y88.167 Z-2.216
X8.331 Y88.185 Z-2.22
X8.223 Y88.187 Z-2.223
X8.115 Y88.174 Z-2.227
X8.011 Y88.146 Z-2.231
X7.911 Y88.102 Z-2.235
X7.819 Y88.045 Z-2.239
X7.736 Y87.976 Z-2.242
X7.664 Y87.895 Z-2.246
X7.604 Y87.805 Z-2.25
G3 X7.823 Y87.015 R0.579
X8.613 Y87.235 R0.579
G1 X8.638 Y87.279 F437.
G2 X8.823 Y87.504 R0.936
G3 X9.035 Y87.704 R4.762
Y87.965 R0.184
X8.775 Y87.964 R0.184
G1 X8.278 Y87.468
X8.252 Y87.433
X8.235 Y87.393
X8.23 Y87.35
Y70.545
X8.236 Y70.51
X8.256 Y70.481
X8.285 Y70.461
X8.32 Y70.454
X8.355 Y70.461
X8.384 Y70.481
X8.404 Y70.51
X8.41 Y70.545
X8.369 Y86.479
G2 X8.45 Y86.897 R1.121
X8.613 Y87.235 R2.839
X9.335 Y87.512 R0.608
G3 X10.088 Y87.69 R0.734
G1 X10.277 Y87.88
X8.949 Y89.208
X7.474 Y87.732
Y69.608
X9.166
X9.168 Y86.479
X9.171 Y86.528
X9.18 Y86.576
X9.21 Y86.694
X9.228 Y86.747
X9.253 Y86.797
X9.305 Y86.886
X9.333 Y86.927
X9.366 Y86.965
X10.088 Y87.69
X10.11 Y87.723
X10.118 Y87.761
X10.11 Y87.8
X10.088 Y87.832
X10.055 Y87.854
X10.016 Y87.861
X9.978 Y87.852
X9.946 Y87.83
X9.045 Y86.894
X9.015 Y86.873
X8.979 Y86.864
X8.943 Y86.868
X8.91 Y86.885
X8.886 Y86.913
X8.874 Y86.948
X8.875 Y86.985
X8.889 Y87.019
X8.943 Y87.113 Z-2.254 F146.
X8.981 Y87.214 Z-2.258
X9.006 Y87.32 Z-2.261
X9.014 Y87.428 Z-2.265
X9.007 Y87.536 Z-2.269
X8.985 Y87.642 Z-2.273
X8.948 Y87.744 Z-2.276
X8.896 Y87.839 Z-2.28
X8.831 Y87.926 Z-2.284
X8.755 Y88.003 Z-2.288
X8.668 Y88.068 Z-2.292
X8.573 Y88.12 Z-2.295
X8.472 Y88.158 Z-2.299
X8.366 Y88.181 Z-2.303
X8.257 Y88.188 Z-2.307
X8.149 Y88.18 Z-2.311
X8.044 Y88.156 Z-2.314
X7.942 Y88.118 Z-2.318
X7.848 Y88.065 Z-2.322
X7.761 Y88. Z-2.326
X7.685 Y87.922 Z-2.329
X7.621 Y87.835 Z-2.333
X7.571 Y87.739 Z-2.337
X7.534 Y87.637 Z-2.341
X7.512 Y87.531 Z-2.345
X7.506 Y87.423 Z-2.348
X7.516 Y87.315 Z-2.352
X7.54 Y87.209 Z-2.356
X7.58 Y87.108 Z-2.36
X7.634 Y87.014 Z-2.364
X7.7 Y86.929 Z-2.367
X7.779 Y86.854 Z-2.371
X7.867 Y86.791 Z-2.375
X7.963 Y86.741 Z-2.379
X8.065 Y86.706 Z-2.383
X8.172 Y86.685 Z-2.386
X8.28 Y86.68 Z-2.39
X8.388 Y86.691 Z-2.394
X8.493 Y86.717 Z-2.398
X8.594 Y86.758 Z-2.401
X8.687 Y86.813 Z-2.405
X8.772 Y86.88 Z-2.409
X8.846 Y86.959 Z-2.413
X8.908 Y87.048 Z-2.417
X8.957 Y87.145 Z-2.42
X8.991 Y87.248 Z-2.424
X9.01 Y87.354 Z-2.428
X9.014 Y87.463 Z-2.432
X9.002 Y87.57 Z-2.436
X8.975 Y87.675 Z-2.439
X8.933 Y87.775 Z-2.443
X8.877 Y87.868 Z-2.447
X8.808 Y87.952 Z-2.451
X8.728 Y88.025 Z-2.454
X8.639 Y88.086 Z-2.458
X8.541 Y88.134 Z-2.462
X8.438 Y88.167 Z-2.466
X8.331 Y88.185 Z-2.47
X8.223 Y88.187 Z-2.473
X8.115 Y88.174 Z-2.477
X8.011 Y88.146 Z-2.481
X7.911 Y88.102 Z-2.485
X7.819 Y88.045 Z-2.489
X7.736 Y87.976 Z-2.492
X7.664 Y87.895 Z-2.496
X7.604 Y87.805 Z-2.5
G3 X7.823 Y87.015 R0.579
X8.613 Y87.235 R0.579
G1 X8.638 Y87.279 F437.
G2 X8.823 Y87.504 R0.936
G3 X9.035 Y87.704 R4.762
Y87.965 R0.184
X8.775 Y87.964 R0.184
G1 X8.278 Y87.468
X8.252 Y87.433
X8.235 Y87.393
X8.23 Y87.35
Y70.545
X8.236 Y70.51
X8.256 Y70.481
X8.285 Y70.461
X8.32 Y70.454
X8.355 Y70.461
X8.384 Y70.481
X8.404 Y70.51
X8.41 Y70.545
X8.369 Y86.479
G2 X8.45 Y86.897 R1.121
X8.613 Y87.235 R2.839
X9.335 Y87.512 R0.608
G3 X10.088 Y87.69 R0.734
G1 X10.277 Y87.88
X8.949 Y89.208
X7.474 Y87.732
Y69.608
X9.166
X9.168 Y86.479
X9.171 Y86.528
X9.18 Y86.576
X9.21 Y86.694
X9.228 Y86.747
X9.253 Y86.797
X9.305 Y86.886
X9.333 Y86.927
X9.366 Y86.965
X10.088 Y87.69
X10.11 Y87.723
X10.118 Y87.761
X10.11 Y87.8
X10.088 Y87.832
X10.055 Y87.854
X10.016 Y87.861
X9.978 Y87.852
X9.946 Y87.83
X9.045 Y86.894
X9.015 Y86.873
X8.979 Y86.864
X8.943 Y86.868
X8.91 Y86.885
X8.886 Y86.913
X8.874 Y86.948
X8.875 Y86.985
X8.889 Y87.019
X8.943 Y87.113 Z-2.504 F146.
X8.981 Y87.214 Z-2.508
X9.006 Y87.32 Z-2.511
X9.014 Y87.428 Z-2.515
X9.007 Y87.536 Z-2.519
X8.985 Y87.642 Z-2.523
X8.948 Y87.744 Z-2.526
X8.896 Y87.839 Z-2.53
X8.831 Y87.926 Z-2.534
X8.755 Y88.003 Z-2.538
X8.668 Y88.068 Z-2.542
X8.573 Y88.12 Z-2.545
X8.472 Y88.158 Z-2.549
X8.366 Y88.181 Z-2.553
X8.257 Y88.188 Z-2.557
X8.149 Y88.18 Z-2.561
X8.044 Y88.156 Z-2.564
X7.942 Y88.118 Z-2.568
X7.848 Y88.065 Z-2.572
X7.761 Y88. Z-2.576
X7.685 Y87.922 Z-2.579
X7.621 Y87.835 Z-2.583
X7.571 Y87.739 Z-2.587
X7.534 Y87.637 Z-2.591
X7.512 Y87.531 Z-2.595
X7.506 Y87.423 Z-2.598
X7.516 Y87.315 Z-2.602
X7.54 Y87.209 Z-2.606
X7.58 Y87.108 Z-2.61
X7.634 Y87.014 Z-2.614
X7.7 Y86.929 Z-2.617
X7.779 Y86.854 Z-2.621
X7.867 Y86.791 Z-2.625
X7.963 Y86.741 Z-2.629
X8.065 Y86.706 Z-2.633
X8.172 Y86.685 Z-2.636
X8.28 Y86.68 Z-2.64
X8.388 Y86.691 Z-2.644
X8.493 Y86.717 Z-2.648
X8.594 Y86.758 Z-2.651
X8.687 Y86.813 Z-2.655
X8.772 Y86.88 Z-2.659
X8.846 Y86.959 Z-2.663
X8.908 Y87.048 Z-2.667
X8.957 Y87.145 Z-2.67
X8.991 Y87.248 Z-2.674
X9.01 Y87.354 Z-2.678
X9.014 Y87.463 Z-2.682
X9.002 Y87.57 Z-2.686
X8.975 Y87.675 Z-2.689
X8.933 Y87.775 Z-2.693
X8.877 Y87.868 Z-2.697
X8.808 Y87.952 Z-2.701
X8.728 Y88.025 Z-2.704
X8.639 Y88.086 Z-2.708
X8.541 Y88.134 Z-2.712
X8.438 Y88.167 Z-2.716
X8.331 Y88.185 Z-2.72
X8.223 Y88.187 Z-2.723
X8.115 Y88.174 Z-2.727
X8.011 Y88.146 Z-2.731
X7.911 Y88.102 Z-2.735
X7.819 Y88.045 Z-2.739
X7.736 Y87.976 Z-2.742
X7.664 Y87.895 Z-2.746
X7.604 Y87.805 Z-2.75
G3 X7.823 Y87.015 R0.579
X8.613 Y87.235 R0.579
G1 X8.638 Y87.279 F437.
G2 X8.823 Y87.504 R0.936
G3 X9.035 Y87.704 R4.762
Y87.965 R0.184
X8.775 Y87.964 R0.184
G1 X8.278 Y87.468
X8.252 Y87.433
X8.235 Y87.393
X8.23 Y87.35
Y70.545
X8.236 Y70.51
X8.256 Y70.481
X8.285 Y70.461
X8.32 Y70.454
X8.355 Y70.461
X8.384 Y70.481
X8.404 Y70.51
X8.41 Y70.545
X8.369 Y86.479
G2 X8.45 Y86.897 R1.121
X8.613 Y87.235 R2.839
X9.335 Y87.512 R0.608
G3 X10.088 Y87.69 R0.734
G1 X10.277 Y87.88
X8.949 Y89.208
X7.474 Y87.732
Y69.608
X9.166
X9.168 Y86.479
X9.171 Y86.528
X9.18 Y86.576
X9.21 Y86.694
X9.228 Y86.747
X9.253 Y86.797
X9.305 Y86.886
X9.333 Y86.927
X9.366 Y86.965
X10.088 Y87.69
X10.11 Y87.723
X10.118 Y87.761
X10.11 Y87.8
X10.088 Y87.832
X10.055 Y87.854
X10.016 Y87.861
X9.978 Y87.852
X9.946 Y87.83
X9.045 Y86.894
X9.015 Y86.873
X8.979 Y86.864
X8.943 Y86.868
X8.91 Y86.885
X8.886 Y86.913
X8.874 Y86.948
X8.875 Y86.985
X8.889 Y87.019
X8.943 Y87.113 Z-2.754 F146.
X8.981 Y87.214 Z-2.758
X9.006 Y87.32 Z-2.761
X9.014 Y87.428 Z-2.765
X9.007 Y87.536 Z-2.769
X8.985 Y87.642 Z-2.773
X8.948 Y87.744 Z-2.776
X8.896 Y87.839 Z-2.78
X8.831 Y87.926 Z-2.784
X8.755 Y88.003 Z-2.788
X8.668 Y88.068 Z-2.792
X8.573 Y88.12 Z-2.795
X8.472 Y88.158 Z-2.799
X8.366 Y88.181 Z-2.803
X8.257 Y88.188 Z-2.807
X8.149 Y88.18 Z-2.811
X8.044 Y88.156 Z-2.814
X7.942 Y88.118 Z-2.818
X7.848 Y88.065 Z-2.822
X7.761 Y88. Z-2.826
X7.685 Y87.922 Z-2.829
X7.621 Y87.835 Z-2.833
X7.571 Y87.739 Z-2.837
X7.534 Y87.637 Z-2.841
X7.512 Y87.531 Z-2.845
X7.506 Y87.423 Z-2.848
X7.516 Y87.315 Z-2.852
X7.54 Y87.209 Z-2.856
X7.58 Y87.108 Z-2.86
X7.634 Y87.014 Z-2.864
X7.7 Y86.929 Z-2.867
X7.779 Y86.854 Z-2.871
X7.867 Y86.791 Z-2.875
X7.963 Y86.741 Z-2.879
X8.065 Y86.706 Z-2.883
X8.172 Y86.685 Z-2.886
X8.28 Y86.68 Z-2.89
X8.388 Y86.691 Z-2.894
X8.493 Y86.717 Z-2.898
X8.594 Y86.758 Z-2.901
X8.687 Y86.813 Z-2.905
X8.772 Y86.88 Z-2.909
X8.846 Y86.959 Z-2.913
X8.908 Y87.048 Z-2.917
X8.957 Y87.145 Z-2.92
X8.991 Y87.248 Z-2.924
X9.01 Y87.354 Z-2.928
X9.014 Y87.463 Z-2.932
X9.002 Y87.57 Z-2.936
X8.975 Y87.675 Z-2.939
X8.933 Y87.775 Z-2.943
X8.877 Y87.868 Z-2.947
X8.808 Y87.952 Z-2.951
X8.728 Y88.025 Z-2.954
X8.639 Y88.086 Z-2.958
X8.541 Y88.134 Z-2.962
X8.438 Y88.167 Z-2.966
X8.331 Y88.185 Z-2.97
X8.223 Y88.187 Z-2.973
X8.115 Y88.174 Z-2.977
X8.011 Y88.146 Z-2.981
X7.911 Y88.102 Z-2.985
X7.819 Y88.045 Z-2.989
X7.736 Y87.976 Z-2.992
X7.664 Y87.895 Z-2.996
X7.604 Y87.805 Z-3.
G3 X7.823 Y87.015 R0.579
X8.613 Y87.235 R0.579
G1 X8.638 Y87.279 F437.
G2 X8.823 Y87.504 R0.936
G3 X9.035 Y87.704 R4.762
Y87.965 R0.184
X8.775 Y87.964 R0.184
G1 X8.278 Y87.468
X8.252 Y87.433
X8.235 Y87.393
X8.23 Y87.35
Y70.545
X8.236 Y70.51
X8.256 Y70.481
X8.285 Y70.461
X8.32 Y70.454
X8.355 Y70.461
X8.384 Y70.481
X8.404 Y70.51
X8.41 Y70.545
X8.369 Y86.479
G2 X8.45 Y86.897 R1.121
X8.613 Y87.235 R2.839
X9.335 Y87.512 R0.608
G3 X10.088 Y87.69 R0.734
G1 X10.277 Y87.88
X8.949 Y89.208
X7.474 Y87.732
Y69.608
X9.166
X9.168 Y86.479
X9.171 Y86.528
X9.18 Y86.576
X9.21 Y86.694
X9.228 Y86.747
X9.253 Y86.797
X9.305 Y86.886
X9.333 Y86.927
X9.366 Y86.965
X10.088 Y87.69
X10.11 Y87.723
X10.118 Y87.761
X10.11 Y87.8
X10.088 Y87.832
X10.055 Y87.854
X10.016 Y87.861
X9.978 Y87.852
X9.946 Y87.83
X9.045 Y86.894
X9.015 Y86.873
X8.979 Y86.864
X8.943 Y86.868
X8.91 Y86.885
X8.886 Y86.913
X8.874 Y86.948
X8.875 Y86.985
X8.889 Y87.019
X8.943 Y87.113 Z-3.004 F146.
X8.981 Y87.214 Z-3.008
X9.006 Y87.32 Z-3.011
X9.014 Y87.428 Z-3.015
X9.007 Y87.536 Z-3.019
X8.985 Y87.642 Z-3.023
X8.948 Y87.744 Z-3.026
X8.896 Y87.839 Z-3.03
X8.831 Y87.926 Z-3.034
X8.755 Y88.003 Z-3.038
X8.668 Y88.068 Z-3.042
X8.573 Y88.12 Z-3.045
X8.472 Y88.158 Z-3.049
X8.366 Y88.181 Z-3.053
X8.257 Y88.188 Z-3.057
X8.149 Y88.18 Z-3.061
X8.044 Y88.156 Z-3.064
X7.942 Y88.118 Z-3.068
X7.848 Y88.065 Z-3.072
X7.761 Y88. Z-3.076
X7.685 Y87.922 Z-3.079
X7.621 Y87.835 Z-3.083
X7.571 Y87.739 Z-3.087
X7.534 Y87.637 Z-3.091
X7.512 Y87.531 Z-3.095
X7.506 Y87.423 Z-3.098
X7.516 Y87.315 Z-3.102
X7.54 Y87.209 Z-3.106
X7.58 Y87.108 Z-3.11
X7.634 Y87.014 Z-3.114
X7.7 Y86.929 Z-3.117
X7.779 Y86.854 Z-3.121
X7.867 Y86.791 Z-3.125
X7.963 Y86.741 Z-3.129
X8.065 Y86.706 Z-3.133
X8.172 Y86.685 Z-3.136
X8.28 Y86.68 Z-3.14
X8.388 Y86.691 Z-3.144
X8.493 Y86.717 Z-3.148
X8.594 Y86.758 Z-3.151
X8.687 Y86.813 Z-3.155
X8.772 Y86.88 Z-3.159
X8.846 Y86.959 Z-3.163
X8.908 Y87.048 Z-3.167
X8.957 Y87.145 Z-3.17
X8.991 Y87.248 Z-3.174
X9.01 Y87.354 Z-3.178
X9.014 Y87.463 Z-3.182
X9.002 Y87.57 Z-3.186
X8.975 Y87.675 Z-3.189
X8.933 Y87.775 Z-3.193
X8.877 Y87.868 Z-3.197
X8.808 Y87.952 Z-3.201
X8.728 Y88.025 Z-3.204
X8.639 Y88.086 Z-3.208
X8.541 Y88.134 Z-3.212
X8.438 Y88.167 Z-3.216
X8.331 Y88.185 Z-3.22
X8.223 Y88.187 Z-3.223
X8.115 Y88.174 Z-3.227
X8.011 Y88.146 Z-3.231
X7.911 Y88.102 Z-3.235
X7.819 Y88.045 Z-3.239
X7.736 Y87.976 Z-3.242
X7.664 Y87.895 Z-3.246
X7.604 Y87.805 Z-3.25
G3 X7.823 Y87.015 R0.579
X8.613 Y87.235 R0.579
G1 X8.638 Y87.279 F437.
G2 X8.823 Y87.504 R0.936
G3 X9.035 Y87.704 R4.762
Y87.965 R0.184
X8.775 Y87.964 R0.184
G1 X8.278 Y87.468
X8.252 Y87.433
X8.235 Y87.393
X8.23 Y87.35
Y70.545
X8.236 Y70.51
X8.256 Y70.481
X8.285 Y70.461
X8.32 Y70.454
X8.355 Y70.461
X8.384 Y70.481
X8.404 Y70.51
X8.41 Y70.545
X8.369 Y86.479
G2 X8.45 Y86.897 R1.121
X8.613 Y87.235 R2.839
X9.335 Y87.512 R0.608
G3 X10.088 Y87.69 R0.734
G1 X10.277 Y87.88
X8.949 Y89.208
X7.474 Y87.732
Y69.608
X9.166
X9.168 Y86.479
X9.171 Y86.528
X9.18 Y86.576
X9.21 Y86.694
X9.228 Y86.747
X9.253 Y86.797
X9.305 Y86.886
X9.333 Y86.927
X9.366 Y86.965
X10.088 Y87.69
X10.099 Y87.709
X10.097 Y87.73
X10.085 Y87.747
X10.065 Y87.754
X9.895 Y87.769
X8.338 Y87.756
X8.317 Y87.759
X8.297 Y87.767
X7.872 Y88.023
X7.842 Y88.034
X7.81 Y88.031
X7.781 Y88.016
X7.702 Y87.941 Z-3.254 F146.
X7.635 Y87.855 Z-3.258
X7.581 Y87.761 Z-3.261
X7.541 Y87.66 Z-3.265
X7.516 Y87.554 Z-3.269
X7.506 Y87.445 Z-3.273
X7.512 Y87.336 Z-3.277
X7.534 Y87.23 Z-3.28
X7.571 Y87.127 Z-3.284
X7.623 Y87.031 Z-3.288
X7.687 Y86.943 Z-3.292
X7.764 Y86.866 Z-3.296
X7.851 Y86.8 Z-3.299
X7.947 Y86.748 Z-3.303
X8.049 Y86.71 Z-3.307
X8.155 Y86.687 Z-3.311
X8.264 Y86.68 Z-3.315
X8.373 Y86.688 Z-3.318
X8.479 Y86.712 Z-3.322
X8.581 Y86.751 Z-3.326
X8.676 Y86.805 Z-3.33
X8.762 Y86.871 Z-3.334
X8.838 Y86.949 Z-3.337
X8.902 Y87.038 Z-3.341
X8.952 Y87.134 Z-3.345
X8.988 Y87.237 Z-3.349
X9.009 Y87.344 Z-3.353
X9.014 Y87.453 Z-3.357
X9.003 Y87.561 Z-3.36
X8.977 Y87.667 Z-3.364
X8.936 Y87.768 Z-3.368
X8.881 Y87.862 Z-3.372
X8.813 Y87.947 Z-3.376
X8.733 Y88.021 Z-3.379
X8.644 Y88.083 Z-3.383
X8.546 Y88.132 Z-3.387
X8.443 Y88.166 Z-3.391
X8.335 Y88.184 Z-3.395
X8.227 Y88.187 Z-3.398
X8.118 Y88.175 Z-3.402
X8.013 Y88.146 Z-3.406
X7.913 Y88.103 Z-3.41
X7.82 Y88.046 Z-3.414
X7.737 Y87.977 Z-3.417
X7.664 Y87.896 Z-3.421
X7.604 Y87.805 Z-3.425
G3 X7.823 Y87.015 R0.579
X8.613 Y87.235 R0.579
G1 X8.638 Y87.279 F437.
G2 X8.823 Y87.504 R0.936
G3 X9.035 Y87.704 R4.762
Y87.965 R0.184
X8.775 Y87.964 R0.184
G1 X8.278 Y87.468
X8.252 Y87.433
X8.235 Y87.393
X8.23 Y87.35
Y70.545
X8.236 Y70.51
X8.256 Y70.481
X8.285 Y70.461
X8.32 Y70.454
X8.355 Y70.461
X8.384 Y70.481
X8.404 Y70.51
X8.41 Y70.545
X8.369 Y86.479
G2 X8.45 Y86.897 R1.121
X8.613 Y87.235 R2.839
X9.335 Y87.512 R0.608
G3 X10.088 Y87.69 R0.734
G1 X10.277 Y87.88
X8.949 Y89.208
X7.474 Y87.732
Y69.608
X9.166
X9.168 Y86.479
X9.171 Y86.528
X9.18 Y86.576
X9.21 Y86.694
X9.228 Y86.747
X9.253 Y86.797
X9.305 Y86.886
X9.333 Y86.927
X9.366 Y86.965
X10.088 Y87.69
X10.108 Y87.714 Z-3.419
X10.122 Y87.74 Z-3.413
X10.13 Y87.765 Z-3.396
X10.134 Y87.79 Z-3.379
X10.133 Y87.824 Z-3.327
X10.131 Y87.836 Z-3.266
G0 Z5.
X7.722 Y53.989
Z-0.754
G1 X7.713 Y53.981 Z-0.813 F146.
X7.69 Y53.958 Z-0.864
X7.657 Y53.921 Z-0.899
X7.621 Y53.874 Z-0.913
X7.565 Y53.78 Z-0.916
X7.523 Y53.679 Z-0.92
X7.496 Y53.573 Z-0.924
X7.484 Y53.464 Z-0.928
X7.489 Y53.355 Z-0.932
X7.509 Y53.247 Z-0.936
X7.544 Y53.144 Z-0.939
X7.595 Y53.047 Z-0.943
X7.658 Y52.958 Z-0.947
X7.734 Y52.879 Z-0.951
X7.821 Y52.812 Z-0.955
X7.916 Y52.758 Z-0.958
X8.018 Y52.719 Z-0.962
X8.125 Y52.694 Z-0.966
X8.234 Y52.686 Z-0.97
X8.343 Y52.693 Z-0.974
X8.45 Y52.716 Z-0.978
X8.553 Y52.755 Z-0.981
X8.648 Y52.807 Z-0.985
X8.736 Y52.874 Z-0.989
X8.812 Y52.952 Z-0.993
X8.877 Y53.04 Z-0.997
X8.928 Y53.137 Z-1.001
X8.965 Y53.24 Z-1.004
X8.986 Y53.347 Z-1.008
X8.992 Y53.456 Z-1.012
X8.982 Y53.565 Z-1.016
X8.956 Y53.672 Z-1.02
X8.915 Y53.773 Z-1.023
X8.859 Y53.867 Z-1.027
X8.791 Y53.953 Z-1.031
X8.711 Y54.027 Z-1.035
X8.621 Y54.09 Z-1.039
X8.523 Y54.138 Z-1.043
X8.419 Y54.172 Z-1.046
X8.311 Y54.191 Z-1.05
X8.201 Y54.193 Z-1.054
X8.093 Y54.18 Z-1.058
X7.987 Y54.151 Z-1.062
X7.887 Y54.107 Z-1.066
X7.794 Y54.05 Z-1.069
X7.71 Y53.979 Z-1.073
X7.638 Y53.897 Z-1.077
X7.578 Y53.805 Z-1.081
X7.532 Y53.706 Z-1.085
X7.501 Y53.601 Z-1.089
X7.486 Y53.493 Z-1.092
Y53.383 Z-1.096
X7.502 Y53.275 Z-1.1
X7.534 Y53.17 Z-1.104
X7.58 Y53.071 Z-1.108
X7.641 Y52.98 Z-1.111
X7.713 Y52.898 Z-1.115
X7.797 Y52.828 Z-1.119
X7.891 Y52.771 Z-1.123
X7.991 Y52.727 Z-1.127
X8.097 Y52.699 Z-1.131
X8.206 Y52.687 Z-1.134
X8.315 Y52.69 Z-1.138
X8.423 Y52.709 Z-1.142
X8.527 Y52.743 Z-1.146
X8.624 Y52.792 Z-1.15
X8.714 Y52.855 Z-1.154
X8.794 Y52.93 Z-1.157
X8.862 Y53.016 Z-1.161
X8.916 Y53.111 Z-1.165
X8.957 Y53.212 Z-1.169
X8.982 Y53.319 Z-1.173
X8.992 Y53.428 Z-1.176
X8.986 Y53.537 Z-1.18
X8.964 Y53.644 Z-1.184
X8.927 Y53.747 Z-1.188
X8.875 Y53.844 Z-1.192
X8.81 Y53.932 Z-1.196
X8.733 Y54.009 Z-1.199
X8.645 Y54.075 Z-1.203
X8.549 Y54.127 Z-1.207
X8.446 Y54.165 Z-1.211
X8.339 Y54.187 Z-1.215
X8.23 Y54.194 Z-1.219
X8.121 Y54.185 Z-1.222
X8.014 Y54.16 Z-1.226
X7.912 Y54.12 Z-1.23
X7.817 Y54.066 Z-1.234
X7.731 Y53.998 Z-1.238
X7.656 Y53.919 Z-1.241
X7.592 Y53.83 Z-1.245
X7.543 Y53.732 Z-1.249
X7.508 Y53.629 Z-1.253
X7.488 Y53.521 Z-1.257
X7.484 Y53.412 Z-1.261
X7.496 Y53.303 Z-1.264
X7.524 Y53.197 Z-1.268
X7.567 Y53.096 Z-1.272
X7.624 Y53.003 Z-1.276
X7.693 Y52.918 Z-1.28
X7.775 Y52.845 Z-1.284
X7.866 Y52.784 Z-1.287
X7.964 Y52.737 Z-1.291
X8.069 Y52.705 Z-1.295
X8.177 Y52.688 Z-1.299
X8.287 Z-1.303
X8.395 Y52.702 Z-1.307
X8.5 Y52.733 Z-1.31
X8.6 Y52.778 Z-1.314
X8.692 Y52.838 Z-1.318
X8.774 Y52.91 Z-1.322
X8.845 Y52.993 Z-1.326
X8.903 Y53.085 Z-1.329
X8.948 Y53.185 Z-1.333
X8.977 Y53.291 Z-1.337
X8.991 Y53.399 Z-1.341
X8.989 Y53.509 Z-1.345
X8.971 Y53.617 Z-1.349
X8.938 Y53.721 Z-1.352
X8.89 Y53.819 Z-1.356
X8.828 Y53.91 Z-1.36
X8.754 Y53.99 Z-1.364
X8.669 Y54.059 Z-1.368
X8.574 Y54.115 Z-1.372
X8.473 Y54.156 Z-1.375
X8.367 Y54.183 Z-1.379
X8.258 Y54.194 Z-1.383
X8.149 Y54.189 Z-1.387
X8.041 Y54.168 Z-1.391
X7.938 Y54.132 Z-1.394
X7.841 Y54.081 Z-1.398
X7.753 Y54.017 Z-1.402
X7.674 Y53.941 Z-1.406
X7.608 Y53.854 Z-1.41
X7.554 Y53.758 Z-1.414
X7.515 Y53.656 Z-1.417
X7.492 Y53.549 Z-1.421
X7.484 Y53.44 Z-1.425
G3 X7.951 Y52.973 R0.467
X8.418 Y53.44 R0.467
G1 Y65.183 F437.
X8.411 Y65.217
X8.392 Y65.246
X8.363 Y65.265
X8.329 Y65.272
X8.311
X8.277 Y65.265
X8.248 Y65.246
X8.229 Y65.217
X8.222 Y65.183
Y53.431
X8.229 Y53.397
X8.248 Y53.368
X8.277 Y53.349
X8.311 Y53.342
X8.329
X8.363 Y53.349
X8.392 Y53.368
X8.411 Y53.397
X8.418 Y53.431
Y53.44
G2 X8.792 Y54.001 R0.608
G3 X9.166 Y54.563 R0.608
G1 Y66.02
X7.474
Y52.594
X9.166
Y54.563
X9.163 Y54.593 Z-1.419
X9.155 Y54.622 Z-1.413
X9.143 Y54.645 Z-1.396
X9.128 Y54.666 Z-1.379
X9.103 Y54.689 Z-1.327
X9.093 Y54.696 Z-1.266
G0 Z5.
X8.869 Y65.034
G1 Z-1.004 F146.
X8.861 Y65.043 Z-1.063
X8.838 Y65.066 Z-1.114
X8.801 Y65.099 Z-1.149
X8.754 Y65.135 Z-1.163
X8.66 Y65.191 Z-1.166
X8.559 Y65.233 Z-1.17
X8.453 Y65.26 Z-1.174
X8.344 Y65.272 Z-1.178
X8.235 Y65.267 Z-1.182
X8.127 Y65.247 Z-1.186
X8.024 Y65.212 Z-1.189
X7.927 Y65.161 Z-1.193
X7.838 Y65.098 Z-1.197
X7.759 Y65.022 Z-1.201
X7.692 Y64.935 Z-1.205
X7.638 Y64.84 Z-1.208
X7.599 Y64.738 Z-1.212
X7.574 Y64.631 Z-1.216
X7.566 Y64.522 Z-1.22
X7.573 Y64.413 Z-1.224
X7.596 Y64.306 Z-1.228
X7.635 Y64.203 Z-1.231
X7.687 Y64.108 Z-1.235
X7.754 Y64.02 Z-1.239
X7.832 Y63.944 Z-1.243
X7.92 Y63.879 Z-1.247
X8.017 Y63.828 Z-1.251
X8.12 Y63.791 Z-1.254
X8.227 Y63.77 Z-1.258
X8.336 Y63.764 Z-1.262
X8.445 Y63.774 Z-1.266
X8.551 Y63.8 Z-1.27
X8.653 Y63.841 Z-1.273
X8.747 Y63.897 Z-1.277
X8.833 Y63.965 Z-1.281
X8.907 Y64.045 Z-1.285
X8.97 Y64.135 Z-1.289
X9.018 Y64.233 Z-1.293
X9.052 Y64.337 Z-1.296
X9.07 Y64.445 Z-1.3
X9.073 Y64.555 Z-1.304
X9.06 Y64.663 Z-1.308
X9.031 Y64.769 Z-1.312
X8.987 Y64.869 Z-1.316
X8.93 Y64.962 Z-1.319
X8.859 Y65.045 Z-1.323
X8.777 Y65.118 Z-1.327
X8.685 Y65.178 Z-1.331
X8.586 Y65.224 Z-1.335
X8.481 Y65.255 Z-1.339
X8.373 Y65.27 Z-1.342
X8.263 Z-1.346
X8.155 Y65.254 Z-1.35
X8.05 Y65.222 Z-1.354
X7.951 Y65.176 Z-1.358
X7.86 Y65.115 Z-1.361
X7.778 Y65.043 Z-1.365
X7.708 Y64.959 Z-1.369
X7.651 Y64.865 Z-1.373
X7.607 Y64.765 Z-1.377
X7.579 Y64.659 Z-1.381
X7.567 Y64.55 Z-1.384
X7.57 Y64.441 Z-1.388
X7.589 Y64.333 Z-1.392
X7.623 Y64.229 Z-1.396
X7.672 Y64.132 Z-1.4
X7.735 Y64.042 Z-1.404
X7.81 Y63.962 Z-1.407
X7.896 Y63.894 Z-1.411
X7.991 Y63.84 Z-1.415
X8.092 Y63.799 Z-1.419
X8.199 Y63.774 Z-1.423
X8.308 Y63.764 Z-1.426
X8.417 Y63.77 Z-1.43
X8.524 Y63.792 Z-1.434
X8.627 Y63.829 Z-1.438
X8.724 Y63.881 Z-1.442
X8.812 Y63.946 Z-1.446
X8.889 Y64.023 Z-1.449
X8.955 Y64.111 Z-1.453
X9.007 Y64.207 Z-1.457
X9.045 Y64.31 Z-1.461
X9.067 Y64.417 Z-1.465
X9.074 Y64.526 Z-1.469
X9.065 Y64.635 Z-1.472
X9.04 Y64.742 Z-1.476
X9. Y64.844 Z-1.48
X8.946 Y64.939 Z-1.484
X8.878 Y65.025 Z-1.488
X8.799 Y65.1 Z-1.491
X8.71 Y65.164 Z-1.495
X8.612 Y65.213 Z-1.499
X8.509 Y65.248 Z-1.503
X8.401 Y65.268 Z-1.507
X8.292 Y65.272 Z-1.511
X8.183 Y65.26 Z-1.514
X8.077 Y65.232 Z-1.518
X7.976 Y65.189 Z-1.522
X7.883 Y65.132 Z-1.526
X7.798 Y65.063 Z-1.53
X7.725 Y64.981 Z-1.534
X7.664 Y64.89 Z-1.537
X7.617 Y64.792 Z-1.541
X7.585 Y64.687 Z-1.545
X7.568 Y64.579 Z-1.549
X7.567 Y64.469 Z-1.553
X7.582 Y64.361 Z-1.557
X7.613 Y64.256 Z-1.56
X7.658 Y64.156 Z-1.564
X7.718 Y64.064 Z-1.568
X7.79 Y63.982 Z-1.572
X7.873 Y63.911 Z-1.576
X7.965 Y63.853 Z-1.579
X8.065 Y63.808 Z-1.583
X8.171 Y63.779 Z-1.587
X8.279 Y63.765 Z-1.591
X8.389 Y63.767 Z-1.595
X8.497 Y63.785 Z-1.599
X8.601 Y63.818 Z-1.602
X8.699 Y63.866 Z-1.606
X8.79 Y63.928 Z-1.61
X8.87 Y64.002 Z-1.614
X8.939 Y64.087 Z-1.618
X8.995 Y64.182 Z-1.622
X9.036 Y64.283 Z-1.625
X9.063 Y64.389 Z-1.629
X9.074 Y64.498 Z-1.633
X9.069 Y64.607 Z-1.637
X9.048 Y64.715 Z-1.641
X9.012 Y64.818 Z-1.644
X8.961 Y64.915 Z-1.648
X8.897 Y65.003 Z-1.652
X8.821 Y65.082 Z-1.656
X8.734 Y65.148 Z-1.66
X8.638 Y65.202 Z-1.664
X8.536 Y65.241 Z-1.667
X8.429 Y65.264 Z-1.671
X8.32 Y65.272 Z-1.675
X8.311 F437.
X8.277 Y65.265
X8.248 Y65.246
X8.229 Y65.217
X8.222 Y65.183
Y53.431
X8.229 Y53.397
X8.248 Y53.368
X8.277 Y53.349
X8.311 Y53.342
X8.329
X8.363 Y53.349
X8.392 Y53.368
X8.411 Y53.397
X8.418 Y53.431
Y65.183
X8.411 Y65.217
X8.392 Y65.246
X8.363 Y65.265
X8.329 Y65.272
X8.32
G2 X7.917 Y65.496 R0.474
G3 X7.587 Y65.574 R0.24
X7.474 Y65.37 R0.24
G1 Y52.594
X9.166
Y66.02
X7.474
Y65.37
X7.477 Y65.34 Z-1.669
X7.485 Y65.311 Z-1.663
X7.497 Y65.288 Z-1.646
X7.512 Y65.267 Z-1.629
X7.537 Y65.243 Z-1.577
X7.547 Y65.236 Z-1.516
G0 Z5.
X7.771 Y53.666
Z-1.254
G1 X7.778 Y53.658 Z-1.313 F146.
X7.802 Y53.635 Z-1.364
X7.839 Y53.602 Z-1.399
X7.886 Y53.566 Z-1.413
X7.98 Y53.51 Z-1.416
X8.081 Y53.468 Z-1.42
X8.187 Y53.441 Z-1.424
X8.296 Y53.429 Z-1.428
X8.405 Y53.433 Z-1.432
X8.513 Y53.454 Z-1.436
X8.616 Y53.489 Z-1.439
X8.713 Y53.539 Z-1.443
X8.802 Y53.603 Z-1.447
X8.881 Y53.679 Z-1.451
X8.948 Y53.766 Z-1.455
X9.002 Y53.861 Z-1.458
X9.041 Y53.963 Z-1.462
X9.065 Y54.07 Z-1.466
X9.074 Y54.179 Z-1.47
X9.067 Y54.288 Z-1.474
X9.044 Y54.395 Z-1.478
X9.005 Y54.497 Z-1.481
X8.953 Y54.593 Z-1.485
X8.886 Y54.68 Z-1.489
X8.808 Y54.757 Z-1.493
X8.72 Y54.822 Z-1.497
X8.623 Y54.873 Z-1.501
X8.52 Y54.91 Z-1.504
X8.413 Y54.931 Z-1.508
X8.304 Y54.937 Z-1.512
X8.195 Y54.926 Z-1.516
X8.088 Y54.9 Z-1.52
X7.987 Y54.859 Z-1.523
X7.893 Y54.804 Z-1.527
X7.807 Y54.736 Z-1.531
X7.733 Y54.656 Z-1.535
X7.67 Y54.566 Z-1.539
X7.622 Y54.468 Z-1.543
X7.588 Y54.363 Z-1.546
X7.569 Y54.256 Z-1.55
X7.567 Y54.146 Z-1.554
X7.58 Y54.038 Z-1.558
X7.609 Y53.932 Z-1.562
X7.653 Y53.832 Z-1.566
X7.71 Y53.739 Z-1.569
X7.781 Y53.655 Z-1.573
X7.863 Y53.583 Z-1.577
X7.955 Y53.523 Z-1.581
X8.054 Y53.477 Z-1.585
X8.159 Y53.446 Z-1.589
X8.267 Y53.431 Z-1.592
X8.377 Z-1.596
X8.485 Y53.447 Z-1.6
X8.59 Y53.479 Z-1.604
X8.689 Y53.525 Z-1.608
X8.78 Y53.585 Z-1.611
X8.862 Y53.658 Z-1.615
X8.932 Y53.742 Z-1.619
X8.989 Y53.835 Z-1.623
X9.032 Y53.936 Z-1.627
X9.061 Y54.042 Z-1.631
X9.073 Y54.15 Z-1.634
X9.07 Y54.26 Z-1.638
X9.051 Y54.367 Z-1.642
X9.017 Y54.471 Z-1.646
X8.968 Y54.569 Z-1.65
X8.905 Y54.659 Z-1.654
X8.83 Y54.738 Z-1.657
X8.744 Y54.806 Z-1.661
X8.649 Y54.861 Z-1.665
X8.548 Y54.902 Z-1.669
X8.441 Y54.927 Z-1.673
X8.332 Y54.937 Z-1.676
X8.223 Y54.931 Z-1.68
X8.116 Y54.909 Z-1.684
X8.013 Y54.871 Z-1.688
X7.916 Y54.82 Z-1.692
X7.828 Y54.755 Z-1.696
X7.751 Y54.677 Z-1.699
X7.685 Y54.59 Z-1.703
X7.633 Y54.494 Z-1.707
X7.595 Y54.391 Z-1.711
X7.573 Y54.284 Z-1.715
X7.566 Y54.175 Z-1.719
X7.575 Y54.066 Z-1.722
X7.6 Y53.959 Z-1.726
X7.64 Y53.857 Z-1.73
X7.694 Y53.762 Z-1.734
X7.762 Y53.676 Z-1.738
X7.841 Y53.6 Z-1.741
X7.93 Y53.537 Z-1.745
X8.028 Y53.488 Z-1.749
X8.131 Y53.453 Z-1.753
X8.239 Y53.433 Z-1.757
X8.348 Y53.429 Z-1.761
X8.457 Y53.441 Z-1.764
X8.563 Y53.469 Z-1.768
X8.664 Y53.512 Z-1.772
X8.757 Y53.568 Z-1.776
X8.842 Y53.638 Z-1.78
X8.915 Y53.719 Z-1.784
X8.976 Y53.81 Z-1.787
X9.023 Y53.909 Z-1.791
X9.055 Y54.014 Z-1.795
X9.072 Y54.122 Z-1.799
Y54.231 Z-1.803
X9.057 Y54.34 Z-1.807
X9.027 Y54.445 Z-1.81
X8.982 Y54.544 Z-1.814
X8.922 Y54.636 Z-1.818
X8.85 Y54.719 Z-1.822
X8.767 Y54.79 Z-1.826
X8.675 Y54.848 Z-1.829
X8.574 Y54.893 Z-1.833
X8.469 Y54.922 Z-1.837
X8.361 Y54.936 Z-1.841
X8.251 Y54.934 Z-1.845
X8.143 Y54.916 Z-1.849
X8.039 Y54.882 Z-1.852
X7.941 Y54.834 Z-1.856
X7.85 Y54.773 Z-1.86
X7.77 Y54.698 Z-1.864
X7.701 Y54.613 Z-1.868
X7.645 Y54.519 Z-1.872
X7.604 Y54.418 Z-1.875
X7.577 Y54.312 Z-1.879
X7.566 Y54.203 Z-1.883
X7.571 Y54.094 Z-1.887
X7.592 Y53.986 Z-1.891
X7.628 Y53.883 Z-1.894
X7.679 Y53.786 Z-1.898
X7.743 Y53.697 Z-1.902
X7.819 Y53.619 Z-1.906
X7.906 Y53.552 Z-1.91
X8.002 Y53.499 Z-1.914
X8.104 Y53.46 Z-1.917
X8.211 Y53.437 Z-1.921
X8.32 Y53.429 Z-1.925
X8.357 Y53.436 F437.
X8.389 Y53.457
X8.41 Y53.489
X8.418 Y53.527
Y65.183
X8.411 Y65.217
X8.392 Y65.246
X8.363 Y65.265
X8.329 Y65.272
X8.311
X8.277 Y65.265
X8.248 Y65.246
X8.229 Y65.217
X8.222 Y65.183
Y53.527
X8.23 Y53.489
X8.251 Y53.457
X8.283 Y53.436
X8.32 Y53.429
G2 X8.741 Y53.248 R0.58
G3 X9.089 Y53.238 R0.247
X9.166 Y53.417 R0.247
G1 Y66.02
X7.474
Y52.594
X9.166
Y53.417
X9.159 Y53.498 Z-1.927 F146.
X9.136 Y53.576 Z-1.93
X9.099 Y53.648 Z-1.932
X9.049 Y53.712 Z-1.934
X8.631 Y54.153 Z-1.952
X8.57 Y54.206 Z-1.954
X8.501 Y54.246 Z-1.956
X8.425 Y54.273 Z-1.959
X8.345 Y54.285 Z-1.961
X8.265 Y54.283 Z-1.963
X8.186 Y54.265 Z-1.965
X8.112 Y54.233 Z-1.968
X8.046 Y54.187 Z-1.97
X7.989 Y54.13 Z-1.972
X7.944 Y54.063 Z-1.975
X7.912 Y53.989 Z-1.977
X7.894 Y53.91 Z-1.979
X7.892 Y53.83 Z-1.982
X7.905 Y53.75 Z-1.984
X7.932 Y53.674 Z-1.986
X7.973 Y53.605 Z-1.988
X8.027 Y53.545 Z-1.991
X8.09 Y53.495 Z-1.993
X8.162 Y53.459 Z-1.995
X8.24 Y53.436 Z-1.998
X8.32 Y53.429 Z-2.
X8.357 Y53.436 F437.
X8.389 Y53.457
X8.41 Y53.489
X8.418 Y53.527
Y65.183
X8.411 Y65.217
X8.392 Y65.246
X8.363 Y65.265
X8.329 Y65.272
X8.311
X8.277 Y65.265
X8.248 Y65.246
X8.229 Y65.217
X8.222 Y65.183
Y53.527
X8.23 Y53.489
X8.251 Y53.457
X8.283 Y53.436
X8.32 Y53.429
G2 X8.741 Y53.248 R0.58
G3 X9.089 Y53.238 R0.247
X9.166 Y53.417 R0.247
G1 Y66.02
X7.474
Y52.594
X9.166
Y53.417
X9.163 Y53.448 Z-1.994
X9.155 Y53.477 Z-1.988
X9.143 Y53.5 Z-1.971
X9.128 Y53.52 Z-1.953
X9.103 Y53.544 Z-1.902
X9.093 Y53.551 Z-1.841
G0 Z5.
X8.869 Y65.034
G1 Z-1.579 F146.
X8.861 Y65.043 Z-1.638
X8.838 Y65.066 Z-1.689
X8.801 Y65.099 Z-1.724
X8.754 Y65.135 Z-1.737
X8.66 Y65.191 Z-1.741
X8.559 Y65.233 Z-1.745
X8.453 Y65.26 Z-1.749
X8.344 Y65.272 Z-1.753
X8.235 Y65.267 Z-1.757
X8.127 Y65.247 Z-1.76
X8.024 Y65.212 Z-1.764
X7.927 Y65.161 Z-1.768
X7.838 Y65.098 Z-1.772
X7.759 Y65.022 Z-1.776
X7.692 Y64.935 Z-1.78
X7.638 Y64.84 Z-1.783
X7.599 Y64.738 Z-1.787
X7.574 Y64.631 Z-1.791
X7.566 Y64.522 Z-1.795
X7.573 Y64.413 Z-1.799
X7.596 Y64.306 Z-1.802
X7.635 Y64.203 Z-1.806
X7.687 Y64.108 Z-1.81
X7.754 Y64.02 Z-1.814
X7.832 Y63.944 Z-1.818
X7.92 Y63.879 Z-1.822
X8.017 Y63.828 Z-1.825
X8.12 Y63.791 Z-1.829
X8.227 Y63.77 Z-1.833
X8.336 Y63.764 Z-1.837
X8.445 Y63.774 Z-1.841
X8.551 Y63.8 Z-1.845
X8.653 Y63.841 Z-1.848
X8.747 Y63.897 Z-1.852
X8.833 Y63.965 Z-1.856
X8.907 Y64.045 Z-1.86
X8.97 Y64.135 Z-1.864
X9.018 Y64.233 Z-1.867
X9.052 Y64.337 Z-1.871
X9.07 Y64.445 Z-1.875
X9.073 Y64.555 Z-1.879
X9.06 Y64.663 Z-1.883
X9.031 Y64.769 Z-1.887
X8.987 Y64.869 Z-1.89
X8.93 Y64.962 Z-1.894
X8.859 Y65.045 Z-1.898
X8.777 Y65.118 Z-1.902
X8.685 Y65.178 Z-1.906
X8.586 Y65.224 Z-1.91
X8.481 Y65.255 Z-1.913
X8.373 Y65.27 Z-1.917
X8.263 Z-1.921
X8.155 Y65.254 Z-1.925
X8.05 Y65.222 Z-1.929
X7.951 Y65.176 Z-1.932
X7.86 Y65.115 Z-1.936
X7.778 Y65.043 Z-1.94
X7.708 Y64.959 Z-1.944
X7.651 Y64.865 Z-1.948
X7.607 Y64.765 Z-1.952
X7.579 Y64.659 Z-1.955
X7.567 Y64.55 Z-1.959
X7.57 Y64.441 Z-1.963
X7.589 Y64.333 Z-1.967
X7.623 Y64.229 Z-1.971
X7.672 Y64.132 Z-1.975
X7.735 Y64.042 Z-1.978
X7.81 Y63.962 Z-1.982
X7.896 Y63.894 Z-1.986
X7.991 Y63.84 Z-1.99
X8.092 Y63.799 Z-1.994
X8.199 Y63.774 Z-1.998
X8.308 Y63.764 Z-2.001
X8.417 Y63.77 Z-2.005
X8.524 Y63.792 Z-2.009
X8.627 Y63.829 Z-2.013
X8.724 Y63.881 Z-2.017
X8.812 Y63.946 Z-2.02
X8.889 Y64.023 Z-2.024
X8.955 Y64.111 Z-2.028
X9.007 Y64.207 Z-2.032
X9.045 Y64.31 Z-2.036
X9.067 Y64.417 Z-2.04
X9.074 Y64.526 Z-2.043
X9.065 Y64.635 Z-2.047
X9.04 Y64.742 Z-2.051
X9. Y64.844 Z-2.055
X8.946 Y64.939 Z-2.059
X8.878 Y65.025 Z-2.063
X8.799 Y65.1 Z-2.066
X8.71 Y65.164 Z-2.07
X8.612 Y65.213 Z-2.074
X8.509 Y65.248 Z-2.078
X8.401 Y65.268 Z-2.082
X8.292 Y65.272 Z-2.085
X8.183 Y65.26 Z-2.089
X8.077 Y65.232 Z-2.093
X7.976 Y65.189 Z-2.097
X7.883 Y65.132 Z-2.101
X7.798 Y65.063 Z-2.105
X7.725 Y64.981 Z-2.108
X7.664 Y64.89 Z-2.112
X7.617 Y64.792 Z-2.116
X7.585 Y64.687 Z-2.12
X7.568 Y64.579 Z-2.124
X7.567 Y64.469 Z-2.128
X7.582 Y64.361 Z-2.131
X7.613 Y64.256 Z-2.135
X7.658 Y64.156 Z-2.139
X7.718 Y64.064 Z-2.143
X7.79 Y63.982 Z-2.147
X7.873 Y63.911 Z-2.15
X7.965 Y63.853 Z-2.154
X8.065 Y63.808 Z-2.158
X8.171 Y63.779 Z-2.162
X8.279 Y63.765 Z-2.166
X8.389 Y63.767 Z-2.17
X8.497 Y63.785 Z-2.173
X8.601 Y63.818 Z-2.177
X8.699 Y63.866 Z-2.181
X8.79 Y63.928 Z-2.185
X8.87 Y64.002 Z-2.189
X8.939 Y64.087 Z-2.193
X8.995 Y64.182 Z-2.196
X9.036 Y64.283 Z-2.2
X9.063 Y64.389 Z-2.204
X9.074 Y64.498 Z-2.208
X9.069 Y64.607 Z-2.212
X9.048 Y64.715 Z-2.216
X9.012 Y64.818 Z-2.219
X8.961 Y64.915 Z-2.223
X8.897 Y65.003 Z-2.227
X8.821 Y65.082 Z-2.231
X8.734 Y65.148 Z-2.235
X8.638 Y65.202 Z-2.238
X8.536 Y65.241 Z-2.242
X8.429 Y65.264 Z-2.246
X8.32 Y65.272 Z-2.25
X8.311 F437.
X8.277 Y65.265
X8.248 Y65.246
X8.229 Y65.217
X8.222 Y65.183
Y53.527
X8.23 Y53.489
X8.251 Y53.457
X8.283 Y53.436
X8.32 Y53.429
X8.357 Y53.436
X8.389 Y53.457
X8.41 Y53.489
X8.418 Y53.527
Y65.183
X8.411 Y65.217
X8.392 Y65.246
X8.363 Y65.265
X8.329 Y65.272
X8.32
G2 X7.917 Y65.496 R0.474
G3 X7.587 Y65.574 R0.24
X7.474 Y65.37 R0.24
G1 Y52.594
X9.166
Y66.02
X7.474
Y65.37
X7.48 Y65.349
X7.498 Y65.334
X7.618 Y65.284
X7.63 Y65.277
X7.639 Y65.265
X8.22 Y64.021
X8.226 Y63.81
X8.232 Y63.789
X8.247 Y63.773
X8.268 Y63.766
X8.376 Z-2.254 F146.
X8.483 Y63.782 Z-2.258
X8.587 Y63.813 Z-2.261
X8.686 Y63.859 Z-2.265
X8.776 Y63.918 Z-2.269
X8.858 Y63.989 Z-2.273
X8.928 Y64.072 Z-2.276
X8.986 Y64.164 Z-2.28
X9.029 Y64.263 Z-2.284
X9.059 Y64.367 Z-2.288
X9.073 Y64.475 Z-2.292
X9.071 Y64.583 Z-2.295
X9.054 Y64.69 Z-2.299
X9.022 Y64.793 Z-2.303
X8.975 Y64.891 Z-2.307
X8.915 Y64.981 Z-2.311
X8.842 Y65.062 Z-2.314
X8.759 Y65.131 Z-2.318
X8.667 Y65.188 Z-2.322
X8.567 Y65.23 Z-2.326
X8.462 Y65.259 Z-2.329
X8.355 Y65.271 Z-2.333
X8.246 Y65.269 Z-2.337
X8.14 Y65.25 Z-2.341
X8.037 Y65.217 Z-2.345
X7.939 Y65.169 Z-2.348
X7.85 Y65.108 Z-2.352
X7.77 Y65.034 Z-2.356
X7.702 Y64.95 Z-2.36
X7.646 Y64.857 Z-2.364
X7.605 Y64.757 Z-2.367
X7.578 Y64.652 Z-2.371
X7.566 Y64.544 Z-2.375
X7.57 Y64.436 Z-2.379
X7.59 Y64.329 Z-2.383
X7.625 Y64.227 Z-2.386
X7.674 Y64.13 Z-2.39
X7.736 Y64.041 Z-2.394
X7.81 Y63.962 Z-2.398
X7.895 Y63.895 Z-2.401
X7.989 Y63.841 Z-2.405
X8.089 Y63.8 Z-2.409
X8.195 Y63.774 Z-2.413
X8.303 Y63.764 Z-2.417
X8.411 Y63.769 Z-2.42
X8.517 Y63.79 Z-2.424
X8.619 Y63.826 Z-2.428
X8.716 Y63.876 Z-2.432
X8.804 Y63.939 Z-2.436
X8.881 Y64.015 Z-2.439
X8.948 Y64.1 Z-2.443
X9.001 Y64.195 Z-2.447
X9.041 Y64.296 Z-2.451
X9.065 Y64.401 Z-2.454
X9.074 Y64.509 Z-2.458
X9.067 Y64.618 Z-2.462
X9.045 Y64.724 Z-2.466
X9.008 Y64.826 Z-2.47
X8.957 Y64.921 Z-2.473
X8.893 Y65.008 Z-2.477
X8.817 Y65.085 Z-2.481
X8.73 Y65.151 Z-2.485
X8.635 Y65.203 Z-2.489
X8.534 Y65.241 Z-2.492
X8.428 Y65.264 Z-2.496
X8.32 Y65.272 Z-2.5
X8.311 F437.
X8.277 Y65.265
X8.248 Y65.246
X8.229 Y65.217
X8.222 Y65.183
Y53.527
X8.23 Y53.489
X8.251 Y53.457
X8.283 Y53.436
X8.32 Y53.429
X8.357 Y53.436
X8.389 Y53.457
X8.41 Y53.489
X8.418 Y53.527
Y65.183
X8.411 Y65.217
X8.392 Y65.246
X8.363 Y65.265
X8.329 Y65.272
X8.32
G2 X7.917 Y65.496 R0.474
G3 X7.587 Y65.574 R0.24
X7.474 Y65.37 R0.24
G1 Y52.594
X9.166
Y66.02
X7.474
Y65.37
X7.48 Y65.349
X7.498 Y65.334
X7.618 Y65.284
X7.63 Y65.277
X7.639 Y65.265
X8.22 Y64.021
X8.226 Y63.81
X8.232 Y63.789
X8.247 Y63.773
X8.268 Y63.766
X8.376 Z-2.504 F146.
X8.483 Y63.782 Z-2.508
X8.587 Y63.813 Z-2.511
X8.686 Y63.859 Z-2.515
X8.776 Y63.918 Z-2.519
X8.858 Y63.989 Z-2.523
X8.928 Y64.072 Z-2.526
X8.986 Y64.164 Z-2.53
X9.029 Y64.263 Z-2.534
X9.059 Y64.367 Z-2.538
X9.073 Y64.475 Z-2.542
X9.071 Y64.583 Z-2.545
X9.054 Y64.69 Z-2.549
X9.022 Y64.793 Z-2.553
X8.975 Y64.891 Z-2.557
X8.915 Y64.981 Z-2.561
X8.842 Y65.062 Z-2.564
X8.759 Y65.131 Z-2.568
X8.667 Y65.188 Z-2.572
X8.567 Y65.23 Z-2.576
X8.462 Y65.259 Z-2.579
X8.355 Y65.271 Z-2.583
X8.246 Y65.269 Z-2.587
X8.14 Y65.25 Z-2.591
X8.037 Y65.217 Z-2.595
X7.939 Y65.169 Z-2.598
X7.85 Y65.108 Z-2.602
X7.77 Y65.034 Z-2.606
X7.702 Y64.95 Z-2.61
X7.646 Y64.857 Z-2.614
X7.605 Y64.757 Z-2.617
X7.578 Y64.652 Z-2.621
X7.566 Y64.544 Z-2.625
X7.57 Y64.436 Z-2.629
X7.59 Y64.329 Z-2.633
X7.625 Y64.227 Z-2.636
X7.674 Y64.13 Z-2.64
X7.736 Y64.041 Z-2.644
X7.81 Y63.962 Z-2.648
X7.895 Y63.895 Z-2.651
X7.989 Y63.841 Z-2.655
X8.089 Y63.8 Z-2.659
X8.195 Y63.774 Z-2.663
X8.303 Y63.764 Z-2.667
X8.411 Y63.769 Z-2.67
X8.517 Y63.79 Z-2.674
X8.619 Y63.826 Z-2.678
X8.716 Y63.876 Z-2.682
X8.804 Y63.939 Z-2.686
X8.881 Y64.015 Z-2.689
X8.948 Y64.1 Z-2.693
X9.001 Y64.195 Z-2.697
X9.041 Y64.296 Z-2.701
X9.065 Y64.401 Z-2.704
X9.074 Y64.509 Z-2.708
X9.067 Y64.618 Z-2.712
X9.045 Y64.724 Z-2.716
X9.008 Y64.826 Z-2.72
X8.957 Y64.921 Z-2.723
X8.893 Y65.008 Z-2.727
X8.817 Y65.085 Z-2.731
X8.73 Y65.151 Z-2.735
X8.635 Y65.203 Z-2.739
X8.534 Y65.241 Z-2.742
X8.428 Y65.264 Z-2.746
X8.32 Y65.272 Z-2.75
X8.311 F437.
X8.277 Y65.265
X8.248 Y65.246
X8.229 Y65.217
X8.222 Y65.183
Y53.527
X8.23 Y53.489
X8.251 Y53.457
X8.283 Y53.436
X8.32 Y53.429
X8.357 Y53.436
X8.389 Y53.457
X8.41 Y53.489
X8.418 Y53.527
Y65.183
X8.411 Y65.217
X8.392 Y65.246
X8.363 Y65.265
X8.329 Y65.272
X8.32
G2 X7.917 Y65.496 R0.474
G3 X7.587 Y65.574 R0.24
X7.474 Y65.37 R0.24
G1 Y52.594
X9.166
Y66.02
X7.474
Y65.37
X7.48 Y65.349
X7.498 Y65.334
X7.618 Y65.284
X7.63 Y65.277
X7.639 Y65.265
X8.22 Y64.021
X8.226 Y63.81
X8.232 Y63.789
X8.247 Y63.773
X8.268 Y63.766
X8.376 Z-2.754 F146.
X8.483 Y63.782 Z-2.758
X8.587 Y63.813 Z-2.761
X8.686 Y63.859 Z-2.765
X8.776 Y63.918 Z-2.769
X8.858 Y63.989 Z-2.773
X8.928 Y64.072 Z-2.776
X8.986 Y64.164 Z-2.78
X9.029 Y64.263 Z-2.784
X9.059 Y64.367 Z-2.788
X9.073 Y64.475 Z-2.792
X9.071 Y64.583 Z-2.795
X9.054 Y64.69 Z-2.799
X9.022 Y64.793 Z-2.803
X8.975 Y64.891 Z-2.807
X8.915 Y64.981 Z-2.811
X8.842 Y65.062 Z-2.814
X8.759 Y65.131 Z-2.818
X8.667 Y65.188 Z-2.822
X8.567 Y65.23 Z-2.826
X8.462 Y65.259 Z-2.829
X8.355 Y65.271 Z-2.833
X8.246 Y65.269 Z-2.837
X8.14 Y65.25 Z-2.841
X8.037 Y65.217 Z-2.845
X7.939 Y65.169 Z-2.848
X7.85 Y65.108 Z-2.852
X7.77 Y65.034 Z-2.856
X7.702 Y64.95 Z-2.86
X7.646 Y64.857 Z-2.864
X7.605 Y64.757 Z-2.867
X7.578 Y64.652 Z-2.871
X7.566 Y64.544 Z-2.875
X7.57 Y64.436 Z-2.879
X7.59 Y64.329 Z-2.883
X7.625 Y64.227 Z-2.886
X7.674 Y64.13 Z-2.89
X7.736 Y64.041 Z-2.894
X7.81 Y63.962 Z-2.898
X7.895 Y63.895 Z-2.901
X7.989 Y63.841 Z-2.905
