(NMJPLATE0PT0PT4_BOTTOM_STEP1_116IN)
(T8  D=2.381 CR=0. - ZMIN=-3.425 - FLAT END MILL)
G0 G90 G94 G17
G21
G53 G0 Z0.

(POCKET11)
M5
T8
M3 S8000
G55
M8
G0 X16.041 Y94.292
Z15.
Z1.406
G1 Z0.665 F381.
X16.051 Y94.306 Z0.575 F333.
X16.076 Y94.349 Z0.499
X16.111 Y94.414 Z0.447
X16.147 Y94.495 Z0.427
X16.188 Y94.623 Z0.422
X16.215 Y94.754 Z0.417
X16.226 Y94.888 Z0.413
X16.22 Y95.021 Z0.408
X16.199 Y95.154 Z0.403
X16.163 Y95.283 Z0.399
X16.112 Y95.406 Z0.394
X16.046 Y95.523 Z0.389
X15.967 Y95.631 Z0.385
X15.876 Y95.729 Z0.38
X15.773 Y95.816 Z0.375
X15.662 Y95.89 Z0.371
X15.542 Y95.95 Z0.366
X15.416 Y95.996 Z0.361
X15.286 Y96.026 Z0.357
X15.152 Y96.041 Z0.352
X15.018 Y96.04 Z0.347
X14.886 Y96.023 Z0.342
X14.756 Y95.99 Z0.338
X14.63 Y95.942 Z0.333
X14.512 Y95.88 Z0.328
X14.401 Y95.805 Z0.324
X14.3 Y95.716 Z0.319
X14.211 Y95.617 Z0.314
X14.134 Y95.507 Z0.31
X14.07 Y95.39 Z0.305
X14.02 Y95.265 Z0.3
X13.986 Y95.136 Z0.296
X13.967 Y95.003 Z0.291
X13.964 Y94.869 Z0.286
X13.977 Y94.736 Z0.282
X14.006 Y94.605 Z0.277
X14.05 Y94.478 Z0.272
X14.108 Y94.358 Z0.268
X14.18 Y94.245 Z0.263
X14.266 Y94.142 Z0.258
X14.362 Y94.049 Z0.254
X14.469 Y93.968 Z0.249
X14.585 Y93.901 Z0.244
X14.708 Y93.848 Z0.24
X14.837 Y93.81 Z0.235
X14.969 Y93.787 Z0.23
X15.102 Y93.78 Z0.225
X15.236 Y93.789 Z0.221
X15.368 Y93.813 Z0.216
X15.496 Y93.853 Z0.211
X15.618 Y93.908 Z0.207
X15.733 Y93.977 Z0.202
X15.839 Y94.059 Z0.197
X15.934 Y94.153 Z0.193
X16.018 Y94.257 Z0.188
X16.089 Y94.371 Z0.183
X16.145 Y94.492 Z0.179
X16.188 Y94.62 Z0.174
X16.214 Y94.751 Z0.169
X16.225 Y94.884 Z0.165
X16.221 Y95.018 Z0.16
X16.2 Y95.151 Z0.155
X16.164 Y95.28 Z0.151
X16.113 Y95.403 Z0.146
X16.048 Y95.52 Z0.141
X15.969 Y95.629 Z0.137
X15.878 Y95.727 Z0.132
X15.776 Y95.814 Z0.127
X15.664 Y95.888 Z0.122
X15.545 Y95.949 Z0.118
X15.419 Y95.995 Z0.113
X15.289 Y96.025 Z0.108
X15.156 Y96.04 Z0.104
X15.022 Z0.099
X14.889 Y96.023 Z0.094
X14.759 Y95.991 Z0.09
X14.633 Y95.944 Z0.085
X14.515 Y95.882 Z0.08
X14.404 Y95.807 Z0.076
X14.303 Y95.719 Z0.071
X14.213 Y95.619 Z0.066
X14.135 Y95.51 Z0.062
X14.071 Y95.393 Z0.057
X14.021 Y95.268 Z0.052
X13.987 Y95.139 Z0.048
X13.968 Y95.006 Z0.043
X13.964 Y94.872 Z0.038
X13.977 Y94.739 Z0.034
X14.005 Y94.608 Z0.029
X14.048 Y94.481 Z0.024
X14.107 Y94.361 Z0.02
X14.179 Y94.248 Z0.015
X14.263 Y94.144 Z0.01
X14.36 Y94.051 Z0.005
X14.467 Y93.97 Z0.001
X14.582 Y93.903 Z-0.004
X14.705 Y93.849 Z-0.009
X14.833 Y93.811 Z-0.013
X14.965 Y93.787 Z-0.018
X15.099 Y93.78 Z-0.023
X15.233 Y93.788 Z-0.027
X15.365 Y93.813 Z-0.032
X15.492 Y93.852 Z-0.037
X15.615 Y93.907 Z-0.041
X15.73 Y93.975 Z-0.046
X15.836 Y94.057 Z-0.051
X15.932 Y94.15 Z-0.055
X16.016 Y94.255 Z-0.06
X16.087 Y94.368 Z-0.065
X16.144 Y94.489 Z-0.069
X16.187 Y94.616 Z-0.074
X16.214 Y94.748 Z-0.079
X16.225 Y94.881 Z-0.083
X16.221 Y95.015 Z-0.088
X16.201 Y95.147 Z-0.093
X16.165 Y95.277 Z-0.097
X16.114 Y95.4 Z-0.102
X16.049 Y95.518 Z-0.107
X15.971 Y95.626 Z-0.112
X15.88 Y95.725 Z-0.116
X15.779 Y95.812 Z-0.121
X15.667 Y95.886 Z-0.126
X15.548 Y95.947 Z-0.13
X15.422 Y95.994 Z-0.135
X15.292 Y96.025 Z-0.14
X15.159 Y96.04 Z-0.144
X15.025 Z-0.149
X14.892 Y96.024 Z-0.154
X14.762 Y95.992 Z-0.158
X14.636 Y95.945 Z-0.163
X14.517 Y95.884 Z-0.168
X14.406 Y95.809 Z-0.172
X14.305 Y95.721 Z-0.177
X14.215 Y95.622 Z-0.182
X14.137 Y95.513 Z-0.186
X14.073 Y95.395 Z-0.191
X14.022 Y95.271 Z-0.196
X13.987 Y95.142 Z-0.2
X13.968 Y95.009 Z-0.205
X13.964 Y94.876 Z-0.21
X13.976 Y94.742 Z-0.215
X14.004 Y94.611 Z-0.219
X14.047 Y94.484 Z-0.224
X14.105 Y94.363 Z-0.229
X14.177 Y94.25 Z-0.233
X14.261 Y94.146 Z-0.238
X14.357 Y94.053 Z-0.243
X14.464 Y93.972 Z-0.247
X14.579 Y93.904 Z-0.252
X14.702 Y93.85 Z-0.257
X14.83 Y93.811 Z-0.261
X14.962 Y93.788 Z-0.266
X15.096 Y93.78 Z-0.271
X15.23 Y93.788 Z-0.275
X15.361 Y93.812 Z-0.28
X15.489 Y93.851 Z-0.285
X15.612 Y93.905 Z-0.289
X15.727 Y93.973 Z-0.294
X15.834 Y94.055 Z-0.299
X15.93 Y94.148 Z-0.303
X16.014 Y94.252 Z-0.308
X16.086 Y94.365 Z-0.313
X16.143 Y94.486 Z-0.317
X16.186 Y94.613 Z-0.322
X16.213 Y94.744 Z-0.327
X16.225 Y94.878 Z-0.332
X16.221 Y95.012 Z-0.336
X16.201 Y95.144 Z-0.341
X16.166 Y95.273 Z-0.346
X16.116 Y95.398 Z-0.35
X16.051 Y95.515 Z-0.355
X15.973 Y95.624 Z-0.36
X15.883 Y95.723 Z-0.364
X15.781 Y95.81 Z-0.369
X15.67 Y95.885 Z-0.374
X15.551 Y95.946 Z-0.378
X15.425 Y95.993 Z-0.383
X15.295 Y96.024 Z-0.388
X15.162 Y96.04 Z-0.392
X15.028 Z-0.397
X14.895 Y96.024 Z-0.402
X14.765 Y95.993 Z-0.406
G3 X14.18 Y94.896 R0.879
X14.608 Y94.376 R0.879
X15.278 Y94.311 R0.879
G2 X15.644 Y94.394 R2.544 F1499.
G1 X15.752 Y94.406
X15.859 Y94.41
X133.916 Y94.4
G2 X136.096 Y93.588 R4.79
X137.521 Y91.748 R3.812
X137.674 Y91.18 R3.465
X137.76 Y90.598 R9.289
G1 X137.773 Y10.832
G2 X137.673 Y9.884 R4.509
X137.3 Y9.007 R2.53
X136.368 Y7.875 R7.487
X135.135 Y7.082 R3.486
X134.248 Y6.873 R3.555
X133.338 Y6.82 R10.017
G1 X15.811 Y6.824
G2 X15.174 Y6.945 R1.728
X14.607 Y7.26 R2.516
G1 X14.522 Y7.328
X14.442 Y7.402
X8.469 Y13.376
G2 X8.113 Y13.893 R1.813
X7.928 Y14.492 R2.413
G1 X7.913 Y14.614
X7.907 Y14.737
X7.906 Y86.477
G2 X8.066 Y87.245 R1.93
X8.508 Y87.895 R2.102
G1 X14.442 Y93.828
G2 X14.998 Y94.207 R1.818
X15.278 Y94.311 R2.544
X16.069 Y93.985 R0.675
G3 X16.804 Y93.545 R0.834
G1 X133.754
X133.811 Y93.542
X133.867 Y93.534
X134.734 Y93.367
X134.783 Y93.355
X134.831 Y93.34
X134.975 Y93.285
X135.038 Y93.257
X135.097 Y93.223
X135.848 Y92.72
X135.899 Y92.682
X135.945 Y92.639
X136.03 Y92.551
X136.066 Y92.51
X136.098 Y92.467
X136.592 Y91.724
X136.628 Y91.663
X136.656 Y91.598
X136.709 Y91.453
X136.733 Y91.365
X136.895 Y90.545
X136.903 Y90.488
X136.906 Y90.43
X136.909 Y10.832
X136.906 Y10.775
X136.898 Y10.719
X136.73 Y9.851
X136.717 Y9.797
X136.699 Y9.745
X136.642 Y9.601
X136.615 Y9.543
X136.582 Y9.488
X136.086 Y8.748
X136.046 Y8.695
X136.001 Y8.648
X135.901 Y8.553
X135.863 Y8.519
X135.821 Y8.489
X135.095 Y8.006
X135.037 Y7.972
X134.975 Y7.945
X134.831 Y7.89
X134.784 Y7.875
X134.737 Y7.864
X133.918 Y7.701
X133.864 Y7.693
X133.809 Y7.69
X133.328 Y7.684
X133.321
X15.811 Y7.688
X15.743 Y7.692
X15.675 Y7.703
X15.531 Y7.737
X15.469 Y7.755
X15.41 Y7.78
X15.314 Y7.826
X15.264 Y7.853
X15.217 Y7.884
X15.12 Y7.955
X15.053 Y8.013
X9.226 Y13.839
X9.085 Y13.983
X9.052 Y14.019
X9.023 Y14.057
X8.955 Y14.154
X8.919 Y14.212
X8.889 Y14.274
X8.831 Y14.419
X8.811 Y14.479
X8.797 Y14.541
X8.78 Y14.637
X8.774 Y14.687
X8.772 Y14.738
X8.77 Y86.477
X8.773 Y86.532
X8.781 Y86.586
X8.807 Y86.73
X8.826 Y86.805
X8.855 Y86.877
X8.924 Y87.021
X8.958 Y87.084
X8.999 Y87.141
X9.078 Y87.238
X9.119 Y87.283
X15.053 Y93.217
X15.12 Y93.275
X15.217 Y93.346
X15.275 Y93.384
X15.337 Y93.415
X15.481 Y93.476
X15.553 Y93.501
X15.627 Y93.517
X15.772 Y93.539
X15.859 Y93.545
X16.804
X16.844 Y93.552
X16.88 Y93.573
X16.906 Y93.604
X16.921 Y93.642
X16.922 Y93.682
X16.909 Y93.721
X16.883 Y93.753
X15.229 Y95.234
X15.192 Y95.257
X15.15 Y95.264
X15.117
G3 X14.799 Y95.132 R0.451
G1 X7.519 Y87.853
G3 X7.421 Y87.615 R0.336
G1 Y13.985
G3 X7.519 Y13.747 R0.336
G1 X14.832 Y6.434
G3 X15.07 Y6.336 R0.336
G1 X134.011 Y6.431
G3 X135.936 Y6.954 R6.543
X137.515 Y8.172 R4.213
X138.28 Y9.629 R4.336
X138.565 Y11.251 R6.949
G1 X138.562 Y90.394
G3 X138.078 Y92.458 R6.169
X136.796 Y94.147 R4.348
X135.471 Y94.856 R4.118
X134.002 Y95.169 R7.637
G1 X15.15 Y95.264
G2 X14.679 Y95.536 R0.545
G3 X14.211 Y95.66 R0.343
X14.141 Y95.606 R0.343
G1 X6.621 Y88.086
Y13.514
X14.599 Y5.536
X133.817 Y5.54
X135.085 Y5.682
X136.257 Y6.091
X136.293 Y6.111
X137.339 Y6.774
X138.194 Y7.629
X138.86 Y8.683
X139.283 Y9.885
X139.429 Y11.203
X139.426 Y90.444
X139.276 Y91.741
X138.861 Y92.917
X138.194 Y93.971
X137.339 Y94.826
X136.284 Y95.494
X135.819 Y95.662
X135.086 Y95.917
X133.769 Y96.064
X15.859
X14.599
X14.141 Y95.606
X14.117 Y95.571
X14.106 Y95.53
X14.111 Y95.488
X14.13 Y95.45
X14.161 Y95.421
X14.2 Y95.405
X15.144 Y95.2
X15.173 Y95.197
X15.747 Y95.216
X15.979 Y95.236
X16.004 Y95.246
X16.021 Y95.267
X16.024 Y95.294
X16.013 Y95.319
X15.92 Y95.415 Z-0.411 F333.
X15.817 Y95.5 Z-0.416
X15.704 Y95.572 Z-0.42
X15.584 Y95.63 Z-0.425
X15.458 Y95.674 Z-0.43
X15.327 Y95.703 Z-0.434
X15.194 Y95.715 Z-0.439
X15.06 Y95.713 Z-0.444
X14.928 Y95.694 Z-0.448
X14.799 Y95.66 Z-0.453
X14.674 Y95.61 Z-0.458
X14.557 Y95.547 Z-0.462
X14.447 Y95.47 Z-0.467
X14.348 Y95.381 Z-0.472
X14.26 Y95.28 Z-0.476
X14.184 Y95.17 Z-0.481
X14.122 Y95.052 Z-0.486
X14.074 Y94.927 Z-0.49
X14.041 Y94.797 Z-0.495
X14.024 Y94.665 Z-0.5
X14.022 Y94.531 Z-0.504
X14.036 Y94.398 Z-0.509
X14.066 Y94.268 Z-0.514
X14.111 Y94.142 Z-0.519
X14.171 Y94.022 Z-0.523
X14.244 Y93.91 Z-0.528
X14.33 Y93.808 Z-0.533
X14.428 Y93.717 Z-0.537
X14.535 Y93.637 Z-0.542
X14.651 Y93.571 Z-0.547
X14.774 Y93.519 Z-0.551
X14.903 Y93.482 Z-0.556
X15.035 Y93.46 Z-0.561
X15.168 Y93.454 Z-0.565
X15.302 Y93.464 Z-0.57
X15.433 Y93.489 Z-0.575
X15.56 Y93.53 Z-0.579
X15.682 Y93.586 Z-0.584
X15.796 Y93.655 Z-0.589
X15.901 Y93.738 Z-0.593
X15.996 Y93.832 Z-0.598
X16.079 Y93.937 Z-0.603
X16.149 Y94.051 Z-0.607
X16.205 Y94.172 Z-0.612
X16.246 Y94.299 Z-0.617
X16.272 Y94.43 Z-0.621
X16.283 Y94.564 Z-0.626
X16.278 Y94.697 Z-0.631
X16.256 Y94.829 Z-0.635
X16.22 Y94.958 Z-0.64
X16.168 Y95.081 Z-0.645
X16.103 Y95.198 Z-0.649
X16.024 Y95.306 Z-0.654
X15.933 Y95.403 Z-0.659
X15.831 Y95.49 Z-0.663
X15.719 Y95.564 Z-0.668
X15.6 Y95.624 Z-0.673
X15.474 Y95.669 Z-0.677
X15.344 Y95.7 Z-0.682
X15.211 Y95.715 Z-0.687
X15.077 Y95.714 Z-0.691
X14.945 Y95.697 Z-0.696
X14.815 Y95.665 Z-0.701
X14.69 Y95.618 Z-0.705
X14.571 Y95.556 Z-0.71
X14.461 Y95.481 Z-0.715
X14.36 Y95.393 Z-0.719
X14.27 Y95.294 Z-0.724
X14.193 Y95.185 Z-0.729
X14.129 Y95.067 Z-0.733
X14.079 Y94.943 Z-0.738
X14.044 Y94.814 Z-0.743
X14.025 Y94.682 Z-0.747
X14.021 Y94.548 Z-0.752
X14.034 Y94.415 Z-0.757
X14.062 Y94.284 Z-0.761
X14.105 Y94.158 Z-0.766
X14.162 Y94.037 Z-0.771
X14.234 Y93.924 Z-0.775
X14.318 Y93.821 Z-0.78
X14.414 Y93.728 Z-0.785
X14.521 Y93.647 Z-0.789
X14.636 Y93.579 Z-0.794
X14.758 Y93.525 Z-0.799
X14.886 Y93.486 Z-0.803
X15.018 Y93.462 Z-0.808
X15.151 Y93.454 Z-0.813
G3 X16.049 Y94.351 R0.898
X15.153 Y95.249 R0.898
G1 X15.128 F1499.
G3 X14.81 Y95.117 R0.451
G1 X7.534 Y87.846
G3 X7.436 Y87.609 R0.336
G1 Y13.991
G3 X7.534 Y13.754 R0.336
G1 X14.843 Y6.449
G3 X15.081 Y6.351 R0.336
G1 X134.01 Y6.446
G3 X135.937 Y6.972 R6.502
X137.516 Y8.196 R4.227
X138.271 Y9.643 R4.272
X138.55 Y11.25 R7.009
G1 X138.547 Y90.397
G3 X138.142 Y92.238 R5.899
X137.107 Y93.813 R4.655
X135.668 Y94.748 R4.118
X134. Y95.154 R6.751
G1 X15.153 Y95.249
G2 X14.686 Y95.516 R0.542
G3 X14.22 Y95.635 R0.34
X14.153 Y95.583 R0.34
G1 X6.642 Y88.077
Y13.523
X14.613 Y5.557
X133.817 Y5.561
X135.083 Y5.704
X136.24 Y6.108
X137.31 Y6.776
X138.192 Y7.658
X138.842 Y8.693
X138.874 Y8.775
X139.262 Y9.887
X139.408 Y11.203
X139.405 Y90.445
X139.262 Y91.713
X138.858 Y92.873
X138.594 Y93.301
X138.192 Y93.942
X137.31 Y94.824
X136.24 Y95.492
X135.083 Y95.896
X133.769 Y96.043
X14.613
X14.153 Y95.583
X14.131 Y95.554
X14.12 Y95.519
X14.119 Y95.483
X14.129 Y95.448
X14.15 Y95.418
X15.155 Y94.337
X15.181 Y94.316
X15.211 Y94.303
X15.244 Y94.299
X15.277 Y94.304
G2 X15.645 Y94.388 R2.538
G1 X15.752 Y94.399
X15.859 Y94.403
X133.915 Y94.394
G2 X136.092 Y93.583 R4.784
X137.515 Y91.746 R3.806
X137.669 Y91.177 R3.491
X137.755 Y90.593 R8.769
G1 X137.767 Y10.832
G2 X137.667 Y9.886 R4.504
X137.295 Y9.01 R2.524
X136.364 Y7.88 R7.483
X135.133 Y7.087 R3.48
X134.247 Y6.879 R3.549
X133.338 Y6.826 R10.016
G1 X15.811 Y6.83
G2 X15.072 Y6.982 R1.869
X14.447 Y7.406 R2.008
G1 X8.474 Y13.381
G2 X8.119 Y13.895 R1.807
X7.934 Y14.493 R2.407
G1 X7.919 Y14.615
X7.914 Y14.737
X7.912 Y86.477
G2 X8.05 Y87.171 R1.82
X8.412 Y87.779 R2.438
G1 X14.447 Y93.824
G2 X15.001 Y94.202 R1.813
X15.277 Y94.304 R2.538
X16.063 Y93.981 R0.67
G3 X16.793 Y93.545 R0.829
G1 X133.754
X133.811 Y93.542
X133.867 Y93.534
X134.734 Y93.367
X134.783 Y93.355
X134.831 Y93.34
X134.975 Y93.285
X135.038 Y93.257
X135.097 Y93.223
X135.848 Y92.72
X135.899 Y92.682
X135.945 Y92.639
X136.03 Y92.551
X136.066 Y92.51
X136.098 Y92.467
X136.592 Y91.724
X136.628 Y91.663
X136.656 Y91.598
X136.709 Y91.453
X136.733 Y91.365
X136.895 Y90.545
X136.903 Y90.488
X136.906 Y90.43
X136.909 Y10.832
X136.906 Y10.775
X136.898 Y10.719
X136.73 Y9.851
X136.717 Y9.797
X136.699 Y9.745
X136.642 Y9.601
X136.615 Y9.543
X136.582 Y9.488
X136.086 Y8.748
X136.046 Y8.695
X136.001 Y8.648
X135.901 Y8.553
X135.863 Y8.519
X135.821 Y8.489
X135.095 Y8.006
X135.037 Y7.972
X134.975 Y7.945
X134.831 Y7.89
X134.784 Y7.875
X134.737 Y7.864
X133.918 Y7.701
X133.864 Y7.693
X133.809 Y7.69
X133.328 Y7.684
X133.321
X15.811 Y7.688
X15.743 Y7.692
X15.675 Y7.703
X15.531 Y7.737
X15.469 Y7.755
X15.41 Y7.78
X15.314 Y7.826
X15.264 Y7.853
X15.217 Y7.884
X15.12 Y7.955
X15.053 Y8.013
X9.226 Y13.839
X9.085 Y13.983
X9.052 Y14.019
X9.023 Y14.057
X8.955 Y14.154
X8.919 Y14.212
X8.889 Y14.274
X8.831 Y14.419
X8.811 Y14.479
X8.797 Y14.541
X8.78 Y14.637
X8.774 Y14.687
X8.772 Y14.738
X8.77 Y86.477
X8.773 Y86.532
X8.781 Y86.586
X8.807 Y86.73
X8.826 Y86.805
X8.855 Y86.877
X8.924 Y87.021
X8.958 Y87.084
X8.999 Y87.141
X9.078 Y87.238
X9.119 Y87.283
X15.053 Y93.217
X15.12 Y93.275
X15.217 Y93.346
X15.275 Y93.384
X15.337 Y93.415
X15.481 Y93.476
X15.553 Y93.501
X15.627 Y93.517
X15.772 Y93.539
X15.859 Y93.545
X16.793
X16.83 Y93.551
X16.864 Y93.569
X16.89 Y93.596
X16.907 Y93.63
X16.912 Y93.668
X16.905 Y93.705
X16.886 Y93.738
X16.307 Y94.474
X16.287 Y94.51
X16.281 Y94.551
X16.277 Y94.685 Z-0.817 F333.
X16.256 Y94.817 Z-0.822
X16.221 Y94.946 Z-0.827
X16.17 Y95.07 Z-0.832
X16.105 Y95.187 Z-0.836
X16.026 Y95.295 Z-0.841
X15.936 Y95.394 Z-0.846
X15.834 Y95.481 Z-0.85
X15.723 Y95.556 Z-0.855
X15.604 Y95.616 Z-0.86
X15.478 Y95.663 Z-0.864
X15.348 Y95.694 Z-0.869
X15.215 Y95.709 Z-0.874
X15.081 Z-0.878
X14.948 Y95.693 Z-0.883
X14.818 Y95.661 Z-0.888
X14.692 Y95.614 Z-0.892
X14.573 Y95.553 Z-0.897
X14.463 Y95.478 Z-0.902
X14.361 Y95.39 Z-0.906
X14.271 Y95.291 Z-0.911
X14.193 Y95.182 Z-0.916
X14.129 Y95.065 Z-0.92
X14.079 Y94.941 Z-0.925
X14.043 Y94.812 Z-0.93
X14.024 Y94.679 Z-0.934
X14.02 Y94.545 Z-0.939
X14.032 Y94.412 Z-0.944
X14.06 Y94.281 Z-0.948
X14.103 Y94.154 Z-0.953
X14.16 Y94.033 Z-0.958
X14.232 Y93.92 Z-0.963
X14.316 Y93.816 Z-0.967
X14.412 Y93.723 Z-0.972
X14.519 Y93.642 Z-0.977
X14.634 Y93.574 Z-0.981
X14.756 Y93.52 Z-0.986
X14.884 Y93.481 Z-0.991
X15.016 Y93.457 Z-0.995
X15.15 Y93.449 Z-1.
G3 X16.048 Y94.346 R0.897
X15.151 Y95.243 R0.897
G1 X15.127 F1499.
G3 X14.808 Y95.111 R0.451
G1 X7.54 Y87.844
G3 X7.442 Y87.606 R0.336
G1 Y13.994
G3 X7.54 Y13.756 R0.336
G1 X14.842 Y6.455
G3 X15.08 Y6.357 R0.336
G1 X134.009 Y6.452
G3 X135.937 Y6.979 R6.482
X137.515 Y8.205 R4.223
X138.266 Y9.648 R4.278
X138.544 Y11.25 R6.979
G1 X138.541 Y90.397
G3 X137.491 Y93.335 R5.507
X134.883 Y95.049 R4.446
X134.305 Y95.139 R4.178
X133.722 Y95.179 R21.374
G1 X15.151 Y95.243
G2 X14.686 Y95.509 R0.54
G3 X14.223 Y95.628 R0.339
X14.155 Y95.576 R0.339
G1 X6.651 Y88.073
Y13.527
X14.613 Y5.566
X133.817 Y5.57
X135.073 Y5.712
X136.24 Y6.118
X137.297 Y6.778
X138.188 Y7.67
X138.848 Y8.728
X139.254 Y9.897
X139.399 Y11.203
X139.396 Y90.445
X139.254 Y91.703
X138.848 Y92.872
X138.188 Y93.93
X137.297 Y94.822
X136.24 Y95.482
X135.074 Y95.888
X133.769 Y96.034
X14.613
X14.155 Y95.576
X14.134 Y95.547
X14.122 Y95.512
Y95.476
X14.132 Y95.441
X14.153 Y95.41
X15.161 Y94.335
X15.186 Y94.314
X15.217 Y94.301
X15.25 Y94.297
X15.282 Y94.302
G2 X15.646 Y94.384 R2.535
G1 X15.752 Y94.396
X15.859 Y94.4
X133.915 Y94.39
G2 X136.09 Y93.581 R4.78
X137.512 Y91.745 R3.802
X137.666 Y91.176 R3.488
X137.751 Y90.592 R8.768
G1 X137.764 Y10.832
G2 X137.663 Y9.887 R4.501
X137.292 Y9.012 R2.521
X136.362 Y7.883 R7.481
X135.132 Y7.091 R3.477
X134.246 Y6.882 R3.546
X133.338 Y6.83 R10.015
G1 X15.811 Y6.833
G2 X15.177 Y6.954 R1.719
X14.613 Y7.268 R2.507
G1 X14.528 Y7.335
X14.449 Y7.409
X8.476 Y13.383
G2 X8.122 Y13.897 R1.804
X7.938 Y14.493 R2.403
G1 X7.922 Y14.615
X7.917 Y14.737
X7.916 Y86.477
G2 X8.053 Y87.17 R1.817
X8.415 Y87.777 R2.435
G1 X14.449 Y93.821
G2 X15.002 Y94.199 R1.809
X15.282 Y94.302 R2.535
X16.065 Y93.98 R0.668
G3 X16.791 Y93.545 R0.825
G1 X133.754
X133.811 Y93.542
X133.867 Y93.534
X134.734 Y93.367
X134.783 Y93.355
X134.831 Y93.34
X134.975 Y93.285
X135.038 Y93.257
X135.097 Y93.223
X135.848 Y92.72
X135.899 Y92.682
X135.945 Y92.639
X136.03 Y92.551
X136.066 Y92.51
X136.098 Y92.467
X136.592 Y91.724
X136.628 Y91.663
X136.656 Y91.598
X136.709 Y91.453
X136.733 Y91.365
X136.895 Y90.545
X136.903 Y90.488
X136.906 Y90.43
X136.909 Y10.832
X136.906 Y10.775
X136.898 Y10.719
X136.73 Y9.851
X136.717 Y9.797
X136.699 Y9.745
X136.642 Y9.601
X136.615 Y9.543
X136.582 Y9.488
X136.086 Y8.748
X136.046 Y8.695
X136.001 Y8.648
X135.901 Y8.553
X135.863 Y8.519
X135.821 Y8.489
X135.095 Y8.006
X135.037 Y7.972
X134.975 Y7.945
X134.831 Y7.89
X134.784 Y7.875
X134.737 Y7.864
X133.918 Y7.701
X133.864 Y7.693
X133.809 Y7.69
X133.328 Y7.684
X133.321
X15.811 Y7.688
X15.743 Y7.692
X15.675 Y7.703
X15.531 Y7.737
X15.469 Y7.755
X15.41 Y7.78
X15.314 Y7.826
X15.264 Y7.853
X15.217 Y7.884
X15.12 Y7.955
X15.053 Y8.013
X9.226 Y13.839
X9.085 Y13.983
X9.052 Y14.019
X9.023 Y14.057
X8.955 Y14.154
X8.919 Y14.212
X8.889 Y14.274
X8.831 Y14.419
X8.811 Y14.479
X8.797 Y14.541
X8.78 Y14.637
X8.774 Y14.687
X8.772 Y14.738
X8.77 Y86.477
X8.773 Y86.532
X8.781 Y86.586
X8.807 Y86.73
X8.826 Y86.805
X8.855 Y86.877
X8.924 Y87.021
X8.958 Y87.084
X8.999 Y87.141
X9.078 Y87.238
X9.119 Y87.283
X15.053 Y93.217
X15.12 Y93.275
X15.217 Y93.346
X15.275 Y93.384
X15.337 Y93.415
X15.481 Y93.476
X15.553 Y93.501
X15.627 Y93.517
X15.772 Y93.539
X15.859 Y93.545
X16.791
X16.832 Y93.553
X16.867 Y93.573
X16.894 Y93.605
X16.908 Y93.643
Y93.685
X16.894 Y93.724
X16.248 Y94.857
X16.237 Y94.883
X16.193 Y95.008 Z-1.005 F333.
X16.135 Y95.126 Z-1.009
X16.064 Y95.237 Z-1.014
X15.981 Y95.339 Z-1.018
X15.886 Y95.431 Z-1.023
X15.781 Y95.511 Z-1.028
X15.667 Y95.578 Z-1.032
X15.547 Y95.632 Z-1.037
X15.421 Y95.671 Z-1.041
X15.291 Y95.695 Z-1.046
X15.16 Y95.704 Z-1.051
X15.028 Y95.697 Z-1.055
X14.898 Y95.676 Z-1.06
X14.771 Y95.639 Z-1.064
X14.649 Y95.588 Z-1.069
X14.535 Y95.523 Z-1.074
X14.428 Y95.445 Z-1.078
X14.332 Y95.355 Z-1.083
X14.246 Y95.255 Z-1.087
X14.173 Y95.145 Z-1.092
X14.113 Y95.027 Z-1.097
X14.067 Y94.904 Z-1.101
X14.036 Y94.775 Z-1.106
X14.02 Y94.645 Z-1.111
X14.019 Y94.513 Z-1.115
X14.034 Y94.382 Z-1.12
X14.064 Y94.253 Z-1.124
X14.108 Y94.129 Z-1.129
X14.167 Y94.011 Z-1.134
X14.239 Y93.9 Z-1.138
X14.324 Y93.799 Z-1.143
X14.42 Y93.708 Z-1.147
X14.525 Y93.629 Z-1.152
X14.639 Y93.563 Z-1.157
X14.76 Y93.511 Z-1.161
X14.887 Y93.473 Z-1.166
X15.016 Y93.45 Z-1.17
X15.148 Y93.442 Z-1.175
G3 X16.045 Y94.338 R0.896
X15.149 Y95.234 R0.896
G1 X15.126 F1499.
G3 X14.807 Y95.102 R0.451
G1 X7.546 Y87.835
G3 X7.448 Y87.597 R0.336
G1 Y13.996
G3 X7.546 Y13.759 R0.336
G1 X14.841 Y6.464
G3 X15.078 Y6.366 R0.336
G1 X134.008 Y6.458
G3 X135.937 Y6.988 R6.438
X137.515 Y8.217 R4.25
X138.262 Y9.654 R4.241
X138.538 Y11.25 R6.997
G1 X138.535 Y90.397
G3 X138.043 Y92.464 R6.02
X136.75 Y94.149 R4.401
X135.316 Y94.896 R4.236
X133.722 Y95.173 R6.967
G1 X15.149 Y95.234
G2 X14.686 Y95.499 R0.538
G3 X14.225 Y95.618 R0.337
X14.158 Y95.566 R0.337
G1 X6.66 Y88.062
Y13.531
X14.613 Y5.578
X133.321 Y5.579
X133.817
X135.066 Y5.72
X136.24 Y6.128
X137.284 Y6.781
X138.186 Y7.683
X138.839 Y8.728
X139.245 Y9.904
X139.39 Y11.203
X139.386 Y90.445
X139.246 Y91.696
X138.839 Y92.872
X138.186 Y93.917
X137.284 Y94.819
X136.24 Y95.472
X135.067 Y95.88
X133.769 Y96.025
X14.613 Y96.022
X14.158 Y95.566
X14.136 Y95.536
X14.124 Y95.502
Y95.465
X14.134 Y95.43
X14.155 Y95.4
X15.159 Y94.331
X15.184 Y94.31
X15.215 Y94.297
X15.248 Y94.293
X15.28 Y94.299
G2 X15.646 Y94.381 R2.532
G1 X15.753 Y94.393
X15.859 Y94.397
X133.915 Y94.387
G2 X136.088 Y93.578 R4.777
X137.509 Y91.744 R3.799
X137.663 Y91.175 R3.485
X137.748 Y90.592 R8.767
G1 X137.761 Y10.832
G2 X137.66 Y9.888 R4.498
X137.29 Y9.014 R2.518
X136.36 Y7.885 R7.478
X135.131 Y7.093 R3.474
X134.246 Y6.885 R3.544
X133.338 Y6.833 R10.015
G1 X15.811 Y6.836
G2 X15.178 Y6.957 R1.716
X14.615 Y7.27 R2.504
G1 X14.53 Y7.338
X14.451 Y7.411
X8.478 Y13.385
G2 X8.124 Y13.898 R1.801
X7.941 Y14.494 R2.4
G1 X7.925 Y14.615
X7.92 Y14.737
X7.919 Y86.477
G2 X8.078 Y87.241 R1.917
X8.517 Y87.886 R2.09
G1 X14.451 Y93.819
G2 X15.003 Y94.196 R1.806
X15.28 Y94.299 R2.532
X16.06 Y93.978 R0.665
G3 X16.784 Y93.545 R0.822
G1 X133.754
X133.811 Y93.542
X133.867 Y93.534
X134.734 Y93.367
X134.783 Y93.355
X134.831 Y93.34
X134.975 Y93.285
X135.038 Y93.257
X135.097 Y93.223
X135.848 Y92.72
X135.899 Y92.682
X135.945 Y92.639
X136.03 Y92.551
X136.066 Y92.51
X136.098 Y92.467
X136.592 Y91.724
X136.628 Y91.663
X136.656 Y91.598
X136.709 Y91.453
X136.733 Y91.365
X136.895 Y90.545
X136.903 Y90.488
X136.906 Y90.43
X136.909 Y10.832
X136.906 Y10.775
X136.898 Y10.719
X136.73 Y9.851
X136.717 Y9.797
X136.699 Y9.745
X136.642 Y9.601
X136.615 Y9.543
X136.582 Y9.488
X136.086 Y8.748
X136.046 Y8.695
X136.001 Y8.648
X135.901 Y8.553
X135.863 Y8.519
X135.821 Y8.489
X135.095 Y8.006
X135.037 Y7.972
X134.975 Y7.945
X134.831 Y7.89
X134.784 Y7.875
X134.737 Y7.864
X133.918 Y7.701
X133.864 Y7.693
X133.809 Y7.69
X133.328 Y7.684
X133.321
X15.811 Y7.688
X15.743 Y7.692
X15.675 Y7.703
X15.531 Y7.737
X15.469 Y7.755
X15.41 Y7.78
X15.314 Y7.826
X15.264 Y7.853
X15.217 Y7.884
X15.12 Y7.955
X15.053 Y8.013
X9.226 Y13.839
X9.085 Y13.983
X9.052 Y14.019
X9.023 Y14.057
X8.955 Y14.154
X8.919 Y14.212
X8.889 Y14.274
X8.831 Y14.419
X8.811 Y14.479
X8.797 Y14.541
X8.78 Y14.637
X8.774 Y14.687
X8.772 Y14.738
X8.77 Y86.477
X8.773 Y86.532
X8.781 Y86.586
X8.807 Y86.73
X8.826 Y86.805
X8.855 Y86.877
X8.924 Y87.021
X8.958 Y87.084
X8.999 Y87.141
X9.078 Y87.238
X9.119 Y87.283
X15.053 Y93.217
X15.12 Y93.275
X15.217 Y93.346
X15.275 Y93.384
X15.337 Y93.415
X15.481 Y93.476
X15.553 Y93.501
X15.627 Y93.517
X15.772 Y93.539
X15.859 Y93.545
X16.784
X16.827 Y93.553
X16.864 Y93.576
X16.89 Y93.61
X16.903 Y93.652
X16.899 Y93.695
X16.881 Y93.734
X16.849 Y93.764
X16.277 Y94.136
X16.25 Y94.149
X16.221 Y94.155
X15.019 Y94.252
X14.803 Y94.329
X14.777 Y94.33
X14.754 Y94.318
X14.741 Y94.295
X14.726 Y94.193 Z-1.179 F333.
Y94.09 Z-1.182
X14.743 Y93.989 Z-1.186
X14.775 Y93.891 Z-1.189
X14.821 Y93.799 Z-1.193
X14.882 Y93.716 Z-1.197
X14.954 Y93.643 Z-1.2
X15.037 Y93.582 Z-1.204
X15.128 Y93.534 Z-1.207
X15.226 Y93.501 Z-1.211
X15.327 Y93.484 Z-1.215
X15.43 Y93.482 Z-1.218
X15.532 Y93.497 Z-1.222
X15.63 Y93.526 Z-1.225
X15.723 Y93.571 Z-1.229
X15.807 Y93.629 Z-1.233
X15.882 Y93.7 Z-1.236
X15.945 Y93.782 Z-1.24
X15.994 Y93.872 Z-1.243
X16.029 Y93.969 Z-1.247
X16.049 Y94.07 Z-1.251
X16.053 Y94.172 Z-1.254
X16.041 Y94.275 Z-1.258
X16.013 Y94.374 Z-1.261
X15.971 Y94.467 Z-1.265
X15.914 Y94.553 Z-1.269
X15.845 Y94.629 Z-1.272
X15.765 Y94.694 Z-1.276
X15.676 Y94.745 Z-1.279
X15.58 Y94.783 Z-1.283
X15.479 Y94.804 Z-1.287
X15.376 Y94.81 Z-1.29
X15.274 Y94.801 Z-1.294
X15.174 Y94.775 Z-1.297
X15.08 Y94.734 Z-1.301
X14.993 Y94.68 Z-1.305
X14.915 Y94.612 Z-1.308
X14.849 Y94.534 Z-1.312
X14.795 Y94.446 Z-1.315
X14.756 Y94.35 Z-1.319
X14.732 Y94.25 Z-1.323
X14.724 Y94.148 Z-1.326
X14.732 Y94.045 Z-1.33
X14.755 Y93.945 Z-1.333
X14.793 Y93.85 Z-1.337
X14.846 Y93.761 Z-1.341
X14.912 Y93.682 Z-1.344
X14.989 Y93.614 Z-1.348
X15.076 Y93.559 Z-1.351
X15.17 Y93.518 Z-1.355
X15.27 Y93.492 Z-1.358
X15.372 Y93.481 Z-1.362
X15.475 Y93.487 Z-1.366
X15.576 Y93.508 Z-1.369
X15.672 Y93.544 Z-1.373
X15.761 Y93.595 Z-1.376
X15.842 Y93.659 Z-1.38
X15.911 Y93.735 Z-1.384
X15.969 Y93.821 Z-1.387
X16.012 Y93.914 Z-1.391
X16.04 Y94.013 Z-1.394
X16.053 Y94.115 Z-1.398
X16.05 Y94.218 Z-1.402
X16.031 Y94.319 Z-1.405
X15.996 Y94.416 Z-1.409
X15.947 Y94.506 Z-1.412
X15.885 Y94.588 Z-1.416
X15.811 Y94.659 Z-1.42
X15.726 Y94.718 Z-1.423
X15.634 Y94.764 Z-1.427
X15.536 Y94.794 Z-1.43
X15.434 Y94.809 Z-1.434
X15.331 Y94.808 Z-1.438
X15.23 Y94.791 Z-1.441
X15.132 Y94.759 Z-1.445
X15.04 Y94.712 Z-1.448
X14.957 Y94.651 Z-1.452
X14.884 Y94.579 Z-1.456
X14.823 Y94.496 Z-1.459
X14.776 Y94.404 Z-1.463
X14.744 Y94.307 Z-1.466
X14.727 Y94.205 Z-1.47
X14.725 Y94.102 Z-1.474
X14.74 Y94.001 Z-1.477
X14.77 Y93.902 Z-1.481
X14.815 Y93.81 Z-1.484
X14.874 Y93.725 Z-1.488
X14.945 Y93.651 Z-1.492
X15.027 Y93.588 Z-1.495
X15.117 Y93.539 Z-1.499
X15.214 Y93.504 Z-1.502
X15.315 Y93.485 Z-1.506
X15.418 Y93.482 Z-1.51
X15.52 Y93.494 Z-1.513
X15.619 Y93.522 Z-1.517
X15.712 Y93.565 Z-1.52
X15.798 Y93.622 Z-1.524
X15.874 Y93.691 Z-1.528
X15.938 Y93.772 Z-1.531
X15.989 Y93.861 Z-1.535
X16.026 Y93.957 Z-1.538
X16.048 Y94.058 Z-1.542
X16.053 Y94.16 Z-1.546
X16.043 Y94.263 Z-1.549
X16.017 Y94.362 Z-1.553
X15.976 Y94.457 Z-1.556
X15.921 Y94.544 Z-1.56
X15.854 Y94.621 Z-1.563
X15.775 Y94.687 Z-1.567
X15.686 Y94.74 Z-1.571
X15.591 Y94.779 Z-1.574
X15.491 Y94.803 Z-1.578
X15.389 Y94.811 Z-1.581
X15.113 F1499.
X12.047 Y91.745
X12.814 Y90.978
X15.053 Y93.217
X15.12 Y93.275
X15.217 Y93.346
X15.275 Y93.384
X15.337 Y93.415
X15.481 Y93.476
X15.553 Y93.501
X15.627 Y93.517
X15.772 Y93.539
X15.859 Y93.545
X29.865 Y93.546
Y94.814
X15.389 Y94.811
X15.352 Y94.805
X15.318 Y94.788
X15.292 Y94.761
X15.275 Y94.728
X15.269 Y94.691
X15.276 Y94.654
X15.529 Y93.896
X15.573 Y93.755
X15.601 Y93.567
X15.611 Y93.546
X15.632 Y93.534
X15.655 Y93.537
X15.745 Y93.584 Z-1.585 F333.
X15.826 Y93.645 Z-1.589
X15.897 Y93.718 Z-1.592
X15.956 Y93.8 Z-1.596
X16.002 Y93.89 Z-1.599
X16.034 Y93.987 Z-1.603
X16.051 Y94.087 Z-1.606
X16.052 Y94.188 Z-1.61
X16.038 Y94.289 Z-1.613
X16.009 Y94.386 Z-1.617
X15.965 Y94.477 Z-1.62
X15.908 Y94.561 Z-1.624
X15.839 Y94.635 Z-1.628
X15.759 Y94.698 Z-1.631
X15.67 Y94.748 Z-1.635
X15.576 Y94.784 Z-1.638
X15.476 Y94.805 Z-1.642
X15.375 Y94.81 Z-1.645
X15.274 Y94.801 Z-1.649
X15.176 Y94.776 Z-1.652
X15.082 Y94.736 Z-1.656
X14.996 Y94.682 Z-1.659
X14.919 Y94.616 Z-1.663
X14.853 Y94.539 Z-1.667
X14.799 Y94.453 Z-1.67
X14.759 Y94.36 Z-1.674
X14.734 Y94.262 Z-1.677
X14.724 Y94.161 Z-1.681
X14.729 Y94.06 Z-1.684
X14.75 Y93.96 Z-1.688
X14.786 Y93.865 Z-1.691
X14.836 Y93.777 Z-1.695
X14.898 Y93.697 Z-1.698
X14.972 Y93.628 Z-1.702
X15.056 Y93.57 Z-1.706
X15.147 Y93.526 Z-1.709
X15.244 Y93.497 Z-1.713
X15.345 Y93.482 Z-1.716
X15.446 Y93.483 Z-1.72
X15.546 Y93.5 Z-1.723
X15.643 Y93.531 Z-1.727
X15.733 Y93.577 Z-1.73
X15.816 Y93.636 Z-1.734
X15.888 Y93.707 Z-1.738
X15.949 Y93.788 Z-1.741
X15.997 Y93.878 Z-1.745
X16.031 Y93.974 Z-1.748
X16.05 Y94.073 Z-1.752
X16.053 Y94.175 Z-1.755
X16.041 Y94.275 Z-1.759
X16.013 Y94.373 Z-1.762
X15.972 Y94.466 Z-1.766
X15.916 Y94.55 Z-1.769
X15.848 Y94.626 Z-1.773
X15.77 Y94.69 Z-1.777
X15.683 Y94.742 Z-1.78
X15.588 Y94.78 Z-1.784
X15.49 Y94.803 Z-1.787
X15.389 Y94.811 Z-1.791
X15.113 F1499.
X12.047 Y91.745
X12.814 Y90.978
X15.053 Y93.217
X15.12 Y93.275
X15.217 Y93.346
X15.275 Y93.384
X15.337 Y93.415
X15.481 Y93.476
X15.553 Y93.501
X15.627 Y93.517
X15.772 Y93.539
X15.859 Y93.545
X29.865 Y93.546
Y94.814
X15.389 Y94.811
X15.352 Y94.805
X15.318 Y94.788
X15.292 Y94.761
X15.275 Y94.728
X15.269 Y94.691
X15.276 Y94.654
X15.529 Y93.896
X15.573 Y93.755
X15.601 Y93.567
X15.611 Y93.546
X15.632 Y93.534
X15.655 Y93.537
X15.745 Y93.584 Z-1.794 F333.
X15.826 Y93.645 Z-1.798
X15.897 Y93.718 Z-1.801
X15.956 Y93.8 Z-1.805
X16.002 Y93.89 Z-1.808
X16.034 Y93.987 Z-1.812
X16.051 Y94.087 Z-1.816
X16.052 Y94.188 Z-1.819
X16.038 Y94.289 Z-1.823
X16.009 Y94.386 Z-1.826
X15.965 Y94.477 Z-1.83
X15.908 Y94.561 Z-1.833
X15.839 Y94.635 Z-1.837
X15.759 Y94.698 Z-1.84
X15.67 Y94.748 Z-1.844
X15.576 Y94.784 Z-1.847
X15.476 Y94.805 Z-1.851
X15.375 Y94.81 Z-1.855
X15.274 Y94.801 Z-1.858
X15.176 Y94.776 Z-1.862
X15.082 Y94.736 Z-1.865
X14.996 Y94.682 Z-1.869
X14.919 Y94.616 Z-1.872
X14.853 Y94.539 Z-1.876
X14.799 Y94.453 Z-1.879
X14.759 Y94.36 Z-1.883
X14.734 Y94.262 Z-1.886
X14.724 Y94.161 Z-1.89
X14.729 Y94.06 Z-1.894
X14.75 Y93.96 Z-1.897
X14.786 Y93.865 Z-1.901
X14.836 Y93.777 Z-1.904
X14.898 Y93.697 Z-1.908
X14.972 Y93.628 Z-1.911
X15.056 Y93.57 Z-1.915
X15.147 Y93.526 Z-1.918
X15.244 Y93.497 Z-1.922
X15.345 Y93.482 Z-1.925
X15.446 Y93.483 Z-1.929
X15.546 Y93.5 Z-1.933
X15.643 Y93.531 Z-1.936
X15.733 Y93.577 Z-1.94
X15.816 Y93.636 Z-1.943
X15.888 Y93.707 Z-1.947
X15.949 Y93.788 Z-1.95
X15.997 Y93.878 Z-1.954
X16.031 Y93.974 Z-1.957
X16.05 Y94.073 Z-1.961
X16.053 Y94.175 Z-1.964
X16.041 Y94.275 Z-1.968
X16.013 Y94.373 Z-1.972
X15.972 Y94.466 Z-1.975
X15.916 Y94.55 Z-1.979
X15.848 Y94.626 Z-1.982
X15.77 Y94.69 Z-1.986
X15.683 Y94.742 Z-1.989
X15.588 Y94.78 Z-1.993
X15.49 Y94.803 Z-1.996
X15.389 Y94.811 Z-2.
X15.113 F1499.
X12.047 Y91.745
X12.814 Y90.978
X15.053 Y93.217
X15.12 Y93.275
X15.217 Y93.346
X15.275 Y93.384
X15.337 Y93.415
X15.481 Y93.476
X15.553 Y93.501
X15.627 Y93.517
X15.772 Y93.539
X15.859 Y93.545
X29.865 Y93.546
Y94.814
X15.859 Y94.811
X15.389
X15.353 Y94.803
X15.324 Y94.781
X15.307 Y94.749
X15.218 Y94.44
X15.201 Y94.409
X15.174 Y94.387
X15.141 Y94.378
X14.819 Y94.361
X14.784 Y94.351
X14.756 Y94.328
X14.741 Y94.295
X14.726 Y94.193 Z-2.004 F333.
Y94.09 Z-2.007
X14.743 Y93.989 Z-2.011
X14.775 Y93.891 Z-2.014
X14.821 Y93.799 Z-2.018
X14.882 Y93.716 Z-2.022
X14.954 Y93.643 Z-2.025
X15.037 Y93.582 Z-2.029
X15.128 Y93.534 Z-2.032
X15.226 Y93.501 Z-2.036
X15.327 Y93.484 Z-2.039
X15.43 Y93.482 Z-2.043
X15.532 Y93.497 Z-2.047
X15.63 Y93.526 Z-2.05
X15.723 Y93.571 Z-2.054
X15.807 Y93.629 Z-2.057
X15.882 Y93.7 Z-2.061
X15.945 Y93.782 Z-2.065
X15.994 Y93.872 Z-2.068
X16.029 Y93.969 Z-2.072
X16.049 Y94.07 Z-2.075
X16.053 Y94.172 Z-2.079
X16.041 Y94.275 Z-2.083
X16.013 Y94.374 Z-2.086
X15.971 Y94.467 Z-2.09
X15.914 Y94.553 Z-2.093
X15.845 Y94.629 Z-2.097
X15.765 Y94.694 Z-2.101
X15.676 Y94.745 Z-2.104
X15.58 Y94.783 Z-2.108
X15.479 Y94.804 Z-2.111
X15.376 Y94.81 Z-2.115
X15.274 Y94.801 Z-2.119
X15.174 Y94.775 Z-2.122
X15.08 Y94.734 Z-2.126
X14.993 Y94.68 Z-2.129
X14.915 Y94.612 Z-2.133
X14.849 Y94.534 Z-2.137
X14.795 Y94.446 Z-2.14
X14.756 Y94.35 Z-2.144
X14.732 Y94.25 Z-2.147
X14.724 Y94.148 Z-2.151
X14.732 Y94.045 Z-2.155
X14.755 Y93.945 Z-2.158
X14.793 Y93.85 Z-2.162
X14.846 Y93.761 Z-2.165
X14.912 Y93.682 Z-2.169
X14.989 Y93.614 Z-2.173
X15.076 Y93.559 Z-2.176
X15.17 Y93.518 Z-2.18
X15.27 Y93.492 Z-2.183
X15.372 Y93.481 Z-2.187
X15.475 Y93.487 Z-2.191
X15.576 Y93.508 Z-2.194
X15.672 Y93.544 Z-2.198
X15.761 Y93.595 Z-2.201
X15.842 Y93.659 Z-2.205
X15.911 Y93.735 Z-2.209
X15.969 Y93.821 Z-2.212
X16.012 Y93.914 Z-2.216
X16.04 Y94.013 Z-2.219
X16.053 Y94.115 Z-2.223
X16.05 Y94.218 Z-2.227
X16.031 Y94.319 Z-2.23
X15.996 Y94.416 Z-2.234
X15.947 Y94.506 Z-2.237
X15.885 Y94.588 Z-2.241
X15.811 Y94.659 Z-2.244
X15.726 Y94.718 Z-2.248
X15.634 Y94.764 Z-2.252
X15.536 Y94.794 Z-2.255
X15.434 Y94.809 Z-2.259
X15.331 Y94.808 Z-2.262
X15.23 Y94.791 Z-2.266
X15.132 Y94.759 Z-2.27
X15.04 Y94.712 Z-2.273
X14.957 Y94.651 Z-2.277
X14.884 Y94.579 Z-2.28
X14.823 Y94.496 Z-2.284
X14.776 Y94.404 Z-2.288
X14.744 Y94.307 Z-2.291
X14.727 Y94.205 Z-2.295
X14.725 Y94.102 Z-2.298
X14.74 Y94.001 Z-2.302
X14.77 Y93.902 Z-2.306
X14.815 Y93.81 Z-2.309
X14.874 Y93.725 Z-2.313
X14.945 Y93.651 Z-2.316
X15.027 Y93.588 Z-2.32
X15.117 Y93.539 Z-2.324
X15.214 Y93.504 Z-2.327
X15.315 Y93.485 Z-2.331
X15.418 Y93.482 Z-2.334
X15.52 Y93.494 Z-2.338
X15.619 Y93.522 Z-2.342
X15.712 Y93.565 Z-2.345
X15.798 Y93.622 Z-2.349
X15.874 Y93.691 Z-2.352
X15.938 Y93.772 Z-2.356
X15.989 Y93.861 Z-2.36
X16.026 Y93.957 Z-2.363
X16.048 Y94.058 Z-2.367
X16.053 Y94.16 Z-2.37
X16.043 Y94.263 Z-2.374
X16.017 Y94.362 Z-2.378
X15.976 Y94.457 Z-2.381
X15.921 Y94.544 Z-2.385
X15.854 Y94.621 Z-2.388
X15.775 Y94.687 Z-2.392
X15.686 Y94.74 Z-2.396
X15.591 Y94.779 Z-2.399
X15.491 Y94.803 Z-2.403
X15.389 Y94.811 Z-2.406
X15.113 F1499.
X12.047 Y91.745
X12.814 Y90.978
X15.053 Y93.217
X15.12 Y93.275
X15.217 Y93.346
X15.275 Y93.384
X15.337 Y93.415
X15.481 Y93.476
X15.553 Y93.501
X15.627 Y93.517
X15.772 Y93.539
X15.859 Y93.545
X29.865 Y93.546
Y94.814
X15.389 Y94.811
X15.349 Y94.804
X15.314 Y94.785
X14.783 Y94.361
X14.756 Y94.332
X14.741 Y94.295
X14.726 Y94.193 Z-2.41 F333.
Y94.09 Z-2.414
X14.743 Y93.989 Z-2.417
X14.775 Y93.891 Z-2.421
X14.821 Y93.799 Z-2.424
X14.882 Y93.716 Z-2.428
X14.954 Y93.643 Z-2.432
X15.037 Y93.582 Z-2.435
X15.128 Y93.534 Z-2.439
X15.226 Y93.501 Z-2.442
X15.327 Y93.484 Z-2.446
X15.43 Y93.482 Z-2.449
X15.532 Y93.497 Z-2.453
X15.63 Y93.526 Z-2.457
X15.723 Y93.571 Z-2.46
X15.807 Y93.629 Z-2.464
X15.882 Y93.7 Z-2.467
X15.945 Y93.782 Z-2.471
X15.994 Y93.872 Z-2.475
X16.029 Y93.969 Z-2.478
X16.049 Y94.07 Z-2.482
X16.053 Y94.172 Z-2.485
X16.041 Y94.275 Z-2.489
X16.013 Y94.374 Z-2.493
X15.971 Y94.467 Z-2.496
X15.914 Y94.553 Z-2.5
X15.845 Y94.629 Z-2.503
X15.765 Y94.694 Z-2.507
X15.676 Y94.745 Z-2.511
X15.58 Y94.783 Z-2.514
X15.479 Y94.804 Z-2.518
X15.376 Y94.81 Z-2.521
X15.274 Y94.801 Z-2.525
X15.174 Y94.775 Z-2.529
X15.08 Y94.734 Z-2.532
X14.993 Y94.68 Z-2.536
X14.915 Y94.612 Z-2.539
X14.849 Y94.534 Z-2.543
X14.795 Y94.446 Z-2.547
X14.756 Y94.35 Z-2.55
X14.732 Y94.25 Z-2.554
X14.724 Y94.148 Z-2.557
X14.732 Y94.045 Z-2.561
X14.755 Y93.945 Z-2.565
X14.793 Y93.85 Z-2.568
X14.846 Y93.761 Z-2.572
X14.912 Y93.682 Z-2.575
X14.989 Y93.614 Z-2.579
X15.076 Y93.559 Z-2.583
X15.17 Y93.518 Z-2.586
X15.27 Y93.492 Z-2.59
X15.372 Y93.481 Z-2.593
X15.475 Y93.487 Z-2.597
X15.576 Y93.508 Z-2.601
X15.672 Y93.544 Z-2.604
X15.761 Y93.595 Z-2.608
X15.842 Y93.659 Z-2.611
X15.911 Y93.735 Z-2.615
X15.969 Y93.821 Z-2.619
X16.012 Y93.914 Z-2.622
X16.04 Y94.013 Z-2.626
X16.053 Y94.115 Z-2.629
X16.05 Y94.218 Z-2.633
X16.031 Y94.319 Z-2.637
X15.996 Y94.416 Z-2.64
X15.947 Y94.506 Z-2.644
X15.885 Y94.588 Z-2.647
X15.811 Y94.659 Z-2.651
X15.726 Y94.718 Z-2.654
X15.634 Y94.764 Z-2.658
X15.536 Y94.794 Z-2.662
X15.434 Y94.809 Z-2.665
X15.331 Y94.808 Z-2.669
X15.23 Y94.791 Z-2.672
X15.132 Y94.759 Z-2.676
X15.04 Y94.712 Z-2.68
X14.957 Y94.651 Z-2.683
X14.884 Y94.579 Z-2.687
X14.823 Y94.496 Z-2.69
X14.776 Y94.404 Z-2.694
X14.744 Y94.307 Z-2.698
X14.727 Y94.205 Z-2.701
X14.725 Y94.102 Z-2.705
X14.74 Y94.001 Z-2.708
X14.77 Y93.902 Z-2.712
X14.815 Y93.81 Z-2.716
X14.874 Y93.725 Z-2.719
X14.945 Y93.651 Z-2.723
X15.027 Y93.588 Z-2.726
X15.117 Y93.539 Z-2.73
X15.214 Y93.504 Z-2.734
X15.315 Y93.485 Z-2.737
X15.418 Y93.482 Z-2.741
X15.52 Y93.494 Z-2.744
X15.619 Y93.522 Z-2.748
X15.712 Y93.565 Z-2.752
X15.798 Y93.622 Z-2.755
X15.874 Y93.691 Z-2.759
X15.938 Y93.772 Z-2.762
X15.989 Y93.861 Z-2.766
X16.026 Y93.957 Z-2.77
X16.048 Y94.058 Z-2.773
X16.053 Y94.16 Z-2.777
X16.043 Y94.263 Z-2.78
X16.017 Y94.362 Z-2.784
X15.976 Y94.457 Z-2.788
X15.921 Y94.544 Z-2.791
X15.854 Y94.621 Z-2.795
X15.775 Y94.687 Z-2.798
X15.686 Y94.74 Z-2.802
X15.591 Y94.779 Z-2.806
X15.491 Y94.803 Z-2.809
X15.389 Y94.811 Z-2.813
X15.113 F1499.
X12.047 Y91.745
X12.814 Y90.978
X15.053 Y93.217
X15.12 Y93.275
X15.217 Y93.346
X15.275 Y93.384
X15.337 Y93.415
X15.481 Y93.476
X15.553 Y93.501
X15.627 Y93.517
X15.772 Y93.539
X15.859 Y93.545
X29.865 Y93.546
Y94.814
X15.389 Y94.811
X15.349 Y94.804
X15.314 Y94.785
X14.783 Y94.361
X14.756 Y94.332
X14.741 Y94.295
X14.726 Y94.193 Z-2.816 F333.
Y94.09 Z-2.82
X14.743 Y93.989 Z-2.824
X14.775 Y93.891 Z-2.827
X14.821 Y93.799 Z-2.831
X14.882 Y93.716 Z-2.834
X14.954 Y93.643 Z-2.838
X15.037 Y93.582 Z-2.842
X15.128 Y93.534 Z-2.845
X15.226 Y93.501 Z-2.849
X15.327 Y93.484 Z-2.852
X15.43 Y93.482 Z-2.856
X15.532 Y93.497 Z-2.859
X15.63 Y93.526 Z-2.863
X15.723 Y93.571 Z-2.867
X15.807 Y93.629 Z-2.87
X15.882 Y93.7 Z-2.874
X15.945 Y93.782 Z-2.877
X15.994 Y93.872 Z-2.881
X16.029 Y93.969 Z-2.885
X16.049 Y94.07 Z-2.888
X16.053 Y94.172 Z-2.892
X16.041 Y94.275 Z-2.895
X16.013 Y94.374 Z-2.899
X15.971 Y94.467 Z-2.903
X15.914 Y94.553 Z-2.906
X15.845 Y94.629 Z-2.91
X15.765 Y94.694 Z-2.913
X15.676 Y94.745 Z-2.917
X15.58 Y94.783 Z-2.921
X15.479 Y94.804 Z-2.924
X15.376 Y94.81 Z-2.928
X15.274 Y94.801 Z-2.931
X15.174 Y94.775 Z-2.935
X15.08 Y94.734 Z-2.939
X14.993 Y94.68 Z-2.942
X14.915 Y94.612 Z-2.946
X14.849 Y94.534 Z-2.949
X14.795 Y94.446 Z-2.953
X14.756 Y94.35 Z-2.957
X14.732 Y94.25 Z-2.96
X14.724 Y94.148 Z-2.964
X14.732 Y94.045 Z-2.967
X14.755 Y93.945 Z-2.971
X14.793 Y93.85 Z-2.975
X14.846 Y93.761 Z-2.978
X14.912 Y93.682 Z-2.982
X14.989 Y93.614 Z-2.985
X15.076 Y93.559 Z-2.989
X15.17 Y93.518 Z-2.993
X15.27 Y93.492 Z-2.996
X15.372 Y93.481 Z-3.
X15.475 Y93.487 Z-3.003
X15.576 Y93.508 Z-3.007
X15.672 Y93.544 Z-3.011
X15.761 Y93.595 Z-3.014
X15.842 Y93.659 Z-3.018
X15.911 Y93.735 Z-3.021
X15.969 Y93.821 Z-3.025
X16.012 Y93.914 Z-3.029
X16.04 Y94.013 Z-3.032
X16.053 Y94.115 Z-3.036
X16.05 Y94.218 Z-3.039
X16.031 Y94.319 Z-3.043
X15.996 Y94.416 Z-3.046
X15.947 Y94.506 Z-3.05
X15.885 Y94.588 Z-3.054
X15.811 Y94.659 Z-3.057
X15.726 Y94.718 Z-3.061
X15.634 Y94.764 Z-3.064
X15.536 Y94.794 Z-3.068
X15.434 Y94.809 Z-3.072
X15.331 Y94.808 Z-3.075
X15.23 Y94.791 Z-3.079
X15.132 Y94.759 Z-3.082
X15.04 Y94.712 Z-3.086
X14.957 Y94.651 Z-3.09
X14.884 Y94.579 Z-3.093
X14.823 Y94.496 Z-3.097
X14.776 Y94.404 Z-3.1
X14.744 Y94.307 Z-3.104
X14.727 Y94.205 Z-3.108
X14.725 Y94.102 Z-3.111
X14.74 Y94.001 Z-3.115
X14.77 Y93.902 Z-3.118
X14.815 Y93.81 Z-3.122
X14.874 Y93.725 Z-3.126
X14.945 Y93.651 Z-3.129
X15.027 Y93.588 Z-3.133
X15.117 Y93.539 Z-3.136
X15.214 Y93.504 Z-3.14
X15.315 Y93.485 Z-3.144
X15.418 Y93.482 Z-3.147
X15.52 Y93.494 Z-3.151
X15.619 Y93.522 Z-3.154
X15.712 Y93.565 Z-3.158
X15.798 Y93.622 Z-3.162
X15.874 Y93.691 Z-3.165
X15.938 Y93.772 Z-3.169
X15.989 Y93.861 Z-3.172
X16.026 Y93.957 Z-3.176
X16.048 Y94.058 Z-3.18
X16.053 Y94.16 Z-3.183
X16.043 Y94.263 Z-3.187
X16.017 Y94.362 Z-3.19
X15.976 Y94.457 Z-3.194
X15.921 Y94.544 Z-3.198
X15.854 Y94.621 Z-3.201
X15.775 Y94.687 Z-3.205
X15.686 Y94.74 Z-3.208
X15.591 Y94.779 Z-3.212
X15.491 Y94.803 Z-3.216
X15.389 Y94.811 Z-3.219
X15.113 F1499.
X12.047 Y91.745
X12.814 Y90.978
X15.053 Y93.217
X15.12 Y93.275
X15.217 Y93.346
X15.275 Y93.384
X15.337 Y93.415
X15.481 Y93.476
X15.553 Y93.501
X15.627 Y93.517
X15.772 Y93.539
X15.859 Y93.545
X29.865 Y93.546
Y94.814
X15.389 Y94.811
X15.354 Y94.805
X15.323 Y94.789
X15.299 Y94.763
X15.284 Y94.732
X15.28 Y94.697
X15.287 Y94.663
X15.478 Y94.171
X15.575 Y93.653
X15.586 Y93.62
X15.608 Y93.593
X15.638 Y93.574
X15.671 Y93.565
X15.706 Y93.567
X15.739 Y93.581
X15.821 Y93.64 Z-3.223 F333.
X15.893 Y93.712 Z-3.226
X15.953 Y93.794 Z-3.23
X16. Y93.884 Z-3.233
X16.033 Y93.98 Z-3.237
X16.05 Y94.08 Z-3.24
X16.053 Y94.182 Z-3.244
X16.039 Y94.282 Z-3.248
X16.011 Y94.38 Z-3.251
X15.968 Y94.472 Z-3.255
X15.911 Y94.556 Z-3.258
X15.843 Y94.631 Z-3.262
X15.764 Y94.695 Z-3.265
X15.675 Y94.746 Z-3.269
X15.581 Y94.782 Z-3.272
X15.482 Y94.804 Z-3.276
X15.38 Y94.811 Z-3.279
X15.279 Y94.801 Z-3.283
X15.18 Y94.777 Z-3.287
X15.087 Y94.738 Z-3.29
X15. Y94.685 Z-3.294
X14.922 Y94.62 Z-3.297
X14.856 Y94.543 Z-3.301
X14.801 Y94.457 Z-3.304
X14.761 Y94.364 Z-3.308
X14.735 Y94.266 Z-3.311
X14.724 Y94.165 Z-3.315
X14.729 Y94.063 Z-3.319
X14.749 Y93.964 Z-3.322
X14.784 Y93.868 Z-3.326
X14.834 Y93.78 Z-3.329
X14.896 Y93.699 Z-3.333
X14.97 Y93.63 Z-3.336
X15.053 Y93.572 Z-3.34
X15.145 Y93.527 Z-3.343
X15.242 Y93.497 Z-3.347
X15.342 Y93.483 Z-3.351
X15.444 Z-3.354
X15.544 Y93.499 Z-3.358
X15.641 Y93.531 Z-3.361
X15.732 Y93.576 Z-3.365
X15.814 Y93.635 Z-3.368
X15.887 Y93.706 Z-3.372
X15.948 Y93.787 Z-3.375
X15.996 Y93.876 Z-3.379
X16.03 Y93.972 Z-3.382
X16.049 Y94.072 Z-3.386
X16.053 Y94.173 Z-3.39
X16.041 Y94.274 Z-3.393
X16.014 Y94.372 Z-3.397
X15.972 Y94.465 Z-3.4
X15.917 Y94.55 Z-3.404
X15.849 Y94.626 Z-3.407
X15.77 Y94.69 Z-3.411
X15.683 Y94.742 Z-3.414
X15.589 Y94.78 Z-3.418
X15.49 Y94.803 Z-3.422
X15.389 Y94.811 Z-3.425
X15.113 F1499.
X12.047 Y91.745
X12.814 Y90.978
X15.053 Y93.217
X15.12 Y93.275
X15.217 Y93.346
X15.275 Y93.384
X15.337 Y93.415
X15.481 Y93.476
X15.553 Y93.501
X15.627 Y93.517
X15.772 Y93.539
X15.859 Y93.545
X29.865 Y93.546
Y94.814
X15.389 Y94.811
X15.343 Y94.806 Z-3.416
X15.3 Y94.793 Z-3.407
X15.265 Y94.776 Z-3.381
X15.234 Y94.753 Z-3.355
X15.199 Y94.716 Z-3.278
X15.188 Y94.701 Z-3.187
G0 Z5.
X9.492 Y88.103
G1 Z-0.51 F381.
X9.488 Y88.108 Z-0.563 F333.
X9.476 Y88.12 Z-0.613
X9.456 Y88.14 Z-0.658
X9.429 Y88.166 Z-0.696
X9.398 Y88.198 Z-0.724
X9.363 Y88.233 Z-0.742
X9.325 Y88.27 Z-0.748
X8.949 Y88.647 Z-0.754
X7.871 Y87.568 Z-0.77
Y70.005 Z-0.951
X8.769 Z-0.961
X8.77 Y86.477 Z-1.131
X8.773 Y86.532 Z-1.132
X8.781 Y86.586
X8.807 Y86.73 Z-1.134
X8.826 Y86.805
X8.855 Y86.877 Z-1.135
X8.924 Y87.021 Z-1.137
X8.958 Y87.084 Z-1.138
X8.999 Y87.141
X9.078 Y87.238 Z-1.14
X9.119 Y87.283
X9.715 Y87.88 Z-1.149
X8.949 Y88.647 Z-1.16
X7.871 Y87.568 Z-1.176
Y70.005 Z-1.358
X8.769 Z-1.367
X8.77 Y86.477 Z-1.537
X8.773 Y86.532 Z-1.538
X8.781 Y86.586 Z-1.539
X8.807 Y86.73 Z-1.54
X8.826 Y86.805 Z-1.541
X8.855 Y86.877 Z-1.542
X8.924 Y87.021 Z-1.543
X8.958 Y87.084 Z-1.544
X8.999 Y87.141 Z-1.545
X9.078 Y87.238 Z-1.546
X9.119 Y87.283 Z-1.547
X9.715 Y87.88 Z-1.555
X8.949 Y88.647 Z-1.567
X7.937 Y87.634 Z-1.581
X7.871 Y87.568 F1499.
Y70.005
X8.769
X8.77 Y86.477
X8.773 Y86.532
X8.781 Y86.586
X8.807 Y86.73
X8.826 Y86.805
X8.855 Y86.877
X8.924 Y87.021
X8.958 Y87.084
X8.999 Y87.141
X9.078 Y87.238
X9.119 Y87.283
X9.715 Y87.88
X8.949 Y88.647
X7.937 Y87.634
X7.914 Y87.601
X7.903 Y87.563
X7.905 Y87.523
X8.535 Y84.718
X8.552 Y84.678
X8.582 Y84.647
X8.621 Y84.628
X8.664 Y84.625
X8.706 Y84.638
X8.74 Y84.664
X8.762 Y84.701
X8.77 Y84.744
Y86.477 Z-1.642 F333.
X8.773 Y86.532 Z-1.644
X8.781 Y86.586 Z-1.646
X8.807 Y86.73 Z-1.651
X8.826 Y86.805 Z-1.654
X8.855 Y86.877 Z-1.656
X8.924 Y87.021 Z-1.662
X8.958 Y87.084 Z-1.664
X8.999 Y87.141 Z-1.667
X9.078 Y87.238 Z-1.671
X9.119 Y87.283 Z-1.673
X9.715 Y87.88 Z-1.703
X8.949 Y88.647 Z-1.741
X7.937 Y87.634 Z-1.791
X7.871 Y87.568 F1499.
Y70.005
X8.769
X8.77 Y86.477
X8.773 Y86.532
X8.781 Y86.586
X8.807 Y86.73
X8.826 Y86.805
X8.855 Y86.877
X8.924 Y87.021
X8.958 Y87.084
X8.999 Y87.141
X9.078 Y87.238
X9.119 Y87.283
X9.715 Y87.88
X8.949 Y88.647
X7.937 Y87.634
X7.914 Y87.601
X7.903 Y87.563
X7.905 Y87.523
X8.535 Y84.718
X8.552 Y84.678
X8.582 Y84.647
X8.621 Y84.628
X8.664 Y84.625
X8.706 Y84.638
X8.74 Y84.664
X8.762 Y84.701
X8.77 Y84.744
Y86.477 Z-1.851 F333.
X8.773 Y86.532 Z-1.853
X8.781 Y86.586 Z-1.855
X8.807 Y86.73 Z-1.86
X8.826 Y86.805 Z-1.863
X8.855 Y86.877 Z-1.866
X8.924 Y87.021 Z-1.871
X8.958 Y87.084 Z-1.874
X8.999 Y87.141 Z-1.876
X9.078 Y87.238 Z-1.88
X9.119 Y87.283 Z-1.883
X9.715 Y87.88 Z-1.912
X8.949 Y88.647 Z-1.95
X7.937 Y87.634 Z-2.
X7.871 Y87.568 F1499.
Y70.005
X8.769
X8.77 Y86.477
X8.773 Y86.532
X8.781 Y86.586
X8.807 Y86.73
X8.826 Y86.805
X8.855 Y86.877
X8.924 Y87.021
X8.958 Y87.084
X8.999 Y87.141
X9.078 Y87.238
X9.119 Y87.283
X9.715 Y87.88
X8.949 Y88.647
X8.352 Y88.05
X7.937 Y87.634
X7.927 Y87.617
X7.925 Y87.598
X7.932 Y87.58
X8.034 Y87.417
X8.502 Y79.35
X8.508 Y79.325
X8.607 Y79.067
X8.625 Y79.039
X8.652 Y79.02
X8.684 Y79.013
X8.717 Y79.019
X8.745 Y79.037
X8.763 Y79.065
X8.77 Y79.098
Y86.477 Z-2.258 F333.
X8.773 Y86.532 Z-2.26
X8.781 Y86.586 Z-2.261
X8.807 Y86.73 Z-2.267
X8.826 Y86.805 Z-2.269
X8.855 Y86.877 Z-2.272
X8.924 Y87.021 Z-2.278
X8.958 Y87.084 Z-2.28
X8.999 Y87.141 Z-2.283
X9.078 Y87.238 Z-2.287
X9.119 Y87.283 Z-2.289
X9.715 Y87.88 Z-2.318
X8.949 Y88.647 Z-2.356
X7.937 Y87.634 Z-2.406
X7.871 Y87.568 F1499.
Y70.005
X8.769
X8.77 Y86.477
X8.773 Y86.532
X8.781 Y86.586
X8.807 Y86.73
X8.826 Y86.805
X8.855 Y86.877
X8.924 Y87.021
X8.958 Y87.084
X8.999 Y87.141
X9.078 Y87.238
X9.119 Y87.283
X9.715 Y87.88
X8.949 Y88.647
X7.937 Y87.634
X7.916 Y87.607
X7.905 Y87.575
X7.902 Y87.541
X8.532 Y79.089
X8.542 Y79.049
X8.564 Y79.016
X8.597 Y78.992
X8.635 Y78.98
X8.675 Y78.981
X8.713 Y78.996
X8.743 Y79.022
X8.763 Y79.058
X8.77 Y79.098
Y86.477 Z-2.664 F333.
X8.773 Y86.532 Z-2.666
X8.781 Y86.586 Z-2.668
X8.807 Y86.73 Z-2.673
X8.826 Y86.805 Z-2.676
X8.855 Y86.877 Z-2.678
X8.924 Y87.021 Z-2.684
X8.958 Y87.084 Z-2.686
X8.999 Y87.141 Z-2.689
X9.078 Y87.238 Z-2.693
X9.119 Y87.283 Z-2.695
X9.715 Y87.88 Z-2.725
X8.949 Y88.647 Z-2.763
X7.937 Y87.634 Z-2.813
X7.871 Y87.568 F1499.
Y70.005
X8.769
X8.77 Y86.477
X8.773 Y86.532
X8.781 Y86.586
X8.807 Y86.73
X8.826 Y86.805
X8.855 Y86.877
X8.924 Y87.021
X8.958 Y87.084
X8.999 Y87.141
X9.078 Y87.238
X9.119 Y87.283
X9.715 Y87.88
X8.949 Y88.647
X7.937 Y87.634
X7.916 Y87.607
X7.905 Y87.575
X7.902 Y87.541
X8.532 Y79.089
X8.542 Y79.049
X8.564 Y79.016
X8.597 Y78.992
X8.635 Y78.98
X8.675 Y78.981
X8.713 Y78.996
X8.743 Y79.022
X8.763 Y79.058
X8.77 Y79.098
Y86.477 Z-3.07 F333.
X8.773 Y86.532 Z-3.072
X8.781 Y86.586 Z-3.074
X8.807 Y86.73 Z-3.079
X8.826 Y86.805 Z-3.082
X8.855 Y86.877 Z-3.085
X8.924 Y87.021 Z-3.09
X8.958 Y87.084 Z-3.093
X8.999 Y87.141 Z-3.095
X9.078 Y87.238 Z-3.1
X9.119 Y87.283 Z-3.102
X9.715 Y87.88 Z-3.131
X8.949 Y88.647 Z-3.169
X7.937 Y87.634 Z-3.219
X7.871 Y87.568 F1499.
Y70.005
X8.769
X8.77 Y86.477
X8.773 Y86.532
X8.781 Y86.586
X8.807 Y86.73
X8.826 Y86.805
X8.855 Y86.877
X8.924 Y87.021
X8.958 Y87.084
X8.999 Y87.141
X9.078 Y87.238
X9.119 Y87.283
X9.715 Y87.88
X8.949 Y88.647
X7.937 Y87.634
X7.914 Y87.601
X7.903 Y87.563
X7.905 Y87.523
X8.535 Y84.811
X8.552 Y84.771
X8.583 Y84.741
X8.622 Y84.723
X8.665 Y84.72
X8.706 Y84.732
X8.74 Y84.759
X8.763 Y84.796
X8.77 Y84.838
Y86.477 Z-3.276 F333.
X8.773 Y86.532 Z-3.278
X8.781 Y86.586 Z-3.28
X8.807 Y86.73 Z-3.285
X8.826 Y86.805 Z-3.288
X8.855 Y86.877 Z-3.291
X8.924 Y87.021 Z-3.296
X8.958 Y87.084 Z-3.299
X8.999 Y87.141 Z-3.301
X9.078 Y87.238 Z-3.306
X9.119 Y87.283 Z-3.308
X9.715 Y87.88 Z-3.337
X8.949 Y88.647 Z-3.375
X7.937 Y87.634 Z-3.425
X7.871 Y87.568 F1499.
Y70.005
X8.769
X8.77 Y86.477
X8.773 Y86.532
X8.781 Y86.586
X8.807 Y86.73
X8.826 Y86.805
X8.855 Y86.877
X8.924 Y87.021
X8.958 Y87.084
X8.999 Y87.141
X9.078 Y87.238
X9.119 Y87.283
X9.715 Y87.88
X8.949 Y88.647
X7.937 Y87.634
X7.903 Y87.6 Z-3.42
X7.871 Y87.568 Z-3.406
Y87.52 Z-3.378
Y87.479 Z-3.34
Y87.449 Z-3.294
Y87.429 Z-3.242
Y87.423 Z-3.187
G0 Z5.
X8.769 Y64.628
G1 Z-0.51 F381.
Y64.636 Z-0.571 F333.
Y64.659 Z-0.628
Y64.697 Z-0.677
Y64.745 Z-0.715
Y64.802 Z-0.739
Y64.863 Z-0.748
Y65.624 Z-0.76
X7.871 Z-0.773
Y52.991 Z-0.963
X8.769 Z-0.976
Y65.624 Z-1.166
X7.871 Z-1.18
Y52.991 Z-1.369
X8.769 Z-1.383
Y65.624 Z-1.573
X8.177 Z-1.581
X7.871 F1499.
Y52.991
X8.769
Y65.624
X8.177
X8.153 Y65.616
X8.137 Y65.597
X8.135 Y65.572
X8.175 Y65.365
X8.063 Y57.681
X8.055 Y57.651
X8.033 Y57.628
X7.9 Y57.545
X7.884 Y57.531
X7.874 Y57.512
X7.871 Y57.491
Y52.991 Z-1.739 F333.
X8.769 Z-1.77
Y53.583 Z-1.791
Y65.624 F1499.
X7.871
Y52.991
X8.769
Y53.583
X8.763 Y53.606
X8.747 Y53.623
X8.649 Y53.685
X8.633 Y53.702
X8.627 Y53.725
Y60.082
X8.633 Y60.105
X8.649 Y60.122
X8.747 Y60.184
X8.763 Y60.201
X8.769 Y60.224
Y65.624 Z-1.979 F333.
X8.177 Z-2.
X7.871 F1499.
Y52.991
X8.769
Y65.624
X8.177
X8.153 Y65.616
X8.137 Y65.597
X8.135 Y65.573
X8.171 Y65.365
X8.07 Y63.327
X8.061 Y63.298
X8.039 Y63.276
X7.901 Y63.191
X7.885 Y63.177
X7.874 Y63.159
X7.871 Y63.137
Y52.991 Z-2.354 F333.
X8.769 Z-2.386
Y53.583 Z-2.406
Y65.624 F1499.
X7.871
Y52.991
X8.769
Y53.583
X8.763 Y53.606
X8.746 Y53.623
X8.641 Y53.687
X8.625 Y53.703
X8.618 Y53.725
X8.022 Y62.996
X7.962 Y63.155
X7.946 Y63.175
X7.922 Y63.185
X7.897 Y63.18
X7.878 Y63.162
X7.871 Y63.137
Y52.991 Z-2.761 F333.
X8.769 Z-2.792
Y53.583 Z-2.813
Y65.624 F1499.
X7.871
Y52.991
X8.769
Y53.583
X8.763 Y53.606
X8.746 Y53.623
X8.641 Y53.687
X8.625 Y53.703
X8.618 Y53.725
X8.022 Y62.996
X7.962 Y63.155
X7.946 Y63.175
X7.922 Y63.185
X7.897 Y63.18
X7.878 Y63.162
X7.871 Y63.137
Y52.991 Z-3.167 F333.
X8.769 Z-3.198
Y53.583 Z-3.219
Y65.624 F1499.
X7.871
Y52.991
X8.769
Y53.583
X8.763 Y53.607
X8.745 Y53.624
X8.628 Y53.689
X8.613 Y53.704
X8.605 Y53.723
X8.035 Y57.257
X7.961 Y57.417
X7.944 Y57.436
X7.92 Y57.444
X7.896 Y57.439
X7.877 Y57.421
X7.871 Y57.397
Y52.991 Z-3.373 F333.
X8.769 Z-3.404
Y53.583 Z-3.425
Y65.624 F1499.
X7.871
Y52.991
X8.769
Y53.583
X8.765 Y53.628 Z-3.416
X8.752 Y53.672 Z-3.407
X8.735 Y53.706 Z-3.381
X8.712 Y53.738 Z-3.355
X8.675 Y53.773 Z-3.278
X8.66 Y53.783 Z-3.187
G0 Z5.
X7.871 Y31.587
G1 Z-0.51 F381.
Y31.581 Z-0.563 F333.
Y31.564 Z-0.613
Y31.536 Z-0.658
Y31.498 Z-0.695
Y31.454 Z-0.724
Y31.404 Z-0.742
Y31.351 Z-0.748
Y30.991 Z-0.752
X8.769 Z-0.762
Y48.609 Z-0.956
X7.871 Z-0.965
Y30.991 Z-1.159
X8.769 Z-1.169
Y48.609 Z-1.362
X7.871 Z-1.372
Y30.991 Z-1.565
X8.769 Z-1.575
Y31.583 Z-1.581
Y48.609 F1499.
X7.871
Y30.991
X8.769
Y31.583
X8.763 Y31.607
X8.745 Y31.624
X8.629 Y31.689
X8.613 Y31.704
X8.605 Y31.723
X8.035 Y35.351
X7.961 Y35.512
X7.944 Y35.531
X7.92 Y35.539
X7.896 Y35.533
X7.877 Y35.516
X7.871 Y35.491
Y30.991 Z-1.739 F333.
X8.769 Z-1.77
Y31.583 Z-1.791
Y48.609 F1499.
X7.871
Y30.991
X8.769
Y31.583
X8.763 Y31.607
X8.745 Y31.624
X8.629 Y31.689
X8.613 Y31.704
X8.605 Y31.723
X8.035 Y35.351
X7.961 Y35.512
X7.944 Y35.531
X7.92 Y35.539
X7.896 Y35.533
X7.877 Y35.516
X7.871 Y35.491
Y30.991 Z-1.948 F333.
X8.769 Z-1.979
Y31.583 Z-2.
Y48.609 F1499.
X7.871
Y30.991
X8.769
Y31.583
X8.763 Y31.606
X8.747 Y31.623
X8.649 Y31.685
X8.633 Y31.702
X8.627 Y31.725
Y37.422
X8.633 Y37.445
X8.649 Y37.462
X8.747 Y37.524
X8.763 Y37.541
X8.769 Y37.564
Y48.609 Z-2.386 F333.
X8.177 Z-2.406
X7.871 F1499.
Y30.991
X8.769
Y48.609
X8.177
X8.153 Y48.602
X8.137 Y48.582
X8.135 Y48.557
X8.182 Y48.351
X8.573 Y37.753
X8.647 Y37.542
X8.663 Y37.518
X8.688 Y37.503
X8.717 Y37.502
X8.744 Y37.513
X8.763 Y37.536
X8.769 Y37.564
Y48.609 Z-2.792 F333.
X8.177 Z-2.813
X7.871 F1499.
Y30.991
X8.769
Y48.609
X8.177
X8.153 Y48.602
X8.137 Y48.582
X8.135 Y48.557
X8.182 Y48.351
X8.573 Y37.753
X8.647 Y37.542
X8.663 Y37.518
X8.688 Y37.503
X8.717 Y37.502
X8.744 Y37.513
X8.763 Y37.536
X8.769 Y37.564
Y48.609 Z-3.198 F333.
X8.177 Z-3.219
X7.871 F1499.
Y30.991
X8.769
Y48.609
X8.177
X8.152 Y48.602
X8.137 Y48.581
X8.135 Y48.556
X8.187 Y48.351
X8.565 Y43.493
X8.648 Y43.281
X8.664 Y43.257
X8.689 Y43.243
X8.718 Y43.242
X8.744 Y43.254
X8.763 Y43.276
X8.769 Y43.304
Y48.609 Z-3.404 F333.
X8.177 Z-3.425
X7.871 F1499.
Y30.991
X8.769
Y48.609
X8.177
X8.132 Y48.605 Z-3.416
X8.088 Y48.592 Z-3.407
X8.054 Y48.575 Z-3.381
X8.022 Y48.552 Z-3.355
X7.987 Y48.515 Z-3.278
X7.977 Y48.5 Z-3.187
G0 Z5.
X10.172 Y12.895
G1 Z-0.51 F381.
X10.168 Y12.899 Z-0.563 F333.
X10.156 Y12.911 Z-0.613
X10.136 Y12.931 Z-0.658
X10.11 Y12.958 Z-0.696
X10.078 Y12.989 Z-0.724
X10.043 Y13.024 Z-0.742
X10.006 Y13.062 Z-0.748
X9.088 Y13.979 Z-0.762
X9.054 Y14.017
X9.023 Y14.057 Z-0.763
X8.955 Y14.154 Z-0.764
X8.919 Y14.212 Z-0.765
X8.889 Y14.274 Z-0.766
X8.831 Y14.419 Z-0.767
X8.811 Y14.479 Z-0.768
X8.797 Y14.541
X8.78 Y14.637 Z-0.769
X8.774 Y14.687 Z-0.77
X8.772 Y14.737 Z-0.771
X8.769 Y26.609 Z-0.894
X7.871 Z-0.903
Y14.032 Z-1.034
X12.475 Y9.428 Z-1.101
X13.056 Y10.009 Z-1.11
X9.088 Y13.979 Z-1.168
X9.054 Y14.017 Z-1.169
X9.023 Y14.057
X8.955 Y14.154 Z-1.171
X8.919 Y14.212
X8.889 Y14.274 Z-1.172
X8.831 Y14.419 Z-1.174
X8.811 Y14.479
X8.797 Y14.541 Z-1.175
X8.78 Y14.637 Z-1.176
X8.774 Y14.687
X8.772 Y14.737 Z-1.177
X8.769 Y26.609 Z-1.3
X7.871 Z-1.31
Y14.032 Z-1.44
X12.475 Y9.428 Z-1.508
X13.056 Y10.009 Z-1.516
X9.088 Y13.979 Z-1.575
X9.054 Y14.017
X9.023 Y14.057 Z-1.576
X8.955 Y14.154 Z-1.577
X8.919 Y14.212 Z-1.578
X8.889 Y14.274
X8.831 Y14.419 Z-1.58
X8.811 Y14.479 Z-1.581
X8.797 Y14.541
X8.793 Y14.559
X8.78 Y14.637 F1499.
X8.774 Y14.687
X8.772 Y14.737
X8.769 Y26.609
X7.871
Y14.032
X12.475 Y9.428
X13.056 Y10.009
X9.088 Y13.979
X9.054 Y14.017
X9.023 Y14.057
X8.955 Y14.154
X8.919 Y14.212
X8.889 Y14.274
X8.831 Y14.419
X8.811 Y14.479
X8.797 Y14.541
X8.793 Y14.559
X8.78 Y14.597
X8.755 Y14.628
X8.721 Y14.65
X8.682 Y14.658
X8.642 Y14.653
X8.606 Y14.636
X8.578 Y14.607
X8.561 Y14.571
X8.557 Y14.531
X8.567 Y14.492
X8.589 Y14.458
X12.686 Y10.043
X12.72 Y10.017
X12.76 Y10.005
X12.802 Y10.008
X12.84 Y10.025
X12.87 Y10.054
X12.888 Y10.091
X12.892 Y10.133
X12.882 Y10.173
X12.858 Y10.208
X9.088 Y13.979 Z-1.768 F333.
X9.054 Y14.017 Z-1.769
X9.023 Y14.057 Z-1.771
X8.955 Y14.154 Z-1.775
X8.919 Y14.212 Z-1.778
X8.889 Y14.274 Z-1.78
X8.831 Y14.419 Z-1.786
X8.811 Y14.479 Z-1.788
X8.797 Y14.541 Z-1.79
X8.793 Y14.559 Z-1.791
X8.78 Y14.637 F1499.
X8.774 Y14.687
X8.772 Y14.737
X8.769 Y26.609
X7.871
Y14.032
X12.475 Y9.428
X13.056 Y10.009
X9.088 Y13.979
X9.054 Y14.017
X9.023 Y14.057
X8.955 Y14.154
X8.919 Y14.212
X8.889 Y14.274
X8.831 Y14.419
X8.811 Y14.479
X8.797 Y14.541
X8.793 Y14.559
X8.78 Y14.597
X8.755 Y14.628
X8.721 Y14.65
X8.682 Y14.658
X8.642 Y14.653
X8.606 Y14.636
X8.578 Y14.607
X8.561 Y14.571
X8.557 Y14.531
X8.567 Y14.492
X8.589 Y14.458
X12.686 Y10.043
X12.72 Y10.017
X12.76 Y10.005
X12.802 Y10.008
X12.84 Y10.025
X12.87 Y10.054
X12.888 Y10.091
X12.892 Y10.133
X12.882 Y10.173
X12.858 Y10.208
X9.088 Y13.979 Z-1.977 F333.
X9.054 Y14.017 Z-1.979
X9.023 Y14.057 Z-1.98
X8.955 Y14.154 Z-1.985
X8.919 Y14.212 Z-1.987
X8.889 Y14.274 Z-1.989
X8.831 Y14.419 Z-1.995
X8.811 Y14.479 Z-1.997
X8.797 Y14.541 Z-1.999
X8.793 Y14.559 Z-2.
X8.78 Y14.637 F1499.
X8.774 Y14.687
X8.772 Y14.737
X8.769 Y26.609
X7.871
Y14.032
X12.475 Y9.428
X13.056 Y10.009
X9.088 Y13.979
X9.054 Y14.017
X9.023 Y14.057
X8.955 Y14.154
X8.919 Y14.212
X8.889 Y14.274
X8.831 Y14.419
X8.811 Y14.479
X8.797 Y14.541
X8.793 Y14.559
X8.78 Y14.597
X8.756 Y14.628
X8.723 Y14.649
X8.684 Y14.658
X8.645 Y14.654
X8.609 Y14.638
X8.581 Y14.611
X8.563 Y14.576
X8.557 Y14.537
X8.564 Y14.498
X9.235 Y12.683
X9.246 Y12.66
X9.262 Y12.641
X12.475 Y9.428 Z-2.159 F333.
X13.056 Y10.009 Z-2.187
X9.088 Y13.979 Z-2.383
X9.054 Y14.017 Z-2.385
X9.023 Y14.057 Z-2.387
X8.955 Y14.154 Z-2.391
X8.919 Y14.212 Z-2.393
X8.889 Y14.274 Z-2.396
X8.831 Y14.419 Z-2.401
X8.811 Y14.479 Z-2.403
X8.797 Y14.541 Z-2.406
X8.793 Y14.559
X8.78 Y14.637 F1499.
X8.774 Y14.687
X8.772 Y14.737
X8.769 Y26.609
X7.871
Y14.032
X12.475 Y9.428
X13.056 Y10.009
X9.088 Y13.979
X9.054 Y14.017
X9.023 Y14.057
X8.955 Y14.154
X8.919 Y14.212
X8.889 Y14.274
X8.831 Y14.419
X8.811 Y14.479
X8.797 Y14.541
X8.793 Y14.559
X8.78 Y14.597
X8.756 Y14.628
X8.723 Y14.649
X8.684 Y14.658
X8.645 Y14.654
X8.609 Y14.638
X8.581 Y14.611
X8.563 Y14.576
X8.557 Y14.537
X8.564 Y14.498
X9.235 Y12.683
X9.246 Y12.66
X9.262 Y12.641
X12.475 Y9.428 Z-2.565 F333.
X13.056 Y10.009 Z-2.594
X9.088 Y13.979 Z-2.79
X9.054 Y14.017 Z-2.791
X9.023 Y14.057 Z-2.793
X8.955 Y14.154 Z-2.797
X8.919 Y14.212 Z-2.8
X8.889 Y14.274 Z-2.802
X8.831 Y14.419 Z-2.808
X8.811 Y14.479 Z-2.81
X8.797 Y14.541 Z-2.812
X8.793 Y14.559 Z-2.813
X8.78 Y14.637 F1499.
X8.774 Y14.687
X8.772 Y14.737
X8.769 Y26.609
X7.871
Y14.032
X12.475 Y9.428
X13.056 Y10.009
X9.088 Y13.979
X9.054 Y14.017
X9.023 Y14.057
X8.955 Y14.154
X8.919 Y14.212
X8.889 Y14.274
X8.831 Y14.419
X8.811 Y14.479
X8.797 Y14.541
X8.793 Y14.559
X8.784 Y14.582
X8.764 Y14.596
X8.74 Y14.6
X8.718 Y14.592
X8.702 Y14.574
X8.696 Y14.55
X8.702 Y14.398
X9.307 Y12.854
X9.31 Y12.838
X9.307 Y12.822
X9.253 Y12.687
X9.251 Y12.663
X9.262 Y12.641
X12.475 Y9.428 Z-2.971 F333.
X13.056 Y10.009 Z-3.
X9.088 Y13.979 Z-3.196
X9.054 Y14.017 Z-3.198
X9.023 Y14.057 Z-3.2
X8.955 Y14.154 Z-3.204
X8.919 Y14.212 Z-3.206
X8.889 Y14.274 Z-3.209
X8.831 Y14.419 Z-3.214
X8.811 Y14.479 Z-3.216
X8.797 Y14.541 Z-3.218
X8.793 Y14.559 Z-3.219
X8.78 Y14.637 F1499.
X8.774 Y14.687
X8.772 Y14.737
X8.769 Y26.609
X7.871
Y14.032
X12.475 Y9.428
X13.056 Y10.009
X9.088 Y13.979
X9.054 Y14.017
X9.023 Y14.057
X8.955 Y14.154
X8.919 Y14.212
X8.889 Y14.274
X8.831 Y14.419
X8.811 Y14.479
X8.797 Y14.541
X8.793 Y14.559
X8.78 Y14.593
X8.753 Y14.619
X8.719 Y14.631
X8.682 Y14.628
X8.65 Y14.611
X8.628 Y14.581
X8.62 Y14.546
X8.628 Y14.51
X8.698 Y14.349
X8.714 Y14.324
X12.498 Y10.279
X12.708 Y10.163
X12.74 Y10.154
X12.773 Y10.162
X12.798 Y10.183
X12.811 Y10.213
X12.808 Y10.246
X12.791 Y10.274
X9.088 Y13.979 Z-3.402 F333.
X9.054 Y14.017 Z-3.404
X9.023 Y14.057 Z-3.406
X8.955 Y14.154 Z-3.41
X8.919 Y14.212 Z-3.412
X8.889 Y14.274 Z-3.415
X8.831 Y14.419 Z-3.42
X8.811 Y14.479 Z-3.422
X8.797 Y14.541 Z-3.424
X8.793 Y14.559 Z-3.425
X8.78 Y14.637 F1499.
X8.774 Y14.687
X8.772 Y14.737
X8.769 Y26.609
X7.871
Y14.032
X12.475 Y9.428
X13.056 Y10.009
X9.088 Y13.979
X9.054 Y14.017
X9.023 Y14.057
X8.955 Y14.154
X8.919 Y14.212
X8.889 Y14.274
X8.831 Y14.419
X8.811 Y14.479
X8.797 Y14.541
X8.793 Y14.559
X8.781 Y14.603 Z-3.416
X8.761 Y14.644 Z-3.407
X8.739 Y14.675 Z-3.381
X8.711 Y14.702 Z-3.355
X8.668 Y14.731 Z-3.278
X8.652 Y14.738 Z-3.187
G0 Z5.
X34.16 Y6.786
G1 Z-0.51 F381.
X34.166 Z-0.563 F333.
X34.183 Z-0.613
X34.211 Z-0.658
X34.249 Z-0.696
X34.293 Z-0.724
X34.343 Z-0.742
X34.396 Z-0.748
X34.85 Z-0.753
Y7.684 Z-0.762
X16.925 Y7.682 Z-0.95
X16.029 Y6.786 Z-0.963
X34.85 Z-1.159
Y7.684 Z-1.169
X16.925 Y7.682 Z-1.356
X16.029 Y6.786 Z-1.369
X34.85 Z-1.566
Y7.684 Z-1.575
X34.258 Z-1.581
X16.925 Y7.682 F1499.
X16.029 Y6.786
X34.85
Y7.684
X34.258
X34.234 Y7.678
X34.217 Y7.66
X34.152 Y7.544
X34.137 Y7.528
X34.118 Y7.52
X30.49 Y6.95
X30.329 Y6.876
X30.31 Y6.859
X30.302 Y6.835
X30.308 Y6.811
X30.325 Y6.792
X30.35 Y6.786
X34.85 Z-1.739 F333.
Y7.684 Z-1.77
X34.258 Z-1.791
X16.925 Y7.682 F1499.
X16.029 Y6.786
X34.85
Y7.684
X34.258
X34.234 Y7.678
X34.217 Y7.66
X34.152 Y7.544
X34.137 Y7.528
X34.118 Y7.52
X30.49 Y6.95
X30.329 Y6.876
X30.31 Y6.859
X30.302 Y6.835
X30.308 Y6.811
X30.325 Y6.792
X30.35 Y6.786
X34.85 Z-1.948 F333.
Y7.684 Z-1.979
X34.258 Z-2.
X16.925 Y7.682 F1499.
X16.029 Y6.786
X34.85
Y7.684
X34.258
X34.235 Y7.678
X34.218 Y7.661
X34.154 Y7.556
X34.138 Y7.54
X34.116 Y7.533
X24.845 Y6.937
X24.686 Y6.877
X24.666 Y6.861
X24.656 Y6.837
X24.661 Y6.812
X24.679 Y6.793
X24.704 Y6.786
X34.85 Z-2.354 F333.
Y7.684 Z-2.386
X34.258 Z-2.406
X16.925 Y7.682 F1499.
X16.029 Y6.786
X34.85
Y7.684
X34.258
X34.235 Y7.678
X34.218 Y7.661
X34.154 Y7.556
X34.138 Y7.54
X34.116 Y7.533
X24.845 Y6.937
X24.686 Y6.877
X24.666 Y6.861
X24.656 Y6.837
X24.661 Y6.812
X24.679 Y6.793
X24.704 Y6.786
X34.85 Z-2.761 F333.
Y7.684 Z-2.792
X34.258 Z-2.813
X16.925 Y7.682 F1499.
X16.029 Y6.786
X34.85
Y7.684
X34.258
X34.235 Y7.678
X34.218 Y7.661
X34.154 Y7.556
X34.138 Y7.54
X34.116 Y7.533
X24.845 Y6.937
X24.686 Y6.877
X24.666 Y6.861
X24.656 Y6.837
X24.661 Y6.812
X24.679 Y6.793
X24.704 Y6.786
X34.85 Z-3.167 F333.
Y7.684 Z-3.198
X34.258 Z-3.219
X16.925 Y7.682 F1499.
X16.029 Y6.786
X34.85
Y7.684
X34.258
X34.234 Y7.678
X34.217 Y7.66
X34.152 Y7.543
X34.137 Y7.527
X34.118 Y7.519
X30.584 Y6.95
X30.424 Y6.876
X30.405 Y6.859
X30.397 Y6.835
X30.402 Y6.811
X30.42 Y6.792
X30.444 Y6.786
X34.85 Z-3.373 F333.
Y7.684 Z-3.404
X34.258 Z-3.425
X16.925 Y7.682 F1499.
X16.029 Y6.786
X34.85
Y7.684
X34.258
X34.213 Y7.68 Z-3.416
X34.169 Y7.667 Z-3.407
X34.135 Y7.65 Z-3.381
X34.103 Y7.627 Z-3.355
X34.068 Y7.59 Z-3.278
X34.058 Y7.575 Z-3.187
G0 Z5.
X41.625 Y7.684
G1 Z-0.51 F381.
X41.62 Z-0.563 F333.
X41.602 Z-0.613
X41.574 Z-0.658
X41.537 Z-0.695
X41.492 Z-0.724
X41.442 Z-0.742
X41.39 Z-0.748
X39.232 Z-0.772
Y6.786 Z-0.782
X56.85 Z-0.975
Y7.684 Z-0.985
X39.232 Z-1.178
Y6.786 Z-1.188
X56.85 Z-1.382
Y7.684 Z-1.391
X39.538 Z-1.581
X39.232 F1499.
Y6.786
X56.85
Y7.684
X39.538
X39.515 Y7.678
X39.499 Y7.66
X39.495 Y7.636
X39.505 Y7.614
X39.524 Y7.6
X39.667 Y7.554
X45.34 Y7.497
X45.549 Y7.561
X45.574 Y7.576
X45.59 Y7.602
X45.592 Y7.631
X45.581 Y7.658
X45.558 Y7.677
X45.53 Y7.684
X39.538 Z-1.791 F333.
X39.232 F1499.
Y6.786
X56.85
Y7.684
X39.538
X39.515 Y7.678
X39.499 Y7.66
X39.495 Y7.636
X39.505 Y7.614
X39.524 Y7.6
X39.667 Y7.554
X45.34 Y7.497
X45.549 Y7.561
X45.574 Y7.576
X45.59 Y7.602
X45.592 Y7.631
X45.581 Y7.658
X45.558 Y7.677
X45.53 Y7.684
X39.538 Z-2. F333.
X39.232 F1499.
Y6.786
X56.85
Y7.684
X39.538
X39.493 Y7.68 Z-1.991
X39.449 Y7.667 Z-1.982
X39.415 Y7.65 Z-1.956
X39.383 Y7.627 Z-1.93
X39.348 Y7.59 Z-1.853
X39.338 Y7.575 Z-1.762
G0 Z5.
X41.625 Y7.684
G1 Z-1.335 F381.
X41.62 Z-1.388 F333.
X41.602 Z-1.438
X41.574 Z-1.483
X41.537 Z-1.52
X41.492 Z-1.549
X41.442 Z-1.567
X41.39 Z-1.573
X39.232 Z-1.597
Y6.786 Z-1.607
X56.85 Z-1.8
Y7.684 Z-1.81
X39.232 Z-2.003
Y6.786 Z-2.013
X56.85 Z-2.206
Y7.684 Z-2.216
X39.538 Z-2.406
X39.232 F1499.
Y6.786
X56.85
Y7.684
X39.538
X39.493 Y7.68 Z-2.397
X39.449 Y7.667 Z-2.388
X39.415 Y7.65 Z-2.362
X39.383 Y7.627 Z-2.337
X39.348 Y7.59 Z-2.259
X39.338 Y7.575 Z-2.168
G0 Z5.
X41.625 Y7.684
G1 Z-1.741 F381.
X41.62 Z-1.794 F333.
X41.602 Z-1.844
X41.574 Z-1.889
X41.537 Z-1.927
X41.492 Z-1.955
X41.442 Z-1.973
X41.39 Z-1.98
X39.232 Z-2.003
Y6.786 Z-2.013
X56.85 Z-2.206
Y7.684 Z-2.216
X39.232 Z-2.41
Y6.786 Z-2.42
X56.85 Z-2.613
Y7.684 Z-2.623
X39.538 Z-2.813
X39.232 F1499.
Y6.786
X56.85
Y7.684
X39.538
X39.493 Y7.68 Z-2.804
X39.449 Y7.667 Z-2.795
X39.415 Y7.65 Z-2.769
X39.383 Y7.627 Z-2.743
X39.348 Y7.59 Z-2.666
X39.338 Y7.575 Z-2.575
G0 Z5.
X41.625 Y7.684
G1 Z-2.148 F381.
X41.62 Z-2.201 F333.
X41.602 Z-2.251
X41.574 Z-2.295
X41.537 Z-2.333
X41.492 Z-2.362
X41.442 Z-2.38
X41.39 Z-2.386
X39.232 Z-2.41
Y6.786 Z-2.42
X56.85 Z-2.613
Y7.684 Z-2.623
X39.232 Z-2.816
Y6.786 Z-2.826
X56.85 Z-3.019
Y7.684 Z-3.029
X39.538 Z-3.219
X39.232 F1499.
Y6.786
X56.85
Y7.684
X39.538
X39.515 Y7.678
X39.499 Y7.66
X39.495 Y7.636
X39.505 Y7.614
X39.524 Y7.6
X39.667 Y7.554
X45.246 Y7.497
X45.455 Y7.561
X45.48 Y7.576
X45.496 Y7.602
X45.498 Y7.631
X45.487 Y7.658
X45.464 Y7.677
X45.436 Y7.684
X39.538 Z-3.425 F333.
X39.232 F1499.
Y6.786
X56.85
Y7.684
X39.538
X39.493 Y7.68 Z-3.416
X39.449 Y7.667 Z-3.407
X39.415 Y7.65 Z-3.381
X39.383 Y7.627 Z-3.355
X39.348 Y7.59 Z-3.278
X39.338 Y7.575 Z-3.187
G0 Z5.
X78.254 Y6.786
G1 Z-0.51 F381.
X78.26 Z-0.563 F333.
X78.277 Z-0.613
X78.305 Z-0.658
X78.343 Z-0.695
X78.387 Z-0.724
X78.437 Z-0.742
X78.49 Z-0.748
X78.85 Z-0.752
Y7.684 Z-0.762
X61.232 Z-0.956
Y6.786 Z-0.965
X78.85 Z-1.159
Y7.684 Z-1.169
X61.232 Z-1.362
Y6.786 Z-1.372
X78.85 Z-1.565
Y7.684 Z-1.575
X78.258 Z-1.581
X61.232 F1499.
Y6.786
X78.85
Y7.684
X78.258
X78.235 Y7.678
X78.218 Y7.662
X78.156 Y7.564
X78.139 Y7.548
X78.116 Y7.542
X67.672
X67.649 Y7.548
X67.632 Y7.564
X67.57 Y7.662
X67.553 Y7.678
X67.53 Y7.684
X61.538 Z-1.791 F333.
X61.232 F1499.
Y6.786
X78.85
Y7.684
X61.538
X61.493 Y7.68 Z-1.782
X61.449 Y7.667 Z-1.773
X61.415 Y7.65 Z-1.747
X61.383 Y7.627 Z-1.721
X61.348 Y7.59 Z-1.644
X61.338 Y7.575 Z-1.553
G0 Z5.
X62.377 Y7.684
G1 Z-1.126 F381.
X62.372 Z-1.178 F333.
X62.354 Z-1.229
X62.326 Z-1.273
X62.289 Z-1.311
X62.244 Z-1.34
X62.194 Z-1.358
X62.142 Z-1.364
X61.232 Z-1.374
Y6.786 Z-1.384
X78.85 Z-1.577
Y7.684 Z-1.587
X61.232 Z-1.78
Y6.786 Z-1.79
X78.85 Z-1.984
Y7.684 Z-1.993
X78.258 Z-2.
X61.232 F1499.
Y6.786
X78.85
Y7.684
X78.258
X78.235 Y7.678
X78.218 Y7.661
X78.154 Y7.556
X78.138 Y7.54
X78.116 Y7.533
X68.846 Y6.937
X68.686 Y6.877
X68.666 Y6.861
X68.656 Y6.837
X68.661 Y6.812
X68.679 Y6.793
X68.704 Y6.786
X78.85 Z-2.354 F333.
Y7.684 Z-2.386
X78.258 Z-2.406
X61.232 F1499.
Y6.786
X78.85
Y7.684
X78.258
X78.235 Y7.678
X78.218 Y7.661
X78.154 Y7.556
X78.138 Y7.54
X78.116 Y7.533
X68.846 Y6.937
X68.686 Y6.877
X68.666 Y6.861
X68.656 Y6.837
X68.661 Y6.812
X68.679 Y6.793
X68.704 Y6.786
X78.85 Z-2.761 F333.
Y7.684 Z-2.792
X78.258 Z-2.813
X61.232 F1499.
Y6.786
X78.85
Y7.684
X78.258
X78.235 Y7.678
X78.218 Y7.661
X78.154 Y7.556
X78.138 Y7.54
X78.116 Y7.533
X68.846 Y6.937
X68.686 Y6.877
X68.666 Y6.861
X68.656 Y6.837
X68.661 Y6.812
X68.679 Y6.793
X68.704 Y6.786
X78.85 Z-3.167 F333.
Y7.684 Z-3.198
X78.258 Z-3.219
X61.232 F1499.
Y6.786
X78.85
Y7.684
X78.258
X78.234 Y7.678
X78.217 Y7.66
X78.152 Y7.543
X78.137 Y7.528
X78.118 Y7.52
X74.584 Y6.95
X74.424 Y6.876
X74.405 Y6.859
X74.397 Y6.835
X74.402 Y6.811
X74.42 Y6.792
X74.444 Y6.786
X78.85 Z-3.373 F333.
Y7.684 Z-3.404
X78.258 Z-3.425
X61.232 F1499.
Y6.786
X78.85
Y7.684
X78.258
X78.213 Y7.68 Z-3.416
X78.169 Y7.667 Z-3.407
X78.135 Y7.65 Z-3.381
X78.103 Y7.627 Z-3.355
X78.068 Y7.59 Z-3.278
X78.058 Y7.575 Z-3.187
G0 Z5.
X100.254 Y6.786
G1 Z-0.51 F381.
X100.26 Z-0.563 F333.
X100.277 Z-0.613
X100.305 Z-0.658
X100.343 Z-0.695
X100.387 Z-0.724
X100.437 Z-0.742
X100.49 Z-0.748
X100.85 Z-0.752
Y7.684 Z-0.762
X83.232 Z-0.956
Y6.786 Z-0.965
X100.85 Z-1.159
Y7.684 Z-1.169
X83.232 Z-1.362
Y6.786 Z-1.372
X100.85 Z-1.565
Y7.684 Z-1.575
X100.258 Z-1.581
X83.232 F1499.
Y6.786
X100.85
Y7.684
X100.258
X100.234 Y7.678
X100.217 Y7.66
X100.152 Y7.544
X100.137 Y7.528
X100.118 Y7.52
X96.49 Y6.95
X96.33 Y6.876
X96.31 Y6.859
X96.302 Y6.835
X96.308 Y6.811
X96.325 Y6.792
X96.35 Y6.786
X100.85 Z-1.739 F333.
Y7.684 Z-1.77
X100.258 Z-1.791
X83.232 F1499.
Y6.786
X100.85
Y7.684
X100.258
X100.234 Y7.678
X100.217 Y7.66
X100.152 Y7.544
X100.137 Y7.528
X100.118 Y7.52
X96.49 Y6.95
X96.33 Y6.876
X96.31 Y6.859
X96.302 Y6.835
X96.308 Y6.811
X96.325 Y6.792
X96.35 Y6.786
X100.85 Z-1.948 F333.
Y7.684 Z-1.979
X100.258 Z-2.
X83.232 F1499.
Y6.786
X100.85
Y7.684
X100.258
X100.235 Y7.678
X100.218 Y7.661
X100.154 Y7.556
X100.138 Y7.54
X100.116 Y7.533
X90.846 Y6.937
X90.686 Y6.877
X90.666 Y6.861
X90.656 Y6.837
X90.661 Y6.812
X90.679 Y6.793
X90.704 Y6.786
X100.85 Z-2.354 F333.
Y7.684 Z-2.386
X100.258 Z-2.406
X83.232 F1499.
Y6.786
X100.85
Y7.684
X100.258
X100.235 Y7.678
X100.218 Y7.661
X100.154 Y7.556
X100.138 Y7.54
X100.116 Y7.533
X90.846 Y6.937
X90.686 Y6.877
X90.666 Y6.861
X90.656 Y6.837
X90.661 Y6.812
X90.679 Y6.793
X90.704 Y6.786
X100.85 Z-2.761 F333.
Y7.684 Z-2.792
X100.258 Z-2.813
X83.232 F1499.
Y6.786
X100.85
Y7.684
X100.258
X100.235 Y7.678
X100.218 Y7.661
X100.154 Y7.556
X100.138 Y7.54
X100.116 Y7.533
X90.846 Y6.937
X90.686 Y6.877
X90.666 Y6.861
X90.656 Y6.837
X90.661 Y6.812
X90.679 Y6.793
X90.704 Y6.786
X100.85 Z-3.167 F333.
Y7.684 Z-3.198
X100.258 Z-3.219
X83.232 F1499.
Y6.786
X100.85
Y7.684
X100.258
X100.234 Y7.678
X100.217 Y7.66
X100.152 Y7.543
X100.137 Y7.528
X100.118 Y7.52
X96.584 Y6.95
X96.424 Y6.876
X96.405 Y6.859
X96.397 Y6.835
X96.402 Y6.811
X96.42 Y6.792
X96.444 Y6.786
X100.85 Z-3.373 F333.
Y7.684 Z-3.404
X100.258 Z-3.425
X83.232 F1499.
Y6.786
X100.85
Y7.684
X100.258
X100.213 Y7.68 Z-3.416
X100.169 Y7.667 Z-3.407
X100.135 Y7.65 Z-3.381
X100.103 Y7.627 Z-3.355
X100.068 Y7.59 Z-3.278
X100.058 Y7.575 Z-3.187
G0 Z5.
X107.625 Y7.684
G1 Z-0.51 F381.
X107.62 Z-0.563 F333.
X107.602 Z-0.613
X107.574 Z-0.658
X107.537 Z-0.695
X107.492 Z-0.724
X107.442 Z-0.742
X107.39 Z-0.748
X105.232 Z-0.772
Y6.786 Z-0.782
X122.85 Z-0.975
Y7.684 Z-0.985
X105.232 Z-1.178
Y6.786 Z-1.188
X122.85 Z-1.382
Y7.684 Z-1.391
X105.538 Z-1.581
X105.232 F1499.
Y6.786
X122.85
Y7.684
X105.538
X105.515 Y7.678
X105.499 Y7.66
X105.495 Y7.636
X105.505 Y7.614
X105.524 Y7.6
X105.667 Y7.554
X111.34 Y7.497
X111.549 Y7.561
X111.574 Y7.576
X111.59 Y7.602
X111.592 Y7.631
X111.581 Y7.658
X111.558 Y7.677
X111.53 Y7.684
X105.538 Z-1.791 F333.
X105.232 F1499.
Y6.786
X122.85
Y7.684
X105.538
X105.493 Y7.68 Z-1.782
X105.449 Y7.667 Z-1.773
X105.415 Y7.65 Z-1.747
X105.383 Y7.627 Z-1.721
X105.348 Y7.59 Z-1.644
X105.338 Y7.575 Z-1.553
G0 Z5.
X106.377 Y7.684
G1 Z-1.126 F381.
X106.372 Z-1.178 F333.
X106.354 Z-1.229
X106.326 Z-1.273
X106.289 Z-1.311
X106.244 Z-1.34
X106.195 Z-1.358
X106.142 Z-1.364
X105.232 Z-1.374
Y6.786 Z-1.384
X122.85 Z-1.577
Y7.684 Z-1.587
X105.232 Z-1.78
Y6.786 Z-1.79
X122.85 Z-1.984
Y7.684 Z-1.993
X122.258 Z-2.
X105.232 F1499.
Y6.786
X122.85
Y7.684
X122.258
X122.235 Y7.678
X122.218 Y7.661
X122.154 Y7.556
X122.138 Y7.54
X122.116 Y7.533
X112.846 Y6.937
X112.686 Y6.877
X112.666 Y6.861
X112.656 Y6.837
X112.661 Y6.812
X112.679 Y6.793
X112.704 Y6.786
X122.85 Z-2.354 F333.
Y7.684 Z-2.386
X122.258 Z-2.406
X105.232 F1499.
Y6.786
X122.85
Y7.684
X122.258
X122.235 Y7.678
X122.218 Y7.661
X122.154 Y7.556
X122.138 Y7.54
X122.116 Y7.533
X112.846 Y6.937
X112.686 Y6.877
X112.666 Y6.861
X112.656 Y6.837
X112.661 Y6.812
X112.679 Y6.793
X112.704 Y6.786
X122.85 Z-2.761 F333.
Y7.684 Z-2.792
X122.258 Z-2.813
X105.232 F1499.
Y6.786
X122.85
Y7.684
X122.258
X122.235 Y7.678
X122.218 Y7.661
X122.154 Y7.556
X122.138 Y7.54
X122.116 Y7.533
X112.846 Y6.937
X112.686 Y6.877
X112.666 Y6.861
X112.656 Y6.837
X112.661 Y6.812
X112.679 Y6.793
X112.704 Y6.786
X122.85 Z-3.167 F333.
Y7.684 Z-3.198
X122.258 Z-3.219
X105.232 F1499.
Y6.786
X122.85
Y7.684
X122.258
X122.234 Y7.678
X122.217 Y7.66
X122.152 Y7.543
X122.137 Y7.528
X122.118 Y7.52
X118.584 Y6.95
X118.424 Y6.876
X118.405 Y6.859
X118.397 Y6.835
X118.402 Y6.811
X118.42 Y6.792
X118.444 Y6.786
X122.85 Z-3.373 F333.
Y7.684 Z-3.404
X122.258 Z-3.425
X105.232 F1499.
Y6.786
X122.85
Y7.684
X122.258
X122.213 Y7.68 Z-3.416
X122.169 Y7.667 Z-3.407
X122.135 Y7.65 Z-3.381
X122.103 Y7.627 Z-3.355
X122.068 Y7.59 Z-3.278
X122.058 Y7.575 Z-3.187
G0 Z5.
X137.534 Y9.551
G1 Z-0.51 F381.
X137.551 Y9.554 Z-0.6 F333.
X137.599 Y9.567 Z-0.676
X137.669 Y9.593 Z-0.728
X137.747 Y9.634 Z-0.748
X137.826 Y9.693 Z-0.752
X137.896 Y9.764 Z-0.755
X137.953 Y9.846 Z-0.759
X137.996 Y9.935 Z-0.762
X138.024 Y10.03 Z-0.766
X138.037 Y10.129 Z-0.769
X138.034 Y10.228 Z-0.773
X138.015 Y10.325 Z-0.776
X137.98 Y10.419 Z-0.78
X137.931 Y10.505 Z-0.783
X137.869 Y10.582 Z-0.787
X137.796 Y10.649 Z-0.79
X137.712 Y10.703 Z-0.793
X137.621 Y10.743 Z-0.797
X137.525 Y10.768 Z-0.8
X137.426 Y10.777 Z-0.804
X137.327 Y10.77 Z-0.807
X137.231 Y10.747 Z-0.811
X137.139 Y10.71 Z-0.814
X137.054 Y10.658 Z-0.818
X136.979 Y10.593 Z-0.821
X136.915 Y10.517 Z-0.825
X136.864 Y10.431 Z-0.828
X136.828 Y10.339 Z-0.832
X136.807 Y10.242 Z-0.835
X136.801 Y10.143 Z-0.839
X136.812 Y10.044 Z-0.842
X136.838 Y9.948 Z-0.846
X136.879 Y9.858 Z-0.849
X136.934 Y9.775 Z-0.852
X137.002 Y9.703 Z-0.856
X137.08 Y9.642 Z-0.859
X137.167 Y9.594 Z-0.863
X137.261 Y9.561 Z-0.866
X137.358 Y9.543 Z-0.87
X137.458 Y9.541 Z-0.873
X137.556 Y9.555 Z-0.877
X137.651 Y9.585 Z-0.88
X137.74 Y9.63 Z-0.884
X137.82 Y9.688 Z-0.887
X137.89 Y9.758 Z-0.891
X137.948 Y9.838 Z-0.894
X137.993 Y9.927 Z-0.898
X138.022 Y10.022 Z-0.901
X138.036 Y10.12 Z-0.905
X138.035 Y10.22 Z-0.908
X138.017 Y10.317 Z-0.912
X137.984 Y10.411 Z-0.915
X137.936 Y10.498 Z-0.918
X137.875 Y10.576 Z-0.922
X137.802 Y10.644 Z-0.925
X137.72 Y10.699 Z-0.929
X137.629 Y10.74 Z-0.932
X137.533 Y10.766 Z-0.936
X137.435 Y10.777 Z-0.939
X137.336 Y10.771 Z-0.943
X137.239 Y10.75 Z-0.946
X137.146 Y10.713 Z-0.95
X137.061 Y10.662 Z-0.953
X136.985 Y10.599 Z-0.957
X136.92 Y10.523 Z-0.96
X136.868 Y10.439 Z-0.964
X136.83 Y10.347 Z-0.967
X136.808 Y10.25 Z-0.971
X136.801 Y10.151 Z-0.974
X136.81 Y10.052 Z-0.977
X136.835 Y9.956 Z-0.981
X136.875 Y9.865 Z-0.984
X136.929 Y9.782 Z-0.988
X136.996 Y9.708 Z-0.991
X137.073 Y9.646 Z-0.995
X137.16 Y9.597 Z-0.998
X137.253 Y9.563 Z-1.002
X137.35 Y9.544 Z-1.005
X137.449 Y9.541 Z-1.009
X137.548 Y9.554 Z-1.012
X137.643 Y9.582 Z-1.016
X137.732 Y9.625 Z-1.019
X137.814 Y9.682 Z-1.023
X137.885 Y9.752 Z-1.026
X137.944 Y9.831 Z-1.03
X137.99 Y9.92 Z-1.033
X138.021 Y10.014 Z-1.036
X138.036 Y10.112 Z-1.04
X138.035 Y10.211 Z-1.043
X138.019 Y10.309 Z-1.047
X137.987 Y10.403 Z-1.05
X137.941 Y10.491 Z-1.054
X137.881 Y10.57 Z-1.057
X137.809 Y10.639 Z-1.061
X137.727 Y10.695 Z-1.064
X137.637 Y10.737 Z-1.068
X137.542 Y10.765 Z-1.071
X137.443 Y10.776 Z-1.075
X137.344 Y10.772 Z-1.078
X137.247 Y10.752 Z-1.082
X137.154 Y10.717 Z-1.085
X137.068 Y10.667 Z-1.089
X136.991 Y10.604 Z-1.092
X136.925 Y10.53 Z-1.095
X136.872 Y10.446 Z-1.099
X136.833 Y10.355 Z-1.102
X136.809 Y10.258 Z-1.106
X136.801 Y10.159 Z-1.109
X136.809 Y10.061 Z-1.113
X136.832 Y9.964 Z-1.116
X136.871 Y9.873 Z-1.12
X136.924 Y9.789 Z-1.123
X136.989 Y9.714 Z-1.127
X137.066 Y9.651 Z-1.13
X137.152 Y9.601 Z-1.134
X137.245 Y9.565 Z-1.137
X137.342 Y9.545 Z-1.141
X137.441 Y9.541 Z-1.144
X137.54 Y9.552 Z-1.148
X137.635 Y9.579 Z-1.151
X137.725 Y9.621 Z-1.154
X137.807 Y9.677 Z-1.158
X137.879 Y9.745 Z-1.161
X137.94 Y9.824 Z-1.165
X137.986 Y9.912 Z-1.168
X138.018 Y10.006 Z-1.172
X138.035 Y10.104 Z-1.175
X138.036 Y10.203 Z-1.179
X138.021 Y10.301 Z-1.182
X137.99 Y10.396 Z-1.186
X137.945 Y10.484 Z-1.189
X137.886 Y10.564 Z-1.193
X137.815 Y10.633 Z-1.196
X137.734 Y10.691 Z-1.2
X137.645 Y10.734 Z-1.203
X137.55 Y10.763 Z-1.207
X137.451 Y10.776 Z-1.21
X137.352 Y10.773 Z-1.214
X137.255 Y10.754 Z-1.217
X137.161 Y10.72 Z-1.22
X137.075 Y10.672 Z-1.224
X136.997 Y10.61 Z-1.227
X136.93 Y10.537 Z-1.231
X136.876 Y10.454 Z-1.234
X136.836 Y10.363 Z-1.238
X136.811 Y10.267 Z-1.241
X136.801 Y10.168 Z-1.245
X136.808 Y10.069 Z-1.248
X136.83 Y9.972 Z-1.252
X136.867 Y9.88 Z-1.255
X136.919 Y9.795 Z-1.259
X136.984 Y9.72 Z-1.262
X137.059 Y9.656 Z-1.266
X137.144 Y9.605 Z-1.269
X137.237 Y9.568 Z-1.273
X137.334 Y9.546 Z-1.276
X137.433 Y9.54 Z-1.279
X137.531 Y9.55 Z-1.283
X137.627 Y9.576 Z-1.286
X137.718 Y9.617 Z-1.29
X137.801 Y9.672 Z-1.293
X137.874 Y9.739 Z-1.297
X137.935 Y9.817 Z-1.3
X137.983 Y9.904 Z-1.304
X138.016 Y9.998 Z-1.307
X138.034 Y10.095 Z-1.311
X138.037 Y10.195 Z-1.314
X138.023 Y10.293 Z-1.318
X137.994 Y10.388 Z-1.321
X137.949 Y10.477 Z-1.325
X137.892 Y10.558 Z-1.328
X137.822 Y10.628 Z-1.332
X137.741 Y10.686 Z-1.335
X137.653 Y10.731 Z-1.338
X137.558 Y10.761 Z-1.342
X137.46 Y10.775 Z-1.345
X137.36 Y10.774 Z-1.349
X137.263 Y10.757 Z-1.352
X137.169 Y10.724 Z-1.356
X137.082 Y10.677 Z-1.359
X137.003 Y10.616 Z-1.363
X136.935 Y10.543 Z-1.366
X136.88 Y10.461 Z-1.37
X136.839 Y10.371 Z-1.373
X136.812 Y10.275 Z-1.377
X136.801 Y10.176 Z-1.38
X136.806 Y10.077 Z-1.384
X136.827 Y9.98 Z-1.387
X136.864 Y9.888 Z-1.391
X136.914 Y9.802 Z-1.394
X136.978 Y9.726 Z-1.397
X137.053 Y9.661 Z-1.401
X137.137 Y9.608 Z-1.404
X137.229 Y9.57 Z-1.408
X137.325 Y9.547 Z-1.411
X137.424 Y9.54 Z-1.415
X137.523 Y9.549 Z-1.418
X137.619 Y9.573 Z-1.422
X137.711 Y9.613 Z-1.425
X137.794 Y9.667 Z-1.429
X137.868 Y9.733 Z-1.432
X137.93 Y9.81 Z-1.436
X137.979 Y9.897 Z-1.439
X138.014 Y9.99 Z-1.443
X138.034 Y10.087 Z-1.446
X138.037 Y10.186 Z-1.45
X138.025 Y10.285 Z-1.453
X137.997 Y10.38 Z-1.457
X137.954 Y10.47 Z-1.46
X137.897 Y10.551 Z-1.463
X137.828 Y10.623 Z-1.467
X137.748 Y10.682 Z-1.47
X137.66 Y10.728 Z-1.474
X137.566 Y10.759 Z-1.477
X137.468 Y10.775 Z-1.481
X137.369 Z-1.484
X137.271 Y10.759 Z-1.488
X137.177 Y10.727 Z-1.491
X137.089 Y10.681 Z-1.495
X137.009 Y10.621 Z-1.498
X136.941 Y10.55 Z-1.502
X136.884 Y10.468 Z-1.505
X136.841 Y10.378 Z-1.509
X136.814 Y10.283 Z-1.512
X136.802 Y10.185 Z-1.516
X136.805 Y10.085 Z-1.519
X136.825 Y9.988 Z-1.522
X136.86 Y9.895 Z-1.526
X136.909 Y9.809 Z-1.529
X136.972 Y9.732 Z-1.533
X137.046 Y9.666 Z-1.536
X137.13 Y9.612 Z-1.54
X137.221 Y9.573 Z-1.543
X137.317 Y9.549 Z-1.547
X137.416 Y9.54 Z-1.55
X137.515 Y9.548 Z-1.554
X137.612 Y9.571 Z-1.557
X137.703 Y9.609 Z-1.561
X137.787 Y9.662 Z-1.564
X137.862 Y9.727 Z-1.568
X137.926 Y9.803 Z-1.571
X137.976 Y9.889 Z-1.575
X138.012 Y9.982 Z-1.578
X138.032 Y10.079 Z-1.581
X138.179 Y11.208 F1499.
Y18.102
X136.911
X136.909 Y10.832
X136.906 Y10.775
X136.898 Y10.719
X136.73 Y9.851
X136.717 Y9.797
X136.699 Y9.745
X136.642 Y9.601
X136.615 Y9.543
X136.582 Y9.488
X136.086 Y8.748
X136.046 Y8.695
X136.001 Y8.648
X135.901 Y8.553
X135.863 Y8.519
X135.821 Y8.489
X135.095 Y8.006
X135.037 Y7.972
X134.975 Y7.945
X134.831 Y7.89
X134.784 Y7.875
X134.737 Y7.864
X133.918 Y7.701
X133.864 Y7.693
X133.809 Y7.69
X133.328 Y7.684
X133.321
X127.232
Y6.786
X133.764
X134.95 Y6.941
X135.561 Y7.189
X136.007 Y7.373
X136.46 Y7.721
X136.904 Y8.061
X137.593 Y8.963
X138.02 Y9.993
X138.024 Y10.012
X138.032 Y10.079
X138.031 Y10.113
X138.018 Y10.146
X137.995 Y10.172
X137.965 Y10.189
X137.931 Y10.195
X137.456
X137.43 Y10.198
X137.405 Y10.208
X136.994 Y10.445
X136.962 Y10.457
X136.927 Y10.458
X136.894 Y10.447
X136.867 Y10.425
X136.848 Y10.396
X136.818 Y10.303 Z-1.585 F333.
X136.803 Y10.206 Z-1.588
Y10.108 Z-1.592
X136.819 Y10.011 Z-1.595
X136.85 Y9.918 Z-1.599
X136.895 Y9.831 Z-1.602
X136.954 Y9.752 Z-1.605
X137.024 Y9.683 Z-1.609
X137.104 Y9.627 Z-1.612
X137.192 Y9.583 Z-1.616
X137.286 Y9.555 Z-1.619
X137.383 Y9.541 Z-1.623
X137.481 Y9.543 Z-1.626
X137.578 Y9.561 Z-1.629
X137.67 Y9.593 Z-1.633
X137.756 Y9.64 Z-1.636
X137.834 Y9.7 Z-1.64
X137.901 Y9.771 Z-1.643
X137.957 Y9.852 Z-1.647
X137.998 Y9.941 Z-1.65
X138.025 Y10.036 Z-1.653
X138.037 Y10.133 Z-1.657
X138.033 Y10.231 Z-1.66
X138.014 Y10.327 Z-1.664
X137.98 Y10.419 Z-1.667
X137.932 Y10.505 Z-1.671
X137.87 Y10.581 Z-1.674
X137.798 Y10.647 Z-1.678
X137.716 Y10.701 Z-1.681
X137.626 Y10.741 Z-1.684
X137.531 Y10.767 Z-1.688
X137.434 Y10.777 Z-1.691
X137.336 Y10.771 Z-1.695
X137.24 Y10.75 Z-1.698
X137.149 Y10.714 Z-1.702
X137.064 Y10.665 Z-1.705
X136.989 Y10.602 Z-1.708
X136.924 Y10.528 Z-1.712
X136.872 Y10.445 Z-1.715
X136.833 Y10.355 Z-1.719
X136.809 Y10.26 Z-1.722
X136.801 Y10.162 Z-1.726
X136.808 Y10.064 Z-1.729
X136.831 Y9.969 Z-1.732
X136.868 Y9.878 Z-1.736
X136.92 Y9.794 Z-1.739
X136.983 Y9.72 Z-1.743
X137.058 Y9.656 Z-1.746
X137.142 Y9.606 Z-1.75
X137.233 Y9.569 Z-1.753
X137.329 Y9.547 Z-1.756
X137.427 Y9.54 Z-1.76
X137.524 Y9.549 Z-1.763
X137.619 Y9.573 Z-1.767
X137.709 Y9.612 Z-1.77
X137.792 Y9.665 Z-1.774
X137.865 Y9.73 Z-1.777
X137.928 Y9.806 Z-1.78
X137.977 Y9.891 Z-1.784
X138.012 Y9.983 Z-1.787
X138.032 Y10.079 Z-1.791
X138.179 Y11.208 F1499.
Y18.102
X136.911
X136.909 Y10.832
X136.906 Y10.775
X136.898 Y10.719
X136.73 Y9.851
X136.717 Y9.797
X136.699 Y9.745
X136.642 Y9.601
X136.615 Y9.543
X136.582 Y9.488
X136.086 Y8.748
X136.046 Y8.695
X136.001 Y8.648
X135.901 Y8.553
X135.863 Y8.519
X135.821 Y8.489
X135.095 Y8.006
X135.037 Y7.972
X134.975 Y7.945
X134.831 Y7.89
X134.784 Y7.875
X134.737 Y7.864
X133.918 Y7.701
X133.864 Y7.693
X133.809 Y7.69
X133.328 Y7.684
X133.321
X127.232
Y6.786
X133.764
X134.95 Y6.941
X135.561 Y7.189
X136.007 Y7.373
X136.904 Y8.061
X137.593 Y8.963
X138.02 Y9.993
X138.024 Y10.012
X138.032 Y10.079
X138.031 Y10.113
X138.018 Y10.146
X137.995 Y10.172
X137.965 Y10.189
X137.931 Y10.195
X137.456
X137.43 Y10.198
X137.405 Y10.208
X136.994 Y10.445
X136.962 Y10.457
X136.927 Y10.458
X136.894 Y10.447
X136.867 Y10.425
X136.848 Y10.396
X136.818 Y10.303 Z-1.794 F333.
X136.803 Y10.206 Z-1.798
Y10.108 Z-1.801
X136.819 Y10.011 Z-1.804
X136.85 Y9.918 Z-1.808
X136.895 Y9.831 Z-1.811
X136.954 Y9.752 Z-1.815
X137.024 Y9.683 Z-1.818
X137.104 Y9.627 Z-1.822
X137.192 Y9.583 Z-1.825
X137.286 Y9.555 Z-1.828
X137.383 Y9.541 Z-1.832
X137.481 Y9.543 Z-1.835
X137.578 Y9.561 Z-1.839
X137.67 Y9.593 Z-1.842
X137.756 Y9.64 Z-1.846
X137.834 Y9.7 Z-1.849
X137.901 Y9.771 Z-1.852
X137.957 Y9.852 Z-1.856
X137.998 Y9.941 Z-1.859
X138.025 Y10.036 Z-1.863
X138.037 Y10.133 Z-1.866
X138.033 Y10.231 Z-1.87
X138.014 Y10.327 Z-1.873
X137.98 Y10.419 Z-1.876
X137.932 Y10.505 Z-1.88
X137.87 Y10.581 Z-1.883
X137.798 Y10.647 Z-1.887
X137.716 Y10.701 Z-1.89
X137.626 Y10.741 Z-1.894
X137.531 Y10.767 Z-1.897
X137.434 Y10.777 Z-1.9
X137.336 Y10.771 Z-1.904
X137.24 Y10.75 Z-1.907
X137.149 Y10.714 Z-1.911
X137.064 Y10.665 Z-1.914
X136.989 Y10.602 Z-1.918
X136.924 Y10.528 Z-1.921
X136.872 Y10.445 Z-1.924
X136.833 Y10.355 Z-1.928
X136.809 Y10.26 Z-1.931
X136.801 Y10.162 Z-1.935
X136.808 Y10.064 Z-1.938
X136.831 Y9.969 Z-1.942
X136.868 Y9.878 Z-1.945
X136.92 Y9.794 Z-1.948
X136.983 Y9.72 Z-1.952
X137.058 Y9.656 Z-1.955
X137.142 Y9.606 Z-1.959
X137.233 Y9.569 Z-1.962
X137.329 Y9.547 Z-1.966
X137.427 Y9.54 Z-1.969
X137.524 Y9.549 Z-1.972
X137.619 Y9.573 Z-1.976
X137.709 Y9.612 Z-1.979
X137.792 Y9.665 Z-1.983
X137.865 Y9.73 Z-1.986
X137.928 Y9.806 Z-1.99
X137.977 Y9.891 Z-1.993
X138.012 Y9.983 Z-1.997
X138.032 Y10.079 Z-2.
X138.179 Y11.208 F1499.
Y18.102
X136.911
X136.909 Y10.832
X136.906 Y10.775
X136.898 Y10.719
X136.73 Y9.851
X136.717 Y9.797
X136.699 Y9.745
X136.642 Y9.601
X136.615 Y9.543
X136.582 Y9.488
X136.086 Y8.748
X136.046 Y8.695
X136.001 Y8.648
X135.901 Y8.553
X135.863 Y8.519
X135.821 Y8.489
X135.095 Y8.006
X135.037 Y7.972
X134.975 Y7.945
X134.831 Y7.89
X134.784 Y7.875
X134.737 Y7.864
X133.918 Y7.701
X133.864 Y7.693
X133.809 Y7.69
X133.328 Y7.684
X133.321
X127.232
Y6.786
X133.764
X134.95 Y6.941
X135.561 Y7.189
X136.007 Y7.373
X136.904 Y8.061
X137.593 Y8.963
X138.02 Y9.993
X138.024 Y10.012
X138.032 Y10.079
X138.025 Y10.089
X138.035 Y10.096
X138.037 Y10.196 Z-2.003 F333.
X138.023 Y10.294 Z-2.007
X137.993 Y10.389 Z-2.01
X137.949 Y10.478 Z-2.014
X137.891 Y10.559 Z-2.017
X137.821 Y10.629 Z-2.021
X137.74 Y10.687 Z-2.024
X137.651 Y10.732 Z-2.028
X137.556 Y10.761 Z-2.031
X137.458 Y10.776 Z-2.035
X137.359 Y10.774 Z-2.038
X137.261 Y10.756 Z-2.042
X137.167 Y10.723 Z-2.045
X137.08 Y10.675 Z-2.049
X137.002 Y10.614 Z-2.052
X136.934 Y10.542 Z-2.056
X136.879 Y10.459 Z-2.059
X136.838 Y10.369 Z-2.062
X136.812 Y10.273 Z-2.066
X136.801 Y10.174 Z-2.069
X136.807 Y10.075 Z-2.073
X136.828 Y9.978 Z-2.076
X136.865 Y9.885 Z-2.08
X136.916 Y9.8 Z-2.083
X136.979 Y9.724 Z-2.087
X137.055 Y9.659 Z-2.09
X137.139 Y9.607 Z-2.094
X137.231 Y9.569 Z-2.097
X137.328 Y9.547 Z-2.101
X137.427 Y9.54 Z-2.104
X137.526 Y9.549 Z-2.108
X137.622 Y9.574 Z-2.111
X137.713 Y9.615 Z-2.115
X137.797 Y9.669 Z-2.118
X137.87 Y9.735 Z-2.122
X137.932 Y9.813 Z-2.125
X137.981 Y9.9 Z-2.128
X138.015 Y9.993 Z-2.132
X138.034 Y10.091 Z-2.135
X138.037 Y10.19 Z-2.139
X138.024 Y10.288 Z-2.142
X137.995 Y10.383 Z-2.146
X137.952 Y10.473 Z-2.149
X137.895 Y10.554 Z-2.153
X137.825 Y10.625 Z-2.156
X137.745 Y10.684 Z-2.16
X137.657 Y10.729 Z-2.163
X137.562 Y10.76 Z-2.167
X137.464 Y10.775 Z-2.17
X137.365 Y10.774 Z-2.174
X137.267 Y10.758 Z-2.177
X137.173 Y10.726 Z-2.181
X137.085 Y10.679 Z-2.184
X137.006 Y10.618 Z-2.187
X136.938 Y10.546 Z-2.191
X136.882 Y10.464 Z-2.194
X136.84 Y10.374 Z-2.198
X136.813 Y10.279 Z-2.201
X136.801 Y10.18 Z-2.205
X136.806 Y10.081 Z-2.208
X136.826 Y9.983 Z-2.212
X136.862 Y9.891 Z-2.215
X136.912 Y9.805 Z-2.219
X136.975 Y9.728 Z-2.222
X137.05 Y9.663 Z-2.226
X137.134 Y9.61 Z-2.229
X137.226 Y9.571 Z-2.233
X137.322 Y9.548 Z-2.236
X137.421 Y9.54 Z-2.24
X137.52 Y9.548 Z-2.243
X137.617 Y9.573 Z-2.247
X137.708 Y9.612 Z-2.25
X137.792 Y9.665 Z-2.253
X137.866 Y9.731 Z-2.257
X137.929 Y9.808 Z-2.26
X137.978 Y9.894 Z-2.264
X138.013 Y9.987 Z-2.267
X138.033 Y10.085 Z-2.271
X138.037 Y10.184 Z-2.274
X138.025 Y10.283 Z-2.278
X137.997 Y10.378 Z-2.281
X137.955 Y10.468 Z-2.285
X137.898 Y10.549 Z-2.288
X137.83 Y10.621 Z-2.292
X137.75 Y10.681 Z-2.295
X137.662 Y10.727 Z-2.299
X137.568 Y10.759 Z-2.302
X137.47 Y10.775 Z-2.306
X137.371 Z-2.309
X137.272 Y10.759 Z-2.313
X137.178 Y10.728 Z-2.316
X137.09 Y10.682 Z-2.319
X137.01 Y10.622 Z-2.323
X136.941 Y10.551 Z-2.326
X136.885 Y10.469 Z-2.33
X136.842 Y10.38 Z-2.333
X136.814 Y10.284 Z-2.337
X136.802 Y10.186 Z-2.34
X136.805 Y10.086 Z-2.344
X136.825 Y9.989 Z-2.347
X136.859 Y9.896 Z-2.351
X136.909 Y9.81 Z-2.354
X136.971 Y9.732 Z-2.358
X137.045 Y9.666 Z-2.361
X137.129 Y9.613 Z-2.365
X137.22 Y9.573 Z-2.368
X137.316 Y9.549 Z-2.372
X137.415 Y9.54 Z-2.375
X137.515 Y9.548 Z-2.379
X137.611 Y9.571 Z-2.382
X137.703 Y9.609 Z-2.385
X137.787 Y9.661 Z-2.389
X137.862 Y9.727 Z-2.392
X137.925 Y9.803 Z-2.396
X137.976 Y9.889 Z-2.399
X138.012 Y9.982 Z-2.403
X138.032 Y10.079 Z-2.406
X138.179 Y11.208 F1499.
Y18.102
X136.911
X136.909 Y10.832
X136.906 Y10.775
X136.898 Y10.719
X136.73 Y9.851
X136.717 Y9.797
X136.699 Y9.745
X136.642 Y9.601
X136.615 Y9.543
X136.582 Y9.488
X136.086 Y8.748
X136.046 Y8.695
X136.001 Y8.648
X135.901 Y8.553
X135.863 Y8.519
X135.821 Y8.489
X135.095 Y8.006
X135.037 Y7.972
X134.975 Y7.945
X134.831 Y7.89
X134.784 Y7.875
X134.737 Y7.864
X133.918 Y7.701
X133.864 Y7.693
X133.809 Y7.69
X133.328 Y7.684
X133.321
X127.232
Y6.786
X133.764
X134.95 Y6.941
X135.561 Y7.189
X136.007 Y7.373
X136.46 Y7.721
X136.904 Y8.061
X137.593 Y8.963
X138.02 Y9.993
X138.024 Y10.012
X138.032 Y10.079
X138.025 Y10.089
X138.035 Y10.096
X138.037 Y10.196 Z-2.41 F333.
X138.023 Y10.294 Z-2.413
X137.993 Y10.389 Z-2.417
X137.949 Y10.478 Z-2.42
X137.891 Y10.559 Z-2.424
X137.821 Y10.629 Z-2.427
X137.74 Y10.687 Z-2.431
X137.651 Y10.732 Z-2.434
X137.556 Y10.761 Z-2.438
X137.458 Y10.776 Z-2.441
X137.359 Y10.774 Z-2.445
X137.261 Y10.756 Z-2.448
X137.167 Y10.723 Z-2.451
X137.08 Y10.675 Z-2.455
X137.002 Y10.614 Z-2.458
X136.934 Y10.542 Z-2.462
X136.879 Y10.459 Z-2.465
X136.838 Y10.369 Z-2.469
X136.812 Y10.273 Z-2.472
X136.801 Y10.174 Z-2.476
X136.807 Y10.075 Z-2.479
X136.828 Y9.978 Z-2.483
X136.865 Y9.885 Z-2.486
X136.916 Y9.8 Z-2.49
X136.979 Y9.724 Z-2.493
X137.055 Y9.659 Z-2.497
X137.139 Y9.607 Z-2.5
X137.231 Y9.569 Z-2.504
X137.328 Y9.547 Z-2.507
X137.427 Y9.54 Z-2.511
X137.526 Y9.549 Z-2.514
X137.622 Y9.574 Z-2.517
X137.713 Y9.615 Z-2.521
X137.797 Y9.669 Z-2.524
X137.87 Y9.735 Z-2.528
X137.932 Y9.813 Z-2.531
X137.981 Y9.9 Z-2.535
X138.015 Y9.993 Z-2.538
X138.034 Y10.091 Z-2.542
X138.037 Y10.19 Z-2.545
X138.024 Y10.288 Z-2.549
X137.995 Y10.383 Z-2.552
X137.952 Y10.473 Z-2.556
X137.895 Y10.554 Z-2.559
X137.825 Y10.625 Z-2.563
X137.745 Y10.684 Z-2.566
X137.657 Y10.729 Z-2.57
X137.562 Y10.76 Z-2.573
X137.464 Y10.775 Z-2.577
X137.365 Y10.774 Z-2.58
X137.267 Y10.758 Z-2.583
X137.173 Y10.726 Z-2.587
X137.085 Y10.679 Z-2.59
X137.006 Y10.618 Z-2.594
X136.938 Y10.546 Z-2.597
X136.882 Y10.464 Z-2.601
X136.84 Y10.374 Z-2.604
X136.813 Y10.279 Z-2.608
X136.801 Y10.18 Z-2.611
X136.806 Y10.081 Z-2.615
X136.826 Y9.983 Z-2.618
X136.862 Y9.891 Z-2.622
X136.912 Y9.805 Z-2.625
X136.975 Y9.728 Z-2.629
X137.05 Y9.663 Z-2.632
X137.134 Y9.61 Z-2.636
X137.226 Y9.571 Z-2.639
X137.322 Y9.548 Z-2.643
X137.421 Y9.54 Z-2.646
X137.52 Y9.548 Z-2.649
X137.617 Y9.573 Z-2.653
X137.708 Y9.612 Z-2.656
X137.792 Y9.665 Z-2.66
X137.866 Y9.731 Z-2.663
X137.929 Y9.808 Z-2.667
X137.978 Y9.894 Z-2.67
X138.013 Y9.987 Z-2.674
X138.033 Y10.085 Z-2.677
X138.037 Y10.184 Z-2.681
X138.025 Y10.283 Z-2.684
X137.997 Y10.378 Z-2.688
X137.955 Y10.468 Z-2.691
X137.898 Y10.549 Z-2.695
X137.83 Y10.621 Z-2.698
X137.75 Y10.681 Z-2.702
X137.662 Y10.727 Z-2.705
X137.568 Y10.759 Z-2.709
X137.47 Y10.775 Z-2.712
X137.371 Z-2.715
X137.272 Y10.759 Z-2.719
X137.178 Y10.728 Z-2.722
X137.09 Y10.682 Z-2.726
X137.01 Y10.622 Z-2.729
X136.941 Y10.551 Z-2.733
X136.885 Y10.469 Z-2.736
X136.842 Y10.38 Z-2.74
X136.814 Y10.284 Z-2.743
X136.802 Y10.186 Z-2.747
X136.805 Y10.086 Z-2.75
X136.825 Y9.989 Z-2.754
X136.859 Y9.896 Z-2.757
X136.909 Y9.81 Z-2.761
X136.971 Y9.732 Z-2.764
X137.045 Y9.666 Z-2.768
X137.129 Y9.613 Z-2.771
X137.22 Y9.573 Z-2.775
X137.316 Y9.549 Z-2.778
X137.415 Y9.54 Z-2.781
X137.515 Y9.548 Z-2.785
X137.611 Y9.571 Z-2.788
X137.703 Y9.609 Z-2.792
X137.787 Y9.661 Z-2.795
X137.862 Y9.727 Z-2.799
X137.925 Y9.803 Z-2.802
X137.976 Y9.889 Z-2.806
X138.012 Y9.982 Z-2.809
X138.032 Y10.079 Z-2.813
X138.179 Y11.208 F1499.
Y18.102
X136.911
X136.909 Y10.832
X136.906 Y10.775
X136.898 Y10.719
X136.73 Y9.851
X136.717 Y9.797
X136.699 Y9.745
X136.642 Y9.601
X136.615 Y9.543
X136.582 Y9.488
X136.086 Y8.748
X136.046 Y8.695
X136.001 Y8.648
X135.901 Y8.553
X135.863 Y8.519
X135.821 Y8.489
X135.095 Y8.006
X135.037 Y7.972
X134.975 Y7.945
X134.831 Y7.89
X134.784 Y7.875
X134.737 Y7.864
X133.918 Y7.701
X133.864 Y7.693
X133.809 Y7.69
X133.328 Y7.684
X133.321
X127.232
Y6.786
X133.764
X134.95 Y6.941
X135.561 Y7.189
X136.007 Y7.373
X136.46 Y7.721
X136.904 Y8.061
X137.593 Y8.963
X138.02 Y9.993
X138.024 Y10.012
X138.032 Y10.079
X138.025 Y10.089
X138.035 Y10.096
X138.037 Y10.196 Z-2.816 F333.
X138.023 Y10.294 Z-2.82
X137.993 Y10.389 Z-2.823
X137.949 Y10.478 Z-2.827
X137.891 Y10.559 Z-2.83
X137.821 Y10.629 Z-2.834
X137.74 Y10.687 Z-2.837
X137.651 Y10.732 Z-2.841
X137.556 Y10.761 Z-2.844
X137.458 Y10.776 Z-2.847
X137.359 Y10.774 Z-2.851
X137.261 Y10.756 Z-2.854
X137.167 Y10.723 Z-2.858
X137.08 Y10.675 Z-2.861
X137.002 Y10.614 Z-2.865
X136.934 Y10.542 Z-2.868
X136.879 Y10.459 Z-2.872
X136.838 Y10.369 Z-2.875
X136.812 Y10.273 Z-2.879
X136.801 Y10.174 Z-2.882
X136.807 Y10.075 Z-2.886
X136.828 Y9.978 Z-2.889
X136.865 Y9.885 Z-2.893
X136.916 Y9.8 Z-2.896
X136.979 Y9.724 Z-2.9
X137.055 Y9.659 Z-2.903
X137.139 Y9.607 Z-2.907
X137.231 Y9.569 Z-2.91
X137.328 Y9.547 Z-2.913
X137.427 Y9.54 Z-2.917
X137.526 Y9.549 Z-2.92
X137.622 Y9.574 Z-2.924
X137.713 Y9.615 Z-2.927
X137.797 Y9.669 Z-2.931
X137.87 Y9.735 Z-2.934
X137.932 Y9.813 Z-2.938
X137.981 Y9.9 Z-2.941
X138.015 Y9.993 Z-2.945
X138.034 Y10.091 Z-2.948
X138.037 Y10.19 Z-2.952
X138.024 Y10.288 Z-2.955
X137.995 Y10.383 Z-2.959
X137.952 Y10.473 Z-2.962
X137.895 Y10.554 Z-2.966
X137.825 Y10.625 Z-2.969
X137.745 Y10.684 Z-2.973
X137.657 Y10.729 Z-2.976
X137.562 Y10.76 Z-2.979
X137.464 Y10.775 Z-2.983
X137.365 Y10.774 Z-2.986
X137.267 Y10.758 Z-2.99
X137.173 Y10.726 Z-2.993
X137.085 Y10.679 Z-2.997
X137.006 Y10.618 Z-3.
X136.938 Y10.546 Z-3.004
X136.882 Y10.464 Z-3.007
X136.84 Y10.374 Z-3.011
X136.813 Y10.279 Z-3.014
X136.801 Y10.18 Z-3.018
X136.806 Y10.081 Z-3.021
X136.826 Y9.983 Z-3.025
X136.862 Y9.891 Z-3.028
X136.912 Y9.805 Z-3.032
X136.975 Y9.728 Z-3.035
X137.05 Y9.663 Z-3.039
X137.134 Y9.61 Z-3.042
X137.226 Y9.571 Z-3.045
X137.322 Y9.548 Z-3.049
X137.421 Y9.54 Z-3.052
X137.52 Y9.548 Z-3.056
X137.617 Y9.573 Z-3.059
X137.708 Y9.612 Z-3.063
X137.792 Y9.665 Z-3.066
X137.866 Y9.731 Z-3.07
X137.929 Y9.808 Z-3.073
X137.978 Y9.894 Z-3.077
X138.013 Y9.987 Z-3.08
X138.033 Y10.085 Z-3.084
X138.037 Y10.184 Z-3.087
X138.025 Y10.283 Z-3.091
X137.997 Y10.378 Z-3.094
X137.955 Y10.468 Z-3.098
X137.898 Y10.549 Z-3.101
X137.83 Y10.621 Z-3.105
X137.75 Y10.681 Z-3.108
X137.662 Y10.727 Z-3.111
X137.568 Y10.759 Z-3.115
X137.47 Y10.775 Z-3.118
X137.371 Z-3.122
X137.272 Y10.759 Z-3.125
X137.178 Y10.728 Z-3.129
X137.09 Y10.682 Z-3.132
X137.01 Y10.622 Z-3.136
X136.941 Y10.551 Z-3.139
X136.885 Y10.469 Z-3.143
X136.842 Y10.38 Z-3.146
X136.814 Y10.284 Z-3.15
X136.802 Y10.186 Z-3.153
X136.805 Y10.086 Z-3.157
X136.825 Y9.989 Z-3.16
X136.859 Y9.896 Z-3.164
X136.909 Y9.81 Z-3.167
X136.971 Y9.732 Z-3.171
X137.045 Y9.666 Z-3.174
X137.129 Y9.613 Z-3.177
X137.22 Y9.573 Z-3.181
X137.316 Y9.549 Z-3.184
X137.415 Y9.54 Z-3.188
X137.515 Y9.548 Z-3.191
X137.611 Y9.571 Z-3.195
X137.703 Y9.609 Z-3.198
X137.787 Y9.661 Z-3.202
X137.862 Y9.727 Z-3.205
X137.925 Y9.803 Z-3.209
X137.976 Y9.889 Z-3.212
X138.012 Y9.982 Z-3.216
X138.032 Y10.079 Z-3.219
X138.179 Y11.208 F1499.
Y18.102
X136.911
X136.909 Y10.832
X136.906 Y10.775
X136.898 Y10.719
X136.73 Y9.851
X136.717 Y9.797
X136.699 Y9.745
X136.642 Y9.601
X136.615 Y9.543
X136.582 Y9.488
X136.086 Y8.748
X136.046 Y8.695
X136.001 Y8.648
X135.901 Y8.553
X135.863 Y8.519
X135.821 Y8.489
X135.095 Y8.006
X135.037 Y7.972
X134.975 Y7.945
X134.831 Y7.89
X134.784 Y7.875
X134.737 Y7.864
X133.918 Y7.701
X133.864 Y7.693
X133.809 Y7.69
X133.328 Y7.684
X133.321
X127.232
Y6.786
X133.764
X134.95 Y6.941
X135.561 Y7.189
X136.007 Y7.373
X136.46 Y7.721
X136.904 Y8.061
X137.593 Y8.963
X138.02 Y9.993
X138.024 Y10.012
X138.032 Y10.079
X138.031 Y10.114
X138.017 Y10.147
X137.993 Y10.174
X137.961 Y10.19
X137.926 Y10.195
X137.423 Y10.176
X136.96 Y10.376
X136.926 Y10.385
X136.89 Y10.381
X136.858 Y10.365
X136.833 Y10.339
X136.819 Y10.307
X136.803 Y10.21 Z-3.223 F333.
Y10.111 Z-3.226
X136.818 Y10.014 Z-3.229
X136.848 Y9.921 Z-3.233
X136.893 Y9.834 Z-3.236
X136.951 Y9.755 Z-3.24
X137.021 Y9.686 Z-3.243
X137.101 Y9.628 Z-3.247
X137.189 Y9.585 Z-3.25
X137.283 Y9.555 Z-3.253
X137.38 Y9.541 Z-3.257
X137.478 Y9.543 Z-3.26
X137.575 Y9.56 Z-3.264
X137.667 Y9.592 Z-3.267
X137.754 Y9.638 Z-3.271
X137.832 Y9.698 Z-3.274
X137.9 Y9.769 Z-3.277
X137.955 Y9.85 Z-3.281
X137.997 Y9.939 Z-3.284
X138.025 Y10.033 Z-3.288
X138.037 Y10.13 Z-3.291
X138.034 Y10.229 Z-3.295
X138.015 Y10.325 Z-3.298
X137.981 Y10.417 Z-3.302
X137.933 Y10.503 Z-3.305
X137.872 Y10.58 Z-3.308
X137.8 Y10.646 Z-3.312
X137.718 Y10.7 Z-3.315
X137.628 Y10.74 Z-3.319
X137.533 Y10.766 Z-3.322
X137.436 Y10.777 Z-3.326
X137.338 Y10.771 Z-3.329
X137.242 Y10.751 Z-3.332
X137.15 Y10.715 Z-3.336
X137.065 Y10.666 Z-3.339
X136.99 Y10.603 Z-3.343
X136.925 Y10.53 Z-3.346
X136.872 Y10.447 Z-3.35
X136.833 Y10.356 Z-3.353
X136.81 Y10.261 Z-3.356
X136.801 Y10.163 Z-3.36
X136.808 Y10.065 Z-3.363
X136.83 Y9.97 Z-3.367
X136.868 Y9.879 Z-3.37
X136.919 Y9.795 Z-3.374
X136.983 Y9.721 Z-3.377
X137.058 Y9.657 Z-3.38
X137.141 Y9.606 Z-3.384
X137.232 Y9.569 Z-3.387
X137.328 Y9.547 Z-3.391
X137.426 Y9.54 Z-3.394
X137.524 Y9.549 Z-3.398
X137.619 Y9.573 Z-3.401
X137.709 Y9.612 Z-3.404
X137.792 Y9.665 Z-3.408
X137.865 Y9.73 Z-3.411
X137.927 Y9.806 Z-3.415
X137.977 Y9.891 Z-3.418
X138.012 Y9.983 Z-3.422
X138.032 Y10.079 Z-3.425
X138.179 Y11.208 F1499.
Y18.102
X136.911
X136.909 Y10.832
X136.906 Y10.775
X136.898 Y10.719
X136.73 Y9.851
X136.717 Y9.797
X136.699 Y9.745
X136.642 Y9.601
X136.615 Y9.543
X136.582 Y9.488
X136.086 Y8.748
X136.046 Y8.695
X136.001 Y8.648
X135.901 Y8.553
X135.863 Y8.519
X135.821 Y8.489
X135.095 Y8.006
X135.037 Y7.972
X134.975 Y7.945
X134.831 Y7.89
X134.784 Y7.875
X134.737 Y7.864
X133.918 Y7.701
X133.864 Y7.693
X133.809 Y7.69
X133.328 Y7.684
X133.321
X127.232
Y6.786
X133.764
X134.95 Y6.941
X135.561 Y7.189
X136.007 Y7.373
X136.46 Y7.721
X136.904 Y8.061
X137.593 Y8.963
X138.02 Y9.993
X138.024 Y10.012
X138.032 Y10.079
X138.034 Y10.124 Z-3.416
X138.027 Y10.169 Z-3.407
X138.014 Y10.206 Z-3.381
X137.996 Y10.24 Z-3.355
X137.963 Y10.279 Z-3.278
X137.95 Y10.292 Z-3.187
G0 Z5.
X138.156 Y22.949
G1 Z-0.51 F381.
X138.16 Y22.96 Z-0.586 F333.
X138.167 Y22.995 Z-0.653
X138.176 Y23.049 Z-0.706
X138.179 Y23.118 Z-0.739
X138.177 Y23.176 Z-0.748
X138.16 Y23.275 Z-0.752
X138.127 Y23.371 Z-0.755
X138.08 Y23.459 Z-0.759
X138.019 Y23.54 Z-0.762
X137.946 Y23.609 Z-0.766
X137.864 Y23.666 Z-0.769
X137.773 Y23.71 Z-0.773
X137.677 Y23.738 Z-0.776
X137.577 Y23.751 Z-0.78
X137.477 Y23.749 Z-0.784
X137.378 Y23.73 Z-0.787
X137.283 Y23.696 Z-0.791
X137.195 Y23.647 Z-0.794
X137.116 Y23.585 Z-0.798
X137.047 Y23.511 Z-0.801
X136.992 Y23.428 Z-0.805
X136.949 Y23.337 Z-0.808
X136.922 Y23.24 Z-0.812
X136.911 Y23.14 Z-0.815
X136.916 Y23.039 Z-0.819
X136.936 Y22.941 Z-0.822
X136.971 Y22.847 Z-0.826
X137.022 Y22.76 Z-0.829
X137.085 Y22.681 Z-0.833
X137.159 Y22.614 Z-0.836
X137.244 Y22.56 Z-0.84
X137.336 Y22.519 Z-0.843
X137.433 Y22.493 Z-0.847
X137.533 Y22.484 Z-0.85
X137.634 Y22.49 Z-0.854
X137.732 Y22.512 Z-0.857
X137.825 Y22.549 Z-0.861
X137.912 Y22.6 Z-0.864
X137.989 Y22.665 Z-0.868
X138.055 Y22.74 Z-0.871
X138.108 Y22.826 Z-0.875
X138.147 Y22.918 Z-0.878
X138.171 Y23.016 Z-0.882
X138.179 Y23.116 Z-0.885
X138.172 Y23.217 Z-0.889
X138.148 Y23.314 Z-0.892
X138.11 Y23.407 Z-0.896
X138.057 Y23.493 Z-0.9
X137.991 Y23.569 Z-0.903
X137.914 Y23.634 Z-0.907
X137.828 Y23.686 Z-0.91
X137.735 Y23.723 Z-0.914
X137.637 Y23.746 Z-0.917
X137.536 Y23.752 Z-0.921
X137.436 Y23.743 Z-0.924
X137.339 Y23.718 Z-0.928
X137.247 Y23.678 Z-0.931
X137.162 Y23.624 Z-0.935
X137.087 Y23.557 Z-0.938
X137.023 Y23.479 Z-0.942
X136.973 Y23.392 Z-0.945
X136.937 Y23.298 Z-0.949
X136.916 Y23.2 Z-0.952
X136.911 Y23.099 Z-0.956
X136.922 Y22.999 Z-0.959
X136.948 Y22.902 Z-0.963
X136.99 Y22.811 Z-0.966
X137.045 Y22.727 Z-0.97
X137.114 Y22.653 Z-0.973
X137.192 Y22.591 Z-0.977
X137.28 Y22.541 Z-0.98
X137.375 Y22.507 Z-0.984
X137.473 Y22.488 Z-0.987
X137.574 Y22.484 Z-0.991
X137.674 Y22.497 Z-0.994
X137.77 Y22.525 Z-0.998
X137.861 Y22.568 Z-1.001
X137.944 Y22.625 Z-1.005
X138.017 Y22.694 Z-1.008
X138.078 Y22.774 Z-1.012
X138.126 Y22.862 Z-1.016
X138.159 Y22.957 Z-1.019
X138.176 Y23.056 Z-1.023
X138.178 Y23.157 Z-1.026
X138.164 Y23.256 Z-1.03
X138.134 Y23.353 Z-1.033
X138.09 Y23.443 Z-1.037
X138.032 Y23.525 Z-1.04
X137.961 Y23.597 Z-1.044
X137.881 Y23.656 Z-1.047
X137.791 Y23.703 Z-1.051
X137.696 Y23.734 Z-1.054
X137.596 Y23.75 Z-1.058
X137.496 Z-1.061
X137.397 Y23.735 Z-1.065
X137.301 Y23.703 Z-1.068
X137.212 Y23.658 Z-1.072
X137.13 Y23.598 Z-1.075
X137.06 Y23.527 Z-1.079
X137.001 Y23.445 Z-1.082
X136.956 Y23.355 Z-1.086
X136.926 Y23.259 Z-1.089
X136.912 Y23.159 Z-1.093
X136.913 Y23.059 Z-1.096
X136.931 Y22.96 Z-1.1
X136.963 Y22.865 Z-1.103
X137.011 Y22.776 Z-1.107
X137.072 Y22.696 Z-1.11
X137.144 Y22.626 Z-1.114
X137.227 Y22.569 Z-1.117
X137.318 Y22.526 Z-1.121
X137.414 Y22.497 Z-1.124
X137.514 Y22.484 Z-1.128
X137.614 Y22.487 Z-1.132
X137.713 Y22.506 Z-1.135
X137.808 Y22.54 Z-1.139
X137.896 Y22.589 Z-1.142
X137.975 Y22.651 Z-1.146
X138.043 Y22.725 Z-1.149
X138.099 Y22.809 Z-1.153
X138.141 Y22.9 Z-1.156
X138.168 Y22.997 Z-1.16
X138.179 Y23.097 Z-1.163
X138.174 Y23.197 Z-1.167
X138.154 Y23.296 Z-1.17
X138.118 Y23.39 Z-1.174
X138.068 Y23.477 Z-1.177
X138.005 Y23.555 Z-1.181
X137.93 Y23.622 Z-1.184
X137.845 Y23.677 Z-1.188
X137.753 Y23.717 Z-1.191
X137.656 Y23.743 Z-1.195
X137.556 Y23.752 Z-1.198
X137.456 Y23.746 Z-1.202
X137.357 Y23.724 Z-1.205
X137.264 Y23.687 Z-1.209
X137.178 Y23.635 Z-1.212
X137.101 Y23.571 Z-1.216
X137.035 Y23.495 Z-1.219
X136.982 Y23.409 Z-1.223
X136.943 Y23.317 Z-1.226
X136.919 Y23.219 Z-1.23
X136.911 Y23.119 Z-1.233
X136.918 Y23.018 Z-1.237
X136.942 Y22.921 Z-1.24
X136.981 Y22.828 Z-1.244
X137.034 Y22.742 Z-1.248
X137.099 Y22.666 Z-1.251
X137.176 Y22.602 Z-1.255
X137.263 Y22.55 Z-1.258
X137.356 Y22.512 Z-1.262
X137.454 Y22.49 Z-1.265
X137.554 Y22.484 Z-1.269
X137.654 Y22.493 Z-1.272
X137.752 Y22.518 Z-1.276
X137.844 Y22.558 Z-1.279
X137.929 Y22.613 Z-1.283
X138.004 Y22.68 Z-1.286
X138.067 Y22.758 Z-1.29
X138.118 Y22.845 Z-1.293
X138.154 Y22.939 Z-1.297
X138.174 Y23.037 Z-1.3
X138.179 Y23.137 Z-1.304
X138.168 Y23.237 Z-1.307
X138.141 Y23.334 Z-1.311
X138.1 Y23.426 Z-1.314
X138.044 Y23.51 Z-1.318
X137.976 Y23.584 Z-1.321
X137.897 Y23.646 Z-1.325
X137.809 Y23.695 Z-1.328
X137.715 Y23.729 Z-1.332
X137.616 Y23.748 Z-1.335
X137.515 Y23.752 Z-1.339
X137.416 Y23.739 Z-1.342
X137.319 Y23.711 Z-1.346
X137.228 Y23.668 Z-1.349
X137.145 Y23.611 Z-1.353
X137.073 Y23.541 Z-1.356
X137.012 Y23.461 Z-1.36
X136.964 Y23.373 Z-1.364
X136.931 Y23.278 Z-1.367
X136.914 Y23.179 Z-1.371
X136.912 Y23.078 Z-1.374
X136.926 Y22.979 Z-1.378
X136.956 Y22.883 Z-1.381
X137. Y22.792 Z-1.385
X137.059 Y22.71 Z-1.388
X137.129 Y22.639 Z-1.392
X137.21 Y22.579 Z-1.395
X137.3 Y22.533 Z-1.399
X137.395 Y22.502 Z-1.402
X137.494 Y22.486 Z-1.406
X137.595 Y22.485 Z-1.409
X137.694 Y22.501 Z-1.413
X137.79 Y22.533 Z-1.416
X137.879 Y22.579 Z-1.42
X137.96 Y22.638 Z-1.423
X138.031 Y22.71 Z-1.427
X138.089 Y22.792 Z-1.43
X138.134 Y22.882 Z-1.434
X138.164 Y22.978 Z-1.437
X138.178 Y23.077 Z-1.441
X138.177 Y23.178 Z-1.444
X138.159 Y23.277 Z-1.448
X138.126 Y23.372 Z-1.451
X138.079 Y23.461 Z-1.455
X138.018 Y23.541 Z-1.458
X137.945 Y23.61 Z-1.462
X137.862 Y23.667 Z-1.465
X137.772 Y23.71 Z-1.469
X137.675 Y23.739 Z-1.472
X137.575 Y23.752 Z-1.476
X137.475 Y23.748 Z-1.48
X137.376 Y23.729 Z-1.483
X137.282 Y23.695 Z-1.487
X137.194 Y23.646 Z-1.49
X137.115 Y23.584 Z-1.494
X137.046 Y23.51 Z-1.497
X136.991 Y23.427 Z-1.501
X136.949 Y23.335 Z-1.504
X136.922 Y23.238 Z-1.508
X136.911 Y23.138 Z-1.511
X136.916 Y23.038 Z-1.515
X136.936 Y22.939 Z-1.518
X136.972 Y22.845 Z-1.522
X137.022 Y22.758 Z-1.525
X137.086 Y22.68 Z-1.529
X137.161 Y22.613 Z-1.532
X137.245 Y22.559 Z-1.536
X137.337 Y22.518 Z-1.539
X137.435 Y22.493 Z-1.543
X137.535 Y22.484 Z-1.546
X137.635 Y22.49 Z-1.55
X137.733 Y22.512 Z-1.553
X137.827 Y22.549 Z-1.557
X137.913 Y22.601 Z-1.56
X137.99 Y22.666 Z-1.564
X138.056 Y22.742 Z-1.567
X138.109 Y22.827 Z-1.571
X138.148 Y22.92 Z-1.574
X138.171 Y23.018 Z-1.578
X138.179 Y23.118 Z-1.581
Y40.102 F1499.
X136.911
Y22.484
X138.179
Y23.118
X138.173 Y23.155
X138.154 Y23.187
X138.125 Y23.21
X138.09 Y23.222
X138.053
X137.545 Y23.121
X137.04 Y23.232
X137.002 Y23.233
X136.967 Y23.222
X136.938 Y23.199
X136.918 Y23.167
X136.911 Y23.13
X136.917 Y23.031 Z-1.585 F333.
X136.938 Y22.933 Z-1.588
X136.974 Y22.841 Z-1.592
X137.025 Y22.755 Z-1.595
X137.088 Y22.678 Z-1.599
X137.163 Y22.611 Z-1.602
X137.247 Y22.558 Z-1.606
X137.339 Y22.518 Z-1.609
X137.435 Y22.493 Z-1.613
X137.535 Y22.484 Z-1.616
X137.634 Y22.49 Z-1.62
X137.731 Y22.512 Z-1.623
X137.824 Y22.548 Z-1.627
X137.91 Y22.599 Z-1.63
X137.987 Y22.663 Z-1.634
X138.053 Y22.738 Z-1.637
X138.106 Y22.822 Z-1.641
X138.146 Y22.914 Z-1.644
X138.17 Y23.01 Z-1.648
X138.179 Y23.11 Z-1.651
X138.173 Y23.209 Z-1.655
X138.151 Y23.306 Z-1.658
X138.114 Y23.399 Z-1.662
X138.063 Y23.485 Z-1.665
X137.999 Y23.561 Z-1.669
X137.924 Y23.627 Z-1.672
X137.839 Y23.68 Z-1.676
X137.747 Y23.719 Z-1.679
X137.651 Y23.743 Z-1.683
X137.551 Y23.752 Z-1.686
X137.452 Y23.745 Z-1.69
X137.355 Y23.723 Z-1.693
X137.262 Y23.686 Z-1.697
X137.177 Y23.634 Z-1.7
X137.1 Y23.57 Z-1.704
X137.035 Y23.495 Z-1.707
X136.982 Y23.41 Z-1.71
X136.943 Y23.318 Z-1.714
X136.919 Y23.221 Z-1.717
X136.911 Y23.122 Z-1.721
X136.918 Y23.023 Z-1.724
X136.941 Y22.925 Z-1.728
X136.978 Y22.833 Z-1.731
X137.03 Y22.748 Z-1.735
X137.094 Y22.672 Z-1.738
X137.17 Y22.606 Z-1.742
X137.255 Y22.554 Z-1.745
X137.347 Y22.515 Z-1.749
X137.443 Y22.492 Z-1.752
X137.543 Y22.484 Z-1.756
X137.642 Y22.491 Z-1.759
X137.739 Y22.514 Z-1.763
X137.832 Y22.552 Z-1.766
X137.917 Y22.604 Z-1.77
X137.993 Y22.669 Z-1.773
X138.058 Y22.744 Z-1.777
X138.11 Y22.829 Z-1.78
X138.148 Y22.921 Z-1.784
X138.172 Y23.018 Z-1.787
X138.179 Y23.118 Z-1.791
Y40.102 F1499.
X136.911
Y22.484
X138.179
Y23.118
X138.175 Y23.163 Z-1.782
X138.162 Y23.207 Z-1.773
X138.145 Y23.241 Z-1.747
X138.122 Y23.273 Z-1.721
X138.085 Y23.308 Z-1.644
X138.07 Y23.318 Z-1.553
G0 Z5.
X137.092 Y39.023
G1 Z-1.126 F381.
X137.105 Y39.011 Z-1.215 F333.
X137.142 Y38.978 Z-1.291
X137.202 Y38.934 Z-1.344
X137.279 Y38.892 Z-1.364
X137.373 Y38.857 Z-1.367
X137.472 Y38.838 Z-1.371
X137.573 Y38.834 Z-1.375
X137.672 Y38.846 Z-1.378
X137.769 Y38.874 Z-1.382
X137.86 Y38.917 Z-1.385
X137.943 Y38.974 Z-1.389
X138.016 Y39.043 Z-1.392
X138.077 Y39.122 Z-1.396
X138.125 Y39.211 Z-1.399
X138.158 Y39.306 Z-1.403
X138.176 Y39.405 Z-1.406
X138.178 Y39.505 Z-1.41
X138.164 Y39.605 Z-1.413
X138.135 Y39.701 Z-1.417
X138.091 Y39.791 Z-1.42
X138.033 Y39.873 Z-1.424
