(NMJPLATE0PT0PT4_BOTTOM_STEP3_132IN)
(T4  D=0.787 CR=0. - ZMIN=-1. - FLAT END MILL)
G0 G90 G94 G17
G21
G53 G0 Z0.

(MUSCLE PLINTH)
M5
T4
M3 S10000
G55
M8
G0 X120.856 Y21.64
Z15.
Z1.076
G1 Z0.003 F85.
X120.853 Y21.65 Z-0.037
X120.839 Y21.675 Z-0.066
X120.824 Y21.688 Z-0.071
X120.807 Y21.697 Z-0.076
X120.596 Y21.774 F254.
X120.568 Y21.787
X120.542 Y21.804
X120.485 Y21.849
X120.457 Y21.876
X120.434 Y21.907
X120.395 Y21.977
X120.38 Y22.011
X120.371 Y22.047
X120.362 Y22.115
X120.36 Y22.14
X120.359 Y22.257
X120.348 Y22.234
X120.33 Y22.147
Y20.583
X120.348 Y20.496
X120.362 Y20.467
X120.365 Y20.643
X120.369 Y20.681
X120.381 Y20.717
X120.409 Y20.783
X120.427 Y20.816
X120.451 Y20.845
X120.506 Y20.9
X120.539 Y20.926
X120.576 Y20.945
X121.122 Y21.149
X121.387 Y21.246
Y21.484
X120.807 Y21.697
X120.791 Y21.696
X120.782 Y21.682
X120.787 Y21.667
X120.824 Y21.626
X120.839 Y21.62
X120.853 Y21.627
X120.856 Y21.642
X120.853 Y21.652 Z-0.114 F85.
X120.838 Y21.676 Z-0.142
X120.824 Y21.688 Z-0.147
X120.807 Y21.697 Z-0.152
X120.575 Y21.783 F254.
X120.537 Y21.802
X120.504 Y21.828
X120.448 Y21.884
X120.424 Y21.913
X120.406 Y21.947
X120.377 Y22.014
X120.366 Y22.05
X120.362 Y22.088
X120.36 Y22.259
X120.348 Y22.234
X120.33 Y22.147
Y20.583
X120.348 Y20.496
X120.36 Y20.471
X120.362 Y20.642
X120.366 Y20.68
X120.377 Y20.716
X120.406 Y20.783
X120.424 Y20.817
X120.448 Y20.846
X120.504 Y20.902
X120.537 Y20.928
X120.575 Y20.947
X121.385 Y21.247
Y21.483
X120.807 Y21.697
X120.782 Y21.698
X120.762 Y21.684
X120.754 Y21.661
X120.761 Y21.637
X120.781 Y21.623
X120.793 Y21.619
X120.814 Y21.618
X120.832 Y21.628
X120.843 Y21.646
Y21.667
X120.832 Y21.685
X120.814 Y21.693
X120.795 Y21.688
X120.784 Y21.672
Y21.652
X120.796 Y21.623
X120.807 Y21.609
X120.824 Y21.604
X120.841 Y21.609
X120.851 Y21.623
X120.852 Y21.641
X120.849 Y21.65 Z-0.191 F85.
X120.835 Y21.674 Z-0.218
X120.82 Y21.687 Z-0.223
X120.803 Y21.695 Z-0.229
X120.573 Y21.78 F254.
X120.535 Y21.799
X120.502 Y21.825
X120.445 Y21.883
X120.42 Y21.913
X120.402 Y21.947
X120.374 Y22.015
X120.363 Y22.051
X120.359 Y22.089
X120.358 Y22.252
X120.343 Y22.217
X120.328 Y22.126
X120.33 Y20.583
X120.348 Y20.496
X120.358 Y20.476
X120.359 Y20.641
X120.363 Y20.679
X120.374 Y20.715
X120.402 Y20.783
X120.42 Y20.817
X120.445 Y20.847
X120.502 Y20.904
X120.535 Y20.931
X120.573 Y20.95
X121.382 Y21.249
Y21.481
X120.803 Y21.695
X120.779 Y21.696
X120.759 Y21.682
X120.75 Y21.659
X120.757 Y21.636
X120.777 Y21.621
X120.789 Y21.617
X120.811 Y21.615
X120.829 Y21.625
X120.84 Y21.643
Y21.665
X120.829 Y21.683
X120.811 Y21.691
X120.792 Y21.685
X120.781 Y21.67
X120.782 Y21.65
X120.793 Y21.621
X120.804 Y21.607
X120.821 Y21.602
X120.838 Y21.607
X120.849 Y21.621
Y21.639
X120.846 Y21.649 Z-0.267 F85.
X120.832 Y21.672 Z-0.295
X120.817 Y21.685 Z-0.3
X120.8 Y21.693 Z-0.305
X120.571 Y21.778 F254.
X120.533 Y21.797
X120.501 Y21.823
X120.442 Y21.881
X120.417 Y21.912
X120.398 Y21.948
X120.369 Y22.02
X120.359 Y22.055
X120.355 Y22.091
X120.354 Y22.244
X120.343 Y22.217
X120.328 Y22.126
X120.33 Y20.583
X120.348 Y20.496
X120.355 Y20.482
X120.356 Y20.641
X120.36 Y20.678
X120.37 Y20.714
X120.398 Y20.783
X120.417 Y20.818
X120.442 Y20.849
X120.501 Y20.907
X120.533 Y20.933
X120.571 Y20.952
X121.379 Y21.251
Y21.479
X120.8 Y21.693
X120.776 Y21.694
X120.756 Y21.68
X120.747 Y21.657
X120.755 Y21.634
X120.774 Y21.619
X120.786 Y21.615
X120.807 Y21.614
X120.826 Y21.624
X120.837 Y21.642
X120.836 Y21.663
X120.825 Y21.681
X120.807 Y21.689
X120.788 Y21.684
X120.777 Y21.668
X120.778 Y21.649
X120.79 Y21.618
X120.801 Y21.605
X120.818 Y21.6
X120.835 Y21.605
X120.845 Y21.619
X120.846 Y21.637
X120.843 Y21.646 Z-0.343 F85.
X120.828 Y21.67 Z-0.371
X120.814 Y21.682 Z-0.376
X120.797 Y21.691 Z-0.381
X120.571 Y21.774 F254.
X120.536 Y21.792
X120.504 Y21.816
X120.447 Y21.87
X120.42 Y21.901
X120.4 Y21.937
X120.368 Y22.014
X120.357 Y22.051
X120.353 Y22.089
X120.352 Y22.238
X120.343 Y22.217
X120.328 Y22.126
X120.33 Y20.583
X120.348 Y20.496
X120.352 Y20.489
X120.353 Y20.641
X120.357 Y20.679
X120.368 Y20.716
X120.4 Y20.793
X120.42 Y20.828
X120.447 Y20.859
X120.504 Y20.914
X120.536 Y20.938
X120.571 Y20.956
X121.377 Y21.253
Y21.477
X120.797 Y21.691
X120.772 Y21.692
X120.752 Y21.678
X120.744 Y21.655
X120.751 Y21.631
X120.772 Y21.617
X120.782 Y21.613
X120.803
X120.822 Y21.623
X120.832 Y21.641
Y21.662
X120.82 Y21.68
X120.802 Y21.688
X120.784 Y21.682
X120.772 Y21.666
X120.773 Y21.647
X120.786 Y21.617
X120.797 Y21.603
X120.814 Y21.598
X120.83 Y21.604
X120.841 Y21.618
X120.842 Y21.635
X120.839 Y21.645 Z-0.419 F85.
X120.824 Y21.668 Z-0.447
X120.81 Y21.681 Z-0.452
X120.793 Y21.689 Z-0.457
X120.572 Y21.771 F254.
X120.538 Y21.787
X120.508 Y21.809
X120.451 Y21.86
X120.427 Y21.887
X120.408 Y21.917
X120.377 Y21.978
X120.364 Y22.011
X120.357 Y22.045
X120.348 Y22.12
X120.347 Y22.142
Y22.226
X120.343 Y22.217
X120.328 Y22.126
X120.33 Y20.583
X120.348 Y20.496
X120.35 Y20.641
X120.352 Y20.671
X120.36 Y20.701
X120.377 Y20.755
X120.392 Y20.788
X120.412 Y20.818
X120.469 Y20.887
X120.492 Y20.911
X120.519 Y20.93
X120.557 Y20.953
X120.591 Y20.969
X121.374 Y21.255
Y21.475
X120.793 Y21.689
X120.768 Y21.69
X120.748 Y21.677
X120.74 Y21.653
X120.747 Y21.63
X120.766 Y21.615
X120.778 Y21.611
X120.799 Y21.61
X120.818 Y21.62
X120.829 Y21.638
Y21.66
X120.817 Y21.678
X120.799 Y21.685
X120.78 Y21.68
X120.769 Y21.664
X120.77 Y21.645
X120.783 Y21.614
X120.794 Y21.601
X120.811 Y21.596
X120.827 Y21.602
X120.838 Y21.615
Y21.633
X120.835 Y21.643 Z-0.495 F85.
X120.821 Y21.666 Z-0.523
X120.806 Y21.679 Z-0.528
X120.789 Y21.687 Z-0.533
X120.572 Y21.767 F254.
X120.54 Y21.782
X120.512 Y21.802
X120.456 Y21.85
X120.429 Y21.879
X120.408 Y21.912
X120.371 Y21.986
X120.356 Y22.026
X120.35 Y22.068
X120.346 Y22.224
X120.343 Y22.217
X120.328 Y22.126
X120.33 Y20.583
X120.346 Y20.507
X120.347 Y20.641
X120.35 Y20.673
X120.358 Y20.704
X120.379 Y20.766
X120.395 Y20.8
X120.417 Y20.831
X120.473 Y20.896
X120.496 Y20.918
X120.523 Y20.936
X120.56 Y20.958
X120.591 Y20.972
X121.371 Y21.257
Y21.473
X120.789 Y21.687
X120.765 Y21.688
X120.745 Y21.674
X120.736 Y21.651
X120.744 Y21.628
X120.763 Y21.613
X120.775 Y21.609
X120.796 Y21.608
X120.815 Y21.618
X120.826 Y21.636
X120.825 Y21.657
X120.814 Y21.675
X120.796 Y21.683
X120.777 Y21.678
X120.766 Y21.662
X120.767 Y21.642
X120.779 Y21.612
X120.791 Y21.599
X120.807 Y21.594
X120.824 Y21.6
X120.834 Y21.613
X120.835 Y21.631
X120.832 Y21.641 Z-0.572 F85.
X120.817 Y21.664 Z-0.599
X120.803 Y21.677 Z-0.604
X120.786 Y21.685 Z-0.61
X120.572 Y21.764 F254.
X120.543 Y21.777
X120.515 Y21.796
X120.46 Y21.841
X120.432 Y21.869
X120.41 Y21.902
X120.371 Y21.978
X120.355 Y22.017
X120.349 Y22.058
X120.342 Y22.183
X120.341 Y22.194
Y22.206
X120.328 Y22.126
X120.33 Y20.583
X120.343 Y20.52
X120.344 Y20.641
X120.347 Y20.674
X120.355 Y20.706
X120.38 Y20.775
X120.397 Y20.811
X120.421 Y20.842
X120.477 Y20.903
X120.509 Y20.931
X120.546 Y20.952
X120.69 Y21.011
X120.698 Y21.014
X121.369 Y21.259
Y21.472
X120.786 Y21.685
X120.762 Y21.686
X120.742 Y21.673
X120.733 Y21.65
X120.74 Y21.626
X120.759 Y21.611
X120.773 Y21.606
X120.796 Y21.605
X120.816 Y21.617
X120.826 Y21.638
X120.822 Y21.661
X120.806 Y21.678
X120.783 Y21.682
X120.761 Y21.673
X120.749 Y21.653
X120.75 Y21.63
X120.758 Y21.606
X120.772 Y21.588
X120.795 Y21.58
X120.818 Y21.587
X120.832 Y21.606
X120.833 Y21.629
X120.83 Y21.639 Z-0.648 F85.
X120.816 Y21.663 Z-0.676
X120.801 Y21.675 Z-0.681
X120.784 Y21.684 Z-0.686
X120.564 Y21.765 F254.
X120.53 Y21.782
X120.499 Y21.805
X120.439 Y21.859
X120.414 Y21.887
X120.395 Y21.919
X120.366 Y21.979
X120.353 Y22.016
X120.347 Y22.054
X120.339 Y22.182
Y22.191
X120.328 Y22.126
X120.33 Y20.583
X120.34 Y20.533
X120.341 Y20.64
X120.344 Y20.672
X120.351 Y20.704
X120.375 Y20.772
X120.389 Y20.804
X120.41 Y20.833
X120.454 Y20.887
X120.477 Y20.911
X120.504 Y20.93
X120.557 Y20.962
X120.591 Y20.978
X121.366 Y21.261
Y21.47
X120.784 Y21.684
X120.76 Y21.685
X120.74 Y21.671
X120.731 Y21.648
X120.738 Y21.625
X120.758 Y21.61
X120.77 Y21.606
X120.791 Y21.604
X120.81 Y21.614
X120.821 Y21.633
X120.82 Y21.654
X120.809 Y21.672
X120.791 Y21.68
X120.772 Y21.674
X120.761 Y21.658
X120.762 Y21.639
X120.775 Y21.609
X120.786 Y21.595
X120.802 Y21.591
X120.819 Y21.596
X120.829 Y21.61
X120.83 Y21.627
X120.827 Y21.637 Z-0.724 F85.
X120.812 Y21.661 Z-0.752
X120.798 Y21.673 Z-0.757
X120.781 Y21.682 Z-0.762
X120.564 Y21.761 F254.
X120.531 Y21.777
X120.502 Y21.798
X120.443 Y21.851
X120.417 Y21.878
X120.397 Y21.91
X120.365 Y21.972
X120.351 Y22.01
X120.345 Y22.049
X120.337 Y22.178
X120.328 Y22.126
X120.33 Y20.583
X120.338 Y20.547
Y20.64
X120.341 Y20.673
X120.349 Y20.705
X120.376 Y20.78
X120.391 Y20.814
X120.413 Y20.844
X120.457 Y20.894
X120.48 Y20.917
X120.506 Y20.936
X120.56 Y20.967
X120.591 Y20.981
X121.363 Y21.262
Y21.468
X120.781 Y21.682
X120.757 Y21.683
X120.737 Y21.669
X120.728 Y21.646
X120.735 Y21.622
X120.755 Y21.608
X120.767 Y21.603
X120.788 Y21.602
X120.807 Y21.612
X120.818 Y21.63
X120.817 Y21.652
X120.806 Y21.67
X120.788 Y21.677
X120.769 Y21.672
X120.758 Y21.656
X120.759 Y21.636
X120.772 Y21.606
X120.783 Y21.593
X120.799 Y21.588
X120.816 Y21.594
X120.827 Y21.608
Y21.625
X120.824 Y21.635 Z-0.8 F85.
X120.809 Y21.659 Z-0.828
X120.795 Y21.671 Z-0.833
X120.778 Y21.68 Z-0.838
X120.564 Y21.758 F254.
X120.533 Y21.773
X120.505 Y21.793
X120.446 Y21.842
X120.42 Y21.87
X120.399 Y21.901
X120.365 Y21.966
X120.349 Y22.004
X120.342 Y22.045
X120.335 Y22.166
X120.328 Y22.126
X120.33 Y20.583
X120.337 Y20.55
X120.338 Y20.658
X120.342 Y20.695
X120.353 Y20.731
X120.379 Y20.796
X120.395 Y20.826
X120.416 Y20.853
X120.46 Y20.902
X120.483 Y20.923
X120.509 Y20.941
X120.562 Y20.971
X120.591 Y20.984
X121.361 Y21.264
Y21.466
X120.778 Y21.68
X120.754
X120.734 Y21.667
X120.725 Y21.644
X120.732 Y21.62
X120.752 Y21.605
X120.764 Y21.601
X120.785 Y21.6
X120.804 Y21.61
X120.815 Y21.628
X120.814 Y21.65
X120.803 Y21.668
X120.785 Y21.675
X120.766 Y21.67
X120.755 Y21.654
X120.756 Y21.634
X120.769 Y21.604
X120.78 Y21.591
X120.797 Y21.586
X120.813 Y21.592
X120.824 Y21.606
Y21.623
X120.821 Y21.633 Z-0.876 F85.
X120.807 Y21.656 Z-0.904
X120.792 Y21.669 Z-0.909
X120.775 Y21.678 Z-0.914
X120.564 Y21.755 F254.
X120.535 Y21.768
X120.508 Y21.787
X120.449 Y21.835
X120.422 Y21.861
X120.4 Y21.893
X120.364 Y21.96
X120.349 Y21.996
X120.341 Y22.034
X120.332 Y22.122
X120.331 Y22.142
X120.328 Y22.126
X120.33 Y20.583
X120.334 Y20.562
X120.335 Y20.659
X120.339 Y20.698
X120.351 Y20.735
X120.381 Y20.804
X120.397 Y20.835
X120.419 Y20.863
X120.463 Y20.909
X120.486 Y20.93
X120.512 Y20.947
X120.565 Y20.975
X120.591 Y20.987
X121.358 Y21.266
Y21.464
X120.775 Y21.678
X120.75
X120.73 Y21.664
X120.722 Y21.641
X120.73 Y21.617
X120.75 Y21.603
X120.754 Y21.602
X120.776
X120.795 Y21.614
X120.804 Y21.635
X120.801 Y21.657
X120.785 Y21.673
X120.77 Y21.676
X120.756 Y21.668
X120.752 Y21.653
X120.758 Y21.639
X120.775 Y21.622
X120.79 Y21.616
X120.805 Y21.621
X120.813 Y21.636
X120.808 Y21.652
X120.804 Y21.656 Z-0.936 F85.
X120.792 Y21.666 Z-0.951
X120.774 Y21.676 Z-0.957
X120.564 Y21.753 F254.
X120.536 Y21.766
X120.509 Y21.784
X120.451 Y21.83
X120.423 Y21.857
X120.401 Y21.889
X120.364 Y21.957
X120.348 Y21.993
X120.34 Y22.032
X120.33 Y22.122
X120.329 Y22.134
X120.328 Y22.126
X120.33 Y20.583
X120.333 Y20.569
X120.334 Y20.66
X120.337 Y20.695
X120.347 Y20.729
X120.368 Y20.786
X120.384 Y20.818
X120.405 Y20.846
X120.458 Y20.906
X120.484 Y20.93
X120.513 Y20.949
X120.567 Y20.978
X120.591 Y20.989
X121.357 Y21.267
Y21.463
X120.774 Y21.676
X120.755 Y21.678
X120.738 Y21.672
X120.726 Y21.659
X120.612 Y21.464
X120.542 Y21.414
X120.528 Y21.408
X120.514 Y21.407
X120.379 Y21.425
X120.357 Y21.421
X120.341 Y21.406
X120.338 Y21.401 Z-0.979 F85.
X120.332 Y21.386 Z-0.994
X120.329 Y21.365 Z-1.
X120.33 Y20.583 F254.
X120.332 Y20.575
Y20.661
X120.336 Y20.696
X120.346 Y20.731
X120.369 Y20.79
X120.385 Y20.822
X120.406 Y20.851
X120.459 Y20.909
X120.485 Y20.933
X120.514 Y20.952
X120.568 Y20.98
X120.591 Y20.99
X121.355 Y21.268
Y21.462
X120.564 Y21.751
X120.536 Y21.764
X120.511 Y21.781
X120.452 Y21.827
X120.424 Y21.854
X120.402 Y21.885
X120.363 Y21.954
X120.347 Y21.991
X120.339 Y22.03
X120.329 Y22.121
X120.328 Y22.128
X120.329 Y21.365
X120.332 Y21.346 Z-0.995
X120.339 Y21.328 Z-0.989
X120.357 Y21.305 Z-0.961
X120.366 Y21.299 Z-0.921
G0 Z5.
X124.146 Y21.3
Z1.076
G1 Z0.003 F85.
X124.154 Y21.306 Z-0.037
X124.172 Y21.328 Z-0.066
X124.18 Y21.347 Z-0.071
X124.182 Y21.366 Z-0.076
Y22.147 F254.
X124.164 Y22.234
X124.15 Y22.262
X124.148 Y22.087
X124.143 Y22.049
X124.132 Y22.012
X124.104 Y21.947
X124.085 Y21.914
X124.061 Y21.885
X124.006 Y21.83
X123.974 Y21.804
X123.936 Y21.785
X123.39 Y21.581
X123.125 Y21.484
Y21.246
X123.917 Y20.956
X123.944 Y20.943
X123.97 Y20.926
X124.028 Y20.881
X124.056 Y20.855
X124.078 Y20.823
X124.118 Y20.753
X124.133 Y20.719
X124.142 Y20.683
X124.151 Y20.615
X124.153 Y20.589
X124.154 Y20.475
X124.164 Y20.496
X124.182 Y20.583
Y21.366
X124.175 Y21.387
X124.158 Y21.401
X124.136 Y21.402
X124.117 Y21.391
X124.107 Y21.371
X124.105 Y21.35
X124.108 Y21.329
X124.122 Y21.314
X124.142 Y21.308
X124.162 Y21.313
X124.176 Y21.329
X124.179 Y21.347
X124.172 Y21.364
X124.157 Y21.375
X124.138 Y21.377
X124.122 Y21.368
X124.105 Y21.353
X124.096 Y21.335
X124.097 Y21.316
X124.11 Y21.3
X124.129 Y21.294
X124.148 Y21.3
X124.156 Y21.306 Z-0.114 F85.
X124.173 Y21.328 Z-0.142
X124.18 Y21.346 Z-0.147
X124.182 Y21.365 Z-0.152
Y22.147 F254.
X124.164 Y22.234
X124.153 Y22.257
X124.151 Y22.088
X124.147 Y22.05
X124.135 Y22.014
X124.107 Y21.947
X124.089 Y21.913
X124.064 Y21.884
X124.008 Y21.827
X123.975 Y21.801
X123.938 Y21.783
X123.128 Y21.483
Y21.247
X123.938 Y20.947
X123.975 Y20.929
X124.008 Y20.902
X124.065 Y20.846
X124.089 Y20.817
X124.107 Y20.783
X124.135 Y20.716
X124.147 Y20.68
X124.151 Y20.642
X124.153 Y20.472
X124.164 Y20.496
X124.182 Y20.583
Y21.365
X124.175 Y21.379
X124.16 Y21.383
X124.148 Y21.373
X124.123 Y21.324
X124.122 Y21.308
X124.134 Y21.298
X124.149 Y21.301
X124.157 Y21.307 Z-0.191 F85.
X124.174 Y21.329 Z-0.218
X124.181 Y21.347 Z-0.223
X124.183 Y21.365 Z-0.229
X124.182 Y22.147 F254.
X124.164 Y22.234
X124.155 Y22.252
X124.154 Y22.089
X124.15 Y22.051
X124.139 Y22.015
X124.111 Y21.947
X124.092 Y21.912
X124.068 Y21.882
X124.01 Y21.825
X123.977 Y21.799
X123.939 Y21.78
X123.131 Y21.481
Y21.249
X123.94 Y20.95
X123.977 Y20.931
X124.01 Y20.905
X124.068 Y20.848
X124.092 Y20.818
X124.111 Y20.783
X124.139 Y20.715
X124.15 Y20.679
X124.154 Y20.641
X124.155 Y20.48
X124.169 Y20.513
X124.184 Y20.604
X124.183 Y21.365
X124.176 Y21.38
X124.161 Y21.383
X124.148 Y21.374
X124.122 Y21.324
Y21.308
X124.133 Y21.298
X124.149 Y21.301
X124.157 Y21.307 Z-0.267 F85.
X124.174 Y21.329 Z-0.295
X124.181 Y21.347 Z-0.3
X124.183 Y21.365 Z-0.305
X124.182 Y22.147 F254.
X124.164 Y22.234
X124.158 Y22.246
X124.157 Y22.087
X124.153 Y22.05
X124.142 Y22.013
X124.113 Y21.945
X124.095 Y21.91
X124.07 Y21.88
X124.011 Y21.822
X123.978 Y21.796
X123.941 Y21.778
X123.133 Y21.479
Y21.251
X123.941 Y20.952
X123.978 Y20.934
X124.011 Y20.908
X124.07 Y20.85
X124.095 Y20.82
X124.114 Y20.784
X124.142 Y20.714
X124.153 Y20.678
X124.157 Y20.641
X124.158 Y20.487
X124.169 Y20.513
X124.184 Y20.604
X124.183 Y21.365
X124.176 Y21.386
X124.159 Y21.4
X124.137 Y21.401
X124.118 Y21.39
X124.109 Y21.37
X124.107 Y21.35
X124.111 Y21.33
X124.124 Y21.315
X124.144 Y21.309
X124.164 Y21.315
X124.177 Y21.33
X124.179 Y21.353
X124.166 Y21.372
X124.145 Y21.378
X124.124 Y21.368
X124.107 Y21.352
X124.097 Y21.335
X124.099 Y21.315
X124.112 Y21.3
X124.13 Y21.295
X124.149 Y21.301
X124.157 Y21.307 Z-0.343 F85.
X124.174 Y21.329 Z-0.371
X124.181 Y21.347 Z-0.376
X124.183 Y21.365 Z-0.381
X124.182 Y22.147 F254.
X124.164 Y22.234
X124.161 Y22.24
X124.16 Y22.089
X124.156 Y22.05
X124.144 Y22.013
X124.111 Y21.935
X124.091 Y21.899
X124.064 Y21.868
X124.007 Y21.814
X123.976 Y21.791
X123.941 Y21.774
X123.136 Y21.477
Y21.253
X123.941 Y20.956
X123.976 Y20.939
X124.007 Y20.915
X124.064 Y20.862
X124.091 Y20.831
X124.111 Y20.795
X124.144 Y20.717
X124.156 Y20.68
X124.16 Y20.641
X124.161 Y20.494
X124.169 Y20.513
X124.184 Y20.604
X124.183 Y21.365
X124.176 Y21.38
X124.161 Y21.384
X124.148 Y21.374
X124.122 Y21.323
X124.121 Y21.307
X124.133 Y21.297
X124.149 Y21.299
X124.157 Y21.306 Z-0.419 F85.
X124.174 Y21.328 Z-0.447
X124.181 Y21.345 Z-0.452
X124.183 Y21.364 Z-0.457
X124.182 Y22.147 F254.
X124.164 Y22.234
X124.163 Y22.089
X124.16 Y22.058
X124.153 Y22.027
X124.134 Y21.972
X124.119 Y21.939
X124.098 Y21.908
X124.042 Y21.841
X124.018 Y21.818
X123.992 Y21.798
X123.954 Y21.776
X123.921 Y21.76
X123.139 Y21.475
Y21.255
X123.94 Y20.96
X123.973 Y20.944
X124.003 Y20.922
X124.059 Y20.872
X124.084 Y20.846
X124.103 Y20.816
X124.134 Y20.756
X124.148 Y20.723
X124.155 Y20.689
X124.165 Y20.611
X124.166 Y20.588
Y20.506
X124.169 Y20.513
X124.184 Y20.604
X124.183 Y21.364
X124.176 Y21.387
X124.156 Y21.402
X124.132
X124.112 Y21.388
X124.104 Y21.366
Y21.346
X124.11 Y21.324
X124.127 Y21.308
X124.151 Y21.306
X124.171 Y21.317
X124.182 Y21.338
X124.179 Y21.361
X124.163 Y21.378
X124.14 Y21.384
X124.119 Y21.376
X124.102 Y21.363
X124.089 Y21.343
Y21.319
X124.103 Y21.3
X124.126 Y21.293
X124.149 Y21.3
X124.157 Y21.306 Z-0.495 F85.
X124.174 Y21.328 Z-0.523
X124.181 Y21.346 Z-0.528
X124.183 Y21.364 Z-0.533
X124.182 Y22.147 F254.
X124.167 Y22.22
X124.166 Y22.089
X124.163 Y22.057
X124.155 Y22.025
X124.133 Y21.962
X124.117 Y21.927
X124.094 Y21.896
X124.038 Y21.833
X124.015 Y21.81
X123.988 Y21.792
X123.951 Y21.771
X123.921 Y21.757
X123.141 Y21.473
Y21.257
X123.94 Y20.963
X123.971 Y20.949
X123.999 Y20.929
X124.055 Y20.882
X124.082 Y20.854
X124.103 Y20.82
X124.141 Y20.746
X124.156 Y20.708
X124.162 Y20.668
X124.168 Y20.547
X124.169 Y20.536
Y20.512
X124.184 Y20.604
X124.183 Y21.364
X124.176 Y21.387
X124.156 Y21.402
X124.132
X124.112 Y21.389
X124.104 Y21.366
X124.103 Y21.346
X124.11 Y21.324
X124.127 Y21.309
X124.15 Y21.306
X124.171 Y21.317
X124.182 Y21.338
X124.179 Y21.361
X124.163 Y21.378
X124.14 Y21.384
X124.119 Y21.376
X124.102 Y21.363
X124.089 Y21.343
Y21.319
X124.103 Y21.3
X124.126 Y21.293
X124.149 Y21.3
X124.157 Y21.306 Z-0.572 F85.
X124.174 Y21.328 Z-0.599
X124.181 Y21.346 Z-0.604
X124.183 Y21.365 Z-0.61
X124.182 Y22.147 F254.
X124.169 Y22.206
Y22.089
X124.166 Y22.056
X124.157 Y22.023
X124.131 Y21.952
X124.114 Y21.917
X124.09 Y21.885
X124.034 Y21.825
X124.002 Y21.797
X123.965 Y21.777
X123.822 Y21.718
X123.814 Y21.715
X123.144 Y21.471
Y21.259
X123.94 Y20.967
X123.969 Y20.953
X123.996 Y20.935
X124.051 Y20.89
X124.079 Y20.863
X124.101 Y20.83
X124.141 Y20.754
X124.157 Y20.715
X124.164 Y20.673
X124.171 Y20.547
Y20.536
Y20.528
X124.184 Y20.604
X124.183 Y21.365
X124.176 Y21.387
X124.156 Y21.402
X124.132
X124.113 Y21.389
X124.104 Y21.366
X124.103 Y21.346
X124.109 Y21.323
X124.127 Y21.308
X124.15 Y21.306
X124.171 Y21.317
X124.181 Y21.337
X124.179 Y21.361
X124.163 Y21.378
X124.14 Y21.384
X124.118 Y21.375
X124.102 Y21.363
X124.089 Y21.343
Y21.319
X124.103 Y21.3
X124.126 Y21.292
X124.149 Y21.299
X124.157 Y21.306 Z-0.648 F85.
X124.174 Y21.327 Z-0.676
X124.181 Y21.345 Z-0.681
X124.183 Y21.364 Z-0.686
X124.182 Y22.147 F254.
X124.172 Y22.193
Y22.089
X124.169 Y22.057
X124.161 Y22.026
X124.137 Y21.956
X124.122 Y21.923
X124.102 Y21.894
X124.057 Y21.841
X124.034 Y21.818
X124.008 Y21.799
X123.954 Y21.767
X123.921 Y21.751
X123.147 Y21.469
Y21.26
X123.948 Y20.965
X123.982 Y20.949
X124.012 Y20.927
X124.072 Y20.873
X124.097 Y20.845
X124.116 Y20.813
X124.146 Y20.752
X124.16 Y20.716
X124.166 Y20.677
X124.174 Y20.548
X124.184 Y20.604
X124.183 Y21.364
X124.176 Y21.387
X124.156 Y21.401
X124.132 Y21.402
X124.112 Y21.388
X124.104 Y21.366
X124.103 Y21.346
X124.109 Y21.324
X124.127 Y21.308
X124.15 Y21.306
X124.171 Y21.317
X124.182 Y21.338
X124.179 Y21.361
X124.163 Y21.378
X124.14 Y21.384
X124.118 Y21.376
X124.102 Y21.363
X124.089 Y21.343
Y21.319
X124.103 Y21.3
X124.126 Y21.292
X124.149 Y21.299
X124.157 Y21.306 Z-0.724 F85.
X124.174 Y21.328 Z-0.752
X124.181 Y21.345 Z-0.757
X124.183 Y21.364 Z-0.762
X124.182 Y22.147 F254.
X124.175 Y22.18
Y22.09
X124.172 Y22.056
X124.163 Y22.024
X124.136 Y21.948
X124.12 Y21.914
X124.098 Y21.884
X124.054 Y21.834
X124.031 Y21.812
X124.005 Y21.793
X123.952 Y21.763
X123.921 Y21.748
X123.149 Y21.468
Y21.262
X123.948 Y20.969
X123.98 Y20.954
X124.009 Y20.933
X124.068 Y20.881
X124.094 Y20.854
X124.114 Y20.822
X124.147 Y20.759
X124.161 Y20.722
X124.168 Y20.682
X124.176 Y20.555
X124.184 Y20.604
X124.183 Y21.364
X124.176 Y21.387
X124.156 Y21.402
X124.132
X124.113 Y21.388
X124.104 Y21.366
X124.103 Y21.346
X124.109 Y21.324
X124.127 Y21.309
X124.15 Y21.306
X124.171 Y21.317
X124.182 Y21.338
X124.179 Y21.361
X124.163 Y21.379
X124.14 Y21.384
X124.118 Y21.376
X124.102 Y21.363
X124.089 Y21.343
Y21.319
X124.104 Y21.3
X124.126 Y21.293
X124.149 Y21.3
X124.157 Y21.306 Z-0.8 F85.
X124.174 Y21.328 Z-0.828
X124.181 Y21.346 Z-0.833
X124.183 Y21.364 Z-0.838
X124.182 Y22.147 F254.
X124.176 Y22.177
X124.175 Y22.072
X124.171 Y22.034
X124.16 Y21.998
X124.132 Y21.932
X124.116 Y21.901
X124.095 Y21.874
X124.051 Y21.827
X124.028 Y21.805
X124.002 Y21.788
X123.949 Y21.758
X123.921 Y21.745
X123.152 Y21.466
Y21.264
X123.948 Y20.972
X123.978 Y20.958
X124.006 Y20.938
X124.065 Y20.889
X124.092 Y20.862
X124.113 Y20.831
X124.147 Y20.766
X124.162 Y20.731
X124.169 Y20.693
X124.178 Y20.608
X124.179 Y20.588
Y20.576
X124.184 Y20.604
X124.183 Y21.364
X124.176 Y21.387
X124.156 Y21.402
X124.132
X124.113 Y21.389
X124.104 Y21.366
X124.103 Y21.347
X124.109 Y21.324
X124.127 Y21.309
X124.15 Y21.306
X124.171 Y21.317
X124.182 Y21.338
X124.178 Y21.362
X124.163 Y21.379
X124.14 Y21.384
X124.118 Y21.376
X124.102 Y21.363
X124.089 Y21.343
Y21.319
X124.104 Y21.3
X124.126 Y21.293
X124.149 Y21.3
X124.157 Y21.306 Z-0.876 F85.
X124.174 Y21.328 Z-0.904
X124.181 Y21.346 Z-0.909
X124.183 Y21.365 Z-0.914
X124.182 Y22.147 F254.
X124.178 Y22.165
Y22.07
X124.174 Y22.036
X124.165 Y22.002
X124.144 Y21.947
X124.129 Y21.915
X124.108 Y21.887
X124.055 Y21.826
X124.029 Y21.802
X123.999 Y21.782
X123.946 Y21.754
X123.921 Y21.743
X123.155 Y21.464
Y21.266
X123.948 Y20.976
X123.977 Y20.962
X124.003 Y20.944
X124.062 Y20.897
X124.089 Y20.87
X124.111 Y20.839
X124.148 Y20.772
X124.164 Y20.735
X124.172 Y20.697
X124.181 Y20.608
X124.182 Y20.592
X124.184 Y20.604
X124.183 Y21.365
X124.175 Y21.388
X124.156 Y21.402
X124.132
X124.112 Y21.388
X124.104 Y21.365
Y21.356
X124.11 Y21.334
X124.127 Y21.319
X124.15 Y21.316
X124.17 Y21.326
X124.182 Y21.345
X124.181 Y21.368
X124.168 Y21.386
X124.147 Y21.394
X124.125 Y21.39
X124.109 Y21.374
X124.103 Y21.363
X124.099 Y21.339
X124.109 Y21.317
X124.129 Y21.306
X124.153 Y21.308
X124.171 Y21.324
X124.174 Y21.329 Z-0.936 F85.
X124.18 Y21.343 Z-0.951
X124.183 Y21.365 Z-0.957
X124.182 Y22.147 F254.
X124.18 Y22.158
X124.179 Y22.069
X124.176 Y22.034
X124.166 Y22.
X124.143 Y21.942
X124.128 Y21.91
X124.106 Y21.882
X124.053 Y21.822
X124.027 Y21.798
X123.998 Y21.78
X123.945 Y21.752
X123.921 Y21.741
X123.156 Y21.463
Y21.267
X123.948 Y20.977
X123.976 Y20.964
X124.002 Y20.947
X124.06 Y20.901
X124.088 Y20.875
X124.11 Y20.843
X124.149 Y20.775
X124.165 Y20.738
X124.173 Y20.699
X124.182 Y20.609
X124.183 Y20.6
Y21.365
X124.172 Y21.324
X124.174 Y21.329 Z-0.979 F85.
X124.18 Y21.344 Z-0.994
X124.183 Y21.365 Z-1.
X124.182 Y22.147 F254.
X124.18 Y22.069
X124.177 Y22.033
X124.167 Y21.998
X124.143 Y21.938
X124.127 Y21.906
X124.105 Y21.877
X124.052 Y21.819
X124.02 Y21.791
X123.982 Y21.77
X123.822 Y21.704
X123.814 Y21.701
X123.157 Y21.462
Y21.268
X123.948 Y20.979
X123.975 Y20.966
X124. Y20.95
X124.059 Y20.904
X124.087 Y20.878
X124.109 Y20.847
X124.149 Y20.777
X124.165 Y20.74
X124.174 Y20.701
X124.184 Y20.609
X124.183 Y21.365
X124.18 Y21.384 Z-0.995
X124.173 Y21.402 Z-0.989
X124.155 Y21.425 Z-0.961
X124.147 Y21.431 Z-0.921
G0 Z15.

(MUSCLE PLINTH)
G55
G0 X120.856 Y41.14
Z15.
Z1.076
G1 Z0.003 F85.
X120.853 Y41.15 Z-0.037
X120.839 Y41.175 Z-0.066
X120.824 Y41.188 Z-0.071
X120.807 Y41.197 Z-0.076
X120.596 Y41.274 F254.
X120.568 Y41.287
X120.542 Y41.304
X120.485 Y41.349
X120.457 Y41.376
X120.434 Y41.407
X120.395 Y41.477
X120.38 Y41.511
X120.371 Y41.547
X120.362 Y41.615
X120.36 Y41.64
X120.359 Y41.757
X120.348 Y41.734
X120.33 Y41.647
Y40.083
X120.348 Y39.996
X120.362 Y39.967
X120.365 Y40.143
X120.369 Y40.181
X120.381 Y40.217
X120.409 Y40.283
X120.427 Y40.316
X120.451 Y40.345
X120.506 Y40.4
X120.539 Y40.426
X120.576 Y40.445
X121.122 Y40.649
X121.387 Y40.746
Y40.984
X120.807 Y41.197
X120.791 Y41.196
X120.782 Y41.182
X120.787 Y41.167
X120.824 Y41.126
X120.839 Y41.12
X120.853 Y41.127
X120.856 Y41.142
X120.853 Y41.152 Z-0.114 F85.
X120.838 Y41.176 Z-0.142
X120.824 Y41.188 Z-0.147
X120.807 Y41.197 Z-0.152
X120.575 Y41.283 F254.
X120.537 Y41.302
X120.504 Y41.328
X120.448 Y41.384
X120.424 Y41.413
X120.406 Y41.447
X120.377 Y41.514
X120.366 Y41.55
X120.362 Y41.588
X120.36 Y41.759
X120.348 Y41.734
X120.33 Y41.647
Y40.083
X120.348 Y39.996
X120.36 Y39.971
X120.362 Y40.142
X120.366 Y40.18
X120.377 Y40.216
X120.406 Y40.283
X120.424 Y40.317
X120.448 Y40.346
X120.504 Y40.402
X120.537 Y40.428
X120.575 Y40.447
X121.385 Y40.747
Y40.983
X120.807 Y41.197
X120.782 Y41.198
X120.762 Y41.184
X120.754 Y41.161
X120.761 Y41.137
X120.781 Y41.123
X120.793 Y41.119
X120.814 Y41.118
X120.832 Y41.128
X120.843 Y41.146
Y41.167
X120.832 Y41.185
X120.814 Y41.193
X120.795 Y41.188
X120.784 Y41.172
Y41.152
X120.796 Y41.123
X120.807 Y41.109
X120.824 Y41.104
X120.841 Y41.109
X120.851 Y41.123
X120.852 Y41.141
X120.849 Y41.15 Z-0.191 F85.
X120.835 Y41.174 Z-0.218
X120.82 Y41.187 Z-0.223
X120.803 Y41.195 Z-0.229
X120.573 Y41.28 F254.
X120.535 Y41.299
X120.502 Y41.325
X120.445 Y41.383
X120.42 Y41.413
X120.402 Y41.447
X120.374 Y41.515
X120.363 Y41.551
X120.359 Y41.589
X120.358 Y41.752
X120.343 Y41.717
X120.328 Y41.626
X120.33 Y40.083
X120.348 Y39.996
X120.358 Y39.976
X120.359 Y40.141
X120.363 Y40.179
X120.374 Y40.215
X120.402 Y40.283
X120.42 Y40.317
X120.445 Y40.347
X120.502 Y40.404
X120.535 Y40.431
X120.573 Y40.45
X121.382 Y40.749
Y40.981
X120.803 Y41.195
X120.779 Y41.196
X120.759 Y41.182
X120.75 Y41.159
X120.757 Y41.136
X120.777 Y41.121
X120.789 Y41.117
X120.811 Y41.115
X120.829 Y41.125
X120.84 Y41.143
Y41.165
X120.829 Y41.183
X120.811 Y41.191
X120.792 Y41.185
X120.781 Y41.17
X120.782 Y41.15
X120.793 Y41.121
X120.804 Y41.107
X120.821 Y41.102
X120.838 Y41.107
X120.849 Y41.121
Y41.139
X120.846 Y41.149 Z-0.267 F85.
X120.832 Y41.172 Z-0.295
X120.817 Y41.185 Z-0.3
X120.8 Y41.193 Z-0.305
X120.571 Y41.278 F254.
X120.533 Y41.297
X120.501 Y41.323
X120.442 Y41.381
X120.417 Y41.412
X120.398 Y41.448
X120.369 Y41.52
X120.359 Y41.555
X120.355 Y41.591
X120.354 Y41.744
X120.343 Y41.717
X120.328 Y41.626
X120.33 Y40.083
X120.348 Y39.996
X120.355 Y39.982
X120.356 Y40.141
X120.36 Y40.178
X120.37 Y40.214
X120.398 Y40.283
X120.417 Y40.318
X120.442 Y40.349
X120.501 Y40.407
X120.533 Y40.433
X120.571 Y40.452
X121.379 Y40.751
Y40.979
X120.8 Y41.193
X120.776 Y41.194
X120.756 Y41.18
X120.747 Y41.157
X120.755 Y41.134
X120.774 Y41.119
X120.786 Y41.115
X120.807 Y41.114
X120.826 Y41.124
X120.837 Y41.142
X120.836 Y41.163
X120.825 Y41.181
X120.807 Y41.189
X120.788 Y41.184
X120.777 Y41.168
X120.778 Y41.149
X120.79 Y41.118
X120.801 Y41.105
X120.818 Y41.1
X120.835 Y41.105
X120.845 Y41.119
X120.846 Y41.137
X120.843 Y41.146 Z-0.343 F85.
X120.828 Y41.17 Z-0.371
X120.814 Y41.182 Z-0.376
X120.797 Y41.191 Z-0.381
X120.571 Y41.274 F254.
X120.536 Y41.292
X120.504 Y41.316
X120.447 Y41.37
X120.42 Y41.401
X120.4 Y41.437
X120.368 Y41.514
X120.357 Y41.551
X120.353 Y41.589
X120.352 Y41.738
X120.343 Y41.717
X120.328 Y41.626
X120.33 Y40.083
X120.348 Y39.996
X120.352 Y39.989
X120.353 Y40.141
X120.357 Y40.179
X120.368 Y40.216
X120.4 Y40.293
X120.42 Y40.328
X120.447 Y40.359
X120.504 Y40.414
X120.536 Y40.438
X120.571 Y40.456
X121.377 Y40.753
Y40.977
X120.797 Y41.191
X120.772 Y41.192
X120.752 Y41.178
X120.744 Y41.155
X120.751 Y41.131
X120.772 Y41.117
X120.782 Y41.113
X120.803
X120.822 Y41.123
X120.832 Y41.141
Y41.162
X120.82 Y41.18
X120.802 Y41.188
X120.784 Y41.182
X120.772 Y41.166
X120.773 Y41.147
X120.786 Y41.117
X120.797 Y41.103
X120.814 Y41.098
X120.83 Y41.104
X120.841 Y41.118
X120.842 Y41.135
X120.839 Y41.145 Z-0.419 F85.
X120.824 Y41.168 Z-0.447
X120.81 Y41.181 Z-0.452
X120.793 Y41.189 Z-0.457
X120.572 Y41.271 F254.
X120.538 Y41.287
X120.508 Y41.309
X120.451 Y41.36
X120.427 Y41.387
X120.408 Y41.417
X120.377 Y41.478
X120.364 Y41.511
X120.357 Y41.545
X120.348 Y41.62
X120.347 Y41.642
Y41.726
X120.343 Y41.717
X120.328 Y41.626
X120.33 Y40.083
X120.348 Y39.996
X120.35 Y40.141
X120.352 Y40.171
X120.36 Y40.201
X120.377 Y40.255
X120.392 Y40.288
X120.412 Y40.318
X120.469 Y40.387
X120.492 Y40.411
X120.519 Y40.43
X120.557 Y40.453
X120.591 Y40.469
X121.374 Y40.755
Y40.975
X120.793 Y41.189
X120.768 Y41.19
X120.748 Y41.177
X120.74 Y41.153
X120.747 Y41.13
X120.766 Y41.115
X120.778 Y41.111
X120.799 Y41.11
X120.818 Y41.12
X120.829 Y41.138
Y41.16
X120.817 Y41.178
X120.799 Y41.185
X120.78 Y41.18
X120.769 Y41.164
X120.77 Y41.145
X120.783 Y41.114
X120.794 Y41.101
X120.811 Y41.096
X120.827 Y41.102
X120.838 Y41.115
Y41.133
X120.835 Y41.143 Z-0.495 F85.
X120.821 Y41.166 Z-0.523
X120.806 Y41.179 Z-0.528
X120.789 Y41.187 Z-0.533
X120.572 Y41.267 F254.
X120.54 Y41.282
X120.512 Y41.302
X120.456 Y41.35
X120.429 Y41.379
X120.408 Y41.412
X120.371 Y41.486
X120.356 Y41.526
X120.35 Y41.568
X120.346 Y41.724
X120.343 Y41.717
X120.328 Y41.626
X120.33 Y40.083
X120.346 Y40.007
X120.347 Y40.141
X120.35 Y40.173
X120.358 Y40.204
X120.379 Y40.266
X120.395 Y40.3
X120.417 Y40.331
X120.473 Y40.396
X120.496 Y40.418
X120.523 Y40.436
X120.56 Y40.458
X120.591 Y40.472
X121.371 Y40.757
Y40.973
X120.789 Y41.187
X120.765 Y41.188
X120.745 Y41.174
X120.736 Y41.151
X120.744 Y41.128
X120.763 Y41.113
X120.775 Y41.109
X120.796 Y41.108
X120.815 Y41.118
X120.826 Y41.136
X120.825 Y41.157
X120.814 Y41.175
X120.796 Y41.183
X120.777 Y41.178
X120.766 Y41.162
X120.767 Y41.142
X120.779 Y41.112
X120.791 Y41.099
X120.807 Y41.094
X120.824 Y41.1
X120.834 Y41.113
X120.835 Y41.131
X120.832 Y41.141 Z-0.572 F85.
X120.817 Y41.164 Z-0.599
X120.803 Y41.177 Z-0.604
X120.786 Y41.185 Z-0.61
X120.572 Y41.264 F254.
X120.543 Y41.277
X120.515 Y41.296
X120.46 Y41.341
X120.432 Y41.369
X120.41 Y41.402
X120.371 Y41.478
X120.355 Y41.517
X120.349 Y41.558
X120.342 Y41.683
X120.341 Y41.694
Y41.706
X120.328 Y41.626
X120.33 Y40.083
X120.343 Y40.02
X120.344 Y40.141
X120.347 Y40.174
X120.355 Y40.206
X120.38 Y40.275
X120.397 Y40.311
X120.421 Y40.342
X120.477 Y40.403
X120.509 Y40.431
X120.546 Y40.452
X120.69 Y40.511
X120.698 Y40.514
X121.369 Y40.759
Y40.972
X120.786 Y41.185
X120.762 Y41.186
X120.742 Y41.173
X120.733 Y41.15
X120.74 Y41.126
X120.759 Y41.111
X120.773 Y41.106
X120.796 Y41.105
X120.816 Y41.117
X120.826 Y41.138
X120.822 Y41.161
X120.806 Y41.178
X120.783 Y41.182
X120.761 Y41.173
X120.749 Y41.153
X120.75 Y41.13
X120.758 Y41.106
X120.772 Y41.088
X120.795 Y41.08
X120.818 Y41.087
X120.832 Y41.106
X120.833 Y41.129
X120.83 Y41.139 Z-0.648 F85.
X120.816 Y41.163 Z-0.676
X120.801 Y41.175 Z-0.681
X120.784 Y41.184 Z-0.686
X120.564 Y41.265 F254.
X120.53 Y41.282
X120.499 Y41.305
X120.439 Y41.359
X120.414 Y41.387
X120.395 Y41.419
X120.366 Y41.479
X120.353 Y41.516
X120.347 Y41.554
X120.339 Y41.682
Y41.691
X120.328 Y41.626
X120.33 Y40.083
X120.34 Y40.033
X120.341 Y40.14
X120.344 Y40.172
X120.351 Y40.204
X120.375 Y40.272
X120.389 Y40.304
X120.41 Y40.333
X120.454 Y40.387
X120.477 Y40.411
X120.504 Y40.43
X120.557 Y40.462
X120.591 Y40.478
X121.366 Y40.761
Y40.97
X120.784 Y41.184
X120.76 Y41.185
X120.74 Y41.171
X120.731 Y41.148
X120.738 Y41.125
X120.758 Y41.11
X120.77 Y41.106
X120.791 Y41.104
X120.81 Y41.114
X120.821 Y41.133
X120.82 Y41.154
X120.809 Y41.172
X120.791 Y41.18
X120.772 Y41.174
X120.761 Y41.158
X120.762 Y41.139
X120.775 Y41.109
X120.786 Y41.095
X120.802 Y41.091
X120.819 Y41.096
X120.829 Y41.11
X120.83 Y41.127
X120.827 Y41.137 Z-0.724 F85.
X120.812 Y41.161 Z-0.752
X120.798 Y41.173 Z-0.757
X120.781 Y41.182 Z-0.762
X120.564 Y41.261 F254.
X120.531 Y41.277
X120.502 Y41.298
X120.443 Y41.351
X120.417 Y41.378
X120.397 Y41.41
X120.365 Y41.472
X120.351 Y41.51
X120.345 Y41.549
X120.337 Y41.678
X120.328 Y41.626
X120.33 Y40.083
X120.338 Y40.047
Y40.14
X120.341 Y40.173
X120.349 Y40.205
X120.376 Y40.28
X120.391 Y40.314
X120.413 Y40.344
X120.457 Y40.394
X120.48 Y40.417
X120.506 Y40.436
X120.56 Y40.467
X120.591 Y40.481
X121.363 Y40.762
Y40.968
X120.781 Y41.182
X120.757 Y41.183
X120.737 Y41.169
X120.728 Y41.146
X120.735 Y41.122
X120.755 Y41.108
X120.767 Y41.103
X120.788 Y41.102
X120.807 Y41.112
X120.818 Y41.13
X120.817 Y41.152
X120.806 Y41.17
X120.788 Y41.177
X120.769 Y41.172
X120.758 Y41.156
X120.759 Y41.136
X120.772 Y41.106
X120.783 Y41.093
X120.799 Y41.088
X120.816 Y41.094
X120.827 Y41.108
Y41.125
X120.824 Y41.135 Z-0.8 F85.
X120.809 Y41.159 Z-0.828
X120.795 Y41.171 Z-0.833
X120.778 Y41.18 Z-0.838
X120.564 Y41.258 F254.
X120.533 Y41.273
X120.505 Y41.293
X120.446 Y41.342
X120.42 Y41.37
X120.399 Y41.401
X120.365 Y41.466
X120.349 Y41.504
X120.342 Y41.545
X120.335 Y41.666
X120.328 Y41.626
X120.33 Y40.083
X120.337 Y40.05
X120.338 Y40.158
X120.342 Y40.195
X120.353 Y40.231
X120.379 Y40.296
X120.395 Y40.326
X120.416 Y40.353
X120.46 Y40.402
X120.483 Y40.423
X120.509 Y40.441
X120.562 Y40.471
X120.591 Y40.484
X121.361 Y40.764
Y40.966
X120.778 Y41.18
X120.754
X120.734 Y41.167
X120.725 Y41.144
X120.732 Y41.12
X120.752 Y41.105
X120.764 Y41.101
X120.785 Y41.1
X120.804 Y41.11
X120.815 Y41.128
X120.814 Y41.15
X120.803 Y41.168
X120.785 Y41.175
X120.766 Y41.17
X120.755 Y41.154
X120.756 Y41.134
X120.769 Y41.104
X120.78 Y41.091
X120.797 Y41.086
X120.813 Y41.092
X120.824 Y41.106
Y41.123
X120.821 Y41.133 Z-0.876 F85.
X120.807 Y41.156 Z-0.904
X120.792 Y41.169 Z-0.909
X120.775 Y41.178 Z-0.914
X120.564 Y41.255 F254.
X120.535 Y41.268
X120.508 Y41.287
X120.449 Y41.335
X120.422 Y41.361
X120.4 Y41.393
X120.364 Y41.46
X120.349 Y41.496
X120.341 Y41.534
X120.332 Y41.622
X120.331 Y41.642
X120.328 Y41.626
X120.33 Y40.083
X120.334 Y40.062
X120.335 Y40.159
X120.339 Y40.198
X120.351 Y40.235
X120.381 Y40.304
X120.397 Y40.335
X120.419 Y40.363
X120.463 Y40.409
X120.486 Y40.43
X120.512 Y40.447
X120.565 Y40.475
X120.591 Y40.487
X121.358 Y40.766
Y40.964
X120.775 Y41.178
X120.75
X120.73 Y41.164
X120.722 Y41.141
X120.73 Y41.117
X120.75 Y41.103
X120.754 Y41.102
X120.776
X120.795 Y41.114
X120.804 Y41.135
X120.801 Y41.157
X120.785 Y41.173
X120.77 Y41.176
X120.756 Y41.168
X120.752 Y41.153
X120.758 Y41.139
X120.775 Y41.122
X120.79 Y41.116
X120.805 Y41.121
X120.813 Y41.136
X120.808 Y41.152
X120.804 Y41.156 Z-0.936 F85.
X120.792 Y41.166 Z-0.951
X120.774 Y41.176 Z-0.957
X120.564 Y41.253 F254.
X120.536 Y41.266
X120.509 Y41.284
X120.451 Y41.33
X120.423 Y41.357
X120.401 Y41.389
X120.364 Y41.457
X120.348 Y41.493
X120.34 Y41.532
X120.33 Y41.622
X120.329 Y41.634
X120.328 Y41.626
X120.33 Y40.083
X120.333 Y40.069
X120.334 Y40.16
X120.337 Y40.195
X120.347 Y40.229
X120.368 Y40.286
X120.384 Y40.318
X120.405 Y40.346
X120.458 Y40.406
X120.484 Y40.43
X120.513 Y40.449
X120.567 Y40.478
X120.591 Y40.489
X121.357 Y40.767
Y40.963
X120.774 Y41.176
X120.755 Y41.178
X120.738 Y41.172
X120.726 Y41.159
X120.612 Y40.964
X120.542 Y40.914
X120.528 Y40.908
X120.514 Y40.907
X120.379 Y40.925
X120.357 Y40.921
X120.341 Y40.906
X120.338 Y40.901 Z-0.979 F85.
X120.332 Y40.886 Z-0.994
X120.329 Y40.865 Z-1.
X120.33 Y40.083 F254.
X120.332 Y40.075
Y40.161
X120.336 Y40.196
X120.346 Y40.231
X120.369 Y40.29
X120.385 Y40.322
X120.406 Y40.351
X120.459 Y40.409
X120.485 Y40.433
X120.514 Y40.452
X120.568 Y40.48
X120.591 Y40.49
X121.355 Y40.768
Y40.962
X120.564 Y41.251
X120.536 Y41.264
X120.511 Y41.281
X120.452 Y41.327
X120.424 Y41.354
X120.402 Y41.385
X120.363 Y41.454
X120.347 Y41.491
X120.339 Y41.53
X120.329 Y41.621
X120.328 Y41.628
X120.329 Y40.865
X120.332 Y40.846 Z-0.995
X120.339 Y40.828 Z-0.989
X120.357 Y40.805 Z-0.961
X120.366 Y40.799 Z-0.921
G0 Z5.
X124.146 Y40.8
Z1.076
G1 Z0.003 F85.
X124.154 Y40.806 Z-0.037
X124.172 Y40.828 Z-0.066
X124.18 Y40.847 Z-0.071
X124.182 Y40.866 Z-0.076
Y41.647 F254.
X124.164 Y41.734
X124.15 Y41.762
X124.148 Y41.587
X124.143 Y41.549
X124.132 Y41.512
X124.104 Y41.447
X124.085 Y41.414
X124.061 Y41.385
X124.006 Y41.33
X123.974 Y41.304
X123.936 Y41.285
X123.39 Y41.081
X123.125 Y40.984
Y40.746
X123.917 Y40.456
X123.944 Y40.443
X123.97 Y40.426
X124.028 Y40.381
X124.056 Y40.355
X124.078 Y40.323
X124.118 Y40.253
X124.133 Y40.219
X124.142 Y40.183
X124.151 Y40.115
X124.153 Y40.089
X124.154 Y39.975
X124.164 Y39.996
X124.182 Y40.083
Y40.866
X124.175 Y40.887
X124.158 Y40.901
X124.136 Y40.902
X124.117 Y40.891
X124.107 Y40.871
X124.105 Y40.85
X124.108 Y40.829
X124.122 Y40.814
X124.142 Y40.808
X124.162 Y40.813
X124.176 Y40.829
X124.179 Y40.847
X124.172 Y40.864
X124.157 Y40.875
X124.138 Y40.877
X124.122 Y40.868
X124.105 Y40.853
X124.096 Y40.835
X124.097 Y40.816
X124.11 Y40.8
X124.129 Y40.794
X124.148 Y40.8
X124.156 Y40.806 Z-0.114 F85.
X124.173 Y40.828 Z-0.142
X124.18 Y40.846 Z-0.147
X124.182 Y40.865 Z-0.152
Y41.647 F254.
X124.164 Y41.734
X124.153 Y41.757
X124.151 Y41.588
X124.147 Y41.55
X124.135 Y41.514
X124.107 Y41.447
X124.089 Y41.413
X124.064 Y41.384
X124.008 Y41.327
X123.975 Y41.301
X123.938 Y41.283
X123.128 Y40.983
Y40.747
X123.938 Y40.447
X123.975 Y40.429
X124.008 Y40.402
X124.065 Y40.346
X124.089 Y40.317
X124.107 Y40.283
X124.135 Y40.216
X124.147 Y40.18
X124.151 Y40.142
X124.153 Y39.972
X124.164 Y39.996
X124.182 Y40.083
Y40.865
X124.175 Y40.879
X124.16 Y40.883
X124.148 Y40.873
X124.123 Y40.824
X124.122 Y40.808
X124.134 Y40.798
X124.149 Y40.801
X124.157 Y40.807 Z-0.191 F85.
X124.174 Y40.829 Z-0.218
X124.181 Y40.847 Z-0.223
X124.183 Y40.865 Z-0.229
X124.182 Y41.647 F254.
X124.164 Y41.734
X124.155 Y41.752
X124.154 Y41.589
X124.15 Y41.551
X124.139 Y41.515
X124.111 Y41.447
X124.092 Y41.412
X124.068 Y41.382
X124.01 Y41.325
X123.977 Y41.299
X123.939 Y41.28
X123.131 Y40.981
Y40.749
X123.94 Y40.45
X123.977 Y40.431
X124.01 Y40.405
X124.068 Y40.348
X124.092 Y40.318
X124.111 Y40.283
X124.139 Y40.215
X124.15 Y40.179
X124.154 Y40.141
X124.155 Y39.98
X124.169 Y40.013
X124.184 Y40.104
X124.183 Y40.865
X124.176 Y40.88
X124.161 Y40.883
X124.148 Y40.874
X124.122 Y40.824
Y40.808
X124.133 Y40.798
X124.149 Y40.801
X124.157 Y40.807 Z-0.267 F85.
X124.174 Y40.829 Z-0.295
X124.181 Y40.847 Z-0.3
X124.183 Y40.865 Z-0.305
X124.182 Y41.647 F254.
X124.164 Y41.734
X124.158 Y41.746
X124.157 Y41.587
X124.153 Y41.55
X124.142 Y41.513
X124.113 Y41.445
X124.095 Y41.41
X124.07 Y41.38
X124.011 Y41.322
X123.978 Y41.296
X123.941 Y41.278
X123.133 Y40.979
Y40.751
X123.941 Y40.452
X123.978 Y40.434
X124.011 Y40.408
X124.07 Y40.35
X124.095 Y40.32
X124.114 Y40.284
X124.142 Y40.214
X124.153 Y40.178
X124.157 Y40.141
X124.158 Y39.987
X124.169 Y40.013
X124.184 Y40.104
X124.183 Y40.865
X124.176 Y40.886
X124.159 Y40.9
X124.137 Y40.901
X124.118 Y40.89
X124.109 Y40.87
X124.107 Y40.85
X124.111 Y40.83
X124.124 Y40.815
X124.144 Y40.809
X124.164 Y40.815
X124.177 Y40.83
X124.179 Y40.853
X124.166 Y40.872
X124.145 Y40.878
X124.124 Y40.868
X124.107 Y40.852
X124.097 Y40.835
X124.099 Y40.815
X124.112 Y40.8
X124.13 Y40.795
X124.149 Y40.801
X124.157 Y40.807 Z-0.343 F85.
X124.174 Y40.829 Z-0.371
X124.181 Y40.847 Z-0.376
X124.183 Y40.865 Z-0.381
X124.182 Y41.647 F254.
X124.164 Y41.734
X124.161 Y41.74
X124.16 Y41.589
X124.156 Y41.55
X124.144 Y41.513
X124.111 Y41.435
X124.091 Y41.399
X124.064 Y41.368
X124.007 Y41.314
X123.976 Y41.291
X123.941 Y41.274
X123.136 Y40.977
Y40.753
X123.941 Y40.456
X123.976 Y40.439
X124.007 Y40.415
X124.064 Y40.362
X124.091 Y40.331
X124.111 Y40.295
X124.144 Y40.217
X124.156 Y40.18
X124.16 Y40.141
X124.161 Y39.994
X124.169 Y40.013
X124.184 Y40.104
X124.183 Y40.865
X124.176 Y40.88
X124.161 Y40.884
X124.148 Y40.874
X124.122 Y40.823
X124.121 Y40.807
X124.133 Y40.797
X124.149 Y40.799
X124.157 Y40.806 Z-0.419 F85.
X124.174 Y40.828 Z-0.447
X124.181 Y40.845 Z-0.452
X124.183 Y40.864 Z-0.457
X124.182 Y41.647 F254.
X124.164 Y41.734
X124.163 Y41.589
X124.16 Y41.558
X124.153 Y41.527
X124.134 Y41.472
X124.119 Y41.439
X124.098 Y41.408
X124.042 Y41.341
X124.018 Y41.318
X123.992 Y41.298
X123.954 Y41.276
X123.921 Y41.26
X123.139 Y40.975
Y40.755
X123.94 Y40.46
X123.973 Y40.444
X124.003 Y40.422
X124.059 Y40.372
X124.084 Y40.346
X124.103 Y40.316
X124.134 Y40.256
X124.148 Y40.223
X124.155 Y40.189
X124.165 Y40.111
X124.166 Y40.088
Y40.006
X124.169 Y40.013
X124.184 Y40.104
X124.183 Y40.864
X124.176 Y40.887
X124.156 Y40.902
X124.132
X124.112 Y40.888
X124.104 Y40.866
Y40.846
X124.11 Y40.824
X124.127 Y40.808
X124.151 Y40.806
X124.171 Y40.817
X124.182 Y40.838
X124.179 Y40.861
X124.163 Y40.878
X124.14 Y40.884
X124.119 Y40.876
X124.102 Y40.863
X124.089 Y40.843
Y40.819
X124.103 Y40.8
X124.126 Y40.793
X124.149 Y40.8
X124.157 Y40.806 Z-0.495 F85.
X124.174 Y40.828 Z-0.523
X124.181 Y40.846 Z-0.528
X124.183 Y40.864 Z-0.533
X124.182 Y41.647 F254.
X124.167 Y41.72
X124.166 Y41.589
X124.163 Y41.557
X124.155 Y41.525
X124.133 Y41.462
X124.117 Y41.427
X124.094 Y41.396
X124.038 Y41.333
X124.015 Y41.31
X123.988 Y41.292
X123.951 Y41.271
X123.921 Y41.257
X123.141 Y40.973
Y40.757
X123.94 Y40.463
X123.971 Y40.449
X123.999 Y40.429
X124.055 Y40.382
X124.082 Y40.354
X124.103 Y40.32
X124.141 Y40.246
X124.156 Y40.208
X124.162 Y40.168
X124.168 Y40.047
X124.169 Y40.036
Y40.012
X124.184 Y40.104
X124.183 Y40.864
X124.176 Y40.887
X124.156 Y40.902
X124.132
X124.112 Y40.889
X124.104 Y40.866
X124.103 Y40.846
X124.11 Y40.824
X124.127 Y40.809
X124.15 Y40.806
X124.171 Y40.817
X124.182 Y40.838
X124.179 Y40.861
X124.163 Y40.878
X124.14 Y40.884
X124.119 Y40.876
X124.102 Y40.863
X124.089 Y40.843
Y40.819
X124.103 Y40.8
X124.126 Y40.793
X124.149 Y40.8
X124.157 Y40.806 Z-0.572 F85.
X124.174 Y40.828 Z-0.599
X124.181 Y40.846 Z-0.604
X124.183 Y40.865 Z-0.61
X124.182 Y41.647 F254.
X124.169 Y41.706
Y41.589
X124.166 Y41.556
X124.157 Y41.523
X124.131 Y41.452
X124.114 Y41.417
X124.09 Y41.385
X124.034 Y41.325
X124.002 Y41.297
X123.965 Y41.277
X123.822 Y41.218
X123.814 Y41.215
X123.144 Y40.971
Y40.759
X123.94 Y40.467
X123.969 Y40.453
X123.996 Y40.435
X124.051 Y40.39
X124.079 Y40.363
X124.101 Y40.33
X124.141 Y40.254
X124.157 Y40.215
X124.164 Y40.173
X124.171 Y40.047
Y40.036
Y40.028
X124.184 Y40.104
X124.183 Y40.865
X124.176 Y40.887
X124.156 Y40.902
X124.132
X124.113 Y40.889
X124.104 Y40.866
X124.103 Y40.846
X124.109 Y40.823
X124.127 Y40.808
X124.15 Y40.806
X124.171 Y40.817
X124.181 Y40.837
X124.179 Y40.861
X124.163 Y40.878
X124.14 Y40.884
X124.118 Y40.875
X124.102 Y40.863
X124.089 Y40.843
Y40.819
X124.103 Y40.8
X124.126 Y40.792
X124.149 Y40.799
X124.157 Y40.806 Z-0.648 F85.
X124.174 Y40.827 Z-0.676
X124.181 Y40.845 Z-0.681
X124.183 Y40.864 Z-0.686
X124.182 Y41.647 F254.
X124.172 Y41.693
Y41.589
X124.169 Y41.557
X124.161 Y41.526
X124.137 Y41.456
X124.122 Y41.423
X124.102 Y41.394
X124.057 Y41.341
X124.034 Y41.318
X124.008 Y41.299
X123.954 Y41.267
X123.921 Y41.251
X123.147 Y40.969
Y40.76
X123.948 Y40.465
X123.982 Y40.449
X124.012 Y40.427
X124.072 Y40.373
X124.097 Y40.345
X124.116 Y40.313
X124.146 Y40.252
X124.16 Y40.216
X124.166 Y40.177
X124.174 Y40.048
X124.184 Y40.104
X124.183 Y40.864
X124.176 Y40.887
X124.156 Y40.901
X124.132 Y40.902
X124.112 Y40.888
X124.104 Y40.866
X124.103 Y40.846
X124.109 Y40.824
X124.127 Y40.808
X124.15 Y40.806
X124.171 Y40.817
X124.182 Y40.838
X124.179 Y40.861
X124.163 Y40.878
X124.14 Y40.884
X124.118 Y40.876
X124.102 Y40.863
X124.089 Y40.843
Y40.819
X124.103 Y40.8
X124.126 Y40.792
X124.149 Y40.799
X124.157 Y40.806 Z-0.724 F85.
X124.174 Y40.828 Z-0.752
X124.181 Y40.845 Z-0.757
X124.183 Y40.864 Z-0.762
X124.182 Y41.647 F254.
X124.175 Y41.68
Y41.59
X124.172 Y41.556
X124.163 Y41.524
X124.136 Y41.448
X124.12 Y41.414
X124.098 Y41.384
X124.054 Y41.334
X124.031 Y41.312
X124.005 Y41.293
X123.952 Y41.263
X123.921 Y41.248
X123.149 Y40.968
Y40.762
X123.948 Y40.469
X123.98 Y40.454
X124.009 Y40.433
X124.068 Y40.381
X124.094 Y40.354
X124.114 Y40.322
X124.147 Y40.259
X124.161 Y40.222
X124.168 Y40.182
X124.176 Y40.055
X124.184 Y40.104
X124.183 Y40.864
X124.176 Y40.887
X124.156 Y40.902
X124.132
X124.113 Y40.888
X124.104 Y40.866
X124.103 Y40.846
X124.109 Y40.824
X124.127 Y40.809
X124.15 Y40.806
X124.171 Y40.817
X124.182 Y40.838
X124.179 Y40.861
X124.163 Y40.879
X124.14 Y40.884
X124.118 Y40.876
X124.102 Y40.863
X124.089 Y40.843
Y40.819
X124.104 Y40.8
X124.126 Y40.793
X124.149 Y40.8
X124.157 Y40.806 Z-0.8 F85.
X124.174 Y40.828 Z-0.828
X124.181 Y40.846 Z-0.833
X124.183 Y40.864 Z-0.838
X124.182 Y41.647 F254.
X124.176 Y41.677
X124.175 Y41.572
X124.171 Y41.534
X124.16 Y41.498
X124.132 Y41.432
X124.116 Y41.401
X124.095 Y41.374
X124.051 Y41.327
X124.028 Y41.305
X124.002 Y41.288
X123.949 Y41.258
X123.921 Y41.245
X123.152 Y40.966
Y40.764
X123.948 Y40.472
X123.978 Y40.458
X124.006 Y40.438
X124.065 Y40.389
X124.092 Y40.362
X124.113 Y40.331
X124.147 Y40.266
X124.162 Y40.231
X124.169 Y40.193
X124.178 Y40.108
X124.179 Y40.088
Y40.076
X124.184 Y40.104
X124.183 Y40.864
X124.176 Y40.887
X124.156 Y40.902
X124.132
X124.113 Y40.889
X124.104 Y40.866
X124.103 Y40.847
X124.109 Y40.824
X124.127 Y40.809
X124.15 Y40.806
X124.171 Y40.817
X124.182 Y40.838
X124.178 Y40.862
X124.163 Y40.879
X124.14 Y40.884
X124.118 Y40.876
X124.102 Y40.863
X124.089 Y40.843
Y40.819
X124.104 Y40.8
X124.126 Y40.793
X124.149 Y40.8
X124.157 Y40.806 Z-0.876 F85.
X124.174 Y40.828 Z-0.904
X124.181 Y40.846 Z-0.909
X124.183 Y40.865 Z-0.914
X124.182 Y41.647 F254.
X124.178 Y41.665
Y41.57
X124.174 Y41.536
X124.165 Y41.502
X124.144 Y41.447
X124.129 Y41.415
X124.108 Y41.387
X124.055 Y41.326
X124.029 Y41.302
X123.999 Y41.282
X123.946 Y41.254
X123.921 Y41.243
X123.155 Y40.964
Y40.766
X123.948 Y40.476
X123.977 Y40.462
X124.003 Y40.444
X124.062 Y40.397
X124.089 Y40.37
X124.111 Y40.339
X124.148 Y40.272
X124.164 Y40.235
X124.172 Y40.197
X124.181 Y40.108
X124.182 Y40.092
X124.184 Y40.104
X124.183 Y40.865
X124.175 Y40.888
X124.156 Y40.902
X124.132
X124.112 Y40.888
X124.104 Y40.865
Y40.856
X124.11 Y40.834
X124.127 Y40.819
X124.15 Y40.816
X124.17 Y40.826
X124.182 Y40.845
X124.181 Y40.868
X124.168 Y40.886
X124.147 Y40.894
X124.125 Y40.89
X124.109 Y40.874
X124.103 Y40.863
X124.099 Y40.839
X124.109 Y40.817
X124.129 Y40.806
X124.153 Y40.808
X124.171 Y40.824
X124.174 Y40.829 Z-0.936 F85.
X124.18 Y40.843 Z-0.951
X124.183 Y40.865 Z-0.957
X124.182 Y41.647 F254.
X124.18 Y41.658
X124.179 Y41.569
X124.176 Y41.534
X124.166 Y41.5
X124.143 Y41.442
X124.128 Y41.41
X124.106 Y41.382
X124.053 Y41.322
X124.027 Y41.298
X123.998 Y41.28
X123.945 Y41.252
X123.921 Y41.241
X123.156 Y40.963
Y40.767
X123.948 Y40.477
X123.976 Y40.464
X124.002 Y40.447
X124.06 Y40.401
X124.088 Y40.375
X124.11 Y40.343
X124.149 Y40.275
X124.165 Y40.238
X124.173 Y40.199
X124.182 Y40.109
X124.183 Y40.1
Y40.865
X124.172 Y40.824
X124.174 Y40.829 Z-0.979 F85.
X124.18 Y40.844 Z-0.994
X124.183 Y40.865 Z-1.
X124.182 Y41.647 F254.
X124.18 Y41.569
X124.177 Y41.533
X124.167 Y41.498
X124.143 Y41.438
X124.127 Y41.406
X124.105 Y41.377
X124.052 Y41.319
X124.02 Y41.291
X123.982 Y41.27
X123.822 Y41.204
X123.814 Y41.201
X123.157 Y40.962
Y40.768
X123.948 Y40.479
X123.975 Y40.466
X124. Y40.45
X124.059 Y40.404
X124.087 Y40.378
X124.109 Y40.347
X124.149 Y40.277
X124.165 Y40.24
X124.174 Y40.201
X124.184 Y40.109
X124.183 Y40.865
X124.18 Y40.884 Z-0.995
X124.173 Y40.902 Z-0.989
X124.155 Y40.925 Z-0.961
X124.147 Y40.931 Z-0.921
G0 Z15.

(MUSCLE PLINTH)
G55
G0 X120.856 Y60.64
Z15.
Z1.076
G1 Z0.003 F85.
X120.853 Y60.65 Z-0.037
X120.839 Y60.675 Z-0.066
X120.824 Y60.688 Z-0.071
X120.807 Y60.697 Z-0.076
X120.596 Y60.774 F254.
X120.568 Y60.787
X120.542 Y60.804
X120.485 Y60.849
X120.457 Y60.876
X120.434 Y60.907
X120.395 Y60.977
X120.38 Y61.011
X120.371 Y61.047
X120.362 Y61.115
X120.36 Y61.14
X120.359 Y61.257
X120.348 Y61.234
X120.33 Y61.147
Y59.583
X120.348 Y59.496
X120.362 Y59.467
X120.365 Y59.643
X120.369 Y59.681
X120.381 Y59.717
X120.409 Y59.783
X120.427 Y59.816
X120.451 Y59.845
X120.506 Y59.9
X120.539 Y59.926
X120.576 Y59.945
X121.122 Y60.149
X121.387 Y60.246
Y60.484
X120.807 Y60.697
X120.791 Y60.696
X120.782 Y60.682
X120.787 Y60.667
X120.824 Y60.626
X120.839 Y60.62
X120.853 Y60.627
X120.856 Y60.642
X120.853 Y60.652 Z-0.114 F85.
X120.838 Y60.676 Z-0.142
X120.824 Y60.688 Z-0.147
X120.807 Y60.697 Z-0.152
X120.575 Y60.783 F254.
X120.537 Y60.802
X120.504 Y60.828
X120.448 Y60.884
X120.424 Y60.913
X120.406 Y60.947
X120.377 Y61.014
X120.366 Y61.05
X120.362 Y61.088
X120.36 Y61.259
X120.348 Y61.234
X120.33 Y61.147
Y59.583
X120.348 Y59.496
X120.36 Y59.471
X120.362 Y59.642
X120.366 Y59.68
X120.377 Y59.716
X120.406 Y59.783
X120.424 Y59.817
X120.448 Y59.846
X120.504 Y59.902
X120.537 Y59.928
X120.575 Y59.947
X121.385 Y60.247
Y60.483
X120.807 Y60.697
X120.782 Y60.698
X120.762 Y60.684
X120.754 Y60.661
X120.761 Y60.637
X120.781 Y60.623
X120.793 Y60.619
X120.814 Y60.618
X120.832 Y60.628
X120.843 Y60.646
Y60.667
X120.832 Y60.685
X120.814 Y60.693
X120.795 Y60.688
X120.784 Y60.672
Y60.652
X120.796 Y60.623
X120.807 Y60.609
X120.824 Y60.604
X120.841 Y60.609
X120.851 Y60.623
X120.852 Y60.641
X120.849 Y60.65 Z-0.191 F85.
X120.835 Y60.674 Z-0.218
X120.82 Y60.687 Z-0.223
X120.803 Y60.695 Z-0.229
X120.573 Y60.78 F254.
X120.535 Y60.799
X120.502 Y60.825
X120.445 Y60.883
X120.42 Y60.913
X120.402 Y60.947
X120.374 Y61.015
X120.363 Y61.051
X120.359 Y61.089
X120.358 Y61.252
X120.343 Y61.217
X120.328 Y61.126
X120.33 Y59.583
X120.348 Y59.496
X120.358 Y59.476
X120.359 Y59.641
X120.363 Y59.679
X120.374 Y59.715
X120.402 Y59.783
X120.42 Y59.817
X120.445 Y59.847
X120.502 Y59.904
X120.535 Y59.931
X120.573 Y59.95
X121.382 Y60.249
Y60.481
X120.803 Y60.695
X120.779 Y60.696
X120.759 Y60.682
X120.75 Y60.659
X120.757 Y60.636
X120.777 Y60.621
X120.789 Y60.617
X120.811 Y60.615
X120.829 Y60.625
X120.84 Y60.643
Y60.665
X120.829 Y60.683
X120.811 Y60.691
X120.792 Y60.685
X120.781 Y60.67
X120.782 Y60.65
X120.793 Y60.621
X120.804 Y60.607
X120.821 Y60.602
X120.838 Y60.607
X120.849 Y60.621
Y60.639
X120.846 Y60.649 Z-0.267 F85.
X120.832 Y60.672 Z-0.295
X120.817 Y60.685 Z-0.3
X120.8 Y60.693 Z-0.305
X120.571 Y60.778 F254.
X120.533 Y60.797
X120.501 Y60.823
X120.442 Y60.881
X120.417 Y60.912
X120.398 Y60.948
X120.369 Y61.02
X120.359 Y61.055
X120.355 Y61.091
X120.354 Y61.244
X120.343 Y61.217
X120.328 Y61.126
X120.33 Y59.583
X120.348 Y59.496
X120.355 Y59.482
X120.356 Y59.641
X120.36 Y59.678
X120.37 Y59.714
X120.398 Y59.783
X120.417 Y59.818
X120.442 Y59.849
X120.501 Y59.907
X120.533 Y59.933
X120.571 Y59.952
X121.379 Y60.251
Y60.479
X120.8 Y60.693
X120.776 Y60.694
X120.756 Y60.68
X120.747 Y60.657
X120.755 Y60.634
X120.774 Y60.619
X120.786 Y60.615
X120.807 Y60.614
X120.826 Y60.624
X120.837 Y60.642
X120.836 Y60.663
X120.825 Y60.681
X120.807 Y60.689
X120.788 Y60.684
X120.777 Y60.668
X120.778 Y60.649
X120.79 Y60.618
X120.801 Y60.605
X120.818 Y60.6
X120.835 Y60.605
X120.845 Y60.619
X120.846 Y60.637
X120.843 Y60.646 Z-0.343 F85.
X120.828 Y60.67 Z-0.371
X120.814 Y60.682 Z-0.376
X120.797 Y60.691 Z-0.381
X120.571 Y60.774 F254.
X120.536 Y60.792
X120.504 Y60.816
X120.447 Y60.87
X120.42 Y60.901
X120.4 Y60.937
X120.368 Y61.014
X120.357 Y61.051
X120.353 Y61.089
X120.352 Y61.238
X120.343 Y61.217
X120.328 Y61.126
X120.33 Y59.583
X120.348 Y59.496
X120.352 Y59.489
X120.353 Y59.641
X120.357 Y59.679
X120.368 Y59.716
X120.4 Y59.793
X120.42 Y59.828
X120.447 Y59.859
X120.504 Y59.914
X120.536 Y59.938
X120.571 Y59.956
X121.377 Y60.253
Y60.477
X120.797 Y60.691
X120.772 Y60.692
X120.752 Y60.678
X120.744 Y60.655
X120.751 Y60.631
X120.772 Y60.617
X120.782 Y60.613
X120.803
X120.822 Y60.623
X120.832 Y60.641
Y60.662
X120.82 Y60.68
X120.802 Y60.688
X120.784 Y60.682
X120.772 Y60.666
X120.773 Y60.647
X120.786 Y60.617
X120.797 Y60.603
X120.814 Y60.598
X120.83 Y60.604
X120.841 Y60.618
X120.842 Y60.635
X120.839 Y60.645 Z-0.419 F85.
X120.824 Y60.668 Z-0.447
X120.81 Y60.681 Z-0.452
X120.793 Y60.689 Z-0.457
X120.572 Y60.771 F254.
X120.538 Y60.787
X120.508 Y60.809
X120.451 Y60.86
X120.427 Y60.887
X120.408 Y60.917
X120.377 Y60.978
X120.364 Y61.011
X120.357 Y61.045
X120.348 Y61.12
X120.347 Y61.142
Y61.226
X120.343 Y61.217
X120.328 Y61.126
X120.33 Y59.583
X120.348 Y59.496
X120.35 Y59.641
X120.352 Y59.671
X120.36 Y59.701
X120.377 Y59.755
X120.392 Y59.788
X120.412 Y59.818
X120.469 Y59.887
X120.492 Y59.911
X120.519 Y59.93
X120.557 Y59.953
X120.591 Y59.969
X121.374 Y60.255
Y60.475
X120.793 Y60.689
X120.768 Y60.69
X120.748 Y60.677
X120.74 Y60.653
X120.747 Y60.63
X120.766 Y60.615
X120.778 Y60.611
X120.799 Y60.61
X120.818 Y60.62
X120.829 Y60.638
Y60.66
X120.817 Y60.678
X120.799 Y60.685
X120.78 Y60.68
X120.769 Y60.664
X120.77 Y60.645
X120.783 Y60.614
X120.794 Y60.601
X120.811 Y60.596
X120.827 Y60.602
X120.838 Y60.615
Y60.633
X120.835 Y60.643 Z-0.495 F85.
X120.821 Y60.666 Z-0.523
X120.806 Y60.679 Z-0.528
X120.789 Y60.687 Z-0.533
X120.572 Y60.767 F254.
X120.54 Y60.782
X120.512 Y60.802
X120.456 Y60.85
X120.429 Y60.879
X120.408 Y60.912
X120.371 Y60.986
X120.356 Y61.026
X120.35 Y61.068
X120.346 Y61.224
X120.343 Y61.217
X120.328 Y61.126
X120.33 Y59.583
X120.346 Y59.507
X120.347 Y59.641
X120.35 Y59.673
X120.358 Y59.704
X120.379 Y59.766
X120.395 Y59.8
X120.417 Y59.831
X120.473 Y59.896
X120.496 Y59.918
X120.523 Y59.936
X120.56 Y59.958
X120.591 Y59.972
X121.371 Y60.257
Y60.473
X120.789 Y60.687
X120.765 Y60.688
X120.745 Y60.674
X120.736 Y60.651
X120.744 Y60.628
X120.763 Y60.613
X120.775 Y60.609
X120.796 Y60.608
X120.815 Y60.618
X120.826 Y60.636
X120.825 Y60.657
X120.814 Y60.675
X120.796 Y60.683
X120.777 Y60.678
X120.766 Y60.662
X120.767 Y60.642
X120.779 Y60.612
X120.791 Y60.599
X120.807 Y60.594
X120.824 Y60.6
X120.834 Y60.613
X120.835 Y60.631
X120.832 Y60.641 Z-0.572 F85.
X120.817 Y60.664 Z-0.599
X120.803 Y60.677 Z-0.604
X120.786 Y60.685 Z-0.61
X120.572 Y60.764 F254.
X120.543 Y60.777
X120.515 Y60.796
X120.46 Y60.841
X120.432 Y60.869
X120.41 Y60.902
X120.371 Y60.978
X120.355 Y61.017
X120.349 Y61.058
X120.342 Y61.183
X120.341 Y61.194
Y61.206
X120.328 Y61.126
X120.33 Y59.583
X120.343 Y59.52
X120.344 Y59.641
X120.347 Y59.674
X120.355 Y59.706
X120.38 Y59.775
X120.397 Y59.811
X120.421 Y59.842
X120.477 Y59.903
X120.509 Y59.931
X120.546 Y59.952
X120.69 Y60.011
X120.698 Y60.014
X121.369 Y60.259
Y60.472
X120.786 Y60.685
X120.762 Y60.686
X120.742 Y60.673
X120.733 Y60.65
X120.74 Y60.626
X120.759 Y60.611
X120.773 Y60.606
X120.796 Y60.605
X120.816 Y60.617
X120.826 Y60.638
X120.822 Y60.661
X120.806 Y60.678
X120.783 Y60.682
X120.761 Y60.673
X120.749 Y60.653
X120.75 Y60.63
X120.758 Y60.606
X120.772 Y60.588
X120.795 Y60.58
X120.818 Y60.587
X120.832 Y60.606
X120.833 Y60.629
X120.83 Y60.639 Z-0.648 F85.
X120.816 Y60.663 Z-0.676
X120.801 Y60.675 Z-0.681
X120.784 Y60.684 Z-0.686
X120.564 Y60.765 F254.
X120.53 Y60.782
X120.499 Y60.805
X120.439 Y60.859
X120.414 Y60.887
X120.395 Y60.919
X120.366 Y60.979
X120.353 Y61.016
X120.347 Y61.054
X120.339 Y61.182
Y61.191
X120.328 Y61.126
X120.33 Y59.583
X120.34 Y59.533
X120.341 Y59.64
X120.344 Y59.672
X120.351 Y59.704
X120.375 Y59.772
X120.389 Y59.804
X120.41 Y59.833
X120.454 Y59.887
X120.477 Y59.911
X120.504 Y59.93
X120.557 Y59.962
X120.591 Y59.978
X121.366 Y60.261
Y60.47
X120.784 Y60.684
X120.76 Y60.685
X120.74 Y60.671
X120.731 Y60.648
X120.738 Y60.625
X120.758 Y60.61
X120.77 Y60.606
X120.791 Y60.604
X120.81 Y60.614
X120.821 Y60.633
X120.82 Y60.654
X120.809 Y60.672
X120.791 Y60.68
X120.772 Y60.674
X120.761 Y60.658
X120.762 Y60.639
X120.775 Y60.609
X120.786 Y60.595
X120.802 Y60.591
X120.819 Y60.596
X120.829 Y60.61
X120.83 Y60.627
X120.827 Y60.637 Z-0.724 F85.
X120.812 Y60.661 Z-0.752
X120.798 Y60.673 Z-0.757
X120.781 Y60.682 Z-0.762
X120.564 Y60.761 F254.
X120.531 Y60.777
X120.502 Y60.798
X120.443 Y60.851
X120.417 Y60.878
X120.397 Y60.91
X120.365 Y60.972
X120.351 Y61.01
X120.345 Y61.049
X120.337 Y61.178
X120.328 Y61.126
X120.33 Y59.583
X120.338 Y59.547
Y59.64
X120.341 Y59.673
X120.349 Y59.705
X120.376 Y59.78
X120.391 Y59.814
X120.413 Y59.844
X120.457 Y59.894
X120.48 Y59.917
X120.506 Y59.936
X120.56 Y59.967
X120.591 Y59.981
X121.363 Y60.262
Y60.468
X120.781 Y60.682
X120.757 Y60.683
X120.737 Y60.669
X120.728 Y60.646
X120.735 Y60.622
X120.755 Y60.608
X120.767 Y60.603
X120.788 Y60.602
X120.807 Y60.612
X120.818 Y60.63
X120.817 Y60.652
X120.806 Y60.67
X120.788 Y60.677
X120.769 Y60.672
X120.758 Y60.656
X120.759 Y60.636
X120.772 Y60.606
X120.783 Y60.593
X120.799 Y60.588
X120.816 Y60.594
X120.827 Y60.608
Y60.625
X120.824 Y60.635 Z-0.8 F85.
X120.809 Y60.659 Z-0.828
X120.795 Y60.671 Z-0.833
X120.778 Y60.68 Z-0.838
X120.564 Y60.758 F254.
X120.533 Y60.773
X120.505 Y60.793
X120.446 Y60.842
X120.42 Y60.87
X120.399 Y60.901
X120.365 Y60.966
X120.349 Y61.004
X120.342 Y61.045
X120.335 Y61.166
X120.328 Y61.126
X120.33 Y59.583
X120.337 Y59.55
X120.338 Y59.658
X120.342 Y59.695
X120.353 Y59.731
X120.379 Y59.796
X120.395 Y59.826
X120.416 Y59.853
X120.46 Y59.902
X120.483 Y59.923
X120.509 Y59.941
X120.562 Y59.971
X120.591 Y59.984
X121.361 Y60.264
Y60.466
X120.778 Y60.68
X120.754
X120.734 Y60.667
X120.725 Y60.644
X120.732 Y60.62
X120.752 Y60.605
X120.764 Y60.601
X120.785 Y60.6
X120.804 Y60.61
X120.815 Y60.628
X120.814 Y60.65
X120.803 Y60.668
X120.785 Y60.675
X120.766 Y60.67
X120.755 Y60.654
X120.756 Y60.634
X120.769 Y60.604
X120.78 Y60.591
X120.797 Y60.586
X120.813 Y60.592
X120.824 Y60.606
Y60.623
X120.821 Y60.633 Z-0.876 F85.
X120.807 Y60.656 Z-0.904
X120.792 Y60.669 Z-0.909
X120.775 Y60.678 Z-0.914
X120.564 Y60.755 F254.
X120.535 Y60.768
X120.508 Y60.787
X120.449 Y60.835
X120.422 Y60.861
X120.4 Y60.893
X120.364 Y60.96
X120.349 Y60.996
X120.341 Y61.034
X120.332 Y61.122
X120.331 Y61.142
X120.328 Y61.126
X120.33 Y59.583
X120.334 Y59.562
X120.335 Y59.659
X120.339 Y59.698
X120.351 Y59.735
X120.381 Y59.804
X120.397 Y59.835
X120.419 Y59.863
X120.463 Y59.909
X120.486 Y59.93
X120.512 Y59.947
X120.565 Y59.975
X120.591 Y59.987
X121.358 Y60.266
Y60.464
X120.775 Y60.678
X120.75
X120.73 Y60.664
X120.722 Y60.641
X120.73 Y60.617
X120.75 Y60.603
X120.754 Y60.602
X120.776
X120.795 Y60.614
X120.804 Y60.635
X120.801 Y60.657
X120.785 Y60.673
X120.77 Y60.676
X120.756 Y60.668
X120.752 Y60.653
X120.758 Y60.639
X120.775 Y60.622
X120.79 Y60.616
X120.805 Y60.621
X120.813 Y60.636
X120.808 Y60.652
X120.804 Y60.656 Z-0.936 F85.
X120.792 Y60.666 Z-0.951
X120.774 Y60.676 Z-0.957
X120.564 Y60.753 F254.
X120.536 Y60.766
X120.509 Y60.784
X120.451 Y60.83
X120.423 Y60.857
X120.401 Y60.889
X120.364 Y60.957
X120.348 Y60.993
X120.34 Y61.032
X120.33 Y61.122
X120.329 Y61.134
X120.328 Y61.126
X120.33 Y59.583
X120.333 Y59.569
X120.334 Y59.66
X120.337 Y59.695
X120.347 Y59.729
X120.368 Y59.786
X120.384 Y59.818
X120.405 Y59.846
X120.458 Y59.906
X120.484 Y59.93
X120.513 Y59.949
X120.567 Y59.978
X120.591 Y59.989
X121.357 Y60.267
Y60.463
X120.774 Y60.676
X120.755 Y60.678
X120.738 Y60.672
X120.726 Y60.659
X120.612 Y60.464
X120.542 Y60.414
X120.528 Y60.408
X120.514 Y60.407
X120.379 Y60.425
X120.357 Y60.421
X120.341 Y60.406
X120.338 Y60.401 Z-0.979 F85.
X120.332 Y60.386 Z-0.994
X120.329 Y60.365 Z-1.
X120.33 Y59.583 F254.
X120.332 Y59.575
Y59.661
X120.336 Y59.696
X120.346 Y59.731
X120.369 Y59.79
X120.385 Y59.822
X120.406 Y59.851
X120.459 Y59.909
X120.485 Y59.933
X120.514 Y59.952
X120.568 Y59.98
X120.591 Y59.99
X121.355 Y60.268
Y60.462
X120.564 Y60.751
X120.536 Y60.764
X120.511 Y60.781
X120.452 Y60.827
X120.424 Y60.854
X120.402 Y60.885
X120.363 Y60.954
X120.347 Y60.991
X120.339 Y61.03
X120.329 Y61.121
X120.328 Y61.128
X120.329 Y60.365
X120.332 Y60.346 Z-0.995
X120.339 Y60.328 Z-0.989
X120.357 Y60.305 Z-0.961
X120.366 Y60.299 Z-0.921
G0 Z5.
X124.146 Y60.3
Z1.076
G1 Z0.003 F85.
X124.154 Y60.306 Z-0.037
X124.172 Y60.328 Z-0.066
X124.18 Y60.347 Z-0.071
X124.182 Y60.366 Z-0.076
Y61.147 F254.
X124.164 Y61.234
X124.15 Y61.262
X124.148 Y61.087
X124.143 Y61.049
X124.132 Y61.012
X124.104 Y60.947
X124.085 Y60.914
X124.061 Y60.885
X124.006 Y60.83
X123.974 Y60.804
X123.936 Y60.785
X123.39 Y60.581
X123.125 Y60.484
Y60.246
X123.917 Y59.956
X123.944 Y59.943
X123.97 Y59.926
X124.028 Y59.881
X124.056 Y59.855
X124.078 Y59.823
X124.118 Y59.753
X124.133 Y59.719
X124.142 Y59.683
X124.151 Y59.615
X124.153 Y59.589
X124.154 Y59.475
X124.164 Y59.496
X124.182 Y59.583
Y60.366
X124.175 Y60.387
X124.158 Y60.401
X124.136 Y60.402
X124.117 Y60.391
X124.107 Y60.371
X124.105 Y60.35
X124.108 Y60.329
X124.122 Y60.314
X124.142 Y60.308
X124.162 Y60.313
X124.176 Y60.329
X124.179 Y60.347
X124.172 Y60.364
X124.157 Y60.375
X124.138 Y60.377
X124.122 Y60.368
X124.105 Y60.353
X124.096 Y60.335
X124.097 Y60.316
X124.11 Y60.3
X124.129 Y60.294
X124.148 Y60.3
X124.156 Y60.306 Z-0.114 F85.
X124.173 Y60.328 Z-0.142
X124.18 Y60.346 Z-0.147
X124.182 Y60.365 Z-0.152
Y61.147 F254.
X124.164 Y61.234
X124.153 Y61.257
X124.151 Y61.088
X124.147 Y61.05
X124.135 Y61.014
X124.107 Y60.947
X124.089 Y60.913
X124.064 Y60.884
X124.008 Y60.827
X123.975 Y60.801
X123.938 Y60.783
X123.128 Y60.483
Y60.247
X123.938 Y59.947
X123.975 Y59.929
X124.008 Y59.902
X124.065 Y59.846
X124.089 Y59.817
X124.107 Y59.783
X124.135 Y59.716
X124.147 Y59.68
X124.151 Y59.642
X124.153 Y59.472
X124.164 Y59.496
X124.182 Y59.583
Y60.365
X124.175 Y60.379
X124.16 Y60.383
X124.148 Y60.373
X124.123 Y60.324
X124.122 Y60.308
X124.134 Y60.298
X124.149 Y60.301
X124.157 Y60.307 Z-0.191 F85.
X124.174 Y60.329 Z-0.218
X124.181 Y60.347 Z-0.223
X124.183 Y60.365 Z-0.229
X124.182 Y61.147 F254.
X124.164 Y61.234
X124.155 Y61.252
X124.154 Y61.089
X124.15 Y61.051
X124.139 Y61.015
X124.111 Y60.947
X124.092 Y60.912
X124.068 Y60.882
X124.01 Y60.825
X123.977 Y60.799
X123.939 Y60.78
X123.131 Y60.481
Y60.249
X123.94 Y59.95
X123.977 Y59.931
X124.01 Y59.905
X124.068 Y59.848
X124.092 Y59.818
X124.111 Y59.783
X124.139 Y59.715
X124.15 Y59.679
X124.154 Y59.641
X124.155 Y59.48
X124.169 Y59.513
X124.184 Y59.604
X124.183 Y60.365
X124.176 Y60.38
X124.161 Y60.383
X124.148 Y60.374
X124.122 Y60.324
Y60.308
X124.133 Y60.298
X124.149 Y60.301
X124.157 Y60.307 Z-0.267 F85.
X124.174 Y60.329 Z-0.295
X124.181 Y60.347 Z-0.3
X124.183 Y60.365 Z-0.305
X124.182 Y61.147 F254.
X124.164 Y61.234
X124.158 Y61.246
X124.157 Y61.087
X124.153 Y61.05
X124.142 Y61.013
X124.113 Y60.945
X124.095 Y60.91
X124.07 Y60.88
X124.011 Y60.822
X123.978 Y60.796
X123.941 Y60.778
X123.133 Y60.479
Y60.251
X123.941 Y59.952
X123.978 Y59.934
X124.011 Y59.908
X124.07 Y59.85
X124.095 Y59.82
X124.114 Y59.784
X124.142 Y59.714
X124.153 Y59.678
X124.157 Y59.641
X124.158 Y59.487
X124.169 Y59.513
X124.184 Y59.604
X124.183 Y60.365
X124.176 Y60.386
X124.159 Y60.4
X124.137 Y60.401
X124.118 Y60.39
X124.109 Y60.37
X124.107 Y60.35
X124.111 Y60.33
X124.124 Y60.315
X124.144 Y60.309
X124.164 Y60.315
X124.177 Y60.33
X124.179 Y60.353
X124.166 Y60.372
X124.145 Y60.378
X124.124 Y60.368
X124.107 Y60.352
X124.097 Y60.335
X124.099 Y60.315
X124.112 Y60.3
X124.13 Y60.295
X124.149 Y60.301
X124.157 Y60.307 Z-0.343 F85.
X124.174 Y60.329 Z-0.371
X124.181 Y60.347 Z-0.376
X124.183 Y60.365 Z-0.381
X124.182 Y61.147 F254.
X124.164 Y61.234
X124.161 Y61.24
X124.16 Y61.089
X124.156 Y61.05
X124.144 Y61.013
X124.111 Y60.935
X124.091 Y60.899
X124.064 Y60.868
X124.007 Y60.814
X123.976 Y60.791
X123.941 Y60.774
X123.136 Y60.477
Y60.253
X123.941 Y59.956
X123.976 Y59.939
X124.007 Y59.915
X124.064 Y59.862
X124.091 Y59.831
X124.111 Y59.795
X124.144 Y59.717
X124.156 Y59.68
X124.16 Y59.641
X124.161 Y59.494
X124.169 Y59.513
X124.184 Y59.604
X124.183 Y60.365
X124.176 Y60.38
X124.161 Y60.384
X124.148 Y60.374
X124.122 Y60.323
X124.121 Y60.307
X124.133 Y60.297
X124.149 Y60.299
X124.157 Y60.306 Z-0.419 F85.
X124.174 Y60.328 Z-0.447
X124.181 Y60.345 Z-0.452
X124.183 Y60.364 Z-0.457
X124.182 Y61.147 F254.
X124.164 Y61.234
X124.163 Y61.089
X124.16 Y61.058
X124.153 Y61.027
X124.134 Y60.972
X124.119 Y60.939
X124.098 Y60.908
X124.042 Y60.841
X124.018 Y60.818
X123.992 Y60.798
X123.954 Y60.776
X123.921 Y60.76
X123.139 Y60.475
Y60.255
X123.94 Y59.96
X123.973 Y59.944
X124.003 Y59.922
X124.059 Y59.872
X124.084 Y59.846
X124.103 Y59.816
X124.134 Y59.756
X124.148 Y59.723
X124.155 Y59.689
X124.165 Y59.611
X124.166 Y59.588
Y59.506
X124.169 Y59.513
X124.184 Y59.604
X124.183 Y60.364
X124.176 Y60.387
X124.156 Y60.402
X124.132
X124.112 Y60.388
X124.104 Y60.366
Y60.346
X124.11 Y60.324
X124.127 Y60.308
X124.151 Y60.306
X124.171 Y60.317
X124.182 Y60.338
X124.179 Y60.361
X124.163 Y60.378
X124.14 Y60.384
X124.119 Y60.376
X124.102 Y60.363
X124.089 Y60.343
Y60.319
X124.103 Y60.3
X124.126 Y60.293
X124.149 Y60.3
X124.157 Y60.306 Z-0.495 F85.
X124.174 Y60.328 Z-0.523
X124.181 Y60.346 Z-0.528
X124.183 Y60.364 Z-0.533
X124.182 Y61.147 F254.
X124.167 Y61.22
X124.166 Y61.089
X124.163 Y61.057
X124.155 Y61.025
X124.133 Y60.962
X124.117 Y60.927
X124.094 Y60.896
X124.038 Y60.833
X124.015 Y60.81
X123.988 Y60.792
X123.951 Y60.771
X123.921 Y60.757
X123.141 Y60.473
Y60.257
X123.94 Y59.963
X123.971 Y59.949
X123.999 Y59.929
X124.055 Y59.882
X124.082 Y59.854
X124.103 Y59.82
X124.141 Y59.746
X124.156 Y59.708
X124.162 Y59.668
X124.168 Y59.547
X124.169 Y59.536
Y59.512
X124.184 Y59.604
X124.183 Y60.364
X124.176 Y60.387
X124.156 Y60.402
X124.132
X124.112 Y60.389
X124.104 Y60.366
X124.103 Y60.346
X124.11 Y60.324
X124.127 Y60.309
X124.15 Y60.306
X124.171 Y60.317
X124.182 Y60.338
X124.179 Y60.361
X124.163 Y60.378
X124.14 Y60.384
X124.119 Y60.376
X124.102 Y60.363
X124.089 Y60.343
Y60.319
X124.103 Y60.3
X124.126 Y60.293
X124.149 Y60.3
X124.157 Y60.306 Z-0.572 F85.
X124.174 Y60.328 Z-0.599
X124.181 Y60.346 Z-0.604
X124.183 Y60.365 Z-0.61
X124.182 Y61.147 F254.
X124.169 Y61.206
Y61.089
X124.166 Y61.056
X124.157 Y61.023
X124.131 Y60.952
X124.114 Y60.917
X124.09 Y60.885
X124.034 Y60.825
X124.002 Y60.797
X123.965 Y60.777
X123.822 Y60.718
X123.814 Y60.715
X123.144 Y60.471
Y60.259
X123.94 Y59.967
X123.969 Y59.953
X123.996 Y59.935
X124.051 Y59.89
X124.079 Y59.863
X124.101 Y59.83
X124.141 Y59.754
X124.157 Y59.715
X124.164 Y59.673
X124.171 Y59.547
Y59.536
Y59.528
X124.184 Y59.604
X124.183 Y60.365
X124.176 Y60.387
X124.156 Y60.402
X124.132
X124.113 Y60.389
X124.104 Y60.366
X124.103 Y60.346
X124.109 Y60.323
X124.127 Y60.308
X124.15 Y60.306
X124.171 Y60.317
X124.181 Y60.337
X124.179 Y60.361
X124.163 Y60.378
X124.14 Y60.384
X124.118 Y60.375
X124.102 Y60.363
X124.089 Y60.343
Y60.319
X124.103 Y60.3
X124.126 Y60.292
X124.149 Y60.299
X124.157 Y60.306 Z-0.648 F85.
X124.174 Y60.327 Z-0.676
X124.181 Y60.345 Z-0.681
X124.183 Y60.364 Z-0.686
X124.182 Y61.147 F254.
X124.172 Y61.193
Y61.089
X124.169 Y61.057
X124.161 Y61.026
X124.137 Y60.956
X124.122 Y60.923
X124.102 Y60.894
X124.057 Y60.841
X124.034 Y60.818
X124.008 Y60.799
X123.954 Y60.767
X123.921 Y60.751
X123.147 Y60.469
Y60.26
X123.948 Y59.965
X123.982 Y59.949
X124.012 Y59.927
X124.072 Y59.873
X124.097 Y59.845
X124.116 Y59.813
X124.146 Y59.752
X124.16 Y59.716
X124.166 Y59.677
X124.174 Y59.548
X124.184 Y59.604
X124.183 Y60.364
X124.176 Y60.387
X124.156 Y60.401
X124.132 Y60.402
X124.112 Y60.388
X124.104 Y60.366
X124.103 Y60.346
X124.109 Y60.324
X124.127 Y60.308
X124.15 Y60.306
X124.171 Y60.317
X124.182 Y60.338
X124.179 Y60.361
X124.163 Y60.378
X124.14 Y60.384
X124.118 Y60.376
X124.102 Y60.363
X124.089 Y60.343
Y60.319
X124.103 Y60.3
X124.126 Y60.292
X124.149 Y60.299
X124.157 Y60.306 Z-0.724 F85.
X124.174 Y60.328 Z-0.752
X124.181 Y60.345 Z-0.757
X124.183 Y60.364 Z-0.762
X124.182 Y61.147 F254.
X124.175 Y61.18
Y61.09
X124.172 Y61.056
X124.163 Y61.024
X124.136 Y60.948
X124.12 Y60.914
X124.098 Y60.884
X124.054 Y60.834
X124.031 Y60.812
X124.005 Y60.793
X123.952 Y60.763
X123.921 Y60.748
X123.149 Y60.468
Y60.262
X123.948 Y59.969
X123.98 Y59.954
X124.009 Y59.933
X124.068 Y59.881
X124.094 Y59.854
X124.114 Y59.822
X124.147 Y59.759
X124.161 Y59.722
X124.168 Y59.682
X124.176 Y59.555
X124.184 Y59.604
X124.183 Y60.364
X124.176 Y60.387
X124.156 Y60.402
X124.132
X124.113 Y60.388
X124.104 Y60.366
X124.103 Y60.346
X124.109 Y60.324
X124.127 Y60.309
X124.15 Y60.306
X124.171 Y60.317
X124.182 Y60.338
X124.179 Y60.361
X124.163 Y60.379
X124.14 Y60.384
X124.118 Y60.376
X124.102 Y60.363
X124.089 Y60.343
Y60.319
X124.104 Y60.3
X124.126 Y60.293
X124.149 Y60.3
X124.157 Y60.306 Z-0.8 F85.
X124.174 Y60.328 Z-0.828
X124.181 Y60.346 Z-0.833
X124.183 Y60.364 Z-0.838
X124.182 Y61.147 F254.
X124.176 Y61.177
X124.175 Y61.072
X124.171 Y61.034
X124.16 Y60.998
X124.132 Y60.932
X124.116 Y60.901
X124.095 Y60.874
X124.051 Y60.827
X124.028 Y60.805
X124.002 Y60.788
X123.949 Y60.758
X123.921 Y60.745
X123.152 Y60.466
Y60.264
X123.948 Y59.972
X123.978 Y59.958
X124.006 Y59.938
X124.065 Y59.889
X124.092 Y59.862
X124.113 Y59.831
X124.147 Y59.766
X124.162 Y59.731
X124.169 Y59.693
X124.178 Y59.608
X124.179 Y59.588
Y59.576
X124.184 Y59.604
X124.183 Y60.364
X124.176 Y60.387
X124.156 Y60.402
X124.132
X124.113 Y60.389
X124.104 Y60.366
X124.103 Y60.347
X124.109 Y60.324
X124.127 Y60.309
X124.15 Y60.306
X124.171 Y60.317
X124.182 Y60.338
X124.178 Y60.362
X124.163 Y60.379
X124.14 Y60.384
X124.118 Y60.376
X124.102 Y60.363
X124.089 Y60.343
Y60.319
X124.104 Y60.3
X124.126 Y60.293
X124.149 Y60.3
X124.157 Y60.306 Z-0.876 F85.
X124.174 Y60.328 Z-0.904
X124.181 Y60.346 Z-0.909
X124.183 Y60.365 Z-0.914
X124.182 Y61.147 F254.
X124.178 Y61.165
Y61.07
X124.174 Y61.036
X124.165 Y61.002
X124.144 Y60.947
X124.129 Y60.915
X124.108 Y60.887
X124.055 Y60.826
X124.029 Y60.802
X123.999 Y60.782
X123.946 Y60.754
X123.921 Y60.743
X123.155 Y60.464
Y60.266
X123.948 Y59.976
X123.977 Y59.962
X124.003 Y59.944
X124.062 Y59.897
X124.089 Y59.87
X124.111 Y59.839
X124.148 Y59.772
X124.164 Y59.735
X124.172 Y59.697
X124.181 Y59.608
X124.182 Y59.592
X124.184 Y59.604
X124.183 Y60.365
X124.175 Y60.388
X124.156 Y60.402
X124.132
X124.112 Y60.388
X124.104 Y60.365
Y60.356
X124.11 Y60.334
X124.127 Y60.319
X124.15 Y60.316
X124.17 Y60.326
X124.182 Y60.345
X124.181 Y60.368
X124.168 Y60.386
X124.147 Y60.394
X124.125 Y60.39
X124.109 Y60.374
X124.103 Y60.363
X124.099 Y60.339
X124.109 Y60.317
X124.129 Y60.306
X124.153 Y60.308
X124.171 Y60.324
X124.174 Y60.329 Z-0.936 F85.
X124.18 Y60.343 Z-0.951
X124.183 Y60.365 Z-0.957
X124.182 Y61.147 F254.
X124.18 Y61.158
X124.179 Y61.069
X124.176 Y61.034
X124.166 Y61.
X124.143 Y60.942
X124.128 Y60.91
X124.106 Y60.882
X124.053 Y60.822
X124.027 Y60.798
X123.998 Y60.78
X123.945 Y60.752
X123.921 Y60.741
X123.156 Y60.463
Y60.267
X123.948 Y59.977
X123.976 Y59.964
X124.002 Y59.947
X124.06 Y59.901
X124.088 Y59.875
X124.11 Y59.843
X124.149 Y59.775
X124.165 Y59.738
X124.173 Y59.699
X124.182 Y59.609
X124.183 Y59.6
Y60.365
X124.172 Y60.324
X124.174 Y60.329 Z-0.979 F85.
X124.18 Y60.344 Z-0.994
X124.183 Y60.365 Z-1.
X124.182 Y61.147 F254.
X124.18 Y61.069
X124.177 Y61.033
X124.167 Y60.998
X124.143 Y60.938
X124.127 Y60.906
X124.105 Y60.877
X124.052 Y60.819
X124.02 Y60.791
X123.982 Y60.77
X123.822 Y60.704
X123.814 Y60.701
X123.157 Y60.462
Y60.268
X123.948 Y59.979
X123.975 Y59.966
X124. Y59.95
X124.059 Y59.904
X124.087 Y59.878
X124.109 Y59.847
X124.149 Y59.777
X124.165 Y59.74
X124.174 Y59.701
X124.184 Y59.609
X124.183 Y60.365
X124.18 Y60.384 Z-0.995
X124.173 Y60.402 Z-0.989
X124.155 Y60.425 Z-0.961
X124.147 Y60.431 Z-0.921
G0 Z15.

(MUSCLE PLINTH)
G55
G0 X120.856 Y80.14
Z15.
Z1.076
G1 Z0.003 F85.
X120.853 Y80.15 Z-0.037
X120.839 Y80.175 Z-0.066
X120.824 Y80.188 Z-0.071
X120.807 Y80.197 Z-0.076
X120.596 Y80.274 F254.
X120.568 Y80.287
X120.542 Y80.304
X120.485 Y80.349
X120.457 Y80.376
X120.434 Y80.407
X120.395 Y80.477
X120.38 Y80.511
X120.371 Y80.547
X120.362 Y80.615
X120.36 Y80.64
X120.359 Y80.757
X120.348 Y80.734
X120.33 Y80.647
Y79.083
X120.348 Y78.996
X120.362 Y78.967
X120.365 Y79.143
X120.369 Y79.181
X120.381 Y79.217
X120.409 Y79.283
X120.427 Y79.316
X120.451 Y79.345
X120.506 Y79.4
X120.539 Y79.426
X120.576 Y79.445
X121.122 Y79.649
X121.387 Y79.746
Y79.984
X120.807 Y80.197
X120.791 Y80.196
X120.782 Y80.182
X120.787 Y80.167
X120.824 Y80.126
X120.839 Y80.12
X120.853 Y80.127
X120.856 Y80.142
X120.853 Y80.152 Z-0.114 F85.
X120.838 Y80.176 Z-0.142
X120.824 Y80.188 Z-0.147
X120.807 Y80.197 Z-0.152
X120.575 Y80.283 F254.
X120.537 Y80.302
X120.504 Y80.328
X120.448 Y80.384
X120.424 Y80.413
X120.406 Y80.447
X120.377 Y80.514
X120.366 Y80.55
X120.362 Y80.588
X120.36 Y80.759
X120.348 Y80.734
X120.33 Y80.647
Y79.083
X120.348 Y78.996
X120.36 Y78.971
X120.362 Y79.142
X120.366 Y79.18
X120.377 Y79.216
X120.406 Y79.283
X120.424 Y79.317
X120.448 Y79.346
X120.504 Y79.402
X120.537 Y79.428
X120.575 Y79.447
X121.385 Y79.747
Y79.983
X120.807 Y80.197
X120.782 Y80.198
X120.762 Y80.184
X120.754 Y80.161
X120.761 Y80.137
X120.781 Y80.123
X120.793 Y80.119
X120.814 Y80.118
X120.832 Y80.128
X120.843 Y80.146
Y80.167
X120.832 Y80.185
X120.814 Y80.193
X120.795 Y80.188
X120.784 Y80.172
Y80.152
X120.796 Y80.123
X120.807 Y80.109
X120.824 Y80.104
X120.841 Y80.109
X120.851 Y80.123
X120.852 Y80.141
X120.849 Y80.15 Z-0.191 F85.
X120.835 Y80.174 Z-0.218
X120.82 Y80.187 Z-0.223
X120.803 Y80.195 Z-0.229
X120.573 Y80.28 F254.
X120.535 Y80.299
X120.502 Y80.325
X120.445 Y80.383
X120.42 Y80.413
X120.402 Y80.447
X120.374 Y80.515
X120.363 Y80.551
X120.359 Y80.589
X120.358 Y80.752
X120.343 Y80.717
X120.328 Y80.626
X120.33 Y79.083
X120.348 Y78.996
X120.358 Y78.976
X120.359 Y79.141
X120.363 Y79.179
X120.374 Y79.215
X120.402 Y79.283
X120.42 Y79.317
X120.445 Y79.347
X120.502 Y79.404
X120.535 Y79.431
X120.573 Y79.45
X121.382 Y79.749
Y79.981
X120.803 Y80.195
X120.779 Y80.196
X120.759 Y80.182
X120.75 Y80.159
X120.757 Y80.136
X120.777 Y80.121
X120.789 Y80.117
X120.811 Y80.115
X120.829 Y80.125
X120.84 Y80.143
Y80.165
X120.829 Y80.183
X120.811 Y80.191
X120.792 Y80.185
X120.781 Y80.17
X120.782 Y80.15
X120.793 Y80.121
X120.804 Y80.107
X120.821 Y80.102
X120.838 Y80.107
X120.849 Y80.121
Y80.139
X120.846 Y80.149 Z-0.267 F85.
X120.832 Y80.172 Z-0.295
X120.817 Y80.185 Z-0.3
X120.8 Y80.193 Z-0.305
X120.571 Y80.278 F254.
X120.533 Y80.297
X120.501 Y80.323
X120.442 Y80.381
X120.417 Y80.412
X120.398 Y80.448
X120.369 Y80.52
X120.359 Y80.555
X120.355 Y80.591
X120.354 Y80.744
X120.343 Y80.717
X120.328 Y80.626
X120.33 Y79.083
X120.348 Y78.996
X120.355 Y78.982
X120.356 Y79.141
X120.36 Y79.178
X120.37 Y79.214
X120.398 Y79.283
X120.417 Y79.318
X120.442 Y79.349
X120.501 Y79.407
X120.533 Y79.433
X120.571 Y79.452
X121.379 Y79.751
Y79.979
X120.8 Y80.193
X120.776 Y80.194
X120.756 Y80.18
X120.747 Y80.157
X120.755 Y80.134
X120.774 Y80.119
X120.786 Y80.115
X120.807 Y80.114
X120.826 Y80.124
X120.837 Y80.142
X120.836 Y80.163
X120.825 Y80.181
X120.807 Y80.189
X120.788 Y80.184
X120.777 Y80.168
X120.778 Y80.149
X120.79 Y80.118
X120.801 Y80.105
X120.818 Y80.1
X120.835 Y80.105
X120.845 Y80.119
X120.846 Y80.137
X120.843 Y80.146 Z-0.343 F85.
X120.828 Y80.17 Z-0.371
X120.814 Y80.182 Z-0.376
X120.797 Y80.191 Z-0.381
X120.571 Y80.274 F254.
X120.536 Y80.292
X120.504 Y80.316
X120.447 Y80.37
X120.42 Y80.401
X120.4 Y80.437
X120.368 Y80.514
X120.357 Y80.551
X120.353 Y80.589
X120.352 Y80.738
X120.343 Y80.717
X120.328 Y80.626
X120.33 Y79.083
X120.348 Y78.996
X120.352 Y78.989
X120.353 Y79.141
X120.357 Y79.179
X120.368 Y79.216
X120.4 Y79.293
X120.42 Y79.328
X120.447 Y79.359
X120.504 Y79.414
X120.536 Y79.438
X120.571 Y79.456
X121.377 Y79.753
Y79.977
X120.797 Y80.191
X120.772 Y80.192
X120.752 Y80.178
X120.744 Y80.155
X120.751 Y80.131
X120.772 Y80.117
X120.782 Y80.113
X120.803
X120.822 Y80.123
X120.832 Y80.141
Y80.162
X120.82 Y80.18
X120.802 Y80.188
X120.784 Y80.182
X120.772 Y80.166
X120.773 Y80.147
X120.786 Y80.117
X120.797 Y80.103
X120.814 Y80.098
X120.83 Y80.104
X120.841 Y80.118
X120.842 Y80.135
X120.839 Y80.145 Z-0.419 F85.
X120.824 Y80.168 Z-0.447
X120.81 Y80.181 Z-0.452
X120.793 Y80.189 Z-0.457
X120.572 Y80.271 F254.
X120.538 Y80.287
X120.508 Y80.309
X120.451 Y80.36
X120.427 Y80.387
X120.408 Y80.417
X120.377 Y80.478
X120.364 Y80.511
X120.357 Y80.545
X120.348 Y80.62
X120.347 Y80.642
Y80.726
X120.343 Y80.717
X120.328 Y80.626
X120.33 Y79.083
X120.348 Y78.996
X120.35 Y79.141
X120.352 Y79.171
X120.36 Y79.201
X120.377 Y79.255
X120.392 Y79.288
X120.412 Y79.318
X120.469 Y79.387
X120.492 Y79.411
X120.519 Y79.43
X120.557 Y79.453
X120.591 Y79.469
X121.374 Y79.755
Y79.975
X120.793 Y80.189
X120.768 Y80.19
X120.748 Y80.177
X120.74 Y80.153
X120.747 Y80.13
X120.766 Y80.115
X120.778 Y80.111
X120.799 Y80.11
X120.818 Y80.12
X120.829 Y80.138
Y80.16
X120.817 Y80.178
X120.799 Y80.185
X120.78 Y80.18
X120.769 Y80.164
X120.77 Y80.145
X120.783 Y80.114
X120.794 Y80.101
X120.811 Y80.096
X120.827 Y80.102
X120.838 Y80.115
Y80.133
X120.835 Y80.143 Z-0.495 F85.
X120.821 Y80.166 Z-0.523
X120.806 Y80.179 Z-0.528
X120.789 Y80.187 Z-0.533
X120.572 Y80.267 F254.
X120.54 Y80.282
X120.512 Y80.302
X120.456 Y80.35
X120.429 Y80.379
X120.408 Y80.412
X120.371 Y80.486
X120.356 Y80.526
X120.35 Y80.568
X120.346 Y80.724
X120.343 Y80.717
X120.328 Y80.626
X120.33 Y79.083
X120.346 Y79.007
X120.347 Y79.141
X120.35 Y79.173
X120.358 Y79.204
X120.379 Y79.266
X120.395 Y79.3
X120.417 Y79.331
X120.473 Y79.396
X120.496 Y79.418
X120.523 Y79.436
X120.56 Y79.458
X120.591 Y79.472
X121.371 Y79.757
Y79.973
X120.789 Y80.187
X120.765 Y80.188
X120.745 Y80.174
X120.736 Y80.151
X120.744 Y80.128
X120.763 Y80.113
X120.775 Y80.109
X120.796 Y80.108
X120.815 Y80.118
X120.826 Y80.136
X120.825 Y80.157
X120.814 Y80.175
X120.796 Y80.183
X120.777 Y80.178
X120.766 Y80.162
X120.767 Y80.142
X120.779 Y80.112
X120.791 Y80.099
X120.807 Y80.094
X120.824 Y80.1
X120.834 Y80.113
X120.835 Y80.131
X120.832 Y80.141 Z-0.572 F85.
X120.817 Y80.164 Z-0.599
X120.803 Y80.177 Z-0.604
X120.786 Y80.185 Z-0.61
X120.572 Y80.264 F254.
X120.543 Y80.277
X120.515 Y80.296
X120.46 Y80.341
X120.432 Y80.369
X120.41 Y80.402
X120.371 Y80.478
X120.355 Y80.517
X120.349 Y80.558
X120.342 Y80.683
X120.341 Y80.694
Y80.706
X120.328 Y80.626
X120.33 Y79.083
X120.343 Y79.02
X120.344 Y79.141
X120.347 Y79.174
X120.355 Y79.206
X120.38 Y79.275
X120.397 Y79.311
X120.421 Y79.342
X120.477 Y79.403
X120.509 Y79.431
X120.546 Y79.452
X120.69 Y79.511
X120.698 Y79.514
X121.369 Y79.759
Y79.972
X120.786 Y80.185
X120.762 Y80.186
X120.742 Y80.173
X120.733 Y80.15
X120.74 Y80.126
X120.759 Y80.111
X120.773 Y80.106
X120.796 Y80.105
X120.816 Y80.117
X120.826 Y80.138
X120.822 Y80.161
X120.806 Y80.178
X120.783 Y80.182
X120.761 Y80.173
X120.749 Y80.153
X120.75 Y80.13
X120.758 Y80.106
X120.772 Y80.088
X120.795 Y80.08
X120.818 Y80.087
X120.832 Y80.106
X120.833 Y80.129
X120.83 Y80.139 Z-0.648 F85.
X120.816 Y80.163 Z-0.676
X120.801 Y80.175 Z-0.681
X120.784 Y80.184 Z-0.686
X120.564 Y80.265 F254.
X120.53 Y80.282
X120.499 Y80.305
X120.439 Y80.359
X120.414 Y80.387
X120.395 Y80.419
X120.366 Y80.479
X120.353 Y80.516
X120.347 Y80.554
X120.339 Y80.682
Y80.691
X120.328 Y80.626
X120.33 Y79.083
X120.34 Y79.033
X120.341 Y79.14
X120.344 Y79.172
X120.351 Y79.204
X120.375 Y79.272
X120.389 Y79.304
X120.41 Y79.333
X120.454 Y79.387
X120.477 Y79.411
X120.504 Y79.43
X120.557 Y79.462
X120.591 Y79.478
X121.366 Y79.761
Y79.97
X120.784 Y80.184
X120.76 Y80.185
X120.74 Y80.171
X120.731 Y80.148
X120.738 Y80.125
X120.758 Y80.11
X120.77 Y80.106
X120.791 Y80.104
X120.81 Y80.114
X120.821 Y80.133
X120.82 Y80.154
X120.809 Y80.172
X120.791 Y80.18
X120.772 Y80.174
X120.761 Y80.158
X120.762 Y80.139
X120.775 Y80.109
X120.786 Y80.095
X120.802 Y80.091
X120.819 Y80.096
X120.829 Y80.11
X120.83 Y80.127
X120.827 Y80.137 Z-0.724 F85.
X120.812 Y80.161 Z-0.752
X120.798 Y80.173 Z-0.757
X120.781 Y80.182 Z-0.762
X120.564 Y80.261 F254.
X120.531 Y80.277
X120.502 Y80.298
X120.443 Y80.351
X120.417 Y80.378
X120.397 Y80.41
X120.365 Y80.472
X120.351 Y80.51
X120.345 Y80.549
X120.337 Y80.678
X120.328 Y80.626
X120.33 Y79.083
X120.338 Y79.047
Y79.14
X120.341 Y79.173
X120.349 Y79.205
X120.376 Y79.28
X120.391 Y79.314
X120.413 Y79.344
X120.457 Y79.394
X120.48 Y79.417
X120.506 Y79.436
X120.56 Y79.467
X120.591 Y79.481
X121.363 Y79.762
Y79.968
X120.781 Y80.182
X120.757 Y80.183
X120.737 Y80.169
X120.728 Y80.146
X120.735 Y80.122
X120.755 Y80.108
X120.767 Y80.103
X120.788 Y80.102
X120.807 Y80.112
X120.818 Y80.13
X120.817 Y80.152
X120.806 Y80.17
X120.788 Y80.177
X120.769 Y80.172
X120.758 Y80.156
X120.759 Y80.136
X120.772 Y80.106
X120.783 Y80.093
X120.799 Y80.088
X120.816 Y80.094
X120.827 Y80.108
Y80.125
X120.824 Y80.135 Z-0.8 F85.
X120.809 Y80.159 Z-0.828
X120.795 Y80.171 Z-0.833
X120.778 Y80.18 Z-0.838
X120.564 Y80.258 F254.
X120.533 Y80.273
X120.505 Y80.293
X120.446 Y80.342
X120.42 Y80.37
X120.399 Y80.401
X120.365 Y80.466
X120.349 Y80.504
X120.342 Y80.545
X120.335 Y80.666
X120.328 Y80.626
X120.33 Y79.083
X120.337 Y79.05
X120.338 Y79.158
X120.342 Y79.195
X120.353 Y79.231
X120.379 Y79.296
X120.395 Y79.326
X120.416 Y79.353
X120.46 Y79.402
X120.483 Y79.423
X120.509 Y79.441
X120.562 Y79.471
X120.591 Y79.484
X121.361 Y79.764
Y79.966
X120.778 Y80.18
X120.754
X120.734 Y80.167
X120.725 Y80.144
X120.732 Y80.12
X120.752 Y80.105
X120.764 Y80.101
X120.785 Y80.1
X120.804 Y80.11
X120.815 Y80.128
X120.814 Y80.15
X120.803 Y80.168
X120.785 Y80.175
X120.766 Y80.17
X120.755 Y80.154
X120.756 Y80.134
X120.769 Y80.104
X120.78 Y80.091
X120.797 Y80.086
X120.813 Y80.092
X120.824 Y80.106
Y80.123
X120.821 Y80.133 Z-0.876 F85.
X120.807 Y80.156 Z-0.904
X120.792 Y80.169 Z-0.909
X120.775 Y80.178 Z-0.914
X120.564 Y80.255 F254.
X120.535 Y80.268
X120.508 Y80.287
X120.449 Y80.335
X120.422 Y80.361
X120.4 Y80.393
X120.364 Y80.46
X120.349 Y80.496
X120.341 Y80.534
X120.332 Y80.622
X120.331 Y80.642
X120.328 Y80.626
X120.33 Y79.083
X120.334 Y79.062
X120.335 Y79.159
X120.339 Y79.198
X120.351 Y79.235
X120.381 Y79.304
X120.397 Y79.335
X120.419 Y79.363
X120.463 Y79.409
X120.486 Y79.43
X120.512 Y79.447
X120.565 Y79.475
X120.591 Y79.487
X121.358 Y79.766
Y79.964
X120.775 Y80.178
X120.75
X120.73 Y80.164
X120.722 Y80.141
X120.73 Y80.117
X120.75 Y80.103
X120.754 Y80.102
X120.776
X120.795 Y80.114
X120.804 Y80.135
X120.801 Y80.157
X120.785 Y80.173
X120.77 Y80.176
X120.756 Y80.168
X120.752 Y80.153
X120.758 Y80.139
X120.775 Y80.122
X120.79 Y80.116
X120.805 Y80.121
X120.813 Y80.136
X120.808 Y80.152
X120.804 Y80.156 Z-0.936 F85.
X120.792 Y80.166 Z-0.951
X120.774 Y80.176 Z-0.957
X120.564 Y80.253 F254.
X120.536 Y80.266
X120.509 Y80.284
X120.451 Y80.33
X120.423 Y80.357
X120.401 Y80.389
X120.364 Y80.457
X120.348 Y80.493
X120.34 Y80.532
X120.33 Y80.622
X120.329 Y80.634
X120.328 Y80.626
X120.33 Y79.083
X120.333 Y79.069
X120.334 Y79.16
X120.337 Y79.195
X120.347 Y79.229
X120.368 Y79.286
X120.384 Y79.318
X120.405 Y79.346
X120.458 Y79.406
X120.484 Y79.43
X120.513 Y79.449
X120.567 Y79.478
X120.591 Y79.489
X121.357 Y79.767
Y79.963
X120.774 Y80.176
X120.755 Y80.178
X120.738 Y80.172
X120.726 Y80.159
X120.612 Y79.964
X120.542 Y79.914
X120.528 Y79.908
X120.514 Y79.907
X120.379 Y79.925
X120.357 Y79.921
X120.341 Y79.906
X120.338 Y79.901 Z-0.979 F85.
X120.332 Y79.886 Z-0.994
X120.329 Y79.865 Z-1.
X120.33 Y79.083 F254.
X120.332 Y79.075
Y79.161
X120.336 Y79.196
X120.346 Y79.231
X120.369 Y79.29
X120.385 Y79.322
X120.406 Y79.351
X120.459 Y79.409
X120.485 Y79.433
X120.514 Y79.452
X120.568 Y79.48
X120.591 Y79.49
X121.355 Y79.768
Y79.962
X120.564 Y80.251
X120.536 Y80.264
X120.511 Y80.281
X120.452 Y80.327
X120.424 Y80.354
X120.402 Y80.385
X120.363 Y80.454
X120.347 Y80.491
X120.339 Y80.53
X120.329 Y80.621
X120.328 Y80.628
X120.329 Y79.865
X120.332 Y79.846 Z-0.995
X120.339 Y79.828 Z-0.989
X120.357 Y79.805 Z-0.961
X120.366 Y79.799 Z-0.921
G0 Z5.
X124.146 Y79.8
Z1.076
G1 Z0.003 F85.
X124.154 Y79.806 Z-0.037
X124.172 Y79.828 Z-0.066
X124.18 Y79.847 Z-0.071
X124.182 Y79.866 Z-0.076
Y80.647 F254.
X124.164 Y80.734
X124.15 Y80.762
X124.148 Y80.587
X124.143 Y80.549
X124.132 Y80.512
X124.104 Y80.447
X124.085 Y80.414
X124.061 Y80.385
X124.006 Y80.33
X123.974 Y80.304
X123.936 Y80.285
X123.39 Y80.081
X123.125 Y79.984
Y79.746
X123.917 Y79.456
X123.944 Y79.443
X123.97 Y79.426
X124.028 Y79.381
X124.056 Y79.355
X124.078 Y79.323
X124.118 Y79.253
X124.133 Y79.219
X124.142 Y79.183
X124.151 Y79.115
X124.153 Y79.089
X124.154 Y78.975
X124.164 Y78.996
X124.182 Y79.083
Y79.866
X124.175 Y79.887
X124.158 Y79.901
X124.136 Y79.902
X124.117 Y79.891
X124.107 Y79.871
X124.105 Y79.85
X124.108 Y79.829
X124.122 Y79.814
X124.142 Y79.808
X124.162 Y79.813
X124.176 Y79.829
X124.179 Y79.847
X124.172 Y79.864
X124.157 Y79.875
X124.138 Y79.877
X124.122 Y79.868
X124.105 Y79.853
X124.096 Y79.835
X124.097 Y79.816
X124.11 Y79.8
X124.129 Y79.794
X124.148 Y79.8
X124.156 Y79.806 Z-0.114 F85.
X124.173 Y79.828 Z-0.142
X124.18 Y79.846 Z-0.147
X124.182 Y79.865 Z-0.152
Y80.647 F254.
X124.164 Y80.734
X124.153 Y80.757
X124.151 Y80.588
X124.147 Y80.55
X124.135 Y80.514
X124.107 Y80.447
X124.089 Y80.413
X124.064 Y80.384
X124.008 Y80.327
X123.975 Y80.301
X123.938 Y80.283
X123.128 Y79.983
Y79.747
X123.938 Y79.447
X123.975 Y79.429
X124.008 Y79.402
X124.065 Y79.346
X124.089 Y79.317
X124.107 Y79.283
X124.135 Y79.216
X124.147 Y79.18
X124.151 Y79.142
X124.153 Y78.972
X124.164 Y78.996
X124.182 Y79.083
Y79.865
X124.175 Y79.879
X124.16 Y79.883
X124.148 Y79.873
X124.123 Y79.824
X124.122 Y79.808
X124.134 Y79.798
X124.149 Y79.801
X124.157 Y79.807 Z-0.191 F85.
X124.174 Y79.829 Z-0.218
X124.181 Y79.847 Z-0.223
X124.183 Y79.865 Z-0.229
X124.182 Y80.647 F254.
X124.164 Y80.734
X124.155 Y80.752
X124.154 Y80.589
X124.15 Y80.551
X124.139 Y80.515
X124.111 Y80.447
X124.092 Y80.412
X124.068 Y80.382
X124.01 Y80.325
X123.977 Y80.299
X123.939 Y80.28
X123.131 Y79.981
Y79.749
X123.94 Y79.45
X123.977 Y79.431
X124.01 Y79.405
X124.068 Y79.348
X124.092 Y79.318
X124.111 Y79.283
X124.139 Y79.215
X124.15 Y79.179
X124.154 Y79.141
X124.155 Y78.98
X124.169 Y79.013
X124.184 Y79.104
X124.183 Y79.865
X124.176 Y79.88
X124.161 Y79.883
X124.148 Y79.874
X124.122 Y79.824
Y79.808
X124.133 Y79.798
X124.149 Y79.801
X124.157 Y79.807 Z-0.267 F85.
X124.174 Y79.829 Z-0.295
X124.181 Y79.847 Z-0.3
X124.183 Y79.865 Z-0.305
X124.182 Y80.647 F254.
X124.164 Y80.734
X124.158 Y80.746
X124.157 Y80.587
X124.153 Y80.55
X124.142 Y80.513
X124.113 Y80.445
X124.095 Y80.41
X124.07 Y80.38
X124.011 Y80.322
X123.978 Y80.296
X123.941 Y80.278
X123.133 Y79.979
Y79.751
X123.941 Y79.452
X123.978 Y79.434
X124.011 Y79.408
X124.07 Y79.35
X124.095 Y79.32
X124.114 Y79.284
X124.142 Y79.214
X124.153 Y79.178
X124.157 Y79.141
X124.158 Y78.987
X124.169 Y79.013
X124.184 Y79.104
X124.183 Y79.865
X124.176 Y79.886
X124.159 Y79.9
X124.137 Y79.901
X124.118 Y79.89
X124.109 Y79.87
X124.107 Y79.85
X124.111 Y79.83
X124.124 Y79.815
X124.144 Y79.809
X124.164 Y79.815
X124.177 Y79.83
X124.179 Y79.853
X124.166 Y79.872
X124.145 Y79.878
X124.124 Y79.868
X124.107 Y79.852
X124.097 Y79.835
X124.099 Y79.815
X124.112 Y79.8
X124.13 Y79.795
X124.149 Y79.801
X124.157 Y79.807 Z-0.343 F85.
X124.174 Y79.829 Z-0.371
X124.181 Y79.847 Z-0.376
X124.183 Y79.865 Z-0.381
X124.182 Y80.647 F254.
X124.164 Y80.734
X124.161 Y80.74
X124.16 Y80.589
X124.156 Y80.55
X124.144 Y80.513
X124.111 Y80.435
X124.091 Y80.399
X124.064 Y80.368
X124.007 Y80.314
X123.976 Y80.291
X123.941 Y80.274
X123.136 Y79.977
Y79.753
X123.941 Y79.456
X123.976 Y79.439
X124.007 Y79.415
X124.064 Y79.362
X124.091 Y79.331
X124.111 Y79.295
X124.144 Y79.217
X124.156 Y79.18
X124.16 Y79.141
X124.161 Y78.994
X124.169 Y79.013
X124.184 Y79.104
X124.183 Y79.865
X124.176 Y79.88
X124.161 Y79.884
X124.148 Y79.874
X124.122 Y79.823
X124.121 Y79.807
X124.133 Y79.797
X124.149 Y79.799
X124.157 Y79.806 Z-0.419 F85.
X124.174 Y79.828 Z-0.447
X124.181 Y79.845 Z-0.452
X124.183 Y79.864 Z-0.457
X124.182 Y80.647 F254.
X124.164 Y80.734
X124.163 Y80.589
X124.16 Y80.558
X124.153 Y80.527
X124.134 Y80.472
X124.119 Y80.439
X124.098 Y80.408
X124.042 Y80.341
X124.018 Y80.318
X123.992 Y80.298
X123.954 Y80.276
X123.921 Y80.26
X123.139 Y79.975
Y79.755
X123.94 Y79.46
X123.973 Y79.444
X124.003 Y79.422
X124.059 Y79.372
X124.084 Y79.346
X124.103 Y79.316
X124.134 Y79.256
X124.148 Y79.223
X124.155 Y79.189
X124.165 Y79.111
X124.166 Y79.088
Y79.006
X124.169 Y79.013
X124.184 Y79.104
X124.183 Y79.864
X124.176 Y79.887
X124.156 Y79.902
X124.132
X124.112 Y79.888
X124.104 Y79.866
Y79.846
X124.11 Y79.824
X124.127 Y79.808
X124.151 Y79.806
X124.171 Y79.817
X124.182 Y79.838
X124.179 Y79.861
X124.163 Y79.878
X124.14 Y79.884
X124.119 Y79.876
X124.102 Y79.863
X124.089 Y79.843
Y79.819
X124.103 Y79.8
X124.126 Y79.793
X124.149 Y79.8
X124.157 Y79.806 Z-0.495 F85.
X124.174 Y79.828 Z-0.523
X124.181 Y79.846 Z-0.528
X124.183 Y79.864 Z-0.533
X124.182 Y80.647 F254.
X124.167 Y80.72
X124.166 Y80.589
X124.163 Y80.557
X124.155 Y80.525
X124.133 Y80.462
X124.117 Y80.427
X124.094 Y80.396
X124.038 Y80.333
X124.015 Y80.31
X123.988 Y80.292
X123.951 Y80.271
X123.921 Y80.257
X123.141 Y79.973
Y79.757
X123.94 Y79.463
X123.971 Y79.449
X123.999 Y79.429
X124.055 Y79.382
X124.082 Y79.354
X124.103 Y79.32
X124.141 Y79.246
X124.156 Y79.208
X124.162 Y79.168
X124.168 Y79.047
X124.169 Y79.036
Y79.012
X124.184 Y79.104
X124.183 Y79.864
X124.176 Y79.887
X124.156 Y79.902
X124.132
X124.112 Y79.889
X124.104 Y79.866
X124.103 Y79.846
X124.11 Y79.824
X124.127 Y79.809
X124.15 Y79.806
X124.171 Y79.817
X124.182 Y79.838
X124.179 Y79.861
X124.163 Y79.878
X124.14 Y79.884
X124.119 Y79.876
X124.102 Y79.863
X124.089 Y79.843
Y79.819
X124.103 Y79.8
X124.126 Y79.793
X124.149 Y79.8
X124.157 Y79.806 Z-0.572 F85.
X124.174 Y79.828 Z-0.599
X124.181 Y79.846 Z-0.604
X124.183 Y79.865 Z-0.61
X124.182 Y80.647 F254.
X124.169 Y80.706
Y80.589
X124.166 Y80.556
X124.157 Y80.523
X124.131 Y80.452
X124.114 Y80.417
X124.09 Y80.385
X124.034 Y80.325
X124.002 Y80.297
X123.965 Y80.277
X123.822 Y80.218
X123.814 Y80.215
X123.144 Y79.971
Y79.759
X123.94 Y79.467
X123.969 Y79.453
X123.996 Y79.435
X124.051 Y79.39
X124.079 Y79.363
X124.101 Y79.33
X124.141 Y79.254
X124.157 Y79.215
X124.164 Y79.173
X124.171 Y79.047
Y79.036
Y79.028
X124.184 Y79.104
X124.183 Y79.865
X124.176 Y79.887
X124.156 Y79.902
X124.132
X124.113 Y79.889
X124.104 Y79.866
X124.103 Y79.846
X124.109 Y79.823
X124.127 Y79.808
X124.15 Y79.806
X124.171 Y79.817
X124.181 Y79.837
X124.179 Y79.861
X124.163 Y79.878
X124.14 Y79.884
X124.118 Y79.875
X124.102 Y79.863
X124.089 Y79.843
Y79.819
X124.103 Y79.8
X124.126 Y79.792
X124.149 Y79.799
X124.157 Y79.806 Z-0.648 F85.
X124.174 Y79.827 Z-0.676
X124.181 Y79.845 Z-0.681
X124.183 Y79.864 Z-0.686
X124.182 Y80.647 F254.
X124.172 Y80.693
Y80.589
X124.169 Y80.557
X124.161 Y80.526
X124.137 Y80.456
X124.122 Y80.423
X124.102 Y80.394
X124.057 Y80.341
X124.034 Y80.318
X124.008 Y80.299
X123.954 Y80.267
X123.921 Y80.251
X123.147 Y79.969
Y79.76
X123.948 Y79.465
X123.982 Y79.449
X124.012 Y79.427
X124.072 Y79.373
X124.097 Y79.345
X124.116 Y79.313
X124.146 Y79.252
X124.16 Y79.216
X124.166 Y79.177
X124.174 Y79.048
X124.184 Y79.104
X124.183 Y79.864
X124.176 Y79.887
X124.156 Y79.901
X124.132 Y79.902
X124.112 Y79.888
X124.104 Y79.866
X124.103 Y79.846
X124.109 Y79.824
X124.127 Y79.808
X124.15 Y79.806
X124.171 Y79.817
X124.182 Y79.838
X124.179 Y79.861
X124.163 Y79.878
X124.14 Y79.884
X124.118 Y79.876
X124.102 Y79.863
X124.089 Y79.843
Y79.819
X124.103 Y79.8
X124.126 Y79.792
X124.149 Y79.799
X124.157 Y79.806 Z-0.724 F85.
X124.174 Y79.828 Z-0.752
X124.181 Y79.845 Z-0.757
X124.183 Y79.864 Z-0.762
X124.182 Y80.647 F254.
X124.175 Y80.68
Y80.59
X124.172 Y80.556
X124.163 Y80.524
X124.136 Y80.448
X124.12 Y80.414
X124.098 Y80.384
X124.054 Y80.334
X124.031 Y80.312
X124.005 Y80.293
X123.952 Y80.263
X123.921 Y80.248
X123.149 Y79.968
Y79.762
X123.948 Y79.469
X123.98 Y79.454
X124.009 Y79.433
X124.068 Y79.381
X124.094 Y79.354
X124.114 Y79.322
X124.147 Y79.259
X124.161 Y79.222
X124.168 Y79.182
X124.176 Y79.055
X124.184 Y79.104
X124.183 Y79.864
X124.176 Y79.887
X124.156 Y79.902
X124.132
X124.113 Y79.888
X124.104 Y79.866
X124.103 Y79.846
X124.109 Y79.824
X124.127 Y79.809
X124.15 Y79.806
X124.171 Y79.817
X124.182 Y79.838
X124.179 Y79.861
X124.163 Y79.879
X124.14 Y79.884
X124.118 Y79.876
X124.102 Y79.863
X124.089 Y79.843
Y79.819
X124.104 Y79.8
X124.126 Y79.793
X124.149 Y79.8
X124.157 Y79.806 Z-0.8 F85.
X124.174 Y79.828 Z-0.828
X124.181 Y79.846 Z-0.833
X124.183 Y79.864 Z-0.838
X124.182 Y80.647 F254.
X124.176 Y80.677
X124.175 Y80.572
X124.171 Y80.534
X124.16 Y80.498
X124.132 Y80.432
X124.116 Y80.401
X124.095 Y80.374
X124.051 Y80.327
X124.028 Y80.305
X124.002 Y80.288
X123.949 Y80.258
X123.921 Y80.245
X123.152 Y79.966
Y79.764
X123.948 Y79.472
X123.978 Y79.458
X124.006 Y79.438
X124.065 Y79.389
X124.092 Y79.362
X124.113 Y79.331
X124.147 Y79.266
X124.162 Y79.231
X124.169 Y79.193
X124.178 Y79.108
X124.179 Y79.088
Y79.076
X124.184 Y79.104
X124.183 Y79.864
X124.176 Y79.887
X124.156 Y79.902
X124.132
X124.113 Y79.889
X124.104 Y79.866
X124.103 Y79.847
X124.109 Y79.824
X124.127 Y79.809
X124.15 Y79.806
X124.171 Y79.817
X124.182 Y79.838
X124.178 Y79.862
X124.163 Y79.879
X124.14 Y79.884
X124.118 Y79.876
X124.102 Y79.863
X124.089 Y79.843
Y79.819
X124.104 Y79.8
X124.126 Y79.793
X124.149 Y79.8
X124.157 Y79.806 Z-0.876 F85.
X124.174 Y79.828 Z-0.904
X124.181 Y79.846 Z-0.909
X124.183 Y79.865 Z-0.914
X124.182 Y80.647 F254.
X124.178 Y80.665
Y80.57
X124.174 Y80.536
X124.165 Y80.502
X124.144 Y80.447
X124.129 Y80.415
X124.108 Y80.387
X124.055 Y80.326
X124.029 Y80.302
X123.999 Y80.282
X123.946 Y80.254
X123.921 Y80.243
X123.155 Y79.964
Y79.766
X123.948 Y79.476
X123.977 Y79.462
X124.003 Y79.444
X124.062 Y79.397
X124.089 Y79.37
X124.111 Y79.339
X124.148 Y79.272
X124.164 Y79.235
X124.172 Y79.197
X124.181 Y79.108
X124.182 Y79.092
X124.184 Y79.104
X124.183 Y79.865
X124.175 Y79.888
X124.156 Y79.902
X124.132
X124.112 Y79.888
X124.104 Y79.865
Y79.856
X124.11 Y79.834
X124.127 Y79.819
X124.15 Y79.816
X124.17 Y79.826
X124.182 Y79.845
X124.181 Y79.868
X124.168 Y79.886
X124.147 Y79.894
X124.125 Y79.89
X124.109 Y79.874
X124.103 Y79.863
X124.099 Y79.839
X124.109 Y79.817
X124.129 Y79.806
X124.153 Y79.808
X124.171 Y79.824
X124.174 Y79.829 Z-0.936 F85.
X124.18 Y79.843 Z-0.951
X124.183 Y79.865 Z-0.957
X124.182 Y80.647 F254.
X124.18 Y80.658
X124.179 Y80.569
X124.176 Y80.534
X124.166 Y80.5
X124.143 Y80.442
X124.128 Y80.41
X124.106 Y80.382
X124.053 Y80.322
X124.027 Y80.298
X123.998 Y80.28
X123.945 Y80.252
X123.921 Y80.241
X123.156 Y79.963
Y79.767
X123.948 Y79.477
X123.976 Y79.464
X124.002 Y79.447
X124.06 Y79.401
X124.088 Y79.375
X124.11 Y79.343
X124.149 Y79.275
X124.165 Y79.238
X124.173 Y79.199
X124.182 Y79.109
X124.183 Y79.1
Y79.865
X124.172 Y79.824
X124.174 Y79.829 Z-0.979 F85.
X124.18 Y79.844 Z-0.994
X124.183 Y79.865 Z-1.
X124.182 Y80.647 F254.
X124.18 Y80.569
X124.177 Y80.533
X124.167 Y80.498
X124.143 Y80.438
X124.127 Y80.406
X124.105 Y80.377
X124.052 Y80.319
X124.02 Y80.291
X123.982 Y80.27
X123.822 Y80.204
X123.814 Y80.201
X123.157 Y79.962
Y79.768
X123.948 Y79.479
X123.975 Y79.466
X124. Y79.45
X124.059 Y79.404
X124.087 Y79.378
X124.109 Y79.347
X124.149 Y79.277
X124.165 Y79.24
X124.174 Y79.201
X124.184 Y79.109
X124.183 Y79.865
X124.18 Y79.884 Z-0.995
X124.173 Y79.902 Z-0.989
X124.155 Y79.925 Z-0.961
X124.147 Y79.931 Z-0.921
G0 Z15.

(MUSCLE PLINTH)
G55
G0 X101.356 Y21.64
Z15.
Z1.076
G1 Z0.003 F85.
X101.353 Y21.65 Z-0.037
X101.339 Y21.675 Z-0.066
X101.324 Y21.688 Z-0.071
X101.307 Y21.697 Z-0.076
X101.096 Y21.774 F254.
X101.068 Y21.787
X101.042 Y21.804
X100.985 Y21.849
X100.957 Y21.876
X100.934 Y21.907
X100.895 Y21.977
X100.88 Y22.011
X100.871 Y22.047
X100.862 Y22.115
X100.86 Y22.14
X100.859 Y22.257
X100.848 Y22.234
X100.83 Y22.147
Y20.583
X100.848 Y20.496
X100.862 Y20.467
X100.865 Y20.643
X100.869 Y20.681
X100.881 Y20.717
X100.909 Y20.783
X100.927 Y20.816
X100.951 Y20.845
X101.006 Y20.9
X101.039 Y20.926
X101.076 Y20.945
X101.622 Y21.149
X101.887 Y21.246
Y21.484
X101.307 Y21.697
X101.291 Y21.696
X101.282 Y21.682
X101.287 Y21.667
X101.324 Y21.626
X101.339 Y21.62
X101.353 Y21.627
X101.356 Y21.642
X101.353 Y21.652 Z-0.114 F85.
X101.338 Y21.676 Z-0.142
X101.324 Y21.688 Z-0.147
X101.307 Y21.697 Z-0.152
X101.075 Y21.783 F254.
X101.037 Y21.802
X101.004 Y21.828
X100.948 Y21.884
X100.924 Y21.913
X100.906 Y21.947
X100.877 Y22.014
X100.866 Y22.05
X100.862 Y22.088
X100.86 Y22.259
X100.848 Y22.234
X100.83 Y22.147
Y20.583
X100.848 Y20.496
X100.86 Y20.471
X100.862 Y20.642
X100.866 Y20.68
X100.877 Y20.716
X100.906 Y20.783
X100.924 Y20.817
X100.948 Y20.846
X101.004 Y20.902
X101.037 Y20.928
X101.075 Y20.947
X101.885 Y21.247
Y21.483
X101.307 Y21.697
X101.282 Y21.698
X101.262 Y21.684
X101.254 Y21.661
X101.261 Y21.637
X101.281 Y21.623
X101.293 Y21.619
X101.314 Y21.618
X101.332 Y21.628
X101.343 Y21.646
Y21.667
X101.332 Y21.685
X101.314 Y21.693
X101.295 Y21.688
X101.284 Y21.672
Y21.652
X101.296 Y21.623
X101.307 Y21.609
X101.324 Y21.604
X101.341 Y21.609
X101.351 Y21.623
X101.352 Y21.641
X101.349 Y21.65 Z-0.191 F85.
X101.335 Y21.674 Z-0.218
X101.32 Y21.687 Z-0.223
X101.303 Y21.695 Z-0.229
X101.073 Y21.78 F254.
X101.035 Y21.799
X101.002 Y21.825
X100.945 Y21.883
X100.92 Y21.913
X100.902 Y21.947
X100.874 Y22.015
X100.863 Y22.051
X100.859 Y22.089
X100.858 Y22.252
X100.843 Y22.217
X100.828 Y22.126
X100.83 Y20.583
X100.848 Y20.496
X100.858 Y20.476
X100.859 Y20.641
X100.863 Y20.679
X100.874 Y20.715
X100.902 Y20.783
X100.92 Y20.817
X100.945 Y20.847
X101.002 Y20.904
X101.035 Y20.931
X101.073 Y20.95
X101.882 Y21.249
Y21.481
X101.303 Y21.695
X101.279 Y21.696
X101.259 Y21.682
X101.25 Y21.659
X101.257 Y21.636
X101.277 Y21.621
X101.289 Y21.617
X101.311 Y21.615
X101.329 Y21.625
X101.34 Y21.643
Y21.665
X101.329 Y21.683
X101.311 Y21.691
X101.292 Y21.685
X101.281 Y21.67
X101.282 Y21.65
X101.293 Y21.621
X101.304 Y21.607
X101.321 Y21.602
X101.338 Y21.607
X101.349 Y21.621
Y21.639
X101.346 Y21.649 Z-0.267 F85.
X101.332 Y21.672 Z-0.295
X101.317 Y21.685 Z-0.3
X101.3 Y21.693 Z-0.305
X101.071 Y21.778 F254.
X101.033 Y21.797
X101.001 Y21.823
X100.942 Y21.881
X100.917 Y21.912
X100.898 Y21.948
X100.869 Y22.02
X100.859 Y22.055
X100.855 Y22.091
X100.854 Y22.244
X100.843 Y22.217
X100.828 Y22.126
X100.83 Y20.583
X100.848 Y20.496
X100.855 Y20.482
X100.856 Y20.641
X100.86 Y20.678
X100.87 Y20.714
X100.898 Y20.783
X100.917 Y20.818
X100.942 Y20.849
X101.001 Y20.907
X101.033 Y20.933
X101.071 Y20.952
X101.879 Y21.251
Y21.479
X101.3 Y21.693
X101.276 Y21.694
X101.256 Y21.68
X101.247 Y21.657
X101.255 Y21.634
X101.274 Y21.619
X101.286 Y21.615
X101.307 Y21.614
X101.326 Y21.624
X101.337 Y21.642
X101.336 Y21.663
X101.325 Y21.681
X101.307 Y21.689
X101.288 Y21.684
X101.277 Y21.668
X101.278 Y21.649
X101.29 Y21.618
X101.301 Y21.605
X101.318 Y21.6
X101.335 Y21.605
X101.345 Y21.619
X101.346 Y21.637
X101.343 Y21.646 Z-0.343 F85.
X101.328 Y21.67 Z-0.371
X101.314 Y21.682 Z-0.376
X101.297 Y21.691 Z-0.381
X101.071 Y21.774 F254.
X101.036 Y21.792
X101.004 Y21.816
X100.947 Y21.87
X100.92 Y21.901
X100.9 Y21.937
X100.868 Y22.014
X100.857 Y22.051
X100.853 Y22.089
X100.852 Y22.238
X100.843 Y22.217
X100.828 Y22.126
X100.83 Y20.583
X100.848 Y20.496
X100.852 Y20.489
X100.853 Y20.641
X100.857 Y20.679
X100.868 Y20.716
X100.9 Y20.793
X100.92 Y20.828
X100.947 Y20.859
X101.004 Y20.914
X101.036 Y20.938
X101.071 Y20.956
X101.877 Y21.253
Y21.477
X101.297 Y21.691
X101.272 Y21.692
X101.252 Y21.678
X101.244 Y21.655
X101.251 Y21.631
X101.272 Y21.617
X101.282 Y21.613
X101.303
X101.322 Y21.623
X101.332 Y21.641
Y21.662
X101.32 Y21.68
X101.302 Y21.688
X101.284 Y21.682
X101.272 Y21.666
X101.273 Y21.647
X101.286 Y21.617
X101.297 Y21.603
X101.314 Y21.598
X101.33 Y21.604
X101.341 Y21.618
X101.342 Y21.635
X101.339 Y21.645 Z-0.419 F85.
X101.324 Y21.668 Z-0.447
X101.31 Y21.681 Z-0.452
X101.293 Y21.689 Z-0.457
X101.072 Y21.771 F254.
X101.038 Y21.787
X101.008 Y21.809
X100.951 Y21.86
X100.927 Y21.887
X100.908 Y21.917
X100.877 Y21.978
X100.864 Y22.011
X100.857 Y22.045
X100.848 Y22.12
X100.847 Y22.142
Y22.226
X100.843 Y22.217
X100.828 Y22.126
X100.83 Y20.583
X100.848 Y20.496
X100.85 Y20.641
X100.852 Y20.671
X100.86 Y20.701
X100.877 Y20.755
X100.892 Y20.788
X100.912 Y20.818
X100.969 Y20.887
X100.992 Y20.911
X101.019 Y20.93
X101.057 Y20.953
X101.091 Y20.969
X101.874 Y21.255
Y21.475
X101.293 Y21.689
X101.268 Y21.69
X101.248 Y21.677
X101.24 Y21.653
X101.247 Y21.63
X101.266 Y21.615
X101.278 Y21.611
X101.299 Y21.61
X101.318 Y21.62
X101.329 Y21.638
Y21.66
X101.317 Y21.678
X101.299 Y21.685
X101.28 Y21.68
X101.269 Y21.664
X101.27 Y21.645
X101.283 Y21.614
X101.294 Y21.601
X101.311 Y21.596
X101.327 Y21.602
X101.338 Y21.615
Y21.633
X101.335 Y21.643 Z-0.495 F85.
X101.321 Y21.666 Z-0.523
X101.306 Y21.679 Z-0.528
X101.289 Y21.687 Z-0.533
X101.072 Y21.767 F254.
X101.04 Y21.782
X101.012 Y21.802
X100.956 Y21.85
X100.929 Y21.879
X100.908 Y21.912
X100.871 Y21.986
X100.856 Y22.026
X100.85 Y22.068
X100.846 Y22.224
X100.843 Y22.217
X100.828 Y22.126
X100.83 Y20.583
X100.846 Y20.507
X100.847 Y20.641
X100.85 Y20.673
X100.858 Y20.704
X100.879 Y20.766
X100.895 Y20.8
X100.917 Y20.831
X100.973 Y20.896
X100.996 Y20.918
X101.023 Y20.936
X101.06 Y20.958
X101.091 Y20.972
X101.871 Y21.257
Y21.473
X101.289 Y21.687
X101.265 Y21.688
X101.245 Y21.674
X101.236 Y21.651
X101.244 Y21.628
X101.263 Y21.613
X101.275 Y21.609
X101.296 Y21.608
X101.315 Y21.618
X101.326 Y21.636
X101.325 Y21.657
X101.314 Y21.675
X101.296 Y21.683
X101.277 Y21.678
X101.266 Y21.662
X101.267 Y21.642
X101.279 Y21.612
X101.291 Y21.599
X101.307 Y21.594
X101.324 Y21.6
X101.334 Y21.613
X101.335 Y21.631
X101.332 Y21.641 Z-0.572 F85.
