(NMJPLATE0PT0PT4_BOTTOM_STEP2_132IN_B)
(T7  D=0.792 CR=0.396 - ZMIN=-0.425 - BALL END MILL)
G0 G90 G94 G17
G21
G53 G0 Z0.

(SPHEROID POCKET)
M5
T7
M3 S16500
G55
G0 X122.213 Y15.751
Z15.
Z1.025
G1 Z0.105 F51.
X122.215 Y15.741 Z0.067 F356.
X122.225 Y15.715 Z0.038
X122.25 Y15.686 Z0.026
X122.285 Y15.668 Z0.025
X122.324 Y15.664 Z0.023
X122.361 Y15.677 Z0.022
X122.391 Y15.703 Z0.021
X122.408 Y15.739 Z0.019
X122.41 Y15.778 Z0.018
X122.396 Y15.815 Z0.017
X122.369 Y15.844 Z0.015
X122.333 Y15.86 Z0.014
X122.294 Z0.012
X122.257 Y15.845 Z0.011
X122.229 Y15.818 Z0.01
X122.214 Y15.781 Z0.008
X122.215 Y15.742 Z0.007
X122.231 Y15.706 Z0.005
X122.26 Y15.679 Z0.004
X122.297 Y15.665 Z0.003
X122.336 Y15.667 Z0.001
X122.371 Y15.684 Z0.
X122.398 Y15.713 Z-0.001
X122.41 Y15.751 Z-0.003
X122.407 Y15.79 Z-0.004
X122.389 Y15.825 Z-0.006
X122.359 Y15.85 Z-0.007
X122.321 Y15.861 Z-0.008
X122.282 Y15.857 Z-0.01
X122.247 Y15.838 Z-0.011
X122.223 Y15.807 Z-0.013
X122.213 Y15.769 Z-0.014
X122.218 Y15.73 Z-0.015
X122.239 Y15.696 Z-0.017
X122.27 Y15.673 Z-0.018
X122.309 Y15.664 Z-0.019
X122.348 Y15.67 Z-0.021
X122.381 Y15.692 Z-0.022
X122.403 Y15.724 Z-0.024
X122.411 Y15.763 Z-0.025
G3 X122.22 Y15.954 R0.191
X122.029 Y15.763 R0.191
X122.22 Y15.572 R0.191
X122.411 Y15.763 R0.191
G2 X122.521 Y16.003 R0.317
G3 X122.537 Y16.217 R0.152
X122.47 Y16.262 R0.152
G1 X122.22 Y16.346
X121.874 Y16.23
X121.667 Y15.944
X121.665 Y15.588
X121.788 Y15.413
X121.872 Y15.298
X122.22 Y15.179
X122.568 Y15.298
X122.775 Y15.588
X122.773 Y15.944
X122.566 Y16.23
X122.47 Y16.262
X122.431 Y16.267 Z-0.026
X122.394 Y16.256 Z-0.027
X122.363 Y16.232 Z-0.028
X122.344 Y16.198 Z-0.029
X122.217 Y15.792 Z-0.041
X122.213 Y15.755 Z-0.042
X122.223 Y15.719 Z-0.043
X122.246 Y15.689 Z-0.044
X122.278 Y15.669 Z-0.045
X122.316 Y15.664 Z-0.046
X122.352 Y15.672 Z-0.047
X122.383 Y15.694 Z-0.048
X122.404 Y15.726 Z-0.049
X122.411 Y15.763 Z-0.05
G3 X122.22 Y15.954 R0.191
X122.029 Y15.763 R0.191
X122.22 Y15.572 R0.191
X122.411 Y15.763 R0.191
G2 X122.521 Y16.003 R0.317
G3 X122.537 Y16.217 R0.152
X122.47 Y16.262 R0.152
G1 X122.22 Y16.346
X121.874 Y16.23
X121.667 Y15.944
X121.665 Y15.588
X121.788 Y15.413
X121.872 Y15.298
X122.22 Y15.179
X122.568 Y15.298
X122.775 Y15.588
X122.773 Y15.944
X122.566 Y16.23
X122.47 Y16.262
X122.431 Y16.267 Z-0.051
X122.394 Y16.256 Z-0.052
X122.363 Y16.232 Z-0.053
X122.344 Y16.198 Z-0.054
X122.217 Y15.792 Z-0.066
X122.213 Y15.755 Z-0.067
X122.223 Y15.719 Z-0.068
X122.246 Y15.689 Z-0.069
X122.278 Y15.669 Z-0.07
X122.316 Y15.664 Z-0.071
X122.352 Y15.672 Z-0.072
X122.383 Y15.694 Z-0.073
X122.404 Y15.726 Z-0.074
X122.411 Y15.763 Z-0.075
G3 X122.22 Y15.954 R0.191
X122.029 Y15.763 R0.191
X122.22 Y15.572 R0.191
X122.411 Y15.763 R0.191
G2 X122.521 Y16.003 R0.317
G3 X122.537 Y16.217 R0.152
X122.47 Y16.262 R0.152
G1 X122.22 Y16.346
X121.874 Y16.23
X121.667 Y15.944
X121.665 Y15.588
X121.788 Y15.413
X121.872 Y15.298
X122.22 Y15.179
X122.568 Y15.298
X122.775 Y15.588
X122.773 Y15.944
X122.566 Y16.23
X122.47 Y16.262
X122.431 Y16.267 Z-0.076
X122.394 Y16.256 Z-0.077
X122.363 Y16.232 Z-0.078
X122.344 Y16.198 Z-0.079
X122.217 Y15.792 Z-0.091
X122.213 Y15.755 Z-0.092
X122.223 Y15.719 Z-0.093
X122.246 Y15.689 Z-0.094
X122.278 Y15.669 Z-0.095
X122.316 Y15.664 Z-0.096
X122.352 Y15.672 Z-0.097
X122.383 Y15.694 Z-0.098
X122.404 Y15.726 Z-0.099
X122.411 Y15.763 Z-0.1
G3 X122.22 Y15.954 R0.191
X122.029 Y15.763 R0.191
X122.22 Y15.572 R0.191
X122.411 Y15.763 R0.191
G2 X122.521 Y16.003 R0.317
G3 X122.537 Y16.217 R0.152
X122.47 Y16.262 R0.152
G1 X122.22 Y16.346
X121.874 Y16.23
X121.667 Y15.944
X121.665 Y15.588
X121.788 Y15.413
X121.872 Y15.298
X122.22 Y15.179
X122.568 Y15.298
X122.775 Y15.588
X122.773 Y15.944
X122.566 Y16.23
X122.47 Y16.262
X122.431 Y16.267 Z-0.101
X122.394 Y16.256 Z-0.102
X122.363 Y16.232 Z-0.103
X122.344 Y16.198 Z-0.104
X122.217 Y15.792 Z-0.116
X122.213 Y15.755 Z-0.117
X122.223 Y15.719 Z-0.118
X122.246 Y15.689 Z-0.119
X122.278 Y15.669 Z-0.12
X122.316 Y15.664 Z-0.121
X122.352 Y15.672 Z-0.122
X122.383 Y15.694 Z-0.123
X122.404 Y15.726 Z-0.124
X122.411 Y15.763 Z-0.125
G3 X122.22 Y15.954 R0.191
X122.029 Y15.763 R0.191
X122.22 Y15.572 R0.191
X122.411 Y15.763 R0.191
G2 X122.521 Y16.003 R0.317
G3 X122.537 Y16.217 R0.152
X122.47 Y16.262 R0.152
G1 X122.22 Y16.346
X121.874 Y16.23
X121.667 Y15.944
X121.665 Y15.588
X121.788 Y15.413
X121.872 Y15.298
X122.22 Y15.179
X122.568 Y15.298
X122.775 Y15.588
X122.773 Y15.944
X122.566 Y16.23
X122.47 Y16.262
X122.431 Y16.267 Z-0.126
X122.394 Y16.256 Z-0.127
X122.363 Y16.232 Z-0.128
X122.344 Y16.198 Z-0.129
X122.217 Y15.792 Z-0.141
X122.213 Y15.755 Z-0.142
X122.223 Y15.719 Z-0.143
X122.246 Y15.689 Z-0.144
X122.278 Y15.669 Z-0.145
X122.316 Y15.664 Z-0.146
X122.352 Y15.672 Z-0.147
X122.383 Y15.694 Z-0.148
X122.404 Y15.726 Z-0.149
X122.411 Y15.763 Z-0.15
G3 X122.22 Y15.954 R0.191
X122.029 Y15.763 R0.191
X122.22 Y15.572 R0.191
X122.411 Y15.763 R0.191
G2 X122.521 Y16.003 R0.317
G3 X122.537 Y16.217 R0.152
X122.47 Y16.262 R0.152
G1 X122.22 Y16.346
X121.874 Y16.23
X121.667 Y15.944
X121.665 Y15.588
X121.788 Y15.413
X121.872 Y15.298
X122.22 Y15.179
X122.568 Y15.298
X122.775 Y15.588
X122.773 Y15.944
X122.566 Y16.23
X122.47 Y16.262
X122.431 Y16.267 Z-0.151
X122.394 Y16.256 Z-0.152
X122.363 Y16.232 Z-0.153
X122.344 Y16.198 Z-0.154
X122.217 Y15.792 Z-0.166
X122.213 Y15.755 Z-0.167
X122.223 Y15.719 Z-0.168
X122.246 Y15.689 Z-0.169
X122.278 Y15.669 Z-0.17
X122.316 Y15.664 Z-0.171
X122.352 Y15.672 Z-0.172
X122.383 Y15.694 Z-0.173
X122.404 Y15.726 Z-0.174
X122.411 Y15.763 Z-0.175
G3 X122.22 Y15.954 R0.191
X122.029 Y15.763 R0.191
X122.22 Y15.572 R0.191
X122.411 Y15.763 R0.191
G2 X122.521 Y16.003 R0.317
G3 X122.537 Y16.217 R0.152
X122.47 Y16.262 R0.152
G1 X122.22 Y16.346
X121.874 Y16.23
X121.667 Y15.944
X121.665 Y15.588
X121.788 Y15.413
X121.872 Y15.298
X122.22 Y15.179
X122.568 Y15.298
X122.775 Y15.588
X122.773 Y15.944
X122.566 Y16.23
X122.47 Y16.262
X122.431 Y16.267 Z-0.176
X122.394 Y16.256 Z-0.177
X122.363 Y16.232 Z-0.178
X122.344 Y16.198 Z-0.179
X122.217 Y15.792 Z-0.191
X122.213 Y15.755 Z-0.192
X122.223 Y15.719 Z-0.193
X122.246 Y15.689 Z-0.194
X122.278 Y15.669 Z-0.195
X122.316 Y15.664 Z-0.196
X122.352 Y15.672 Z-0.197
X122.383 Y15.694 Z-0.198
X122.404 Y15.726 Z-0.199
X122.411 Y15.763 Z-0.2
G3 X122.22 Y15.954 R0.191
X122.029 Y15.763 R0.191
X122.22 Y15.572 R0.191
X122.411 Y15.763 R0.191
G2 X122.521 Y16.003 R0.317
G3 X122.537 Y16.217 R0.152
X122.47 Y16.262 R0.152
G1 X122.22 Y16.346
X121.874 Y16.23
X121.667 Y15.944
X121.665 Y15.588
X121.788 Y15.413
X121.872 Y15.298
X122.22 Y15.179
X122.568 Y15.298
X122.775 Y15.588
X122.773 Y15.944
X122.566 Y16.23
X122.47 Y16.262
X122.431 Y16.267 Z-0.201
X122.394 Y16.256 Z-0.202
X122.363 Y16.232 Z-0.203
X122.344 Y16.198 Z-0.204
X122.217 Y15.792 Z-0.216
X122.213 Y15.755 Z-0.217
X122.223 Y15.719 Z-0.218
X122.246 Y15.689 Z-0.219
X122.278 Y15.669 Z-0.22
X122.316 Y15.664 Z-0.221
X122.352 Y15.672 Z-0.222
X122.383 Y15.694 Z-0.223
X122.404 Y15.726 Z-0.224
X122.411 Y15.763 Z-0.225
G3 X122.22 Y15.954 R0.191
X122.029 Y15.763 R0.191
X122.22 Y15.572 R0.191
X122.411 Y15.763 R0.191
G2 X122.521 Y16.003 R0.317
G3 X122.537 Y16.217 R0.152
X122.47 Y16.262 R0.152
G1 X122.22 Y16.346
X121.874 Y16.23
X121.667 Y15.944
X121.665 Y15.588
X121.788 Y15.413
X121.872 Y15.298
X122.22 Y15.179
X122.568 Y15.298
X122.775 Y15.588
X122.773 Y15.944
X122.566 Y16.23
X122.47 Y16.262
X122.431 Y16.267 Z-0.226
X122.394 Y16.256 Z-0.227
X122.363 Y16.232 Z-0.228
X122.344 Y16.198 Z-0.229
X122.217 Y15.792 Z-0.241
X122.213 Y15.755 Z-0.242
X122.223 Y15.719 Z-0.243
X122.246 Y15.689 Z-0.244
X122.278 Y15.669 Z-0.245
X122.316 Y15.664 Z-0.246
X122.352 Y15.672 Z-0.247
X122.383 Y15.694 Z-0.248
X122.404 Y15.726 Z-0.249
X122.411 Y15.763 Z-0.25
G3 X122.22 Y15.954 R0.191
X122.029 Y15.763 R0.191
X122.22 Y15.572 R0.191
X122.411 Y15.763 R0.191
G2 X122.521 Y16.003 R0.317
G3 X122.537 Y16.217 R0.152
X122.47 Y16.262 R0.152
G1 X122.22 Y16.346
X121.874 Y16.23
X121.667 Y15.944
X121.665 Y15.588
X121.788 Y15.413
X121.872 Y15.298
X122.22 Y15.179
X122.568 Y15.298
X122.775 Y15.588
X122.773 Y15.944
X122.566 Y16.23
X122.47 Y16.262
X122.431 Y16.267 Z-0.251
X122.394 Y16.256 Z-0.252
X122.363 Y16.232 Z-0.253
X122.344 Y16.198 Z-0.254
X122.217 Y15.792 Z-0.266
X122.213 Y15.755 Z-0.267
X122.223 Y15.719 Z-0.268
X122.246 Y15.689 Z-0.269
X122.278 Y15.669 Z-0.27
X122.316 Y15.664 Z-0.271
X122.352 Y15.672 Z-0.272
X122.383 Y15.694 Z-0.273
X122.404 Y15.726 Z-0.274
X122.411 Y15.763 Z-0.275
G3 X122.22 Y15.954 R0.191
X122.029 Y15.763 R0.191
X122.22 Y15.572 R0.191
X122.411 Y15.763 R0.191
G2 X122.521 Y16.003 R0.317
G3 X122.537 Y16.217 R0.152
X122.47 Y16.262 R0.152
G1 X122.22 Y16.346
X121.874 Y16.23
X121.667 Y15.944
X121.665 Y15.588
X121.788 Y15.413
X121.872 Y15.298
X122.22 Y15.179
X122.568 Y15.298
X122.775 Y15.588
X122.773 Y15.944
X122.566 Y16.23
X122.47 Y16.262
X122.448 Y16.263
X122.429 Y16.251
X122.419 Y16.232
X122.348 Y15.851
X122.331 Y15.785
X122.323 Y15.707
X122.327 Y15.694
X122.339 Y15.688
X122.352 Y15.692
X122.376 Y15.723 Z-0.276
X122.387 Y15.761 Z-0.278
X122.381 Y15.8 Z-0.279
X122.361 Y15.834 Z-0.281
X122.329 Y15.858 Z-0.282
X122.29 Y15.866 Z-0.283
X122.251 Y15.86 Z-0.285
X122.218 Y15.838 Z-0.286
X122.196 Y15.805 Z-0.288
X122.189 Y15.767 Z-0.289
X122.197 Y15.728 Z-0.29
X122.22 Y15.696 Z-0.292
X122.253 Y15.675 Z-0.293
X122.292 Y15.668 Z-0.294
X122.33 Y15.678 Z-0.296
X122.362 Y15.702 Z-0.297
X122.382 Y15.736 Z-0.299
X122.386 Y15.775 Z-0.3
X122.383 Y15.815
X122.374 Y15.857
X122.353 Y15.895
X122.322 Y15.925
X122.284 Y15.945
X122.271 Y15.949
X122.223 Y15.957
X122.175 Y15.95
X122.169 Y15.948
X122.134 Y15.932
X122.104 Y15.907
X122.082 Y15.875
X122.053 Y15.819
X122.038 Y15.778
X122.036 Y15.735
X122.047 Y15.692
X122.069 Y15.655
X122.101 Y15.626
X122.14 Y15.606
X122.194 Y15.589
X122.242 Y15.582
X122.29 Y15.591
X122.333 Y15.614
X122.365 Y15.651
X122.385 Y15.695
X122.389 Y15.744
X122.386 Y15.775
X122.388 Y15.825
X122.399 Y15.874
X122.421 Y15.92
X122.452 Y15.959
X122.49 Y15.992
X122.523 Y16.024
X122.546 Y16.064
X122.555 Y16.11
X122.549 Y16.156
X122.53 Y16.198
X122.499 Y16.232
X122.498 Y16.234
X122.306 Y16.301
X122.155 Y16.305
X121.961 Y16.242
X121.842 Y16.157
X121.683 Y15.855
X121.682 Y15.677
X121.72 Y15.543
X121.788 Y15.431
X121.896 Y15.324
X122.22 Y15.22
X122.371 Y15.239
X122.436 Y15.264
X122.556 Y15.33
X122.684 Y15.476
X122.744 Y15.61
X122.714 Y15.989
X122.614 Y16.139
X122.499 Y16.232
X122.486 Y16.21
X122.296 Y15.723
X122.302 Y15.686
X122.327 Y15.718 Z-0.301
X122.337 Y15.756 Z-0.303
X122.331 Y15.795 Z-0.304
X122.311 Y15.829 Z-0.306
X122.279 Y15.852 Z-0.307
X122.241 Y15.861 Z-0.308
X122.202 Y15.854 Z-0.31
X122.169 Y15.833 Z-0.311
X122.147 Y15.8 Z-0.313
X122.139 Y15.761 Z-0.314
X122.147 Y15.723 Z-0.315
X122.17 Y15.69 Z-0.317
X122.203 Y15.669 Z-0.318
X122.242 Y15.663 Z-0.319
X122.281 Y15.672 Z-0.321
X122.312 Y15.696 Z-0.322
X122.332 Y15.73 Z-0.324
X122.337 Y15.77 Z-0.325
X122.334 Y15.804
X122.327 Y15.835
X122.311 Y15.863
X122.289 Y15.885
X122.26 Y15.9
X122.221 Y15.907
X122.182 Y15.9
X122.148 Y15.879
X122.124 Y15.848
X122.101 Y15.807
X122.089 Y15.769
X122.091 Y15.73
X122.106 Y15.694
X122.133 Y15.665
X122.168 Y15.647
X122.194 Y15.639
X122.23 Y15.634
X122.265 Y15.641
X122.296 Y15.659
X122.321 Y15.686
X122.335 Y15.719
X122.338 Y15.755
X122.337 Y15.77
X122.339 Y15.818
X122.352 Y15.865
X122.375 Y15.908
X122.408 Y15.945
X122.448 Y15.973
X122.48 Y15.998
X122.503 Y16.033
X122.513 Y16.073
X122.51 Y16.114
X122.494 Y16.152
X122.466 Y16.183
X122.43 Y16.203
X122.306 Y16.247
X122.155 Y16.252
X121.999 Y16.204
X121.88 Y16.118
X121.735 Y15.847
X121.731 Y15.699
X121.769 Y15.562
X121.788 Y15.532
X121.849 Y15.438
X121.943 Y15.357
X122.223 Y15.272
X122.385 Y15.298
X122.532 Y15.382
X122.639 Y15.505
X122.691 Y15.624
X122.665 Y15.971
X122.582 Y16.096
X122.468 Y16.19
X122.43 Y16.203
X122.397 Y16.209
X122.365 Y16.204
X122.335 Y16.189
X122.313 Y16.164
X122.085 Y15.819
X122.07 Y15.782
X122.071 Y15.743
X122.087 Y15.707
X122.115 Y15.679
X122.152 Y15.665
X122.191 Y15.667
X122.227 Y15.683
X122.254 Y15.712 Z-0.326
X122.267 Y15.749 Z-0.328
X122.265 Y15.789 Z-0.329
X122.247 Y15.824 Z-0.331
X122.217 Y15.85 Z-0.332
X122.18 Y15.862 Z-0.333
X122.14 Y15.858 Z-0.335
X122.105 Y15.839 Z-0.336
X122.081 Y15.808 Z-0.337
X122.07 Y15.77 Z-0.339
X122.075 Y15.731 Z-0.34
X122.095 Y15.697 Z-0.342
X122.127 Y15.673 Z-0.343
X122.166 Y15.664 Z-0.344
X122.205 Y15.671 Z-0.346
X122.238 Y15.692 Z-0.347
X122.26 Y15.724 Z-0.349
X122.268 Y15.763 Z-0.35
G3 X122.217 Y15.815 R0.051
X122.165 Y15.763 R0.051
X122.217 Y15.712 R0.051
X122.268 Y15.763 R0.051
G1 X122.275 Y15.82
X122.297 Y15.873
X122.331 Y15.92
X122.376 Y15.956
X122.406 Y15.981
X122.426 Y16.014
X122.435 Y16.052
X122.431 Y16.091
X122.415 Y16.127
X122.389 Y16.156
X122.355 Y16.175
X122.306 Y16.193
X122.156 Y16.196
X122.025 Y16.157
X121.916 Y16.076
X121.788 Y15.833
X121.783 Y15.713
X121.788 Y15.696
X121.817 Y15.588
X121.887 Y15.476
X121.961 Y15.41
X122.242 Y15.326
X122.371 Y15.351
X122.496 Y15.422
X122.587 Y15.521
X122.638 Y15.632
X122.618 Y15.944
X122.54 Y16.061
X122.439 Y16.144
X122.355 Y16.175
X122.324 Y16.181
X122.292 Y16.178
X122.263 Y16.164
X122.24 Y16.142
X122.225 Y16.113
X122.118 Y15.795
X122.113 Y15.759
X122.121 Y15.724
X122.141 Y15.694
X122.169 Y15.673
X122.204 Y15.663
X122.24 Y15.666
X122.272 Y15.682
X122.299 Y15.711 Z-0.351
X122.312 Y15.748 Z-0.353
X122.309 Y15.788 Z-0.354
X122.292 Y15.823 Z-0.356
X122.262 Y15.849 Z-0.357
X122.224 Y15.861 Z-0.358
X122.185 Y15.857 Z-0.36
X122.15 Y15.838 Z-0.361
X122.126 Y15.807 Z-0.362
X122.115 Y15.769 Z-0.364
X122.12 Y15.73 Z-0.365
X122.14 Y15.696 Z-0.367
X122.172 Y15.672 Z-0.368
X122.21 Y15.663 Z-0.369
X122.249 Y15.67 Z-0.371
X122.283 Y15.691 Z-0.372
X122.305 Y15.723 Z-0.374
X122.313 Y15.762 Z-0.375
G3 X122.218 Y15.857 R0.095
X122.122 Y15.762 R0.095
X122.218 Y15.667 R0.095
X122.313 Y15.762 R0.095
G1 X122.318 Y15.81
X122.332 Y15.856
X122.355 Y15.898
X122.386 Y15.935
X122.409 Y15.965
X122.419 Y16.001
X122.418 Y16.038
X122.404 Y16.072
X122.379 Y16.1
X122.347 Y16.119
X122.285 Y16.141
X122.155 Y16.14
X122.047 Y16.106
X121.961 Y16.044
X121.846 Y15.833
X121.837 Y15.721
X121.866 Y15.611
X121.917 Y15.525
X121.939 Y15.502
X122.009 Y15.446
X122.242 Y15.38
X122.348 Y15.399
X122.452 Y15.455
X122.54 Y15.547
X122.586 Y15.654
X122.568 Y15.922
X122.496 Y16.028
X122.415 Y16.095
X122.347 Y16.119
X122.31 Y16.124
X122.274 Y16.116
X122.243 Y16.096
X122.222 Y16.065
X122.105 Y15.804
X122.096 Y15.768
X122.101 Y15.731
X122.119 Y15.699
X122.148 Y15.675
X122.184 Y15.664
X122.221 Y15.666
X122.254 Y15.682
X122.281 Y15.711 Z-0.376
X122.294 Y15.749 Z-0.378
X122.292 Y15.788 Z-0.379
X122.274 Y15.823 Z-0.381
X122.244 Y15.849 Z-0.382
X122.207 Y15.861 Z-0.383
X122.167 Y15.857 Z-0.385
X122.133 Y15.838 Z-0.386
X122.108 Y15.808 Z-0.388
X122.097 Y15.77 Z-0.389
X122.103 Y15.73 Z-0.39
X122.123 Y15.696 Z-0.392
X122.154 Y15.673 Z-0.393
X122.193 Y15.664 Z-0.394
X122.232 Y15.67 Z-0.396
X122.265 Y15.691 Z-0.397
X122.287 Y15.724 Z-0.399
X122.295 Y15.763 Z-0.4
G3 X122.218 Y15.84 R0.077
X122.141 Y15.763 R0.077
X122.218 Y15.685 R0.077
X122.295 Y15.763 R0.077
G1 X122.3 Y15.802
X122.315 Y15.838
X122.338 Y15.87
X122.369 Y15.895
X122.394 Y15.92
X122.409 Y15.952
X122.41 Y15.987
X122.398 Y16.021
X122.374 Y16.047
X122.366 Y16.053
X122.285 Y16.083
X122.177 Y16.087
X122.073 Y16.055
X121.992 Y15.992
X121.898 Y15.811
X121.896 Y15.721
X121.92 Y15.632
X121.961 Y15.564
X122.03 Y15.497
X122.242 Y15.438
X122.338 Y15.459
X122.425 Y15.508
X122.496 Y15.588
X122.53 Y15.677
X122.516 Y15.895
X122.459 Y15.984
X122.374 Y16.047
X122.361 Y16.051
X122.347 Y16.047
X122.338 Y16.037
X122.296 Y15.931
X122.228 Y15.818
X122.191 Y15.712
Y15.695
X122.201 Y15.681
X122.217 Y15.676
X122.233 Y15.681
X122.26 Y15.71 Z-0.401
X122.273 Y15.747 Z-0.403
X122.271 Y15.787 Z-0.404
X122.253 Y15.822 Z-0.406
X122.223 Y15.848 Z-0.407
X122.185 Y15.86 Z-0.408
X122.146 Y15.856 Z-0.41
X122.111 Y15.837 Z-0.411
X122.087 Y15.806 Z-0.413
X122.076 Y15.768 Z-0.414
X122.081 Y15.729 Z-0.415
X122.101 Y15.695 Z-0.417
X122.133 Y15.672 Z-0.418
X122.171 Y15.662 Z-0.419
X122.21 Y15.669 Z-0.421
X122.244 Y15.69 Z-0.422
X122.266 Y15.723 Z-0.424
X122.274 Y15.761 Z-0.425
G3 X122.218 Y15.818 R0.056
X122.161 Y15.761 R0.056
X122.218 Y15.705 R0.056
X122.274 Y15.761 R0.056
G1 X122.281 Y15.804
X122.302 Y15.841
X122.335 Y15.869
X122.356 Y15.888
X122.368 Y15.915
X122.37 Y15.944
X122.36 Y15.971
X122.34 Y15.992
X122.337 Y15.995
X122.257 Y16.02
X122.185 Y16.022
X122.093 Y15.99
X122.041 Y15.95
X121.961 Y15.792
Y15.728
X121.982 Y15.654
X122.031 Y15.583
X122.077 Y15.548
X122.242 Y15.503
X122.306 Y15.515
X122.381 Y15.555
X122.444 Y15.63
X122.466 Y15.677
X122.454 Y15.876
X122.417 Y15.936
X122.34 Y15.992
X122.337 Y15.995
X122.309 Y16.004 Z-0.418
X122.286 Y16.011 Z-0.4
X122.271 Y16.016 Z-0.375
X122.266 Y16.018 Z-0.346
G0 Z5.
X122.213 Y26.955
Z0.105
G1 X122.215 Y26.945 Z0.067 F356.
X122.225 Y26.919 Z0.038
X122.25 Y26.89 Z0.026
X122.285 Y26.872 Z0.025
X122.324 Y26.869 Z0.023
X122.361 Y26.881 Z0.022
X122.391 Y26.907 Z0.021
X122.408 Y26.943 Z0.019
X122.41 Y26.982 Z0.018
X122.396 Y27.019 Z0.017
X122.369 Y27.048 Z0.015
X122.333 Y27.064 Z0.014
X122.294 Y27.065 Z0.012
X122.257 Y27.05 Z0.011
X122.229 Y27.022 Z0.01
X122.214 Y26.985 Z0.008
X122.215 Y26.946 Z0.007
X122.231 Y26.91 Z0.005
X122.26 Y26.883 Z0.004
X122.297 Y26.869 Z0.003
X122.336 Y26.871 Z0.001
X122.371 Y26.888 Z0.
X122.398 Y26.918 Z-0.001
X122.41 Y26.955 Z-0.003
X122.407 Y26.994 Z-0.004
X122.389 Y27.029 Z-0.006
X122.359 Y27.054 Z-0.007
X122.321 Y27.066 Z-0.008
X122.282 Y27.062 Z-0.01
X122.247 Y27.042 Z-0.011
X122.223 Y27.011 Z-0.013
X122.213 Y26.973 Z-0.014
X122.218 Y26.934 Z-0.015
X122.239 Y26.9 Z-0.017
X122.27 Y26.877 Z-0.018
X122.309 Y26.868 Z-0.019
X122.348 Y26.875 Z-0.021
X122.381 Y26.896 Z-0.022
X122.403 Y26.929 Z-0.024
X122.411 Y26.967 Z-0.025
G3 X122.22 Y27.158 R0.191
X122.029 Y26.967 R0.191
X122.22 Y26.776 R0.191
X122.411 Y26.967 R0.191
G2 X122.52 Y27.207 R0.318
G3 X122.535 Y27.422 R0.152
X122.469 Y27.466 R0.152
G1 X122.22 Y27.551
X121.872 Y27.432
X121.665 Y27.142
X121.667 Y26.785
X121.788 Y26.619
X121.874 Y26.5
X122.22 Y26.384
X122.566 Y26.5
X122.773 Y26.785
X122.775 Y27.142
X122.568 Y27.432
X122.469 Y27.466
X122.43 Y27.471 Z-0.026
X122.393 Y27.461 Z-0.027
X122.362 Y27.436 Z-0.028
X122.343 Y27.402 Z-0.029
X122.217 Y26.996 Z-0.041
X122.213 Y26.959 Z-0.042
X122.223 Y26.923 Z-0.043
X122.246 Y26.893 Z-0.044
X122.279 Y26.874 Z-0.045
X122.316 Y26.868 Z-0.046
X122.352 Y26.877 Z-0.047
X122.383 Y26.899 Z-0.048
X122.404 Y26.93 Z-0.049
X122.411 Y26.967 Z-0.05
G3 X122.22 Y27.158 R0.191
X122.029 Y26.967 R0.191
X122.22 Y26.776 R0.191
X122.411 Y26.967 R0.191
G2 X122.52 Y27.207 R0.318
G3 X122.535 Y27.422 R0.152
X122.469 Y27.466 R0.152
G1 X122.22 Y27.551
X121.872 Y27.432
X121.665 Y27.142
X121.667 Y26.785
X121.788 Y26.619
X121.874 Y26.5
X122.22 Y26.384
X122.566 Y26.5
X122.773 Y26.785
X122.775 Y27.142
X122.568 Y27.432
X122.469 Y27.466
X122.43 Y27.471 Z-0.051
X122.393 Y27.461 Z-0.052
X122.362 Y27.436 Z-0.053
X122.343 Y27.402 Z-0.054
X122.217 Y26.996 Z-0.066
X122.213 Y26.959 Z-0.067
X122.223 Y26.923 Z-0.068
X122.246 Y26.893 Z-0.069
X122.279 Y26.874 Z-0.07
X122.316 Y26.868 Z-0.071
X122.352 Y26.877 Z-0.072
X122.383 Y26.899 Z-0.073
X122.404 Y26.93 Z-0.074
X122.411 Y26.967 Z-0.075
G3 X122.22 Y27.158 R0.191
X122.029 Y26.967 R0.191
X122.22 Y26.776 R0.191
X122.411 Y26.967 R0.191
G2 X122.52 Y27.207 R0.318
G3 X122.535 Y27.422 R0.152
X122.469 Y27.466 R0.152
G1 X122.22 Y27.551
X121.872 Y27.432
X121.665 Y27.142
X121.667 Y26.785
X121.788 Y26.619
X121.874 Y26.5
X122.22 Y26.384
X122.566 Y26.5
X122.773 Y26.785
X122.775 Y27.142
X122.568 Y27.432
X122.469 Y27.466
X122.43 Y27.471 Z-0.076
X122.393 Y27.461 Z-0.077
X122.362 Y27.436 Z-0.078
X122.343 Y27.402 Z-0.079
X122.217 Y26.996 Z-0.091
X122.213 Y26.959 Z-0.092
X122.223 Y26.923 Z-0.093
X122.246 Y26.893 Z-0.094
X122.279 Y26.874 Z-0.095
X122.316 Y26.868 Z-0.096
X122.352 Y26.877 Z-0.097
X122.383 Y26.899 Z-0.098
X122.404 Y26.93 Z-0.099
X122.411 Y26.967 Z-0.1
G3 X122.22 Y27.158 R0.191
X122.029 Y26.967 R0.191
X122.22 Y26.776 R0.191
X122.411 Y26.967 R0.191
G2 X122.52 Y27.207 R0.318
G3 X122.535 Y27.422 R0.152
X122.469 Y27.466 R0.152
G1 X122.22 Y27.551
X121.872 Y27.432
X121.665 Y27.142
X121.667 Y26.785
X121.788 Y26.619
X121.874 Y26.5
X122.22 Y26.384
X122.566 Y26.5
X122.773 Y26.785
X122.775 Y27.142
X122.568 Y27.432
X122.469 Y27.466
X122.43 Y27.471 Z-0.101
X122.393 Y27.461 Z-0.102
X122.362 Y27.436 Z-0.103
X122.343 Y27.402 Z-0.104
X122.217 Y26.996 Z-0.116
X122.213 Y26.959 Z-0.117
X122.223 Y26.923 Z-0.118
X122.246 Y26.893 Z-0.119
X122.279 Y26.874 Z-0.12
X122.316 Y26.868 Z-0.121
X122.352 Y26.877 Z-0.122
X122.383 Y26.899 Z-0.123
X122.404 Y26.93 Z-0.124
X122.411 Y26.967 Z-0.125
G3 X122.22 Y27.158 R0.191
X122.029 Y26.967 R0.191
X122.22 Y26.776 R0.191
X122.411 Y26.967 R0.191
G2 X122.52 Y27.207 R0.318
G3 X122.535 Y27.422 R0.152
X122.469 Y27.466 R0.152
G1 X122.22 Y27.551
X121.872 Y27.432
X121.665 Y27.142
X121.667 Y26.785
X121.788 Y26.619
X121.874 Y26.5
X122.22 Y26.384
X122.566 Y26.5
X122.773 Y26.785
X122.775 Y27.142
X122.568 Y27.432
X122.469 Y27.466
X122.43 Y27.471 Z-0.126
X122.393 Y27.461 Z-0.127
X122.362 Y27.436 Z-0.128
X122.343 Y27.402 Z-0.129
X122.217 Y26.996 Z-0.141
X122.213 Y26.959 Z-0.142
X122.223 Y26.923 Z-0.143
X122.246 Y26.893 Z-0.144
X122.279 Y26.874 Z-0.145
X122.316 Y26.868 Z-0.146
X122.352 Y26.877 Z-0.147
X122.383 Y26.899 Z-0.148
X122.404 Y26.93 Z-0.149
X122.411 Y26.967 Z-0.15
G3 X122.22 Y27.158 R0.191
X122.029 Y26.967 R0.191
X122.22 Y26.776 R0.191
X122.411 Y26.967 R0.191
G2 X122.52 Y27.207 R0.318
G3 X122.535 Y27.422 R0.152
X122.469 Y27.466 R0.152
G1 X122.22 Y27.551
X121.872 Y27.432
X121.665 Y27.142
X121.667 Y26.785
X121.788 Y26.619
X121.874 Y26.5
X122.22 Y26.384
X122.566 Y26.5
X122.773 Y26.785
X122.775 Y27.142
X122.568 Y27.432
X122.469 Y27.466
X122.43 Y27.471 Z-0.151
X122.393 Y27.461 Z-0.152
X122.362 Y27.436 Z-0.153
X122.343 Y27.402 Z-0.154
X122.217 Y26.996 Z-0.166
X122.213 Y26.959 Z-0.167
X122.223 Y26.923 Z-0.168
X122.246 Y26.893 Z-0.169
X122.279 Y26.874 Z-0.17
X122.316 Y26.868 Z-0.171
X122.352 Y26.877 Z-0.172
X122.383 Y26.899 Z-0.173
X122.404 Y26.93 Z-0.174
X122.411 Y26.967 Z-0.175
G3 X122.22 Y27.158 R0.191
X122.029 Y26.967 R0.191
X122.22 Y26.776 R0.191
X122.411 Y26.967 R0.191
G2 X122.52 Y27.207 R0.318
G3 X122.535 Y27.422 R0.152
X122.469 Y27.466 R0.152
G1 X122.22 Y27.551
X121.872 Y27.432
X121.665 Y27.142
X121.667 Y26.785
X121.788 Y26.619
X121.874 Y26.5
X122.22 Y26.384
X122.566 Y26.5
X122.773 Y26.785
X122.775 Y27.142
X122.568 Y27.432
X122.469 Y27.466
X122.43 Y27.471 Z-0.176
X122.393 Y27.461 Z-0.177
X122.362 Y27.436 Z-0.178
X122.343 Y27.402 Z-0.179
X122.217 Y26.996 Z-0.191
X122.213 Y26.959 Z-0.192
X122.223 Y26.923 Z-0.193
X122.246 Y26.893 Z-0.194
X122.279 Y26.874 Z-0.195
X122.316 Y26.868 Z-0.196
X122.352 Y26.877 Z-0.197
X122.383 Y26.899 Z-0.198
X122.404 Y26.93 Z-0.199
X122.411 Y26.967 Z-0.2
G3 X122.22 Y27.158 R0.191
X122.029 Y26.967 R0.191
X122.22 Y26.776 R0.191
X122.411 Y26.967 R0.191
G2 X122.52 Y27.207 R0.318
G3 X122.535 Y27.422 R0.152
X122.469 Y27.466 R0.152
G1 X122.22 Y27.551
X121.872 Y27.432
X121.665 Y27.142
X121.667 Y26.785
X121.788 Y26.619
X121.874 Y26.5
X122.22 Y26.384
X122.566 Y26.5
X122.773 Y26.785
X122.775 Y27.142
X122.568 Y27.432
X122.469 Y27.466
X122.43 Y27.471 Z-0.201
X122.393 Y27.461 Z-0.202
X122.362 Y27.436 Z-0.203
X122.343 Y27.402 Z-0.204
X122.217 Y26.996 Z-0.216
X122.213 Y26.959 Z-0.217
X122.223 Y26.923 Z-0.218
X122.246 Y26.893 Z-0.219
X122.279 Y26.874 Z-0.22
X122.316 Y26.868 Z-0.221
X122.352 Y26.877 Z-0.222
X122.383 Y26.899 Z-0.223
X122.404 Y26.93 Z-0.224
X122.411 Y26.967 Z-0.225
G3 X122.22 Y27.158 R0.191
X122.029 Y26.967 R0.191
X122.22 Y26.776 R0.191
X122.411 Y26.967 R0.191
G2 X122.52 Y27.207 R0.318
G3 X122.535 Y27.422 R0.152
X122.469 Y27.466 R0.152
G1 X122.22 Y27.551
X121.872 Y27.432
X121.665 Y27.142
X121.667 Y26.785
X121.788 Y26.619
X121.874 Y26.5
X122.22 Y26.384
X122.566 Y26.5
X122.773 Y26.785
X122.775 Y27.142
X122.568 Y27.432
X122.469 Y27.466
X122.43 Y27.471 Z-0.226
X122.393 Y27.461 Z-0.227
X122.362 Y27.436 Z-0.228
X122.343 Y27.402 Z-0.229
X122.217 Y26.996 Z-0.241
X122.213 Y26.959 Z-0.242
X122.223 Y26.923 Z-0.243
X122.246 Y26.893 Z-0.244
X122.279 Y26.874 Z-0.245
X122.316 Y26.868 Z-0.246
X122.352 Y26.877 Z-0.247
X122.383 Y26.899 Z-0.248
X122.404 Y26.93 Z-0.249
X122.411 Y26.967 Z-0.25
G3 X122.22 Y27.158 R0.191
X122.029 Y26.967 R0.191
X122.22 Y26.776 R0.191
X122.411 Y26.967 R0.191
G2 X122.52 Y27.207 R0.318
G3 X122.535 Y27.422 R0.152
X122.469 Y27.466 R0.152
G1 X122.22 Y27.551
X121.872 Y27.432
X121.665 Y27.142
X121.667 Y26.785
X121.788 Y26.619
X121.874 Y26.5
X122.22 Y26.384
X122.566 Y26.5
X122.773 Y26.785
X122.775 Y27.142
X122.568 Y27.432
X122.469 Y27.466
X122.43 Y27.471 Z-0.251
X122.393 Y27.461 Z-0.252
X122.362 Y27.436 Z-0.253
X122.343 Y27.402 Z-0.254
X122.217 Y26.996 Z-0.266
X122.213 Y26.959 Z-0.267
X122.223 Y26.923 Z-0.268
X122.246 Y26.893 Z-0.269
X122.279 Y26.874 Z-0.27
X122.316 Y26.868 Z-0.271
X122.352 Y26.877 Z-0.272
X122.383 Y26.899 Z-0.273
X122.404 Y26.93 Z-0.274
X122.411 Y26.967 Z-0.275
G3 X122.22 Y27.158 R0.191
X122.029 Y26.967 R0.191
X122.22 Y26.776 R0.191
X122.411 Y26.967 R0.191
G2 X122.52 Y27.207 R0.318
G3 X122.535 Y27.422 R0.152
X122.469 Y27.466 R0.152
G1 X122.22 Y27.551
X121.872 Y27.432
X121.665 Y27.142
X121.667 Y26.785
X121.788 Y26.619
X121.874 Y26.5
X122.22 Y26.384
X122.566 Y26.5
X122.773 Y26.785
X122.775 Y27.142
X122.568 Y27.432
X122.469 Y27.466
X122.453 Y27.468
X122.437 Y27.463
X122.424 Y27.451
X122.193 Y27.121
X122.194 Y27.108
X122.203 Y27.098
X122.235 Y27.082
X122.25 Y27.081
X122.261 Y27.089
X122.263 Y27.103
X122.256 Y27.115
X122.221 Y27.133 Z-0.276
X122.181 Y27.135 Z-0.278
X122.144 Y27.122 Z-0.279
X122.115 Y27.095 Z-0.281
X122.099 Y27.059 Z-0.282
X122.098 Y27.02 Z-0.283
X122.112 Y26.983 Z-0.285
X122.14 Y26.955 Z-0.286
X122.177 Y26.94 Z-0.288
X122.216 Z-0.289
X122.252 Y26.956 Z-0.29
X122.279 Y26.985 Z-0.292
X122.293 Y27.022 Z-0.293
X122.291 Y27.061 Z-0.294
X122.274 Y27.097 Z-0.296
X122.245 Y27.123 Z-0.297
X122.207 Y27.135 Z-0.299
X122.168 Y27.132 Z-0.3
X122.143 Y27.125
X122.103 Y27.107
X122.07 Y27.078
X122.047 Y27.04
X122.036 Y26.998
X122.037 Y26.954
X122.051 Y26.912
X122.081 Y26.855
X122.104 Y26.823
X122.134 Y26.797
X122.17 Y26.781
X122.197 Y26.774
X122.225 Y26.773
X122.235 Y26.774
X122.28 Y26.783
X122.285 Y26.785
X122.323 Y26.805
X122.353 Y26.835
X122.373 Y26.872
X122.383 Y26.914
X122.388 Y26.985
X122.384 Y27.033
X122.365 Y27.077
X122.333 Y27.113
X122.292 Y27.137
X122.245 Y27.147
X122.197 Y27.141
X122.168 Y27.132
X122.118 Y27.124
X122.067 Y27.127
X122.019 Y27.141
X121.975 Y27.165
X121.937 Y27.199
X121.905 Y27.226
X121.866 Y27.242
X121.824 Y27.245
X121.783 Y27.235
X121.747 Y27.213
X121.72 Y27.18
X121.704 Y27.142
X121.678 Y27.031
X121.683 Y26.875
X121.788 Y26.673
X121.842 Y26.573
X121.982 Y26.478
X122.155 Y26.425
X122.328 Y26.434
X122.498 Y26.496
X122.636 Y26.616
X122.714 Y26.741
X122.744 Y27.12
X122.67 Y27.275
X122.556 Y27.4
X122.393 Y27.485
X122.242 Y27.512
X121.917 Y27.418
X121.804 Y27.321
X121.71 Y27.165
X121.704 Y27.142
X121.705 Y27.126
X121.715 Y27.113
X121.731 Y27.108
X121.863 Y27.111
X122.238 Y27.056
X122.27 Y27.069
X122.234 Y27.086 Z-0.301
X122.195 Y27.088 Z-0.303
X122.158 Y27.074 Z-0.304
X122.129 Y27.047 Z-0.306
X122.113 Y27.011 Z-0.307
Y26.971 Z-0.308
X122.128 Y26.935 Z-0.31
X122.156 Y26.907 Z-0.311
X122.192 Y26.893 Z-0.313
X122.232 Z-0.314
X122.268 Y26.91 Z-0.315
X122.295 Y26.939 Z-0.317
X122.308 Y26.976 Z-0.318
X122.306 Y27.015 Z-0.319
X122.288 Y27.051 Z-0.321
X122.258 Y27.077 Z-0.322
X122.221 Y27.089 Z-0.324
X122.181 Y27.085 Z-0.325
X122.171 Y27.082
X122.136 Y27.064
X122.109 Y27.035
X122.094 Y26.999
X122.092 Y26.959
X122.105 Y26.922
X122.124 Y26.885
X122.15 Y26.853
X122.187 Y26.832
X122.229 Y26.827
X122.268 Y26.836
X122.302 Y26.858
X122.325 Y26.892
X122.335 Y26.931
X122.338 Y26.974
X122.334 Y27.01
X122.32 Y27.043
X122.295 Y27.069
X122.264 Y27.087
X122.229 Y27.093
X122.193 Y27.089
X122.181 Y27.085
X122.123 Y27.075
X122.064 Y27.081
X122.008 Y27.102
X121.96 Y27.136
X121.922 Y27.161
X121.877 Y27.171
X121.832 Y27.166
X121.791 Y27.145
X121.76 Y27.112
X121.742 Y27.07
X121.728 Y27.009
X121.735 Y26.883
X121.788 Y26.784
X121.88 Y26.612
X122.018 Y26.519
X122.155 Y26.478
X122.327 Y26.487
X122.479 Y26.549
X122.6 Y26.655
X122.67 Y26.778
X122.691 Y27.106
X122.62 Y27.254
X122.515 Y27.363
X122.366 Y27.438
X122.223 Y27.458
X121.943 Y27.373
X121.832 Y27.273
X121.758 Y27.137
X121.742 Y27.07
X121.741 Y27.031
X121.755 Y26.995
X121.781 Y26.966
X121.817 Y26.95
X122.145 Y26.872
X122.173 Y26.869
X122.201 Y26.875
X122.227 Y26.888
X122.253 Y26.917 Z-0.326
X122.267 Y26.954 Z-0.328
X122.264 Y26.994 Z-0.329
X122.247 Y27.029 Z-0.331
X122.217 Y27.055 Z-0.332
X122.179 Y27.067 Z-0.333
X122.14 Y27.063 Z-0.335
X122.105 Y27.044 Z-0.336
X122.08 Y27.013 Z-0.337
X122.07 Y26.975 Z-0.339
X122.075 Y26.936 Z-0.34
X122.095 Y26.902 Z-0.342
X122.127 Y26.879 Z-0.343
X122.165 Y26.869 Z-0.344
X122.204 Y26.876 Z-0.346
X122.237 Y26.897 Z-0.347
X122.26 Y26.93 Z-0.349
X122.268 Y26.968 Z-0.35
G3 X122.216 Y27.02 R0.051
X122.165 Y26.968 R0.051
X122.216 Y26.917 R0.051
X122.268 Y26.968 R0.051
G1 X122.275 Y27.025
X122.295 Y27.078
X122.328 Y27.125
X122.372 Y27.162
X122.404 Y27.193
X122.423 Y27.232
X122.428 Y27.276
X122.418 Y27.319
X122.394 Y27.356
X122.358 Y27.382
X122.35 Y27.386
X122.22 Y27.402
X121.961 Y27.32
X121.871 Y27.232
X121.809 Y27.12
X121.782 Y27.
X121.788 Y26.895
X121.916 Y26.654
X122.025 Y26.573
X122.178 Y26.532
X122.316 Y26.54
X122.439 Y26.586
X122.561 Y26.694
X122.618 Y26.785
X122.638 Y27.098
X122.587 Y27.209
X122.479 Y27.321
X122.358 Y27.382
X122.347 Y27.384
X122.336 Y27.378
X122.331 Y27.367
X122.322 Y27.277
X122.256 Y26.964
X122.249 Y26.901
X122.252 Y26.89
X122.262 Y26.885
X122.272 Y26.888
X122.299 Y26.917 Z-0.351
X122.312 Y26.954 Z-0.353
X122.309 Y26.993 Z-0.354
X122.292 Y27.029 Z-0.356
X122.262 Y27.054 Z-0.357
X122.224 Y27.066 Z-0.358
X122.185 Y27.063 Z-0.36
X122.15 Y27.044 Z-0.361
X122.126 Y27.013 Z-0.362
X122.115 Y26.975 Z-0.364
X122.12 Y26.936 Z-0.365
X122.14 Y26.902 Z-0.367
X122.172 Y26.878 Z-0.368
X122.21 Y26.869 Z-0.369
X122.249 Y26.875 Z-0.371
X122.283 Y26.897 Z-0.372
X122.305 Y26.929 Z-0.374
X122.313 Y26.968 Z-0.375
G3 X122.218 Y27.063 R0.095
X122.122 Y26.968 R0.095
X122.218 Y26.873 R0.095
X122.313 Y26.968 R0.095
G1 X122.319 Y27.014
X122.339 Y27.057
X122.369 Y27.092
X122.408 Y27.118
X122.438 Y27.139
X122.458 Y27.17
X122.465 Y27.206
X122.458 Y27.242
X122.439 Y27.274
X122.409 Y27.296
X122.327 Y27.335
X122.22 Y27.348
X121.988 Y27.273
X121.939 Y27.228
X121.891 Y27.161
X121.859 Y27.097
X121.837 Y26.986
X121.846 Y26.897
X121.961 Y26.686
X122.047 Y26.624
X122.177 Y26.586
X122.306 Y26.594
X122.415 Y26.635
X122.513 Y26.719
X122.568 Y26.808
X122.586 Y27.075
X122.54 Y27.183
X122.452 Y27.275
X122.409 Y27.296
X122.376 Y27.305
X122.341 Y27.303
X122.31 Y27.288
X122.285 Y27.264
X122.114 Y27.028
X122.099 Y26.997
X122.096 Y26.962
X122.105 Y26.928
X122.125 Y26.899
X122.153 Y26.879
X122.187 Y26.87
X122.222 Y26.874
X122.254 Y26.889
X122.281 Y26.918 Z-0.376
X122.294 Y26.955 Z-0.378
X122.292 Y26.995 Z-0.379
X122.274 Y27.03 Z-0.381
X122.244 Y27.056 Z-0.382
X122.206 Y27.068 Z-0.383
X122.167 Y27.064 Z-0.385
X122.132 Y27.045 Z-0.386
X122.108 Y27.014 Z-0.388
X122.097 Y26.976 Z-0.389
X122.102 Y26.937 Z-0.39
X122.122 Y26.903 Z-0.392
X122.154 Y26.879 Z-0.393
X122.192 Y26.87 Z-0.394
X122.231 Y26.877 Z-0.396
X122.265 Y26.898 Z-0.397
X122.287 Y26.93 Z-0.399
X122.295 Y26.969 Z-0.4
G3 X122.217 Y27.047 R0.077
X122.14 Y26.969 R0.077
X122.217 Y26.892 R0.077
X122.295 Y26.969 R0.077
G1 X122.3 Y27.009
X122.317 Y27.045
X122.342 Y27.076
X122.375 Y27.098
X122.4 Y27.117
X122.416 Y27.144
X122.422 Y27.174
X122.416 Y27.205
X122.399 Y27.231
X122.373 Y27.25
X122.306 Y27.281
X122.22 Y27.29
X122.03 Y27.233
X121.961 Y27.166
X121.913 Y27.075
X121.895 Y26.986
X121.898 Y26.919
X121.961 Y26.798
X121.992 Y26.738
X122.088 Y26.67
X122.177 Y26.643
X122.285 Y26.647
X122.396 Y26.694
X122.471 Y26.759
X122.516 Y26.835
X122.53 Y27.053
X122.496 Y27.142
X122.411 Y27.232
X122.373 Y27.25
X122.342 Y27.259
X122.309 Y27.257
X122.278 Y27.244
X122.254 Y27.223
X122.097 Y27.032
X122.079 Y27.001
X122.074 Y26.965
X122.081 Y26.93
X122.101 Y26.9
X122.13 Y26.878
X122.164 Y26.869
X122.2 Y26.872
X122.232 Y26.887
X122.259 Y26.916 Z-0.401
X122.272 Y26.954 Z-0.403
X122.27 Y26.993 Z-0.404
X122.252 Y27.028 Z-0.406
X122.222 Y27.054 Z-0.407
X122.185 Y27.066 Z-0.408
X122.145 Y27.062 Z-0.41
X122.111 Y27.043 Z-0.411
X122.086 Y27.013 Z-0.413
X122.075 Y26.974 Z-0.414
X122.081 Y26.935 Z-0.415
X122.101 Y26.901 Z-0.417
X122.132 Y26.878 Z-0.418
X122.171 Y26.869 Z-0.419
X122.21 Y26.875 Z-0.421
X122.243 Y26.896 Z-0.422
X122.265 Y26.929 Z-0.424
X122.273 Y26.968 Z-0.425
G3 X122.217 Y27.024 R0.057
X122.16 Y26.968 R0.057
X122.217 Y26.911 R0.057
X122.273 Y26.968 R0.057
G1 X122.278 Y27.
X122.291 Y27.029
X122.313 Y27.054
X122.34 Y27.072
X122.365 Y27.091
X122.378 Y27.118
Y27.149
X122.364 Y27.177
X122.339 Y27.195
X122.285 Y27.219
X122.22 Y27.225
X122.058 Y27.171
X122.01 Y27.123
X121.974 Y27.057
X121.959 Y26.976
X121.961 Y26.951
X121.964 Y26.924
X122.041 Y26.78
X122.106 Y26.732
X122.203 Y26.708
X122.293 Y26.719
X122.367 Y26.753
X122.427 Y26.81
X122.454 Y26.854
X122.466 Y27.053
X122.428 Y27.125
X122.362 Y27.185
X122.339 Y27.195
X122.32 Y27.201 Z-0.42
X122.301 Y27.202 Z-0.414
X122.273 Y27.194 Z-0.385
X122.264 Y27.189 Z-0.346
G0 Z15.

(SPHEROID POCKET)
G55
G0 X122.213 Y35.251
Z15.
Z1.025
G1 Z0.105 F51.
X122.215 Y35.241 Z0.067 F356.
X122.225 Y35.215 Z0.038
X122.25 Y35.186 Z0.026
X122.285 Y35.168 Z0.025
X122.324 Y35.164 Z0.023
X122.361 Y35.177 Z0.022
X122.391 Y35.203 Z0.021
X122.408 Y35.239 Z0.019
X122.41 Y35.278 Z0.018
X122.396 Y35.315 Z0.017
X122.369 Y35.344 Z0.015
X122.333 Y35.36 Z0.014
X122.294 Z0.012
X122.257 Y35.345 Z0.011
X122.229 Y35.318 Z0.01
X122.214 Y35.281 Z0.008
X122.215 Y35.242 Z0.007
X122.231 Y35.206 Z0.005
X122.26 Y35.179 Z0.004
X122.297 Y35.165 Z0.003
X122.336 Y35.167 Z0.001
X122.371 Y35.184 Z0.
X122.398 Y35.213 Z-0.001
X122.41 Y35.251 Z-0.003
X122.407 Y35.29 Z-0.004
X122.389 Y35.325 Z-0.006
X122.359 Y35.35 Z-0.007
X122.321 Y35.361 Z-0.008
X122.282 Y35.357 Z-0.01
X122.247 Y35.338 Z-0.011
X122.223 Y35.307 Z-0.013
X122.213 Y35.269 Z-0.014
X122.218 Y35.23 Z-0.015
X122.239 Y35.196 Z-0.017
X122.27 Y35.173 Z-0.018
X122.309 Y35.164 Z-0.019
X122.348 Y35.17 Z-0.021
X122.381 Y35.192 Z-0.022
X122.403 Y35.224 Z-0.024
X122.411 Y35.263 Z-0.025
G3 X122.22 Y35.454 R0.191
X122.029 Y35.263 R0.191
X122.22 Y35.072 R0.191
X122.411 Y35.263 R0.191
G2 X122.521 Y35.503 R0.317
G3 X122.537 Y35.717 R0.152
X122.47 Y35.762 R0.152
G1 X122.22 Y35.846
X121.874 Y35.73
X121.667 Y35.444
X121.665 Y35.088
X121.788 Y34.913
X121.872 Y34.798
X122.22 Y34.679
X122.568 Y34.798
X122.775 Y35.088
X122.773 Y35.444
X122.566 Y35.73
X122.47 Y35.762
X122.431 Y35.767 Z-0.026
X122.394 Y35.756 Z-0.027
X122.363 Y35.732 Z-0.028
X122.344 Y35.698 Z-0.029
X122.217 Y35.292 Z-0.041
X122.213 Y35.255 Z-0.042
X122.223 Y35.219 Z-0.043
X122.246 Y35.189 Z-0.044
X122.278 Y35.169 Z-0.045
X122.316 Y35.164 Z-0.046
X122.352 Y35.172 Z-0.047
X122.383 Y35.194 Z-0.048
X122.404 Y35.226 Z-0.049
X122.411 Y35.263 Z-0.05
G3 X122.22 Y35.454 R0.191
X122.029 Y35.263 R0.191
X122.22 Y35.072 R0.191
X122.411 Y35.263 R0.191
G2 X122.521 Y35.503 R0.317
G3 X122.537 Y35.717 R0.152
X122.47 Y35.762 R0.152
G1 X122.22 Y35.846
X121.874 Y35.73
X121.667 Y35.444
X121.665 Y35.088
X121.788 Y34.913
X121.872 Y34.798
X122.22 Y34.679
X122.568 Y34.798
X122.775 Y35.088
X122.773 Y35.444
X122.566 Y35.73
X122.47 Y35.762
X122.431 Y35.767 Z-0.051
X122.394 Y35.756 Z-0.052
X122.363 Y35.732 Z-0.053
X122.344 Y35.698 Z-0.054
X122.217 Y35.292 Z-0.066
X122.213 Y35.255 Z-0.067
X122.223 Y35.219 Z-0.068
X122.246 Y35.189 Z-0.069
X122.278 Y35.169 Z-0.07
X122.316 Y35.164 Z-0.071
X122.352 Y35.172 Z-0.072
X122.383 Y35.194 Z-0.073
X122.404 Y35.226 Z-0.074
X122.411 Y35.263 Z-0.075
G3 X122.22 Y35.454 R0.191
X122.029 Y35.263 R0.191
X122.22 Y35.072 R0.191
X122.411 Y35.263 R0.191
G2 X122.521 Y35.503 R0.317
G3 X122.537 Y35.717 R0.152
X122.47 Y35.762 R0.152
G1 X122.22 Y35.846
X121.874 Y35.73
X121.667 Y35.444
X121.665 Y35.088
X121.788 Y34.913
X121.872 Y34.798
X122.22 Y34.679
X122.568 Y34.798
X122.775 Y35.088
X122.773 Y35.444
X122.566 Y35.73
X122.47 Y35.762
X122.431 Y35.767 Z-0.076
X122.394 Y35.756 Z-0.077
X122.363 Y35.732 Z-0.078
X122.344 Y35.698 Z-0.079
X122.217 Y35.292 Z-0.091
X122.213 Y35.255 Z-0.092
X122.223 Y35.219 Z-0.093
X122.246 Y35.189 Z-0.094
X122.278 Y35.169 Z-0.095
X122.316 Y35.164 Z-0.096
X122.352 Y35.172 Z-0.097
X122.383 Y35.194 Z-0.098
X122.404 Y35.226 Z-0.099
X122.411 Y35.263 Z-0.1
G3 X122.22 Y35.454 R0.191
X122.029 Y35.263 R0.191
X122.22 Y35.072 R0.191
X122.411 Y35.263 R0.191
G2 X122.521 Y35.503 R0.317
G3 X122.537 Y35.717 R0.152
X122.47 Y35.762 R0.152
G1 X122.22 Y35.846
X121.874 Y35.73
X121.667 Y35.444
X121.665 Y35.088
X121.788 Y34.913
X121.872 Y34.798
X122.22 Y34.679
X122.568 Y34.798
X122.775 Y35.088
X122.773 Y35.444
X122.566 Y35.73
X122.47 Y35.762
X122.431 Y35.767 Z-0.101
X122.394 Y35.756 Z-0.102
X122.363 Y35.732 Z-0.103
X122.344 Y35.698 Z-0.104
X122.217 Y35.292 Z-0.116
X122.213 Y35.255 Z-0.117
X122.223 Y35.219 Z-0.118
X122.246 Y35.189 Z-0.119
X122.278 Y35.169 Z-0.12
X122.316 Y35.164 Z-0.121
X122.352 Y35.172 Z-0.122
X122.383 Y35.194 Z-0.123
X122.404 Y35.226 Z-0.124
X122.411 Y35.263 Z-0.125
G3 X122.22 Y35.454 R0.191
X122.029 Y35.263 R0.191
X122.22 Y35.072 R0.191
X122.411 Y35.263 R0.191
G2 X122.521 Y35.503 R0.317
G3 X122.537 Y35.717 R0.152
X122.47 Y35.762 R0.152
G1 X122.22 Y35.846
X121.874 Y35.73
X121.667 Y35.444
X121.665 Y35.088
X121.788 Y34.913
X121.872 Y34.798
X122.22 Y34.679
X122.568 Y34.798
X122.775 Y35.088
X122.773 Y35.444
X122.566 Y35.73
X122.47 Y35.762
X122.431 Y35.767 Z-0.126
X122.394 Y35.756 Z-0.127
X122.363 Y35.732 Z-0.128
X122.344 Y35.698 Z-0.129
X122.217 Y35.292 Z-0.141
X122.213 Y35.255 Z-0.142
X122.223 Y35.219 Z-0.143
X122.246 Y35.189 Z-0.144
X122.278 Y35.169 Z-0.145
X122.316 Y35.164 Z-0.146
X122.352 Y35.172 Z-0.147
X122.383 Y35.194 Z-0.148
X122.404 Y35.226 Z-0.149
X122.411 Y35.263 Z-0.15
G3 X122.22 Y35.454 R0.191
X122.029 Y35.263 R0.191
X122.22 Y35.072 R0.191
X122.411 Y35.263 R0.191
G2 X122.521 Y35.503 R0.317
G3 X122.537 Y35.717 R0.152
X122.47 Y35.762 R0.152
G1 X122.22 Y35.846
X121.874 Y35.73
X121.667 Y35.444
X121.665 Y35.088
X121.788 Y34.913
X121.872 Y34.798
X122.22 Y34.679
X122.568 Y34.798
X122.775 Y35.088
X122.773 Y35.444
X122.566 Y35.73
X122.47 Y35.762
X122.431 Y35.767 Z-0.151
X122.394 Y35.756 Z-0.152
X122.363 Y35.732 Z-0.153
X122.344 Y35.698 Z-0.154
X122.217 Y35.292 Z-0.166
X122.213 Y35.255 Z-0.167
X122.223 Y35.219 Z-0.168
X122.246 Y35.189 Z-0.169
X122.278 Y35.169 Z-0.17
X122.316 Y35.164 Z-0.171
X122.352 Y35.172 Z-0.172
X122.383 Y35.194 Z-0.173
X122.404 Y35.226 Z-0.174
X122.411 Y35.263 Z-0.175
G3 X122.22 Y35.454 R0.191
X122.029 Y35.263 R0.191
X122.22 Y35.072 R0.191
X122.411 Y35.263 R0.191
G2 X122.521 Y35.503 R0.317
G3 X122.537 Y35.717 R0.152
X122.47 Y35.762 R0.152
G1 X122.22 Y35.846
X121.874 Y35.73
X121.667 Y35.444
X121.665 Y35.088
X121.788 Y34.913
X121.872 Y34.798
X122.22 Y34.679
X122.568 Y34.798
X122.775 Y35.088
X122.773 Y35.444
X122.566 Y35.73
X122.47 Y35.762
X122.431 Y35.767 Z-0.176
X122.394 Y35.756 Z-0.177
X122.363 Y35.732 Z-0.178
X122.344 Y35.698 Z-0.179
X122.217 Y35.292 Z-0.191
X122.213 Y35.255 Z-0.192
X122.223 Y35.219 Z-0.193
X122.246 Y35.189 Z-0.194
X122.278 Y35.169 Z-0.195
X122.316 Y35.164 Z-0.196
X122.352 Y35.172 Z-0.197
X122.383 Y35.194 Z-0.198
X122.404 Y35.226 Z-0.199
X122.411 Y35.263 Z-0.2
G3 X122.22 Y35.454 R0.191
X122.029 Y35.263 R0.191
X122.22 Y35.072 R0.191
X122.411 Y35.263 R0.191
G2 X122.521 Y35.503 R0.317
G3 X122.537 Y35.717 R0.152
X122.47 Y35.762 R0.152
G1 X122.22 Y35.846
X121.874 Y35.73
X121.667 Y35.444
X121.665 Y35.088
X121.788 Y34.913
X121.872 Y34.798
X122.22 Y34.679
X122.568 Y34.798
X122.775 Y35.088
X122.773 Y35.444
X122.566 Y35.73
X122.47 Y35.762
X122.431 Y35.767 Z-0.201
X122.394 Y35.756 Z-0.202
X122.363 Y35.732 Z-0.203
X122.344 Y35.698 Z-0.204
X122.217 Y35.292 Z-0.216
X122.213 Y35.255 Z-0.217
X122.223 Y35.219 Z-0.218
X122.246 Y35.189 Z-0.219
X122.278 Y35.169 Z-0.22
X122.316 Y35.164 Z-0.221
X122.352 Y35.172 Z-0.222
X122.383 Y35.194 Z-0.223
X122.404 Y35.226 Z-0.224
X122.411 Y35.263 Z-0.225
G3 X122.22 Y35.454 R0.191
X122.029 Y35.263 R0.191
X122.22 Y35.072 R0.191
X122.411 Y35.263 R0.191
G2 X122.521 Y35.503 R0.317
G3 X122.537 Y35.717 R0.152
X122.47 Y35.762 R0.152
G1 X122.22 Y35.846
X121.874 Y35.73
X121.667 Y35.444
X121.665 Y35.088
X121.788 Y34.913
X121.872 Y34.798
X122.22 Y34.679
X122.568 Y34.798
X122.775 Y35.088
X122.773 Y35.444
X122.566 Y35.73
X122.47 Y35.762
X122.431 Y35.767 Z-0.226
X122.394 Y35.756 Z-0.227
X122.363 Y35.732 Z-0.228
X122.344 Y35.698 Z-0.229
X122.217 Y35.292 Z-0.241
X122.213 Y35.255 Z-0.242
X122.223 Y35.219 Z-0.243
X122.246 Y35.189 Z-0.244
X122.278 Y35.169 Z-0.245
X122.316 Y35.164 Z-0.246
X122.352 Y35.172 Z-0.247
X122.383 Y35.194 Z-0.248
X122.404 Y35.226 Z-0.249
X122.411 Y35.263 Z-0.25
G3 X122.22 Y35.454 R0.191
X122.029 Y35.263 R0.191
X122.22 Y35.072 R0.191
X122.411 Y35.263 R0.191
G2 X122.521 Y35.503 R0.317
G3 X122.537 Y35.717 R0.152
X122.47 Y35.762 R0.152
G1 X122.22 Y35.846
X121.874 Y35.73
X121.667 Y35.444
X121.665 Y35.088
X121.788 Y34.913
X121.872 Y34.798
X122.22 Y34.679
X122.568 Y34.798
X122.775 Y35.088
X122.773 Y35.444
X122.566 Y35.73
X122.47 Y35.762
X122.431 Y35.767 Z-0.251
X122.394 Y35.756 Z-0.252
X122.363 Y35.732 Z-0.253
X122.344 Y35.698 Z-0.254
X122.217 Y35.292 Z-0.266
X122.213 Y35.255 Z-0.267
X122.223 Y35.219 Z-0.268
X122.246 Y35.189 Z-0.269
X122.278 Y35.169 Z-0.27
X122.316 Y35.164 Z-0.271
X122.352 Y35.172 Z-0.272
X122.383 Y35.194 Z-0.273
X122.404 Y35.226 Z-0.274
X122.411 Y35.263 Z-0.275
G3 X122.22 Y35.454 R0.191
X122.029 Y35.263 R0.191
X122.22 Y35.072 R0.191
X122.411 Y35.263 R0.191
G2 X122.521 Y35.503 R0.317
G3 X122.537 Y35.717 R0.152
X122.47 Y35.762 R0.152
G1 X122.22 Y35.846
X121.874 Y35.73
X121.667 Y35.444
X121.665 Y35.088
X121.788 Y34.913
X121.872 Y34.798
X122.22 Y34.679
X122.568 Y34.798
X122.775 Y35.088
X122.773 Y35.444
X122.566 Y35.73
X122.47 Y35.762
X122.448 Y35.763
X122.429 Y35.751
X122.419 Y35.732
X122.348 Y35.351
X122.331 Y35.285
X122.323 Y35.207
X122.327 Y35.194
X122.339 Y35.188
X122.352 Y35.192
X122.376 Y35.223 Z-0.276
X122.387 Y35.261 Z-0.278
X122.381 Y35.3 Z-0.279
X122.361 Y35.334 Z-0.281
X122.329 Y35.358 Z-0.282
X122.29 Y35.366 Z-0.283
X122.251 Y35.36 Z-0.285
X122.218 Y35.338 Z-0.286
X122.196 Y35.305 Z-0.288
X122.189 Y35.267 Z-0.289
X122.197 Y35.228 Z-0.29
X122.22 Y35.196 Z-0.292
X122.253 Y35.175 Z-0.293
X122.292 Y35.168 Z-0.294
X122.33 Y35.178 Z-0.296
X122.362 Y35.202 Z-0.297
X122.382 Y35.236 Z-0.299
X122.386 Y35.275 Z-0.3
X122.383 Y35.315
X122.374 Y35.357
X122.353 Y35.395
X122.322 Y35.425
X122.284 Y35.445
X122.271 Y35.449
X122.223 Y35.457
X122.175 Y35.45
X122.169 Y35.448
X122.134 Y35.432
X122.104 Y35.407
X122.082 Y35.375
X122.053 Y35.319
X122.038 Y35.278
X122.036 Y35.235
X122.047 Y35.192
X122.069 Y35.155
X122.101 Y35.126
X122.14 Y35.106
X122.194 Y35.089
X122.242 Y35.082
X122.29 Y35.091
X122.333 Y35.114
X122.365 Y35.151
X122.385 Y35.195
X122.389 Y35.244
X122.386 Y35.275
X122.388 Y35.325
X122.399 Y35.374
X122.421 Y35.42
X122.452 Y35.459
X122.49 Y35.492
X122.523 Y35.524
X122.546 Y35.564
X122.555 Y35.61
X122.549 Y35.656
X122.53 Y35.698
X122.499 Y35.732
X122.498 Y35.734
X122.306 Y35.801
X122.155 Y35.805
X121.961 Y35.742
X121.842 Y35.657
X121.683 Y35.355
X121.682 Y35.177
X121.72 Y35.043
X121.788 Y34.931
X121.896 Y34.824
X122.22 Y34.72
X122.371 Y34.739
X122.436 Y34.764
X122.556 Y34.83
X122.684 Y34.976
X122.744 Y35.11
X122.714 Y35.489
X122.614 Y35.639
X122.499 Y35.732
X122.486 Y35.71
X122.296 Y35.223
X122.302 Y35.186
X122.327 Y35.218 Z-0.301
X122.337 Y35.256 Z-0.303
X122.331 Y35.295 Z-0.304
X122.311 Y35.329 Z-0.306
X122.279 Y35.352 Z-0.307
X122.241 Y35.361 Z-0.308
X122.202 Y35.354 Z-0.31
X122.169 Y35.333 Z-0.311
X122.147 Y35.3 Z-0.313
X122.139 Y35.261 Z-0.314
X122.147 Y35.223 Z-0.315
X122.17 Y35.19 Z-0.317
X122.203 Y35.169 Z-0.318
X122.242 Y35.163 Z-0.319
X122.281 Y35.172 Z-0.321
X122.312 Y35.196 Z-0.322
X122.332 Y35.23 Z-0.324
X122.337 Y35.27 Z-0.325
X122.334 Y35.304
X122.327 Y35.335
X122.311 Y35.363
X122.289 Y35.385
X122.26 Y35.4
X122.221 Y35.407
X122.182 Y35.4
X122.148 Y35.379
X122.124 Y35.348
X122.101 Y35.307
X122.089 Y35.269
X122.091 Y35.23
X122.106 Y35.194
X122.133 Y35.165
X122.168 Y35.147
X122.194 Y35.139
X122.23 Y35.134
X122.265 Y35.141
X122.296 Y35.159
X122.321 Y35.186
X122.335 Y35.219
X122.338 Y35.255
X122.337 Y35.27
X122.339 Y35.318
X122.352 Y35.365
X122.375 Y35.408
X122.408 Y35.445
X122.448 Y35.473
X122.48 Y35.498
X122.503 Y35.533
X122.513 Y35.573
X122.51 Y35.614
X122.494 Y35.652
X122.466 Y35.683
X122.43 Y35.703
X122.306 Y35.747
X122.155 Y35.752
X121.999 Y35.704
X121.88 Y35.618
X121.735 Y35.347
X121.731 Y35.199
X121.769 Y35.062
X121.788 Y35.032
X121.849 Y34.938
X121.943 Y34.857
X122.223 Y34.772
X122.385 Y34.798
X122.532 Y34.882
X122.639 Y35.005
X122.691 Y35.124
X122.665 Y35.471
X122.582 Y35.596
X122.468 Y35.69
X122.43 Y35.703
X122.397 Y35.709
X122.365 Y35.704
X122.335 Y35.689
X122.313 Y35.664
X122.085 Y35.319
X122.07 Y35.282
X122.071 Y35.243
X122.087 Y35.207
X122.115 Y35.179
X122.152 Y35.165
X122.191 Y35.167
X122.227 Y35.183
X122.254 Y35.212 Z-0.326
X122.267 Y35.249 Z-0.328
X122.265 Y35.289 Z-0.329
X122.247 Y35.324 Z-0.331
X122.217 Y35.35 Z-0.332
X122.18 Y35.362 Z-0.333
X122.14 Y35.358 Z-0.335
X122.105 Y35.339 Z-0.336
X122.081 Y35.308 Z-0.337
X122.07 Y35.27 Z-0.339
X122.075 Y35.231 Z-0.34
X122.095 Y35.197 Z-0.342
X122.127 Y35.173 Z-0.343
X122.166 Y35.164 Z-0.344
X122.205 Y35.171 Z-0.346
X122.238 Y35.192 Z-0.347
X122.26 Y35.224 Z-0.349
X122.268 Y35.263 Z-0.35
G3 X122.217 Y35.315 R0.051
X122.165 Y35.263 R0.051
X122.217 Y35.212 R0.051
X122.268 Y35.263 R0.051
G1 X122.275 Y35.32
X122.297 Y35.373
X122.331 Y35.42
X122.376 Y35.456
X122.406 Y35.481
X122.426 Y35.514
X122.435 Y35.552
X122.431 Y35.591
X122.415 Y35.627
X122.389 Y35.656
X122.355 Y35.675
X122.306 Y35.693
X122.156 Y35.696
X122.025 Y35.657
X121.916 Y35.576
X121.788 Y35.333
X121.783 Y35.213
X121.788 Y35.196
X121.817 Y35.088
X121.887 Y34.976
X121.961 Y34.91
X122.242 Y34.826
X122.371 Y34.851
X122.496 Y34.922
X122.587 Y35.021
X122.638 Y35.132
X122.618 Y35.444
X122.54 Y35.561
X122.439 Y35.644
X122.355 Y35.675
X122.324 Y35.681
X122.292 Y35.678
X122.263 Y35.664
X122.24 Y35.642
X122.225 Y35.613
X122.118 Y35.295
X122.113 Y35.259
X122.121 Y35.224
X122.141 Y35.194
X122.169 Y35.173
X122.204 Y35.163
X122.24 Y35.166
X122.272 Y35.182
X122.299 Y35.211 Z-0.351
X122.312 Y35.248 Z-0.353
X122.309 Y35.288 Z-0.354
X122.292 Y35.323 Z-0.356
X122.262 Y35.349 Z-0.357
X122.224 Y35.361 Z-0.358
X122.185 Y35.357 Z-0.36
X122.15 Y35.338 Z-0.361
X122.126 Y35.307 Z-0.362
X122.115 Y35.269 Z-0.364
X122.12 Y35.23 Z-0.365
X122.14 Y35.196 Z-0.367
X122.172 Y35.172 Z-0.368
X122.21 Y35.163 Z-0.369
X122.249 Y35.17 Z-0.371
X122.283 Y35.191 Z-0.372
X122.305 Y35.223 Z-0.374
X122.313 Y35.262 Z-0.375
G3 X122.218 Y35.357 R0.095
X122.122 Y35.262 R0.095
X122.218 Y35.167 R0.095
X122.313 Y35.262 R0.095
G1 X122.318 Y35.31
X122.332 Y35.356
X122.355 Y35.398
X122.386 Y35.435
X122.409 Y35.465
X122.419 Y35.501
X122.418 Y35.538
X122.404 Y35.572
X122.379 Y35.6
X122.347 Y35.619
X122.285 Y35.641
X122.155 Y35.64
X122.047 Y35.606
X121.961 Y35.544
X121.846 Y35.333
X121.837 Y35.221
X121.866 Y35.111
X121.917 Y35.025
X121.939 Y35.002
X122.009 Y34.946
X122.242 Y34.88
X122.348 Y34.899
X122.452 Y34.955
X122.54 Y35.047
X122.586 Y35.154
X122.568 Y35.422
X122.496 Y35.528
X122.415 Y35.595
X122.347 Y35.619
X122.31 Y35.624
X122.274 Y35.616
X122.243 Y35.596
X122.222 Y35.565
X122.105 Y35.304
X122.096 Y35.268
X122.101 Y35.231
X122.119 Y35.199
X122.148 Y35.175
X122.184 Y35.164
X122.221 Y35.166
X122.254 Y35.182
X122.281 Y35.211 Z-0.376
X122.294 Y35.249 Z-0.378
X122.292 Y35.288 Z-0.379
X122.274 Y35.323 Z-0.381
X122.244 Y35.349 Z-0.382
X122.207 Y35.361 Z-0.383
X122.167 Y35.357 Z-0.385
X122.133 Y35.338 Z-0.386
X122.108 Y35.308 Z-0.388
X122.097 Y35.27 Z-0.389
X122.103 Y35.23 Z-0.39
X122.123 Y35.196 Z-0.392
X122.154 Y35.173 Z-0.393
X122.193 Y35.164 Z-0.394
X122.232 Y35.17 Z-0.396
X122.265 Y35.191 Z-0.397
X122.287 Y35.224 Z-0.399
X122.295 Y35.263 Z-0.4
G3 X122.218 Y35.34 R0.077
X122.141 Y35.263 R0.077
X122.218 Y35.185 R0.077
X122.295 Y35.263 R0.077
G1 X122.3 Y35.302
X122.315 Y35.338
X122.338 Y35.37
X122.369 Y35.395
X122.394 Y35.42
X122.409 Y35.452
X122.41 Y35.487
X122.398 Y35.521
X122.374 Y35.547
X122.366 Y35.553
X122.285 Y35.583
X122.177 Y35.587
X122.073 Y35.555
X121.992 Y35.492
X121.898 Y35.311
X121.896 Y35.221
X121.92 Y35.132
X121.961 Y35.064
X122.03 Y34.997
X122.242 Y34.938
X122.338 Y34.959
X122.425 Y35.008
X122.496 Y35.088
X122.53 Y35.177
X122.516 Y35.395
X122.459 Y35.484
X122.374 Y35.547
X122.361 Y35.551
X122.347 Y35.547
X122.338 Y35.537
X122.296 Y35.431
X122.228 Y35.318
X122.191 Y35.212
Y35.195
X122.201 Y35.181
X122.217 Y35.176
X122.233 Y35.181
X122.26 Y35.21 Z-0.401
X122.273 Y35.247 Z-0.403
X122.271 Y35.287 Z-0.404
X122.253 Y35.322 Z-0.406
X122.223 Y35.348 Z-0.407
X122.185 Y35.36 Z-0.408
X122.146 Y35.356 Z-0.41
X122.111 Y35.337 Z-0.411
X122.087 Y35.306 Z-0.413
X122.076 Y35.268 Z-0.414
X122.081 Y35.229 Z-0.415
X122.101 Y35.195 Z-0.417
X122.133 Y35.172 Z-0.418
X122.171 Y35.162 Z-0.419
X122.21 Y35.169 Z-0.421
X122.244 Y35.19 Z-0.422
X122.266 Y35.223 Z-0.424
X122.274 Y35.261 Z-0.425
G3 X122.218 Y35.318 R0.056
X122.161 Y35.261 R0.056
X122.218 Y35.205 R0.056
X122.274 Y35.261 R0.056
G1 X122.281 Y35.304
X122.302 Y35.341
X122.335 Y35.369
X122.356 Y35.388
X122.368 Y35.415
X122.37 Y35.444
X122.36 Y35.471
X122.34 Y35.492
X122.337 Y35.495
X122.257 Y35.52
X122.185 Y35.522
X122.093 Y35.49
X122.041 Y35.45
X121.961 Y35.292
Y35.228
X121.982 Y35.154
X122.031 Y35.083
X122.077 Y35.048
X122.242 Y35.003
X122.306 Y35.015
X122.381 Y35.055
X122.444 Y35.13
X122.466 Y35.177
X122.454 Y35.376
X122.417 Y35.436
X122.34 Y35.492
X122.337 Y35.495
X122.309 Y35.504 Z-0.418
X122.286 Y35.511 Z-0.4
X122.271 Y35.516 Z-0.375
X122.266 Y35.518 Z-0.346
G0 Z5.
X122.213 Y46.455
Z0.105
G1 X122.215 Y46.445 Z0.067 F356.
X122.225 Y46.419 Z0.038
X122.25 Y46.39 Z0.026
X122.285 Y46.372 Z0.025
X122.324 Y46.369 Z0.023
X122.361 Y46.381 Z0.022
X122.391 Y46.407 Z0.021
X122.408 Y46.443 Z0.019
X122.41 Y46.482 Z0.018
X122.396 Y46.519 Z0.017
X122.369 Y46.548 Z0.015
X122.333 Y46.564 Z0.014
X122.294 Y46.565 Z0.012
X122.257 Y46.55 Z0.011
X122.229 Y46.522 Z0.01
X122.214 Y46.485 Z0.008
X122.215 Y46.446 Z0.007
X122.231 Y46.41 Z0.005
X122.26 Y46.383 Z0.004
X122.297 Y46.369 Z0.003
X122.336 Y46.371 Z0.001
X122.371 Y46.388 Z0.
X122.398 Y46.418 Z-0.001
X122.41 Y46.455 Z-0.003
X122.407 Y46.494 Z-0.004
X122.389 Y46.529 Z-0.006
X122.359 Y46.554 Z-0.007
X122.321 Y46.566 Z-0.008
X122.282 Y46.562 Z-0.01
X122.247 Y46.542 Z-0.011
X122.223 Y46.511 Z-0.013
X122.213 Y46.473 Z-0.014
X122.218 Y46.434 Z-0.015
X122.239 Y46.4 Z-0.017
X122.27 Y46.377 Z-0.018
X122.309 Y46.368 Z-0.019
X122.348 Y46.375 Z-0.021
X122.381 Y46.396 Z-0.022
X122.403 Y46.429 Z-0.024
X122.411 Y46.467 Z-0.025
G3 X122.22 Y46.658 R0.191
X122.029 Y46.467 R0.191
X122.22 Y46.276 R0.191
X122.411 Y46.467 R0.191
G2 X122.52 Y46.707 R0.318
G3 X122.535 Y46.922 R0.152
X122.469 Y46.966 R0.152
G1 X122.22 Y47.051
X121.872 Y46.932
X121.665 Y46.642
X121.667 Y46.285
X121.788 Y46.119
X121.874 Y46.
X122.22 Y45.884
X122.566 Y46.
X122.773 Y46.285
X122.775 Y46.642
X122.568 Y46.932
X122.469 Y46.966
X122.43 Y46.971 Z-0.026
X122.393 Y46.961 Z-0.027
X122.362 Y46.936 Z-0.028
X122.343 Y46.902 Z-0.029
X122.217 Y46.496 Z-0.041
X122.213 Y46.459 Z-0.042
X122.223 Y46.423 Z-0.043
X122.246 Y46.393 Z-0.044
X122.279 Y46.374 Z-0.045
X122.316 Y46.368 Z-0.046
X122.352 Y46.377 Z-0.047
X122.383 Y46.399 Z-0.048
X122.404 Y46.43 Z-0.049
X122.411 Y46.467 Z-0.05
G3 X122.22 Y46.658 R0.191
X122.029 Y46.467 R0.191
X122.22 Y46.276 R0.191
X122.411 Y46.467 R0.191
G2 X122.52 Y46.707 R0.318
G3 X122.535 Y46.922 R0.152
X122.469 Y46.966 R0.152
G1 X122.22 Y47.051
X121.872 Y46.932
X121.665 Y46.642
X121.667 Y46.285
X121.788 Y46.119
X121.874 Y46.
X122.22 Y45.884
X122.566 Y46.
X122.773 Y46.285
X122.775 Y46.642
X122.568 Y46.932
X122.469 Y46.966
X122.43 Y46.971 Z-0.051
X122.393 Y46.961 Z-0.052
X122.362 Y46.936 Z-0.053
X122.343 Y46.902 Z-0.054
X122.217 Y46.496 Z-0.066
X122.213 Y46.459 Z-0.067
X122.223 Y46.423 Z-0.068
X122.246 Y46.393 Z-0.069
X122.279 Y46.374 Z-0.07
X122.316 Y46.368 Z-0.071
X122.352 Y46.377 Z-0.072
X122.383 Y46.399 Z-0.073
X122.404 Y46.43 Z-0.074
X122.411 Y46.467 Z-0.075
G3 X122.22 Y46.658 R0.191
X122.029 Y46.467 R0.191
X122.22 Y46.276 R0.191
X122.411 Y46.467 R0.191
G2 X122.52 Y46.707 R0.318
G3 X122.535 Y46.922 R0.152
X122.469 Y46.966 R0.152
G1 X122.22 Y47.051
X121.872 Y46.932
X121.665 Y46.642
X121.667 Y46.285
X121.788 Y46.119
X121.874 Y46.
X122.22 Y45.884
X122.566 Y46.
X122.773 Y46.285
X122.775 Y46.642
X122.568 Y46.932
X122.469 Y46.966
X122.43 Y46.971 Z-0.076
X122.393 Y46.961 Z-0.077
X122.362 Y46.936 Z-0.078
X122.343 Y46.902 Z-0.079
X122.217 Y46.496 Z-0.091
X122.213 Y46.459 Z-0.092
X122.223 Y46.423 Z-0.093
X122.246 Y46.393 Z-0.094
X122.279 Y46.374 Z-0.095
X122.316 Y46.368 Z-0.096
X122.352 Y46.377 Z-0.097
X122.383 Y46.399 Z-0.098
X122.404 Y46.43 Z-0.099
X122.411 Y46.467 Z-0.1
G3 X122.22 Y46.658 R0.191
X122.029 Y46.467 R0.191
X122.22 Y46.276 R0.191
X122.411 Y46.467 R0.191
G2 X122.52 Y46.707 R0.318
G3 X122.535 Y46.922 R0.152
X122.469 Y46.966 R0.152
G1 X122.22 Y47.051
X121.872 Y46.932
X121.665 Y46.642
X121.667 Y46.285
X121.788 Y46.119
X121.874 Y46.
X122.22 Y45.884
X122.566 Y46.
X122.773 Y46.285
X122.775 Y46.642
X122.568 Y46.932
X122.469 Y46.966
X122.43 Y46.971 Z-0.101
X122.393 Y46.961 Z-0.102
X122.362 Y46.936 Z-0.103
X122.343 Y46.902 Z-0.104
X122.217 Y46.496 Z-0.116
X122.213 Y46.459 Z-0.117
X122.223 Y46.423 Z-0.118
X122.246 Y46.393 Z-0.119
X122.279 Y46.374 Z-0.12
X122.316 Y46.368 Z-0.121
X122.352 Y46.377 Z-0.122
X122.383 Y46.399 Z-0.123
X122.404 Y46.43 Z-0.124
X122.411 Y46.467 Z-0.125
G3 X122.22 Y46.658 R0.191
X122.029 Y46.467 R0.191
X122.22 Y46.276 R0.191
X122.411 Y46.467 R0.191
G2 X122.52 Y46.707 R0.318
G3 X122.535 Y46.922 R0.152
X122.469 Y46.966 R0.152
G1 X122.22 Y47.051
X121.872 Y46.932
X121.665 Y46.642
X121.667 Y46.285
X121.788 Y46.119
X121.874 Y46.
X122.22 Y45.884
X122.566 Y46.
X122.773 Y46.285
X122.775 Y46.642
X122.568 Y46.932
X122.469 Y46.966
X122.43 Y46.971 Z-0.126
X122.393 Y46.961 Z-0.127
X122.362 Y46.936 Z-0.128
X122.343 Y46.902 Z-0.129
X122.217 Y46.496 Z-0.141
X122.213 Y46.459 Z-0.142
X122.223 Y46.423 Z-0.143
X122.246 Y46.393 Z-0.144
X122.279 Y46.374 Z-0.145
X122.316 Y46.368 Z-0.146
X122.352 Y46.377 Z-0.147
X122.383 Y46.399 Z-0.148
X122.404 Y46.43 Z-0.149
X122.411 Y46.467 Z-0.15
G3 X122.22 Y46.658 R0.191
X122.029 Y46.467 R0.191
X122.22 Y46.276 R0.191
X122.411 Y46.467 R0.191
G2 X122.52 Y46.707 R0.318
G3 X122.535 Y46.922 R0.152
X122.469 Y46.966 R0.152
G1 X122.22 Y47.051
X121.872 Y46.932
X121.665 Y46.642
X121.667 Y46.285
X121.788 Y46.119
X121.874 Y46.
X122.22 Y45.884
X122.566 Y46.
X122.773 Y46.285
X122.775 Y46.642
X122.568 Y46.932
X122.469 Y46.966
X122.43 Y46.971 Z-0.151
X122.393 Y46.961 Z-0.152
X122.362 Y46.936 Z-0.153
X122.343 Y46.902 Z-0.154
X122.217 Y46.496 Z-0.166
X122.213 Y46.459 Z-0.167
X122.223 Y46.423 Z-0.168
X122.246 Y46.393 Z-0.169
X122.279 Y46.374 Z-0.17
X122.316 Y46.368 Z-0.171
X122.352 Y46.377 Z-0.172
X122.383 Y46.399 Z-0.173
X122.404 Y46.43 Z-0.174
X122.411 Y46.467 Z-0.175
G3 X122.22 Y46.658 R0.191
X122.029 Y46.467 R0.191
X122.22 Y46.276 R0.191
X122.411 Y46.467 R0.191
G2 X122.52 Y46.707 R0.318
G3 X122.535 Y46.922 R0.152
X122.469 Y46.966 R0.152
G1 X122.22 Y47.051
X121.872 Y46.932
X121.665 Y46.642
X121.667 Y46.285
X121.788 Y46.119
X121.874 Y46.
X122.22 Y45.884
X122.566 Y46.
X122.773 Y46.285
X122.775 Y46.642
X122.568 Y46.932
X122.469 Y46.966
X122.43 Y46.971 Z-0.176
X122.393 Y46.961 Z-0.177
X122.362 Y46.936 Z-0.178
X122.343 Y46.902 Z-0.179
X122.217 Y46.496 Z-0.191
X122.213 Y46.459 Z-0.192
X122.223 Y46.423 Z-0.193
X122.246 Y46.393 Z-0.194
X122.279 Y46.374 Z-0.195
X122.316 Y46.368 Z-0.196
X122.352 Y46.377 Z-0.197
X122.383 Y46.399 Z-0.198
X122.404 Y46.43 Z-0.199
X122.411 Y46.467 Z-0.2
G3 X122.22 Y46.658 R0.191
X122.029 Y46.467 R0.191
X122.22 Y46.276 R0.191
X122.411 Y46.467 R0.191
G2 X122.52 Y46.707 R0.318
G3 X122.535 Y46.922 R0.152
X122.469 Y46.966 R0.152
G1 X122.22 Y47.051
X121.872 Y46.932
X121.665 Y46.642
X121.667 Y46.285
X121.788 Y46.119
X121.874 Y46.
X122.22 Y45.884
X122.566 Y46.
X122.773 Y46.285
X122.775 Y46.642
X122.568 Y46.932
X122.469 Y46.966
X122.43 Y46.971 Z-0.201
X122.393 Y46.961 Z-0.202
X122.362 Y46.936 Z-0.203
X122.343 Y46.902 Z-0.204
X122.217 Y46.496 Z-0.216
X122.213 Y46.459 Z-0.217
X122.223 Y46.423 Z-0.218
X122.246 Y46.393 Z-0.219
X122.279 Y46.374 Z-0.22
X122.316 Y46.368 Z-0.221
X122.352 Y46.377 Z-0.222
X122.383 Y46.399 Z-0.223
X122.404 Y46.43 Z-0.224
X122.411 Y46.467 Z-0.225
G3 X122.22 Y46.658 R0.191
X122.029 Y46.467 R0.191
X122.22 Y46.276 R0.191
X122.411 Y46.467 R0.191
G2 X122.52 Y46.707 R0.318
G3 X122.535 Y46.922 R0.152
X122.469 Y46.966 R0.152
G1 X122.22 Y47.051
X121.872 Y46.932
X121.665 Y46.642
X121.667 Y46.285
X121.788 Y46.119
X121.874 Y46.
X122.22 Y45.884
X122.566 Y46.
X122.773 Y46.285
X122.775 Y46.642
X122.568 Y46.932
X122.469 Y46.966
X122.43 Y46.971 Z-0.226
X122.393 Y46.961 Z-0.227
X122.362 Y46.936 Z-0.228
X122.343 Y46.902 Z-0.229
X122.217 Y46.496 Z-0.241
X122.213 Y46.459 Z-0.242
X122.223 Y46.423 Z-0.243
X122.246 Y46.393 Z-0.244
X122.279 Y46.374 Z-0.245
X122.316 Y46.368 Z-0.246
X122.352 Y46.377 Z-0.247
X122.383 Y46.399 Z-0.248
X122.404 Y46.43 Z-0.249
X122.411 Y46.467 Z-0.25
G3 X122.22 Y46.658 R0.191
X122.029 Y46.467 R0.191
X122.22 Y46.276 R0.191
X122.411 Y46.467 R0.191
G2 X122.52 Y46.707 R0.318
G3 X122.535 Y46.922 R0.152
X122.469 Y46.966 R0.152
G1 X122.22 Y47.051
X121.872 Y46.932
X121.665 Y46.642
X121.667 Y46.285
X121.788 Y46.119
X121.874 Y46.
X122.22 Y45.884
X122.566 Y46.
X122.773 Y46.285
X122.775 Y46.642
X122.568 Y46.932
X122.469 Y46.966
X122.43 Y46.971 Z-0.251
X122.393 Y46.961 Z-0.252
X122.362 Y46.936 Z-0.253
X122.343 Y46.902 Z-0.254
X122.217 Y46.496 Z-0.266
X122.213 Y46.459 Z-0.267
X122.223 Y46.423 Z-0.268
X122.246 Y46.393 Z-0.269
X122.279 Y46.374 Z-0.27
X122.316 Y46.368 Z-0.271
X122.352 Y46.377 Z-0.272
X122.383 Y46.399 Z-0.273
X122.404 Y46.43 Z-0.274
X122.411 Y46.467 Z-0.275
G3 X122.22 Y46.658 R0.191
X122.029 Y46.467 R0.191
X122.22 Y46.276 R0.191
X122.411 Y46.467 R0.191
G2 X122.52 Y46.707 R0.318
G3 X122.535 Y46.922 R0.152
X122.469 Y46.966 R0.152
G1 X122.22 Y47.051
X121.872 Y46.932
X121.665 Y46.642
X121.667 Y46.285
X121.788 Y46.119
X121.874 Y46.
X122.22 Y45.884
X122.566 Y46.
X122.773 Y46.285
X122.775 Y46.642
X122.568 Y46.932
X122.469 Y46.966
X122.453 Y46.968
X122.437 Y46.963
X122.424 Y46.951
X122.193 Y46.621
X122.194 Y46.608
X122.203 Y46.598
X122.235 Y46.582
X122.25 Y46.581
X122.261 Y46.589
X122.263 Y46.603
X122.256 Y46.615
X122.221 Y46.633 Z-0.276
X122.181 Y46.635 Z-0.278
X122.144 Y46.622 Z-0.279
X122.115 Y46.595 Z-0.281
X122.099 Y46.559 Z-0.282
X122.098 Y46.52 Z-0.283
X122.112 Y46.483 Z-0.285
X122.14 Y46.455 Z-0.286
X122.177 Y46.44 Z-0.288
X122.216 Z-0.289
X122.252 Y46.456 Z-0.29
X122.279 Y46.485 Z-0.292
X122.293 Y46.522 Z-0.293
X122.291 Y46.561 Z-0.294
X122.274 Y46.597 Z-0.296
X122.245 Y46.623 Z-0.297
X122.207 Y46.635 Z-0.299
X122.168 Y46.632 Z-0.3
X122.143 Y46.625
X122.103 Y46.607
X122.07 Y46.578
X122.047 Y46.54
X122.036 Y46.498
X122.037 Y46.454
X122.051 Y46.412
X122.081 Y46.355
X122.104 Y46.323
X122.134 Y46.297
X122.17 Y46.281
X122.197 Y46.274
X122.225 Y46.273
X122.235 Y46.274
X122.28 Y46.283
X122.285 Y46.285
X122.323 Y46.305
X122.353 Y46.335
X122.373 Y46.372
X122.383 Y46.414
X122.388 Y46.485
X122.384 Y46.533
X122.365 Y46.577
X122.333 Y46.613
X122.292 Y46.637
X122.245 Y46.647
X122.197 Y46.641
X122.168 Y46.632
X122.118 Y46.624
X122.067 Y46.627
X122.019 Y46.641
X121.975 Y46.665
X121.937 Y46.699
X121.905 Y46.726
X121.866 Y46.742
X121.824 Y46.745
X121.783 Y46.735
X121.747 Y46.713
X121.72 Y46.68
X121.704 Y46.642
X121.678 Y46.531
X121.683 Y46.375
X121.788 Y46.173
X121.842 Y46.073
X121.982 Y45.978
X122.155 Y45.925
X122.328 Y45.934
X122.498 Y45.996
X122.636 Y46.116
X122.714 Y46.241
X122.744 Y46.62
X122.67 Y46.775
X122.556 Y46.9
X122.393 Y46.985
X122.242 Y47.012
X121.917 Y46.918
X121.804 Y46.821
X121.71 Y46.665
X121.704 Y46.642
X121.705 Y46.626
X121.715 Y46.613
X121.731 Y46.608
X121.863 Y46.611
X122.238 Y46.556
X122.27 Y46.569
X122.234 Y46.586 Z-0.301
X122.195 Y46.588 Z-0.303
X122.158 Y46.574 Z-0.304
X122.129 Y46.547 Z-0.306
X122.113 Y46.511 Z-0.307
Y46.471 Z-0.308
X122.128 Y46.435 Z-0.31
X122.156 Y46.407 Z-0.311
X122.192 Y46.393 Z-0.313
X122.232 Z-0.314
X122.268 Y46.41 Z-0.315
X122.295 Y46.439 Z-0.317
X122.308 Y46.476 Z-0.318
X122.306 Y46.515 Z-0.319
X122.288 Y46.551 Z-0.321
X122.258 Y46.577 Z-0.322
X122.221 Y46.589 Z-0.324
X122.181 Y46.585 Z-0.325
X122.171 Y46.582
X122.136 Y46.564
X122.109 Y46.535
X122.094 Y46.499
X122.092 Y46.459
X122.105 Y46.422
X122.124 Y46.385
X122.15 Y46.353
X122.187 Y46.332
X122.229 Y46.327
X122.268 Y46.336
X122.302 Y46.358
X122.325 Y46.392
X122.335 Y46.431
X122.338 Y46.474
X122.334 Y46.51
X122.32 Y46.543
X122.295 Y46.569
X122.264 Y46.587
X122.229 Y46.593
X122.193 Y46.589
X122.181 Y46.585
X122.123 Y46.575
X122.064 Y46.581
X122.008 Y46.602
X121.96 Y46.636
X121.922 Y46.661
X121.877 Y46.671
X121.832 Y46.666
X121.791 Y46.645
X121.76 Y46.612
X121.742 Y46.57
X121.728 Y46.509
X121.735 Y46.383
X121.788 Y46.284
X121.88 Y46.112
X122.018 Y46.019
X122.155 Y45.978
X122.327 Y45.987
X122.479 Y46.049
X122.6 Y46.155
X122.67 Y46.278
X122.691 Y46.606
X122.62 Y46.754
X122.515 Y46.863
X122.366 Y46.938
X122.223 Y46.958
X121.943 Y46.873
X121.832 Y46.773
X121.758 Y46.637
X121.742 Y46.57
X121.741 Y46.531
X121.755 Y46.495
X121.781 Y46.466
X121.817 Y46.45
X122.145 Y46.372
X122.173 Y46.369
X122.201 Y46.375
X122.227 Y46.388
X122.253 Y46.417 Z-0.326
X122.267 Y46.454 Z-0.328
X122.264 Y46.494 Z-0.329
X122.247 Y46.529 Z-0.331
X122.217 Y46.555 Z-0.332
X122.179 Y46.567 Z-0.333
X122.14 Y46.563 Z-0.335
X122.105 Y46.544 Z-0.336
X122.08 Y46.513 Z-0.337
X122.07 Y46.475 Z-0.339
X122.075 Y46.436 Z-0.34
X122.095 Y46.402 Z-0.342
X122.127 Y46.379 Z-0.343
X122.165 Y46.369 Z-0.344
X122.204 Y46.376 Z-0.346
X122.237 Y46.397 Z-0.347
X122.26 Y46.43 Z-0.349
X122.268 Y46.468 Z-0.35
G3 X122.216 Y46.52 R0.051
X122.165 Y46.468 R0.051
X122.216 Y46.417 R0.051
X122.268 Y46.468 R0.051
G1 X122.275 Y46.525
X122.295 Y46.578
X122.328 Y46.625
X122.372 Y46.662
X122.404 Y46.693
X122.423 Y46.732
X122.428 Y46.776
X122.418 Y46.819
X122.394 Y46.856
X122.358 Y46.882
X122.35 Y46.886
X122.22 Y46.902
X121.961 Y46.82
X121.871 Y46.732
X121.809 Y46.62
X121.782 Y46.5
X121.788 Y46.395
X121.916 Y46.154
X122.025 Y46.073
X122.178 Y46.032
X122.316 Y46.04
X122.439 Y46.086
X122.561 Y46.194
X122.618 Y46.285
X122.638 Y46.598
X122.587 Y46.709
X122.479 Y46.821
X122.358 Y46.882
X122.347 Y46.884
X122.336 Y46.878
X122.331 Y46.867
X122.322 Y46.777
X122.256 Y46.464
X122.249 Y46.401
X122.252 Y46.39
X122.262 Y46.385
X122.272 Y46.388
X122.299 Y46.417 Z-0.351
X122.312 Y46.454 Z-0.353
X122.309 Y46.493 Z-0.354
X122.292 Y46.529 Z-0.356
X122.262 Y46.554 Z-0.357
X122.224 Y46.566 Z-0.358
X122.185 Y46.563 Z-0.36
X122.15 Y46.544 Z-0.361
X122.126 Y46.513 Z-0.362
X122.115 Y46.475 Z-0.364
X122.12 Y46.436 Z-0.365
X122.14 Y46.402 Z-0.367
X122.172 Y46.378 Z-0.368
X122.21 Y46.369 Z-0.369
X122.249 Y46.375 Z-0.371
X122.283 Y46.397 Z-0.372
X122.305 Y46.429 Z-0.374
X122.313 Y46.468 Z-0.375
G3 X122.218 Y46.563 R0.095
X122.122 Y46.468 R0.095
X122.218 Y46.373 R0.095
X122.313 Y46.468 R0.095
G1 X122.319 Y46.514
X122.339 Y46.557
X122.369 Y46.592
X122.408 Y46.618
X122.438 Y46.639
X122.458 Y46.67
X122.465 Y46.706
X122.458 Y46.742
X122.439 Y46.774
X122.409 Y46.796
X122.327 Y46.835
X122.22 Y46.848
X121.988 Y46.773
X121.939 Y46.728
X121.891 Y46.661
X121.859 Y46.597
X121.837 Y46.486
X121.846 Y46.397
X121.961 Y46.186
X122.047 Y46.124
X122.177 Y46.086
X122.306 Y46.094
X122.415 Y46.135
X122.513 Y46.219
X122.568 Y46.308
X122.586 Y46.575
X122.54 Y46.683
X122.452 Y46.775
X122.409 Y46.796
X122.376 Y46.805
X122.341 Y46.803
X122.31 Y46.788
X122.285 Y46.764
X122.114 Y46.528
X122.099 Y46.497
X122.096 Y46.462
X122.105 Y46.428
X122.125 Y46.399
X122.153 Y46.379
X122.187 Y46.37
X122.222 Y46.374
X122.254 Y46.389
X122.281 Y46.418 Z-0.376
X122.294 Y46.455 Z-0.378
X122.292 Y46.495 Z-0.379
X122.274 Y46.53 Z-0.381
X122.244 Y46.556 Z-0.382
X122.206 Y46.568 Z-0.383
X122.167 Y46.564 Z-0.385
X122.132 Y46.545 Z-0.386
X122.108 Y46.514 Z-0.388
X122.097 Y46.476 Z-0.389
X122.102 Y46.437 Z-0.39
X122.122 Y46.403 Z-0.392
X122.154 Y46.379 Z-0.393
X122.192 Y46.37 Z-0.394
X122.231 Y46.377 Z-0.396
X122.265 Y46.398 Z-0.397
X122.287 Y46.43 Z-0.399
X122.295 Y46.469 Z-0.4
G3 X122.217 Y46.547 R0.077
X122.14 Y46.469 R0.077
X122.217 Y46.392 R0.077
X122.295 Y46.469 R0.077
G1 X122.3 Y46.509
X122.317 Y46.545
X122.342 Y46.576
X122.375 Y46.598
X122.4 Y46.617
X122.416 Y46.644
X122.422 Y46.674
X122.416 Y46.705
X122.399 Y46.731
X122.373 Y46.75
X122.306 Y46.781
X122.22 Y46.79
X122.03 Y46.733
X121.961 Y46.666
X121.913 Y46.575
X121.895 Y46.486
X121.898 Y46.419
X121.961 Y46.298
X121.992 Y46.238
X122.088 Y46.17
X122.177 Y46.143
X122.285 Y46.147
X122.396 Y46.194
X122.471 Y46.259
X122.516 Y46.335
X122.53 Y46.553
X122.496 Y46.642
X122.411 Y46.732
X122.373 Y46.75
X122.342 Y46.759
X122.309 Y46.757
X122.278 Y46.744
X122.254 Y46.723
X122.097 Y46.532
X122.079 Y46.501
X122.074 Y46.465
X122.081 Y46.43
X122.101 Y46.4
X122.13 Y46.378
X122.164 Y46.369
X122.2 Y46.372
X122.232 Y46.387
X122.259 Y46.416 Z-0.401
X122.272 Y46.454 Z-0.403
X122.27 Y46.493 Z-0.404
X122.252 Y46.528 Z-0.406
X122.222 Y46.554 Z-0.407
X122.185 Y46.566 Z-0.408
X122.145 Y46.562 Z-0.41
X122.111 Y46.543 Z-0.411
X122.086 Y46.513 Z-0.413
X122.075 Y46.474 Z-0.414
X122.081 Y46.435 Z-0.415
X122.101 Y46.401 Z-0.417
X122.132 Y46.378 Z-0.418
X122.171 Y46.369 Z-0.419
X122.21 Y46.375 Z-0.421
X122.243 Y46.396 Z-0.422
X122.265 Y46.429 Z-0.424
X122.273 Y46.468 Z-0.425
G3 X122.217 Y46.524 R0.057
X122.16 Y46.468 R0.057
X122.217 Y46.411 R0.057
X122.273 Y46.468 R0.057
G1 X122.278 Y46.5
X122.291 Y46.529
X122.313 Y46.554
X122.34 Y46.572
X122.365 Y46.591
X122.378 Y46.618
Y46.649
X122.364 Y46.677
X122.339 Y46.695
X122.285 Y46.719
X122.22 Y46.725
X122.058 Y46.671
X122.01 Y46.623
X121.974 Y46.557
X121.959 Y46.476
X121.961 Y46.451
X121.964 Y46.424
X122.041 Y46.28
X122.106 Y46.232
X122.203 Y46.208
X122.293 Y46.219
X122.367 Y46.253
X122.427 Y46.31
X122.454 Y46.354
X122.466 Y46.553
X122.428 Y46.625
X122.362 Y46.685
X122.339 Y46.695
X122.32 Y46.701 Z-0.42
X122.301 Y46.702 Z-0.414
X122.273 Y46.694 Z-0.385
X122.264 Y46.689 Z-0.346
G0 Z15.

(SPHEROID POCKET)
G55
G0 X122.213 Y54.751
Z15.
Z1.025
G1 Z0.105 F51.
X122.215 Y54.741 Z0.067 F356.
X122.225 Y54.715 Z0.038
X122.25 Y54.686 Z0.026
X122.285 Y54.668 Z0.025
X122.324 Y54.664 Z0.023
X122.361 Y54.677 Z0.022
X122.391 Y54.703 Z0.021
X122.408 Y54.739 Z0.019
X122.41 Y54.778 Z0.018
X122.396 Y54.815 Z0.017
X122.369 Y54.844 Z0.015
X122.333 Y54.86 Z0.014
X122.294 Z0.012
X122.257 Y54.845 Z0.011
X122.229 Y54.818 Z0.01
X122.214 Y54.781 Z0.008
X122.215 Y54.742 Z0.007
X122.231 Y54.706 Z0.005
X122.26 Y54.679 Z0.004
X122.297 Y54.665 Z0.003
X122.336 Y54.667 Z0.001
X122.371 Y54.684 Z0.
X122.398 Y54.713 Z-0.001
X122.41 Y54.751 Z-0.003
X122.407 Y54.79 Z-0.004
X122.389 Y54.825 Z-0.006
X122.359 Y54.85 Z-0.007
X122.321 Y54.861 Z-0.008
X122.282 Y54.857 Z-0.01
X122.247 Y54.838 Z-0.011
X122.223 Y54.807 Z-0.013
X122.213 Y54.769 Z-0.014
X122.218 Y54.73 Z-0.015
X122.239 Y54.696 Z-0.017
X122.27 Y54.673 Z-0.018
X122.309 Y54.664 Z-0.019
X122.348 Y54.67 Z-0.021
X122.381 Y54.692 Z-0.022
X122.403 Y54.724 Z-0.024
X122.411 Y54.763 Z-0.025
G3 X122.22 Y54.954 R0.191
X122.029 Y54.763 R0.191
X122.22 Y54.572 R0.191
X122.411 Y54.763 R0.191
G2 X122.521 Y55.003 R0.317
G3 X122.537 Y55.217 R0.152
X122.47 Y55.262 R0.152
G1 X122.22 Y55.346
X121.874 Y55.23
X121.667 Y54.944
X121.665 Y54.588
X121.788 Y54.413
X121.872 Y54.298
X122.22 Y54.179
X122.568 Y54.298
X122.775 Y54.588
X122.773 Y54.944
X122.566 Y55.23
X122.47 Y55.262
X122.431 Y55.267 Z-0.026
X122.394 Y55.256 Z-0.027
X122.363 Y55.232 Z-0.028
X122.344 Y55.198 Z-0.029
X122.217 Y54.792 Z-0.041
X122.213 Y54.755 Z-0.042
X122.223 Y54.719 Z-0.043
X122.246 Y54.689 Z-0.044
X122.278 Y54.669 Z-0.045
X122.316 Y54.664 Z-0.046
X122.352 Y54.672 Z-0.047
X122.383 Y54.694 Z-0.048
X122.404 Y54.726 Z-0.049
X122.411 Y54.763 Z-0.05
G3 X122.22 Y54.954 R0.191
X122.029 Y54.763 R0.191
X122.22 Y54.572 R0.191
X122.411 Y54.763 R0.191
G2 X122.521 Y55.003 R0.317
G3 X122.537 Y55.217 R0.152
X122.47 Y55.262 R0.152
G1 X122.22 Y55.346
X121.874 Y55.23
X121.667 Y54.944
X121.665 Y54.588
X121.788 Y54.413
X121.872 Y54.298
X122.22 Y54.179
X122.568 Y54.298
X122.775 Y54.588
X122.773 Y54.944
X122.566 Y55.23
X122.47 Y55.262
X122.431 Y55.267 Z-0.051
X122.394 Y55.256 Z-0.052
X122.363 Y55.232 Z-0.053
X122.344 Y55.198 Z-0.054
X122.217 Y54.792 Z-0.066
X122.213 Y54.755 Z-0.067
X122.223 Y54.719 Z-0.068
X122.246 Y54.689 Z-0.069
X122.278 Y54.669 Z-0.07
X122.316 Y54.664 Z-0.071
X122.352 Y54.672 Z-0.072
X122.383 Y54.694 Z-0.073
X122.404 Y54.726 Z-0.074
X122.411 Y54.763 Z-0.075
G3 X122.22 Y54.954 R0.191
X122.029 Y54.763 R0.191
X122.22 Y54.572 R0.191
X122.411 Y54.763 R0.191
G2 X122.521 Y55.003 R0.317
G3 X122.537 Y55.217 R0.152
X122.47 Y55.262 R0.152
G1 X122.22 Y55.346
X121.874 Y55.23
X121.667 Y54.944
X121.665 Y54.588
X121.788 Y54.413
X121.872 Y54.298
X122.22 Y54.179
X122.568 Y54.298
X122.775 Y54.588
X122.773 Y54.944
X122.566 Y55.23
X122.47 Y55.262
X122.431 Y55.267 Z-0.076
X122.394 Y55.256 Z-0.077
X122.363 Y55.232 Z-0.078
X122.344 Y55.198 Z-0.079
X122.217 Y54.792 Z-0.091
X122.213 Y54.755 Z-0.092
X122.223 Y54.719 Z-0.093
X122.246 Y54.689 Z-0.094
X122.278 Y54.669 Z-0.095
X122.316 Y54.664 Z-0.096
X122.352 Y54.672 Z-0.097
X122.383 Y54.694 Z-0.098
X122.404 Y54.726 Z-0.099
X122.411 Y54.763 Z-0.1
G3 X122.22 Y54.954 R0.191
X122.029 Y54.763 R0.191
X122.22 Y54.572 R0.191
X122.411 Y54.763 R0.191
G2 X122.521 Y55.003 R0.317
G3 X122.537 Y55.217 R0.152
X122.47 Y55.262 R0.152
G1 X122.22 Y55.346
X121.874 Y55.23
X121.667 Y54.944
X121.665 Y54.588
X121.788 Y54.413
X121.872 Y54.298
X122.22 Y54.179
X122.568 Y54.298
X122.775 Y54.588
X122.773 Y54.944
X122.566 Y55.23
X122.47 Y55.262
X122.431 Y55.267 Z-0.101
X122.394 Y55.256 Z-0.102
X122.363 Y55.232 Z-0.103
X122.344 Y55.198 Z-0.104
X122.217 Y54.792 Z-0.116
X122.213 Y54.755 Z-0.117
X122.223 Y54.719 Z-0.118
X122.246 Y54.689 Z-0.119
X122.278 Y54.669 Z-0.12
X122.316 Y54.664 Z-0.121
X122.352 Y54.672 Z-0.122
X122.383 Y54.694 Z-0.123
X122.404 Y54.726 Z-0.124
X122.411 Y54.763 Z-0.125
G3 X122.22 Y54.954 R0.191
X122.029 Y54.763 R0.191
X122.22 Y54.572 R0.191
X122.411 Y54.763 R0.191
G2 X122.521 Y55.003 R0.317
G3 X122.537 Y55.217 R0.152
X122.47 Y55.262 R0.152
G1 X122.22 Y55.346
X121.874 Y55.23
X121.667 Y54.944
X121.665 Y54.588
X121.788 Y54.413
X121.872 Y54.298
X122.22 Y54.179
X122.568 Y54.298
X122.775 Y54.588
X122.773 Y54.944
X122.566 Y55.23
X122.47 Y55.262
X122.431 Y55.267 Z-0.126
X122.394 Y55.256 Z-0.127
X122.363 Y55.232 Z-0.128
X122.344 Y55.198 Z-0.129
X122.217 Y54.792 Z-0.141
X122.213 Y54.755 Z-0.142
X122.223 Y54.719 Z-0.143
X122.246 Y54.689 Z-0.144
X122.278 Y54.669 Z-0.145
X122.316 Y54.664 Z-0.146
X122.352 Y54.672 Z-0.147
X122.383 Y54.694 Z-0.148
X122.404 Y54.726 Z-0.149
X122.411 Y54.763 Z-0.15
G3 X122.22 Y54.954 R0.191
X122.029 Y54.763 R0.191
X122.22 Y54.572 R0.191
X122.411 Y54.763 R0.191
G2 X122.521 Y55.003 R0.317
G3 X122.537 Y55.217 R0.152
X122.47 Y55.262 R0.152
G1 X122.22 Y55.346
X121.874 Y55.23
X121.667 Y54.944
X121.665 Y54.588
X121.788 Y54.413
X121.872 Y54.298
X122.22 Y54.179
X122.568 Y54.298
X122.775 Y54.588
X122.773 Y54.944
X122.566 Y55.23
X122.47 Y55.262
X122.431 Y55.267 Z-0.151
X122.394 Y55.256 Z-0.152
X122.363 Y55.232 Z-0.153
X122.344 Y55.198 Z-0.154
X122.217 Y54.792 Z-0.166
X122.213 Y54.755 Z-0.167
X122.223 Y54.719 Z-0.168
X122.246 Y54.689 Z-0.169
X122.278 Y54.669 Z-0.17
X122.316 Y54.664 Z-0.171
X122.352 Y54.672 Z-0.172
X122.383 Y54.694 Z-0.173
X122.404 Y54.726 Z-0.174
X122.411 Y54.763 Z-0.175
G3 X122.22 Y54.954 R0.191
X122.029 Y54.763 R0.191
X122.22 Y54.572 R0.191
X122.411 Y54.763 R0.191
G2 X122.521 Y55.003 R0.317
G3 X122.537 Y55.217 R0.152
X122.47 Y55.262 R0.152
G1 X122.22 Y55.346
X121.874 Y55.23
X121.667 Y54.944
X121.665 Y54.588
X121.788 Y54.413
X121.872 Y54.298
X122.22 Y54.179
X122.568 Y54.298
X122.775 Y54.588
X122.773 Y54.944
X122.566 Y55.23
X122.47 Y55.262
X122.431 Y55.267 Z-0.176
X122.394 Y55.256 Z-0.177
X122.363 Y55.232 Z-0.178
X122.344 Y55.198 Z-0.179
X122.217 Y54.792 Z-0.191
X122.213 Y54.755 Z-0.192
X122.223 Y54.719 Z-0.193
X122.246 Y54.689 Z-0.194
X122.278 Y54.669 Z-0.195
X122.316 Y54.664 Z-0.196
X122.352 Y54.672 Z-0.197
X122.383 Y54.694 Z-0.198
X122.404 Y54.726 Z-0.199
X122.411 Y54.763 Z-0.2
G3 X122.22 Y54.954 R0.191
X122.029 Y54.763 R0.191
X122.22 Y54.572 R0.191
X122.411 Y54.763 R0.191
G2 X122.521 Y55.003 R0.317
G3 X122.537 Y55.217 R0.152
X122.47 Y55.262 R0.152
G1 X122.22 Y55.346
X121.874 Y55.23
X121.667 Y54.944
X121.665 Y54.588
X121.788 Y54.413
X121.872 Y54.298
X122.22 Y54.179
X122.568 Y54.298
X122.775 Y54.588
X122.773 Y54.944
X122.566 Y55.23
X122.47 Y55.262
X122.431 Y55.267 Z-0.201
X122.394 Y55.256 Z-0.202
X122.363 Y55.232 Z-0.203
X122.344 Y55.198 Z-0.204
X122.217 Y54.792 Z-0.216
X122.213 Y54.755 Z-0.217
X122.223 Y54.719 Z-0.218
X122.246 Y54.689 Z-0.219
X122.278 Y54.669 Z-0.22
X122.316 Y54.664 Z-0.221
X122.352 Y54.672 Z-0.222
X122.383 Y54.694 Z-0.223
X122.404 Y54.726 Z-0.224
X122.411 Y54.763 Z-0.225
G3 X122.22 Y54.954 R0.191
X122.029 Y54.763 R0.191
X122.22 Y54.572 R0.191
X122.411 Y54.763 R0.191
G2 X122.521 Y55.003 R0.317
G3 X122.537 Y55.217 R0.152
X122.47 Y55.262 R0.152
G1 X122.22 Y55.346
X121.874 Y55.23
X121.667 Y54.944
X121.665 Y54.588
X121.788 Y54.413
X121.872 Y54.298
X122.22 Y54.179
X122.568 Y54.298
X122.775 Y54.588
X122.773 Y54.944
X122.566 Y55.23
X122.47 Y55.262
X122.431 Y55.267 Z-0.226
X122.394 Y55.256 Z-0.227
X122.363 Y55.232 Z-0.228
X122.344 Y55.198 Z-0.229
X122.217 Y54.792 Z-0.241
X122.213 Y54.755 Z-0.242
X122.223 Y54.719 Z-0.243
X122.246 Y54.689 Z-0.244
X122.278 Y54.669 Z-0.245
X122.316 Y54.664 Z-0.246
X122.352 Y54.672 Z-0.247
X122.383 Y54.694 Z-0.248
X122.404 Y54.726 Z-0.249
X122.411 Y54.763 Z-0.25
G3 X122.22 Y54.954 R0.191
X122.029 Y54.763 R0.191
X122.22 Y54.572 R0.191
X122.411 Y54.763 R0.191
G2 X122.521 Y55.003 R0.317
G3 X122.537 Y55.217 R0.152
X122.47 Y55.262 R0.152
G1 X122.22 Y55.346
X121.874 Y55.23
X121.667 Y54.944
X121.665 Y54.588
X121.788 Y54.413
X121.872 Y54.298
X122.22 Y54.179
X122.568 Y54.298
X122.775 Y54.588
X122.773 Y54.944
X122.566 Y55.23
X122.47 Y55.262
X122.431 Y55.267 Z-0.251
X122.394 Y55.256 Z-0.252
X122.363 Y55.232 Z-0.253
X122.344 Y55.198 Z-0.254
X122.217 Y54.792 Z-0.266
X122.213 Y54.755 Z-0.267
X122.223 Y54.719 Z-0.268
X122.246 Y54.689 Z-0.269
X122.278 Y54.669 Z-0.27
X122.316 Y54.664 Z-0.271
X122.352 Y54.672 Z-0.272
X122.383 Y54.694 Z-0.273
X122.404 Y54.726 Z-0.274
X122.411 Y54.763 Z-0.275
G3 X122.22 Y54.954 R0.191
X122.029 Y54.763 R0.191
X122.22 Y54.572 R0.191
X122.411 Y54.763 R0.191
G2 X122.521 Y55.003 R0.317
G3 X122.537 Y55.217 R0.152
X122.47 Y55.262 R0.152
G1 X122.22 Y55.346
X121.874 Y55.23
X121.667 Y54.944
X121.665 Y54.588
X121.788 Y54.413
X121.872 Y54.298
X122.22 Y54.179
X122.568 Y54.298
X122.775 Y54.588
X122.773 Y54.944
X122.566 Y55.23
X122.47 Y55.262
X122.448 Y55.263
X122.429 Y55.251
X122.419 Y55.232
X122.348 Y54.851
X122.331 Y54.785
X122.323 Y54.707
X122.327 Y54.694
X122.339 Y54.688
X122.352 Y54.692
X122.376 Y54.723 Z-0.276
X122.387 Y54.761 Z-0.278
X122.381 Y54.8 Z-0.279
X122.361 Y54.834 Z-0.281
X122.329 Y54.858 Z-0.282
X122.29 Y54.866 Z-0.283
X122.251 Y54.86 Z-0.285
X122.218 Y54.838 Z-0.286
X122.196 Y54.805 Z-0.288
X122.189 Y54.767 Z-0.289
X122.197 Y54.728 Z-0.29
X122.22 Y54.696 Z-0.292
X122.253 Y54.675 Z-0.293
X122.292 Y54.668 Z-0.294
X122.33 Y54.678 Z-0.296
X122.362 Y54.702 Z-0.297
X122.382 Y54.736 Z-0.299
X122.386 Y54.775 Z-0.3
X122.383 Y54.815
X122.374 Y54.857
X122.353 Y54.895
X122.322 Y54.925
X122.284 Y54.945
X122.271 Y54.949
X122.223 Y54.957
X122.175 Y54.95
X122.169 Y54.948
X122.134 Y54.932
X122.104 Y54.907
X122.082 Y54.875
X122.053 Y54.819
X122.038 Y54.778
X122.036 Y54.735
X122.047 Y54.692
X122.069 Y54.655
X122.101 Y54.626
X122.14 Y54.606
X122.194 Y54.589
X122.242 Y54.582
X122.29 Y54.591
X122.333 Y54.614
X122.365 Y54.651
X122.385 Y54.695
X122.389 Y54.744
X122.386 Y54.775
X122.388 Y54.825
X122.399 Y54.874
X122.421 Y54.92
X122.452 Y54.959
X122.49 Y54.992
X122.523 Y55.024
X122.546 Y55.064
X122.555 Y55.11
X122.549 Y55.156
X122.53 Y55.198
X122.499 Y55.232
X122.498 Y55.234
X122.306 Y55.301
X122.155 Y55.305
X121.961 Y55.242
X121.842 Y55.157
X121.683 Y54.855
X121.682 Y54.677
X121.72 Y54.543
X121.788 Y54.431
X121.896 Y54.324
X122.22 Y54.22
X122.371 Y54.239
X122.436 Y54.264
X122.556 Y54.33
X122.684 Y54.476
X122.744 Y54.61
X122.714 Y54.989
X122.614 Y55.139
X122.499 Y55.232
X122.486 Y55.21
X122.296 Y54.723
X122.302 Y54.686
X122.327 Y54.718 Z-0.301
X122.337 Y54.756 Z-0.303
X122.331 Y54.795 Z-0.304
X122.311 Y54.829 Z-0.306
X122.279 Y54.852 Z-0.307
X122.241 Y54.861 Z-0.308
X122.202 Y54.854 Z-0.31
X122.169 Y54.833 Z-0.311
X122.147 Y54.8 Z-0.313
X122.139 Y54.761 Z-0.314
X122.147 Y54.723 Z-0.315
X122.17 Y54.69 Z-0.317
X122.203 Y54.669 Z-0.318
X122.242 Y54.663 Z-0.319
X122.281 Y54.672 Z-0.321
X122.312 Y54.696 Z-0.322
X122.332 Y54.73 Z-0.324
X122.337 Y54.77 Z-0.325
X122.334 Y54.804
X122.327 Y54.835
X122.311 Y54.863
X122.289 Y54.885
X122.26 Y54.9
X122.221 Y54.907
X122.182 Y54.9
X122.148 Y54.879
X122.124 Y54.848
X122.101 Y54.807
X122.089 Y54.769
X122.091 Y54.73
X122.106 Y54.694
X122.133 Y54.665
X122.168 Y54.647
X122.194 Y54.639
X122.23 Y54.634
X122.265 Y54.641
X122.296 Y54.659
X122.321 Y54.686
X122.335 Y54.719
X122.338 Y54.755
X122.337 Y54.77
X122.339 Y54.818
X122.352 Y54.865
X122.375 Y54.908
X122.408 Y54.945
X122.448 Y54.973
X122.48 Y54.998
X122.503 Y55.033
X122.513 Y55.073
X122.51 Y55.114
X122.494 Y55.152
X122.466 Y55.183
X122.43 Y55.203
X122.306 Y55.247
X122.155 Y55.252
X121.999 Y55.204
X121.88 Y55.118
X121.735 Y54.847
X121.731 Y54.699
X121.769 Y54.562
X121.788 Y54.532
X121.849 Y54.438
X121.943 Y54.357
X122.223 Y54.272
X122.385 Y54.298
X122.532 Y54.382
X122.639 Y54.505
X122.691 Y54.624
X122.665 Y54.971
X122.582 Y55.096
X122.468 Y55.19
X122.43 Y55.203
X122.397 Y55.209
X122.365 Y55.204
X122.335 Y55.189
X122.313 Y55.164
X122.085 Y54.819
X122.07 Y54.782
X122.071 Y54.743
X122.087 Y54.707
X122.115 Y54.679
X122.152 Y54.665
X122.191 Y54.667
X122.227 Y54.683
X122.254 Y54.712 Z-0.326
X122.267 Y54.749 Z-0.328
X122.265 Y54.789 Z-0.329
X122.247 Y54.824 Z-0.331
X122.217 Y54.85 Z-0.332
X122.18 Y54.862 Z-0.333
X122.14 Y54.858 Z-0.335
X122.105 Y54.839 Z-0.336
X122.081 Y54.808 Z-0.337
X122.07 Y54.77 Z-0.339
X122.075 Y54.731 Z-0.34
X122.095 Y54.697 Z-0.342
X122.127 Y54.673 Z-0.343
X122.166 Y54.664 Z-0.344
X122.205 Y54.671 Z-0.346
X122.238 Y54.692 Z-0.347
X122.26 Y54.724 Z-0.349
X122.268 Y54.763 Z-0.35
G3 X122.217 Y54.815 R0.051
X122.165 Y54.763 R0.051
X122.217 Y54.712 R0.051
X122.268 Y54.763 R0.051
G1 X122.275 Y54.82
X122.297 Y54.873
X122.331 Y54.92
X122.376 Y54.956
X122.406 Y54.981
X122.426 Y55.014
X122.435 Y55.052
X122.431 Y55.091
X122.415 Y55.127
X122.389 Y55.156
X122.355 Y55.175
X122.306 Y55.193
X122.156 Y55.196
X122.025 Y55.157
X121.916 Y55.076
X121.788 Y54.833
X121.783 Y54.713
X121.788 Y54.696
X121.817 Y54.588
X121.887 Y54.476
X121.961 Y54.41
X122.242 Y54.326
X122.371 Y54.351
X122.496 Y54.422
X122.587 Y54.521
X122.638 Y54.632
X122.618 Y54.944
X122.54 Y55.061
X122.439 Y55.144
X122.355 Y55.175
X122.324 Y55.181
X122.292 Y55.178
X122.263 Y55.164
X122.24 Y55.142
X122.225 Y55.113
X122.118 Y54.795
X122.113 Y54.759
X122.121 Y54.724
X122.141 Y54.694
X122.169 Y54.673
X122.204 Y54.663
X122.24 Y54.666
X122.272 Y54.682
X122.299 Y54.711 Z-0.351
X122.312 Y54.748 Z-0.353
X122.309 Y54.788 Z-0.354
X122.292 Y54.823 Z-0.356
X122.262 Y54.849 Z-0.357
X122.224 Y54.861 Z-0.358
X122.185 Y54.857 Z-0.36
X122.15 Y54.838 Z-0.361
X122.126 Y54.807 Z-0.362
X122.115 Y54.769 Z-0.364
X122.12 Y54.73 Z-0.365
X122.14 Y54.696 Z-0.367
X122.172 Y54.672 Z-0.368
X122.21 Y54.663 Z-0.369
X122.249 Y54.67 Z-0.371
X122.283 Y54.691 Z-0.372
X122.305 Y54.723 Z-0.374
X122.313 Y54.762 Z-0.375
G3 X122.218 Y54.857 R0.095
X122.122 Y54.762 R0.095
X122.218 Y54.667 R0.095
X122.313 Y54.762 R0.095
G1 X122.318 Y54.81
X122.332 Y54.856
X122.355 Y54.898
X122.386 Y54.935
X122.409 Y54.965
X122.419 Y55.001
X122.418 Y55.038
X122.404 Y55.072
X122.379 Y55.1
X122.347 Y55.119
X122.285 Y55.141
X122.155 Y55.14
X122.047 Y55.106
X121.961 Y55.044
X121.846 Y54.833
X121.837 Y54.721
X121.866 Y54.611
X121.917 Y54.525
X121.939 Y54.502
X122.009 Y54.446
X122.242 Y54.38
X122.348 Y54.399
X122.452 Y54.455
X122.54 Y54.547
X122.586 Y54.654
X122.568 Y54.922
X122.496 Y55.028
X122.415 Y55.095
X122.347 Y55.119
X122.31 Y55.124
X122.274 Y55.116
X122.243 Y55.096
X122.222 Y55.065
X122.105 Y54.804
X122.096 Y54.768
X122.101 Y54.731
X122.119 Y54.699
X122.148 Y54.675
X122.184 Y54.664
X122.221 Y54.666
X122.254 Y54.682
X122.281 Y54.711 Z-0.376
X122.294 Y54.749 Z-0.378
X122.292 Y54.788 Z-0.379
X122.274 Y54.823 Z-0.381
X122.244 Y54.849 Z-0.382
X122.207 Y54.861 Z-0.383
X122.167 Y54.857 Z-0.385
X122.133 Y54.838 Z-0.386
X122.108 Y54.808 Z-0.388
X122.097 Y54.77 Z-0.389
X122.103 Y54.73 Z-0.39
X122.123 Y54.696 Z-0.392
X122.154 Y54.673 Z-0.393
X122.193 Y54.664 Z-0.394
X122.232 Y54.67 Z-0.396
X122.265 Y54.691 Z-0.397
X122.287 Y54.724 Z-0.399
X122.295 Y54.763 Z-0.4
G3 X122.218 Y54.84 R0.077
X122.141 Y54.763 R0.077
X122.218 Y54.685 R0.077
X122.295 Y54.763 R0.077
G1 X122.3 Y54.802
X122.315 Y54.838
X122.338 Y54.87
X122.369 Y54.895
X122.394 Y54.92
X122.409 Y54.952
X122.41 Y54.987
X122.398 Y55.021
X122.374 Y55.047
X122.366 Y55.053
X122.285 Y55.083
X122.177 Y55.087
X122.073 Y55.055
X121.992 Y54.992
X121.898 Y54.811
X121.896 Y54.721
X121.92 Y54.632
X121.961 Y54.564
X122.03 Y54.497
X122.242 Y54.438
X122.338 Y54.459
X122.425 Y54.508
X122.496 Y54.588
X122.53 Y54.677
X122.516 Y54.895
X122.459 Y54.984
X122.374 Y55.047
X122.361 Y55.051
X122.347 Y55.047
X122.338 Y55.037
X122.296 Y54.931
X122.228 Y54.818
X122.191 Y54.712
Y54.695
X122.201 Y54.681
X122.217 Y54.676
X122.233 Y54.681
X122.26 Y54.71 Z-0.401
X122.273 Y54.747 Z-0.403
X122.271 Y54.787 Z-0.404
X122.253 Y54.822 Z-0.406
X122.223 Y54.848 Z-0.407
X122.185 Y54.86 Z-0.408
X122.146 Y54.856 Z-0.41
X122.111 Y54.837 Z-0.411
X122.087 Y54.806 Z-0.413
X122.076 Y54.768 Z-0.414
X122.081 Y54.729 Z-0.415
X122.101 Y54.695 Z-0.417
X122.133 Y54.672 Z-0.418
X122.171 Y54.662 Z-0.419
X122.21 Y54.669 Z-0.421
X122.244 Y54.69 Z-0.422
X122.266 Y54.723 Z-0.424
X122.274 Y54.761 Z-0.425
G3 X122.218 Y54.818 R0.056
X122.161 Y54.761 R0.056
X122.218 Y54.705 R0.056
X122.274 Y54.761 R0.056
G1 X122.281 Y54.804
X122.302 Y54.841
X122.335 Y54.869
X122.356 Y54.888
X122.368 Y54.915
X122.37 Y54.944
X122.36 Y54.971
X122.34 Y54.992
X122.337 Y54.995
X122.257 Y55.02
X122.185 Y55.022
X122.093 Y54.99
X122.041 Y54.95
X121.961 Y54.792
Y54.728
X121.982 Y54.654
X122.031 Y54.583
X122.077 Y54.548
X122.242 Y54.503
X122.306 Y54.515
X122.381 Y54.555
X122.444 Y54.63
X122.466 Y54.677
X122.454 Y54.876
X122.417 Y54.936
X122.34 Y54.992
X122.337 Y54.995
X122.309 Y55.004 Z-0.418
X122.286 Y55.011 Z-0.4
X122.271 Y55.016 Z-0.375
X122.266 Y55.018 Z-0.346
G0 Z5.
X122.213 Y65.955
Z0.105
G1 X122.215 Y65.945 Z0.067 F356.
X122.225 Y65.919 Z0.038
X122.25 Y65.89 Z0.026
X122.285 Y65.872 Z0.025
X122.324 Y65.869 Z0.023
X122.361 Y65.881 Z0.022
X122.391 Y65.907 Z0.021
X122.408 Y65.943 Z0.019
X122.41 Y65.982 Z0.018
X122.396 Y66.019 Z0.017
X122.369 Y66.048 Z0.015
X122.333 Y66.064 Z0.014
X122.294 Y66.065 Z0.012
X122.257 Y66.05 Z0.011
X122.229 Y66.022 Z0.01
X122.214 Y65.985 Z0.008
X122.215 Y65.946 Z0.007
X122.231 Y65.91 Z0.005
X122.26 Y65.883 Z0.004
X122.297 Y65.869 Z0.003
X122.336 Y65.871 Z0.001
X122.371 Y65.888 Z0.
X122.398 Y65.918 Z-0.001
X122.41 Y65.955 Z-0.003
X122.407 Y65.994 Z-0.004
X122.389 Y66.029 Z-0.006
X122.359 Y66.054 Z-0.007
X122.321 Y66.066 Z-0.008
X122.282 Y66.062 Z-0.01
X122.247 Y66.042 Z-0.011
X122.223 Y66.011 Z-0.013
X122.213 Y65.973 Z-0.014
X122.218 Y65.934 Z-0.015
X122.239 Y65.9 Z-0.017
X122.27 Y65.877 Z-0.018
X122.309 Y65.868 Z-0.019
X122.348 Y65.875 Z-0.021
X122.381 Y65.896 Z-0.022
X122.403 Y65.929 Z-0.024
X122.411 Y65.967 Z-0.025
G3 X122.22 Y66.158 R0.191
X122.029 Y65.967 R0.191
X122.22 Y65.776 R0.191
X122.411 Y65.967 R0.191
G2 X122.52 Y66.207 R0.318
G3 X122.535 Y66.422 R0.152
X122.469 Y66.466 R0.152
G1 X122.22 Y66.551
X121.872 Y66.432
X121.665 Y66.142
X121.667 Y65.785
X121.788 Y65.619
X121.874 Y65.5
X122.22 Y65.384
X122.566 Y65.5
X122.773 Y65.785
X122.775 Y66.142
X122.568 Y66.432
X122.469 Y66.466
X122.43 Y66.471 Z-0.026
X122.393 Y66.461 Z-0.027
X122.362 Y66.436 Z-0.028
X122.343 Y66.402 Z-0.029
X122.217 Y65.996 Z-0.041
X122.213 Y65.959 Z-0.042
X122.223 Y65.923 Z-0.043
X122.246 Y65.893 Z-0.044
X122.279 Y65.874 Z-0.045
X122.316 Y65.868 Z-0.046
X122.352 Y65.877 Z-0.047
X122.383 Y65.899 Z-0.048
X122.404 Y65.93 Z-0.049
X122.411 Y65.967 Z-0.05
G3 X122.22 Y66.158 R0.191
X122.029 Y65.967 R0.191
X122.22 Y65.776 R0.191
X122.411 Y65.967 R0.191
G2 X122.52 Y66.207 R0.318
G3 X122.535 Y66.422 R0.152
X122.469 Y66.466 R0.152
G1 X122.22 Y66.551
X121.872 Y66.432
X121.665 Y66.142
X121.667 Y65.785
X121.788 Y65.619
X121.874 Y65.5
X122.22 Y65.384
X122.566 Y65.5
X122.773 Y65.785
X122.775 Y66.142
X122.568 Y66.432
X122.469 Y66.466
X122.43 Y66.471 Z-0.051
X122.393 Y66.461 Z-0.052
X122.362 Y66.436 Z-0.053
X122.343 Y66.402 Z-0.054
X122.217 Y65.996 Z-0.066
X122.213 Y65.959 Z-0.067
X122.223 Y65.923 Z-0.068
X122.246 Y65.893 Z-0.069
X122.279 Y65.874 Z-0.07
X122.316 Y65.868 Z-0.071
X122.352 Y65.877 Z-0.072
X122.383 Y65.899 Z-0.073
X122.404 Y65.93 Z-0.074
X122.411 Y65.967 Z-0.075
G3 X122.22 Y66.158 R0.191
X122.029 Y65.967 R0.191
X122.22 Y65.776 R0.191
X122.411 Y65.967 R0.191
G2 X122.52 Y66.207 R0.318
G3 X122.535 Y66.422 R0.152
X122.469 Y66.466 R0.152
G1 X122.22 Y66.551
X121.872 Y66.432
X121.665 Y66.142
X121.667 Y65.785
X121.788 Y65.619
X121.874 Y65.5
X122.22 Y65.384
X122.566 Y65.5
X122.773 Y65.785
X122.775 Y66.142
X122.568 Y66.432
X122.469 Y66.466
X122.43 Y66.471 Z-0.076
X122.393 Y66.461 Z-0.077
X122.362 Y66.436 Z-0.078
X122.343 Y66.402 Z-0.079
X122.217 Y65.996 Z-0.091
X122.213 Y65.959 Z-0.092
X122.223 Y65.923 Z-0.093
X122.246 Y65.893 Z-0.094
X122.279 Y65.874 Z-0.095
X122.316 Y65.868 Z-0.096
X122.352 Y65.877 Z-0.097
X122.383 Y65.899 Z-0.098
X122.404 Y65.93 Z-0.099
X122.411 Y65.967 Z-0.1
G3 X122.22 Y66.158 R0.191
X122.029 Y65.967 R0.191
X122.22 Y65.776 R0.191
X122.411 Y65.967 R0.191
G2 X122.52 Y66.207 R0.318
G3 X122.535 Y66.422 R0.152
X122.469 Y66.466 R0.152
G1 X122.22 Y66.551
X121.872 Y66.432
X121.665 Y66.142
X121.667 Y65.785
X121.788 Y65.619
X121.874 Y65.5
X122.22 Y65.384
X122.566 Y65.5
X122.773 Y65.785
X122.775 Y66.142
X122.568 Y66.432
X122.469 Y66.466
X122.43 Y66.471 Z-0.101
X122.393 Y66.461 Z-0.102
X122.362 Y66.436 Z-0.103
X122.343 Y66.402 Z-0.104
X122.217 Y65.996 Z-0.116
X122.213 Y65.959 Z-0.117
X122.223 Y65.923 Z-0.118
X122.246 Y65.893 Z-0.119
X122.279 Y65.874 Z-0.12
X122.316 Y65.868 Z-0.121
X122.352 Y65.877 Z-0.122
X122.383 Y65.899 Z-0.123
X122.404 Y65.93 Z-0.124
X122.411 Y65.967 Z-0.125
G3 X122.22 Y66.158 R0.191
X122.029 Y65.967 R0.191
X122.22 Y65.776 R0.191
X122.411 Y65.967 R0.191
G2 X122.52 Y66.207 R0.318
G3 X122.535 Y66.422 R0.152
X122.469 Y66.466 R0.152
G1 X122.22 Y66.551
X121.872 Y66.432
X121.665 Y66.142
X121.667 Y65.785
X121.788 Y65.619
X121.874 Y65.5
X122.22 Y65.384
X122.566 Y65.5
X122.773 Y65.785
X122.775 Y66.142
X122.568 Y66.432
X122.469 Y66.466
X122.43 Y66.471 Z-0.126
X122.393 Y66.461 Z-0.127
X122.362 Y66.436 Z-0.128
X122.343 Y66.402 Z-0.129
X122.217 Y65.996 Z-0.141
X122.213 Y65.959 Z-0.142
X122.223 Y65.923 Z-0.143
X122.246 Y65.893 Z-0.144
X122.279 Y65.874 Z-0.145
X122.316 Y65.868 Z-0.146
X122.352 Y65.877 Z-0.147
X122.383 Y65.899 Z-0.148
X122.404 Y65.93 Z-0.149
X122.411 Y65.967 Z-0.15
G3 X122.22 Y66.158 R0.191
X122.029 Y65.967 R0.191
X122.22 Y65.776 R0.191
X122.411 Y65.967 R0.191
G2 X122.52 Y66.207 R0.318
G3 X122.535 Y66.422 R0.152
X122.469 Y66.466 R0.152
G1 X122.22 Y66.551
X121.872 Y66.432
X121.665 Y66.142
X121.667 Y65.785
X121.788 Y65.619
X121.874 Y65.5
X122.22 Y65.384
X122.566 Y65.5
X122.773 Y65.785
X122.775 Y66.142
X122.568 Y66.432
X122.469 Y66.466
X122.43 Y66.471 Z-0.151
X122.393 Y66.461 Z-0.152
X122.362 Y66.436 Z-0.153
X122.343 Y66.402 Z-0.154
X122.217 Y65.996 Z-0.166
X122.213 Y65.959 Z-0.167
X122.223 Y65.923 Z-0.168
X122.246 Y65.893 Z-0.169
X122.279 Y65.874 Z-0.17
X122.316 Y65.868 Z-0.171
X122.352 Y65.877 Z-0.172
X122.383 Y65.899 Z-0.173
X122.404 Y65.93 Z-0.174
X122.411 Y65.967 Z-0.175
G3 X122.22 Y66.158 R0.191
X122.029 Y65.967 R0.191
X122.22 Y65.776 R0.191
X122.411 Y65.967 R0.191
G2 X122.52 Y66.207 R0.318
G3 X122.535 Y66.422 R0.152
X122.469 Y66.466 R0.152
G1 X122.22 Y66.551
X121.872 Y66.432
X121.665 Y66.142
X121.667 Y65.785
X121.788 Y65.619
X121.874 Y65.5
X122.22 Y65.384
X122.566 Y65.5
X122.773 Y65.785
X122.775 Y66.142
X122.568 Y66.432
X122.469 Y66.466
X122.43 Y66.471 Z-0.176
X122.393 Y66.461 Z-0.177
X122.362 Y66.436 Z-0.178
X122.343 Y66.402 Z-0.179
X122.217 Y65.996 Z-0.191
X122.213 Y65.959 Z-0.192
X122.223 Y65.923 Z-0.193
X122.246 Y65.893 Z-0.194
X122.279 Y65.874 Z-0.195
X122.316 Y65.868 Z-0.196
X122.352 Y65.877 Z-0.197
X122.383 Y65.899 Z-0.198
X122.404 Y65.93 Z-0.199
X122.411 Y65.967 Z-0.2
G3 X122.22 Y66.158 R0.191
X122.029 Y65.967 R0.191
X122.22 Y65.776 R0.191
X122.411 Y65.967 R0.191
G2 X122.52 Y66.207 R0.318
G3 X122.535 Y66.422 R0.152
X122.469 Y66.466 R0.152
G1 X122.22 Y66.551
X121.872 Y66.432
X121.665 Y66.142
X121.667 Y65.785
X121.788 Y65.619
X121.874 Y65.5
X122.22 Y65.384
X122.566 Y65.5
X122.773 Y65.785
X122.775 Y66.142
X122.568 Y66.432
X122.469 Y66.466
X122.43 Y66.471 Z-0.201
X122.393 Y66.461 Z-0.202
X122.362 Y66.436 Z-0.203
X122.343 Y66.402 Z-0.204
X122.217 Y65.996 Z-0.216
X122.213 Y65.959 Z-0.217
X122.223 Y65.923 Z-0.218
X122.246 Y65.893 Z-0.219
X122.279 Y65.874 Z-0.22
X122.316 Y65.868 Z-0.221
X122.352 Y65.877 Z-0.222
X122.383 Y65.899 Z-0.223
X122.404 Y65.93 Z-0.224
X122.411 Y65.967 Z-0.225
G3 X122.22 Y66.158 R0.191
X122.029 Y65.967 R0.191
X122.22 Y65.776 R0.191
X122.411 Y65.967 R0.191
G2 X122.52 Y66.207 R0.318
G3 X122.535 Y66.422 R0.152
X122.469 Y66.466 R0.152
G1 X122.22 Y66.551
X121.872 Y66.432
X121.665 Y66.142
X121.667 Y65.785
X121.788 Y65.619
X121.874 Y65.5
X122.22 Y65.384
X122.566 Y65.5
X122.773 Y65.785
X122.775 Y66.142
X122.568 Y66.432
X122.469 Y66.466
X122.43 Y66.471 Z-0.226
X122.393 Y66.461 Z-0.227
X122.362 Y66.436 Z-0.228
X122.343 Y66.402 Z-0.229
X122.217 Y65.996 Z-0.241
X122.213 Y65.959 Z-0.242
X122.223 Y65.923 Z-0.243
X122.246 Y65.893 Z-0.244
X122.279 Y65.874 Z-0.245
X122.316 Y65.868 Z-0.246
X122.352 Y65.877 Z-0.247
X122.383 Y65.899 Z-0.248
X122.404 Y65.93 Z-0.249
X122.411 Y65.967 Z-0.25
G3 X122.22 Y66.158 R0.191
X122.029 Y65.967 R0.191
X122.22 Y65.776 R0.191
X122.411 Y65.967 R0.191
G2 X122.52 Y66.207 R0.318
G3 X122.535 Y66.422 R0.152
X122.469 Y66.466 R0.152
G1 X122.22 Y66.551
X121.872 Y66.432
X121.665 Y66.142
X121.667 Y65.785
X121.788 Y65.619
X121.874 Y65.5
X122.22 Y65.384
X122.566 Y65.5
X122.773 Y65.785
X122.775 Y66.142
X122.568 Y66.432
X122.469 Y66.466
X122.43 Y66.471 Z-0.251
X122.393 Y66.461 Z-0.252
X122.362 Y66.436 Z-0.253
X122.343 Y66.402 Z-0.254
X122.217 Y65.996 Z-0.266
X122.213 Y65.959 Z-0.267
X122.223 Y65.923 Z-0.268
X122.246 Y65.893 Z-0.269
X122.279 Y65.874 Z-0.27
X122.316 Y65.868 Z-0.271
X122.352 Y65.877 Z-0.272
X122.383 Y65.899 Z-0.273
X122.404 Y65.93 Z-0.274
X122.411 Y65.967 Z-0.275
G3 X122.22 Y66.158 R0.191
X122.029 Y65.967 R0.191
X122.22 Y65.776 R0.191
X122.411 Y65.967 R0.191
G2 X122.52 Y66.207 R0.318
G3 X122.535 Y66.422 R0.152
X122.469 Y66.466 R0.152
G1 X122.22 Y66.551
X121.872 Y66.432
X121.665 Y66.142
X121.667 Y65.785
X121.788 Y65.619
X121.874 Y65.5
X122.22 Y65.384
X122.566 Y65.5
X122.773 Y65.785
X122.775 Y66.142
X122.568 Y66.432
X122.469 Y66.466
X122.453 Y66.468
X122.437 Y66.463
X122.424 Y66.451
X122.193 Y66.121
X122.194 Y66.108
X122.203 Y66.098
X122.235 Y66.082
X122.25 Y66.081
X122.261 Y66.089
X122.263 Y66.103
X122.256 Y66.115
X122.221 Y66.133 Z-0.276
X122.181 Y66.135 Z-0.278
X122.144 Y66.122 Z-0.279
X122.115 Y66.095 Z-0.281
X122.099 Y66.059 Z-0.282
X122.098 Y66.02 Z-0.283
X122.112 Y65.983 Z-0.285
X122.14 Y65.955 Z-0.286
X122.177 Y65.94 Z-0.288
X122.216 Z-0.289
X122.252 Y65.956 Z-0.29
X122.279 Y65.985 Z-0.292
X122.293 Y66.022 Z-0.293
X122.291 Y66.061 Z-0.294
X122.274 Y66.097 Z-0.296
X122.245 Y66.123 Z-0.297
X122.207 Y66.135 Z-0.299
X122.168 Y66.132 Z-0.3
X122.143 Y66.125
X122.103 Y66.107
X122.07 Y66.078
X122.047 Y66.04
X122.036 Y65.998
X122.037 Y65.954
X122.051 Y65.912
X122.081 Y65.855
X122.104 Y65.823
X122.134 Y65.797
X122.17 Y65.781
X122.197 Y65.774
X122.225 Y65.773
X122.235 Y65.774
X122.28 Y65.783
X122.285 Y65.785
X122.323 Y65.805
X122.353 Y65.835
X122.373 Y65.872
X122.383 Y65.914
X122.388 Y65.985
X122.384 Y66.033
X122.365 Y66.077
X122.333 Y66.113
X122.292 Y66.137
X122.245 Y66.147
X122.197 Y66.141
X122.168 Y66.132
X122.118 Y66.124
X122.067 Y66.127
X122.019 Y66.141
X121.975 Y66.165
X121.937 Y66.199
X121.905 Y66.226
X121.866 Y66.242
X121.824 Y66.245
X121.783 Y66.235
X121.747 Y66.213
X121.72 Y66.18
X121.704 Y66.142
X121.678 Y66.031
X121.683 Y65.875
X121.788 Y65.673
X121.842 Y65.573
X121.982 Y65.478
X122.155 Y65.425
X122.328 Y65.434
X122.498 Y65.496
X122.636 Y65.616
X122.714 Y65.741
X122.744 Y66.12
X122.67 Y66.275
X122.556 Y66.4
X122.393 Y66.485
X122.242 Y66.512
X121.917 Y66.418
X121.804 Y66.321
X121.71 Y66.165
X121.704 Y66.142
X121.705 Y66.126
X121.715 Y66.113
X121.731 Y66.108
X121.863 Y66.111
X122.238 Y66.056
X122.27 Y66.069
X122.234 Y66.086 Z-0.301
X122.195 Y66.088 Z-0.303
X122.158 Y66.074 Z-0.304
X122.129 Y66.047 Z-0.306
X122.113 Y66.011 Z-0.307
Y65.971 Z-0.308
X122.128 Y65.935 Z-0.31
X122.156 Y65.907 Z-0.311
X122.192 Y65.893 Z-0.313
X122.232 Z-0.314
X122.268 Y65.91 Z-0.315
X122.295 Y65.939 Z-0.317
X122.308 Y65.976 Z-0.318
X122.306 Y66.015 Z-0.319
X122.288 Y66.051 Z-0.321
X122.258 Y66.077 Z-0.322
X122.221 Y66.089 Z-0.324
X122.181 Y66.085 Z-0.325
X122.171 Y66.082
X122.136 Y66.064
X122.109 Y66.035
X122.094 Y65.999
X122.092 Y65.959
X122.105 Y65.922
X122.124 Y65.885
X122.15 Y65.853
X122.187 Y65.832
X122.229 Y65.827
X122.268 Y65.836
X122.302 Y65.858
X122.325 Y65.892
X122.335 Y65.931
X122.338 Y65.974
X122.334 Y66.01
X122.32 Y66.043
X122.295 Y66.069
X122.264 Y66.087
X122.229 Y66.093
X122.193 Y66.089
X122.181 Y66.085
X122.123 Y66.075
X122.064 Y66.081
X122.008 Y66.102
X121.96 Y66.136
X121.922 Y66.161
X121.877 Y66.171
X121.832 Y66.166
X121.791 Y66.145
X121.76 Y66.112
X121.742 Y66.07
X121.728 Y66.009
X121.735 Y65.883
X121.788 Y65.784
X121.88 Y65.612
X122.018 Y65.519
X122.155 Y65.478
X122.327 Y65.487
X122.479 Y65.549
X122.6 Y65.655
X122.67 Y65.778
X122.691 Y66.106
X122.62 Y66.254
X122.515 Y66.363
X122.366 Y66.438
X122.223 Y66.458
X121.943 Y66.373
X121.832 Y66.273
X121.758 Y66.137
X121.742 Y66.07
X121.741 Y66.031
X121.755 Y65.995
X121.781 Y65.966
X121.817 Y65.95
X122.145 Y65.872
X122.173 Y65.869
X122.201 Y65.875
X122.227 Y65.888
X122.253 Y65.917 Z-0.326
X122.267 Y65.954 Z-0.328
X122.264 Y65.994 Z-0.329
X122.247 Y66.029 Z-0.331
X122.217 Y66.055 Z-0.332
X122.179 Y66.067 Z-0.333
X122.14 Y66.063 Z-0.335
X122.105 Y66.044 Z-0.336
X122.08 Y66.013 Z-0.337
X122.07 Y65.975 Z-0.339
X122.075 Y65.936 Z-0.34
X122.095 Y65.902 Z-0.342
X122.127 Y65.879 Z-0.343
X122.165 Y65.869 Z-0.344
X122.204 Y65.876 Z-0.346
X122.237 Y65.897 Z-0.347
X122.26 Y65.93 Z-0.349
X122.268 Y65.968 Z-0.35
G3 X122.216 Y66.02 R0.051
X122.165 Y65.968 R0.051
X122.216 Y65.917 R0.051
X122.268 Y65.968 R0.051
G1 X122.275 Y66.025
X122.295 Y66.078
X122.328 Y66.125
X122.372 Y66.162
X122.404 Y66.193
X122.423 Y66.232
X122.428 Y66.276
X122.418 Y66.319
X122.394 Y66.356
X122.358 Y66.382
X122.35 Y66.386
X122.22 Y66.402
X121.961 Y66.32
X121.871 Y66.232
X121.809 Y66.12
X121.782 Y66.
X121.788 Y65.895
X121.916 Y65.654
X122.025 Y65.573
X122.178 Y65.532
X122.316 Y65.54
X122.439 Y65.586
X122.561 Y65.694
X122.618 Y65.785
X122.638 Y66.098
X122.587 Y66.209
X122.479 Y66.321
X122.358 Y66.382
X122.347 Y66.384
X122.336 Y66.378
X122.331 Y66.367
X122.322 Y66.277
X122.256 Y65.964
X122.249 Y65.901
X122.252 Y65.89
X122.262 Y65.885
X122.272 Y65.888
X122.299 Y65.917 Z-0.351
X122.312 Y65.954 Z-0.353
X122.309 Y65.993 Z-0.354
X122.292 Y66.029 Z-0.356
X122.262 Y66.054 Z-0.357
X122.224 Y66.066 Z-0.358
X122.185 Y66.063 Z-0.36
X122.15 Y66.044 Z-0.361
X122.126 Y66.013 Z-0.362
X122.115 Y65.975 Z-0.364
X122.12 Y65.936 Z-0.365
X122.14 Y65.902 Z-0.367
X122.172 Y65.878 Z-0.368
X122.21 Y65.869 Z-0.369
X122.249 Y65.875 Z-0.371
X122.283 Y65.897 Z-0.372
X122.305 Y65.929 Z-0.374
X122.313 Y65.968 Z-0.375
G3 X122.218 Y66.063 R0.095
X122.122 Y65.968 R0.095
X122.218 Y65.873 R0.095
X122.313 Y65.968 R0.095
G1 X122.319 Y66.014
X122.339 Y66.057
X122.369 Y66.092
X122.408 Y66.118
X122.438 Y66.139
X122.458 Y66.17
X122.465 Y66.206
X122.458 Y66.242
X122.439 Y66.274
X122.409 Y66.296
X122.327 Y66.335
X122.22 Y66.348
X121.988 Y66.273
X121.939 Y66.228
X121.891 Y66.161
X121.859 Y66.097
X121.837 Y65.986
X121.846 Y65.897
X121.961 Y65.686
X122.047 Y65.624
X122.177 Y65.586
X122.306 Y65.594
X122.415 Y65.635
X122.513 Y65.719
X122.568 Y65.808
X122.586 Y66.075
X122.54 Y66.183
X122.452 Y66.275
X122.409 Y66.296
X122.376 Y66.305
X122.341 Y66.303
X122.31 Y66.288
X122.285 Y66.264
X122.114 Y66.028
X122.099 Y65.997
X122.096 Y65.962
X122.105 Y65.928
X122.125 Y65.899
X122.153 Y65.879
X122.187 Y65.87
X122.222 Y65.874
X122.254 Y65.889
X122.281 Y65.918 Z-0.376
X122.294 Y65.955 Z-0.378
X122.292 Y65.995 Z-0.379
X122.274 Y66.03 Z-0.381
X122.244 Y66.056 Z-0.382
X122.206 Y66.068 Z-0.383
X122.167 Y66.064 Z-0.385
X122.132 Y66.045 Z-0.386
X122.108 Y66.014 Z-0.388
X122.097 Y65.976 Z-0.389
X122.102 Y65.937 Z-0.39
X122.122 Y65.903 Z-0.392
X122.154 Y65.879 Z-0.393
X122.192 Y65.87 Z-0.394
X122.231 Y65.877 Z-0.396
X122.265 Y65.898 Z-0.397
X122.287 Y65.93 Z-0.399
X122.295 Y65.969 Z-0.4
G3 X122.217 Y66.047 R0.077
X122.14 Y65.969 R0.077
X122.217 Y65.892 R0.077
X122.295 Y65.969 R0.077
G1 X122.3 Y66.009
X122.317 Y66.045
X122.342 Y66.076
X122.375 Y66.098
X122.4 Y66.117
X122.416 Y66.144
X122.422 Y66.174
X122.416 Y66.205
X122.399 Y66.231
X122.373 Y66.25
X122.306 Y66.281
X122.22 Y66.29
X122.03 Y66.233
X121.961 Y66.166
X121.913 Y66.075
X121.895 Y65.986
X121.898 Y65.919
X121.961 Y65.798
X121.992 Y65.738
X122.088 Y65.67
X122.177 Y65.643
X122.285 Y65.647
X122.396 Y65.694
X122.471 Y65.759
X122.516 Y65.835
X122.53 Y66.053
X122.496 Y66.142
X122.411 Y66.232
X122.373 Y66.25
X122.342 Y66.259
X122.309 Y66.257
X122.278 Y66.244
X122.254 Y66.223
X122.097 Y66.032
X122.079 Y66.001
X122.074 Y65.965
X122.081 Y65.93
X122.101 Y65.9
X122.13 Y65.878
X122.164 Y65.869
X122.2 Y65.872
X122.232 Y65.887
X122.259 Y65.916 Z-0.401
X122.272 Y65.954 Z-0.403
X122.27 Y65.993 Z-0.404
X122.252 Y66.028 Z-0.406
X122.222 Y66.054 Z-0.407
X122.185 Y66.066 Z-0.408
X122.145 Y66.062 Z-0.41
X122.111 Y66.043 Z-0.411
X122.086 Y66.013 Z-0.413
X122.075 Y65.974 Z-0.414
X122.081 Y65.935 Z-0.415
X122.101 Y65.901 Z-0.417
X122.132 Y65.878 Z-0.418
X122.171 Y65.869 Z-0.419
X122.21 Y65.875 Z-0.421
X122.243 Y65.896 Z-0.422
X122.265 Y65.929 Z-0.424
X122.273 Y65.968 Z-0.425
G3 X122.217 Y66.024 R0.057
X122.16 Y65.968 R0.057
X122.217 Y65.911 R0.057
X122.273 Y65.968 R0.057
G1 X122.278 Y66.
X122.291 Y66.029
X122.313 Y66.054
X122.34 Y66.072
X122.365 Y66.091
X122.378 Y66.118
Y66.149
X122.364 Y66.177
X122.339 Y66.195
X122.285 Y66.219
X122.22 Y66.225
X122.058 Y66.171
X122.01 Y66.123
X121.974 Y66.057
X121.959 Y65.976
X121.961 Y65.951
X121.964 Y65.924
X122.041 Y65.78
X122.106 Y65.732
X122.203 Y65.708
X122.293 Y65.719
X122.367 Y65.753
X122.427 Y65.81
X122.454 Y65.854
X122.466 Y66.053
X122.428 Y66.125
X122.362 Y66.185
X122.339 Y66.195
X122.32 Y66.201 Z-0.42
X122.301 Y66.202 Z-0.414
X122.273 Y66.194 Z-0.385
X122.264 Y66.189 Z-0.346
G0 Z15.

(SPHEROID POCKET)
G55
G0 X122.213 Y74.251
Z15.
Z1.025
G1 Z0.105 F51.
X122.215 Y74.241 Z0.067 F356.
X122.225 Y74.215 Z0.038
X122.25 Y74.186 Z0.026
X122.285 Y74.168 Z0.025
X122.324 Y74.164 Z0.023
X122.361 Y74.177 Z0.022
X122.391 Y74.203 Z0.021
X122.408 Y74.239 Z0.019
X122.41 Y74.278 Z0.018
X122.396 Y74.315 Z0.017
X122.369 Y74.344 Z0.015
X122.333 Y74.36 Z0.014
X122.294 Z0.012
X122.257 Y74.345 Z0.011
X122.229 Y74.318 Z0.01
X122.214 Y74.281 Z0.008
X122.215 Y74.242 Z0.007
X122.231 Y74.206 Z0.005
X122.26 Y74.179 Z0.004
X122.297 Y74.165 Z0.003
X122.336 Y74.167 Z0.001
X122.371 Y74.184 Z0.
X122.398 Y74.213 Z-0.001
X122.41 Y74.251 Z-0.003
X122.407 Y74.29 Z-0.004
X122.389 Y74.325 Z-0.006
