(NMJPLATE0PT0PT4_TOP_STEP4_132IN)
(T4  D=0.787 CR=0. - ZMIN=-18.75 - FLAT END MILL)
G0 G90 G94 G17
G21
G53 G0 Z0.

(LOWER WELL 132)
M5
T4
M3 S10000
G55
M8
G0 X67.575 Y40.849
Z15.
Z-16.424
G1 Z-17.341 F85.
X67.582 Y40.841 Z-17.38
X67.601 Y40.822 Z-17.409
X67.63 Y40.797 Z-17.42
X67.695 Y40.757 Z-17.422
X67.767 Y40.731 Z-17.425
X67.843 Y40.72 Z-17.427
X67.919 Y40.725 Z-17.43
X67.993 Y40.745 Z-17.432
X68.061 Y40.779 Z-17.435
X68.12 Y40.827 Z-17.437
X68.169 Y40.886 Z-17.44
X68.204 Y40.953 Z-17.442
X68.226 Y41.027 Z-17.445
X68.232 Y41.103 Z-17.447
X68.222 Y41.178 Z-17.45
X68.197 Y41.251 Z-17.452
X68.158 Y41.316 Z-17.455
X68.107 Y41.373 Z-17.457
X68.045 Y41.417 Z-17.46
X67.975 Y41.449 Z-17.462
X67.901 Y41.465 Z-17.465
X67.824 Y41.466 Z-17.467
X67.75 Y41.452 Z-17.47
X67.679 Y41.422 Z-17.472
X67.616 Y41.379 Z-17.475
X67.563 Y41.324 Z-17.477
X67.523 Y41.259 Z-17.479
X67.496 Y41.188 Z-17.482
X67.484 Y41.112 Z-17.484
X67.488 Y41.036 Z-17.487
X67.508 Y40.962 Z-17.489
X67.541 Y40.894 Z-17.492
X67.589 Y40.834 Z-17.494
X67.647 Y40.785 Z-17.497
X67.714 Y40.748 Z-17.499
X67.787 Y40.726 Z-17.502
X67.863 Y40.72 Z-17.504
X67.939 Y40.729 Z-17.507
X68.011 Y40.753 Z-17.509
X68.077 Y40.791 Z-17.512
X68.134 Y40.842 Z-17.514
X68.18 Y40.903 Z-17.517
X68.212 Y40.973 Z-17.519
X68.229 Y41.047 Z-17.522
X68.231 Y41.123 Z-17.524
X68.217 Y41.198 Z-17.527
X68.188 Y41.269 Z-17.529
X68.146 Y41.332 Z-17.532
X68.091 Y41.386 Z-17.534
X68.027 Y41.427 Z-17.537
X67.956 Y41.455 Z-17.539
X67.88 Y41.467 Z-17.541
X67.804 Y41.464 Z-17.544
X67.73 Y41.445 Z-17.546
X67.661 Y41.412 Z-17.549
X67.601 Y41.365 Z-17.551
X67.551 Y41.308 Z-17.554
X67.514 Y41.241 Z-17.556
X67.491 Y41.168 Z-17.559
X67.484 Y41.092 Z-17.561
X67.492 Y41.016 Z-17.564
X67.515 Y40.943 Z-17.566
X67.553 Y40.877 Z-17.569
X67.603 Y40.82 Z-17.571
X67.664 Y40.774 Z-17.574
X67.733 Y40.741 Z-17.576
X67.806 Y40.71 F254.
G3 X68.051 Y40.606 R2.491
G1 X68.09 Y40.6
X68.128 Y40.609
X68.16 Y40.631
X68.181 Y40.664
X68.189 Y40.703
Y41.397
X68.181 Y41.435
X68.16 Y41.468
X68.128 Y41.491
X68.09 Y41.5
X68.051 Y41.494
G3 X67.745 Y41.377 R9.15
G2 X67.424 Y41.315 R0.869
G3 X66.977 Y41.298 R6.469
G2 X66.534 Y41.358 R1.089
G1 X66.358 Y41.426
X66.182 Y41.495
X66.143 Y41.501
X66.105 Y41.492
X66.073 Y41.469
X66.051 Y41.436
X66.044 Y41.397
Y40.704
X66.051 Y40.665
X66.073 Y40.632
X66.105 Y40.61
X66.143 Y40.601
X66.182 Y40.607
G3 X66.442 Y40.716 R2.787
G2 X66.718 Y40.78 R0.645
G3 X67.133 Y40.787 R27.533
G2 X67.549 Y40.778 R4.88
G1 X67.642 Y40.766
X67.733 Y40.741
G2 X67.973 Y40.417 R0.36
G3 X68.213 Y40.092 R0.365
G1 X68.616 Y39.945
Y42.157
X68.366 Y42.062
X67.569 Y41.774
X67.536 Y41.766
X67.503 Y41.763
X66.747 Y41.76
X66.714 Y41.763
X66.681 Y41.772
X65.994 Y42.016
X65.616 Y42.155
Y39.947
X66.655 Y40.324
X66.688 Y40.332
X66.721 Y40.335
X67.426 Y40.341
X67.44 Y40.34
X67.521 Y40.335
X67.549 Y40.332
X67.576 Y40.324
X68.213 Y40.092
X68.234 Y40.091
X68.253 Y40.101
X68.264 Y40.119
Y40.141
X68.184 Y40.396
X67.818 Y41.005
X67.717 Y41.19
X67.704 Y41.204
X67.686 Y41.21
X67.667 Y41.208
X67.652 Y41.196
X67.611 Y41.133 Z-17.579 F85.
X67.583 Y41.064 Z-17.581
X67.569 Y40.99 Z-17.584
X67.571 Y40.914 Z-17.587
X67.588 Y40.841 Z-17.589
X67.619 Y40.773 Z-17.592
X67.663 Y40.712 Z-17.595
X67.718 Y40.661 Z-17.597
X67.782 Y40.622 Z-17.6
X67.853 Y40.597 Z-17.602
X67.927 Y40.587 Z-17.605
X68.002 Y40.591 Z-17.608
X68.075 Y40.611 Z-17.61
X68.142 Y40.644 Z-17.613
X68.201 Y40.69 Z-17.616
X68.25 Y40.748 Z-17.618
X68.286 Y40.813 Z-17.621
X68.309 Y40.885 Z-17.623
X68.316 Y40.96 Z-17.626
X68.309 Y41.035 Z-17.629
X68.287 Y41.106 Z-17.631
X68.251 Y41.172 Z-17.634
X68.202 Y41.23 Z-17.637
X68.143 Y41.276 Z-17.639
X68.076 Y41.31 Z-17.642
X68.003 Y41.329 Z-17.645
X67.928 Y41.334 Z-17.647
X67.854 Y41.324 Z-17.65
X67.783 Y41.299 Z-17.652
G2 X67.509 Y41.237 R0.643 F254.
G3 X67.006 Y41.216 R5.958
G2 X66.506 Y41.282 R1.176
G1 X66.344 Y41.347
X66.182 Y41.411
X66.143 Y41.417
X66.105 Y41.409
X66.073 Y41.386
X66.051 Y41.353
X66.044 Y41.314
Y40.786
X66.051 Y40.748
X66.073 Y40.715
X66.105 Y40.692
X66.143 Y40.683
X66.182 Y40.689
G3 X66.445 Y40.799 R2.82
G2 X66.722 Y40.862 R0.643
G3 X67.226 Y40.884 R5.941
G2 X67.726 Y40.818 R1.172
G1 X67.888 Y40.753
X68.051 Y40.688
X68.09 Y40.682
X68.128 Y40.691
X68.16 Y40.713
X68.181 Y40.746
X68.189 Y40.785
Y41.314
X68.181 Y41.353
X68.16 Y41.385
X68.128 Y41.408
X68.089 Y41.417
X68.051 Y41.411
G3 X67.787 Y41.301 R2.822
G1 X67.783 Y41.299
G2 X67.335 Y41.444 R0.344
G3 X66.93 Y41.683 R0.463
G1 X66.723
X66.689 Y41.686
X66.656 Y41.695
X65.616 Y42.071
Y40.031
X65.625 Y40.034
X66.656 Y40.405
X66.689 Y40.414
X66.723 Y40.417
X67.509
X67.543 Y40.414
X67.576 Y40.405
X68.616 Y40.028
Y42.069
X67.576 Y41.694
X67.543 Y41.686
X67.509 Y41.683
X66.93
X66.907 Y41.676
X66.893 Y41.657
X66.74 Y41.255
X66.493 Y41.031
X66.46 Y40.97
X66.458 Y40.955
X66.467 Y40.942
X66.481 Y40.939
X66.495 Y40.946
X66.538 Y41.008 Z-17.655 F85.
X66.567 Y41.077 Z-17.658
X66.582 Y41.15 Z-17.66
Y41.225 Z-17.663
X66.568 Y41.299 Z-17.666
X66.538 Y41.368 Z-17.668
X66.496 Y41.43 Z-17.671
X66.442 Y41.482 Z-17.673
X66.378 Y41.523 Z-17.676
X66.308 Y41.55 Z-17.679
X66.234 Y41.562 Z-17.681
X66.159 Y41.559 Z-17.684
X66.086 Y41.542 Z-17.687
X66.018 Y41.51 Z-17.689
X65.958 Y41.465 Z-17.692
X65.908 Y41.409 Z-17.694
X65.87 Y41.344 Z-17.697
X65.846 Y41.273 Z-17.7
X65.836 Y41.198 Z-17.702
X65.842 Y41.123 Z-17.705
X65.862 Y41.051 Z-17.708
X65.897 Y40.984 Z-17.71
X65.944 Y40.926 Z-17.713
X66.002 Y40.878 Z-17.715
X66.068 Y40.843 Z-17.718
X66.14 Y40.821 Z-17.721
X66.215 Y40.815 Z-17.723
X66.29 Y40.823 Z-17.726
X66.361 Y40.847 Z-17.729
X66.43 Y40.878 F254.
G2 X66.692 Y40.938 R0.62
G3 X67.205 Y40.963 R5.835
G2 X67.716 Y40.902 R1.22
G1 X67.884 Y40.839
X68.052 Y40.775
X68.091 Y40.769
X68.129 Y40.779
X68.16 Y40.801
X68.181 Y40.834
X68.189 Y40.872
Y41.229
X68.181 Y41.267
X68.16 Y41.3
X68.128 Y41.323
X68.09 Y41.332
X68.051 Y41.325
G3 X67.785 Y41.22 R4.644
G2 X67.505 Y41.161 R0.713
G1 X66.924 Y41.158
G2 X66.342 Y41.26 R1.658
G1 X66.262 Y41.293
X66.182 Y41.325
X66.143 Y41.332
X66.105 Y41.323
X66.073 Y41.3
X66.051 Y41.268
X66.044 Y41.229
Y40.872
X66.051 Y40.833
X66.073 Y40.8
X66.105 Y40.777
X66.143 Y40.769
X66.182 Y40.775
X66.361 Y40.847
G2 X66.79 Y40.714 R0.342
G3 X67.182 Y40.496 R0.458
G1 X67.508 Y40.498
X67.541 Y40.495
X67.573 Y40.487
X67.926 Y40.366
X68.616 Y40.114
Y41.985
X67.603 Y41.618
X67.571 Y41.609
X67.537 Y41.606
X66.724 Y41.602
X66.693 Y41.604
X66.662 Y41.612
X66.5 Y41.664
X66.492 Y41.667
X65.616 Y41.99
Y40.115
X65.625 Y40.118
X66.628 Y40.482
X66.661 Y40.49
X66.694 Y40.493
X67.182 Y40.496
X67.202 Y40.502
X67.216 Y40.516
X67.326 Y40.71
X67.335 Y40.721
X67.347 Y40.727
X67.999 Y40.947
X68.023 Y40.948
X68.042 Y40.935
X68.087 Y40.881
X68.101 Y40.87
X68.12 Y40.867
X68.194 Y40.879 Z-17.731 F85.
X68.264 Y40.906 Z-17.734
X68.327 Y40.947 Z-17.736
X68.381 Y40.999 Z-17.739
X68.423 Y41.061 Z-17.742
X68.452 Y41.131 Z-17.744
X68.467 Y41.204 Z-17.747
Y41.279 Z-17.75
X68.451 Y41.353 Z-17.752
X68.421 Y41.422 Z-17.755
X68.378 Y41.484 Z-17.758
X68.324 Y41.535 Z-17.76
X68.26 Y41.575 Z-17.763
X68.19 Y41.602 Z-17.765
X68.116 Y41.613 Z-17.768
X68.041 Y41.61 Z-17.771
X67.968 Y41.592 Z-17.773
X67.9 Y41.559 Z-17.776
X67.84 Y41.514 Z-17.779
X67.791 Y41.458 Z-17.781
X67.753 Y41.393 Z-17.784
X67.73 Y41.321 Z-17.786
X67.721 Y41.247 Z-17.789
X67.727 Y41.172 Z-17.792
X67.748 Y41.1 Z-17.794
X67.783 Y41.033 Z-17.797
X67.83 Y40.975 Z-17.8
X67.889 Y40.928 Z-17.802
X67.955 Y40.893 Z-17.805
X68.051 Y40.857 F254.
X68.09 Y40.85
X68.128 Y40.859
X68.16 Y40.882
X68.181 Y40.915
X68.189 Y40.954
Y41.145
X68.181 Y41.184
X68.16 Y41.217
X68.128 Y41.24
X68.089 Y41.249
X68.051 Y41.243
G3 X67.8 Y41.139 R2.859
G2 X67.536 Y41.08 R0.622
G1 X66.696 Y41.081
G2 X66.432 Y41.14 R0.619
G3 X66.182 Y41.243 R2.882
G1 X66.143 Y41.249
X66.105 Y41.241
X66.073 Y41.218
X66.051 Y41.185
X66.044 Y41.146
Y40.954
X66.051 Y40.916
X66.073 Y40.883
X66.105 Y40.86
X66.143 Y40.851
X66.182 Y40.857
G3 X66.432 Y40.96 R2.873
G2 X66.695 Y41.019 R0.62
G1 X67.536 Y41.02
G2 X67.801 Y40.96 R0.62
G1 X67.955 Y40.893
G2 X68.175 Y40.582 R0.352
G3 X68.401 Y40.275 R0.342
G1 X68.616 Y40.198
Y41.905
X68.338 Y41.8
X67.603 Y41.536
X67.57 Y41.528
X67.536 Y41.525
X66.696
X66.662 Y41.528
X66.629 Y41.537
X65.616 Y41.902
Y40.197
X65.654 Y40.212
X65.66 Y40.215
X66.629 Y40.563
X66.662 Y40.572
X66.695 Y40.575
X67.536
X67.57 Y40.572
X67.603 Y40.564
X68.401 Y40.275
X68.422 Y40.274
X68.441 Y40.284
X68.453 Y40.302
X68.452 Y40.323
X68.4 Y40.502
X68.262 Y40.871
X68.255 Y40.882
X68.245 Y40.891
X68.187 Y40.925
X68.164 Y40.931
X68.141 Y40.922
X68.129 Y40.901
X68.13 Y40.877
X68.145 Y40.859
X68.168 Y40.852
X68.243 Y40.862 Z-17.807 F85.
X68.314 Y40.887 Z-17.81
X68.378 Y40.925 Z-17.813
X68.434 Y40.975 Z-17.815
X68.478 Y41.036 Z-17.818
X68.51 Y41.104 Z-17.821
X68.527 Y41.177 Z-17.823
X68.53 Y41.252 Z-17.826
X68.517 Y41.326 Z-17.828
X68.49 Y41.396 Z-17.831
X68.449 Y41.459 Z-17.834
X68.396 Y41.513 Z-17.836
X68.334 Y41.555 Z-17.839
X68.265 Y41.584 Z-17.842
X68.191 Y41.598 Z-17.844
X68.116 Z-17.847
X68.043 Y41.582 Z-17.849
X67.974 Y41.552 Z-17.852
X67.912 Y41.509 Z-17.855
X67.861 Y41.455 Z-17.857
X67.821 Y41.391 Z-17.86
X67.795 Y41.321 Z-17.863
X67.783 Y41.246 Z-17.865
X67.787 Y41.171 Z-17.868
X67.805 Y41.098 Z-17.87
X67.837 Y41.031 Z-17.873
X67.883 Y40.971 Z-17.876
X67.939 Y40.921 Z-17.878
X68.005 Y40.884 Z-17.881
X68.129 Y40.834 F254.
X68.167 Y40.828
X68.205 Y40.836
X68.236 Y40.858
X68.257 Y40.891
X68.265 Y40.928
Y41.172
X68.257 Y41.21
X68.236 Y41.242
X68.205 Y41.264
X68.167 Y41.273
X68.129 Y41.267
G3 X67.84 Y41.146 R3.388
G2 X67.533 Y41.077 R0.725
G1 X66.698 Y41.073
G2 X66.392 Y41.143 R0.691
G3 X66.103 Y41.266 R3.023
G1 X66.065 Y41.272
X66.028 Y41.263
X65.996 Y41.241
X65.975 Y41.209
X65.968 Y41.171
Y40.927
X65.975 Y40.889
X65.996 Y40.857
X66.028 Y40.835
X66.065 Y40.826
X66.103 Y40.832
G3 X66.376 Y40.951 R2.444
G2 X66.665 Y41.022 R0.643
G3 X67.236 Y41.034 R16.745
G2 X67.803 Y40.964 R1.759
G1 X67.886 Y40.936
X67.967 Y40.901
X68.005 Y40.884
G2 X68.179 Y40.626 R0.294
G3 X68.363 Y40.374 R0.28
G1 X68.616 Y40.281
Y41.818
X67.631 Y41.46
X67.598 Y41.451
X67.564 Y41.448
X66.696 Y41.444
X66.663 Y41.447
X66.631 Y41.455
X66.266 Y41.581
X65.616 Y41.818
Y40.28
X66.601 Y40.639
X66.634 Y40.648
X66.667 Y40.651
X67.535 Y40.656
X67.564 Y40.654
X67.592 Y40.648
X67.7 Y40.616
X67.712 Y40.612
X68.363 Y40.374
X68.399 Y40.368
X68.435 Y40.375
X68.466 Y40.395
X68.488 Y40.426
X68.497 Y40.461
X68.492 Y40.498
X68.475 Y40.531
X68.447 Y40.554
X67.639 Y41.017
X67.605 Y41.029
X67.569 Y41.028
X67.536 Y41.015
X67.509 Y40.99
X67.493 Y40.958
X67.49 Y40.922
X67.499 Y40.887
X67.539 Y40.823 Z-17.884 F85.
X67.59 Y40.768 Z-17.886
X67.651 Y40.724 Z-17.889
X67.72 Y40.694 Z-17.892
X67.793 Y40.678 Z-17.894
X67.868 Y40.676 Z-17.897
X67.942 Y40.69 Z-17.899
X68.012 Y40.719 Z-17.902
X68.074 Y40.76 Z-17.905
X68.127 Y40.814 Z-17.907
X68.168 Y40.877 Z-17.91
X68.196 Y40.946 Z-17.913
X68.209 Y41.02 Z-17.915
X68.207 Y41.095 Z-17.918
X68.191 Y41.169 Z-17.92
X68.16 Y41.237 Z-17.923
X68.116 Y41.298 Z-17.926
X68.06 Y41.349 Z-17.928
X67.996 Y41.387 Z-17.931
X67.925 Y41.412 Z-17.934
X67.851 Y41.423 Z-17.936
X67.776 Y41.418 Z-17.939
X67.703 Y41.399 Z-17.941
X67.636 Y41.365 Z-17.944
X67.577 Y41.319 Z-17.947
X67.528 Y41.261 Z-17.949
X67.492 Y41.196 Z-17.952
X67.47 Y41.124 Z-17.955
X67.462 Y41.049 Z-17.957
G3 X67.815 Y40.697 R0.353
X68.168 Y41.049 R0.353
X68.135 Y41.081 R0.032 F254.
X68.103 Y41.049 R0.032
X68.135 Y41.017 R0.032
X68.168 Y41.049 R0.032
G1 X68.162 Y41.081
X68.148 Y41.109
X68.125 Y41.131
X68.096 Y41.145
X68.064 Y41.149
X66.098 Y41.082
G3 X66.065 Y41.05 R0.032
X66.098 Y41.017 R0.032
X66.13 Y41.05 R0.032
X66.098 Y41.082 R0.032
G2 X65.875 Y41.225 R0.245
G3 X65.696 Y41.292 R0.135
X65.616 Y41.169 R0.135
G1 Y40.362
X66.601 Y40.721
X66.634 Y40.73
X66.668 Y40.733
X67.563
X67.598 Y40.73
X67.631 Y40.721
X68.616 Y40.362
Y41.734
X68.586 Y41.722
X68.579 Y41.72
X67.63 Y41.378
X67.597 Y41.37
X67.563 Y41.367
X66.668
X66.634 Y41.37
X66.601 Y41.379
X65.616 Y41.735
Y41.169
X65.621 Y41.138
X65.636 Y41.11
X65.963 Y40.663
X65.988 Y40.639
X66.02 Y40.625
X66.054 Y40.622
X66.127 Y40.637 Z-17.96 F85.
X66.197 Y40.666 Z-17.962
X66.259 Y40.709 Z-17.965
X66.311 Y40.763 Z-17.968
X66.351 Y40.826 Z-17.97
X66.378 Y40.896 Z-17.973
X66.391 Y40.97 Z-17.976
X66.388 Y41.045 Z-17.978
X66.37 Y41.118 Z-17.981
X66.338 Y41.186 Z-17.983
X66.294 Y41.247 Z-17.986
X66.238 Y41.297 Z-17.989
X66.173 Y41.335 Z-17.991
X66.102 Y41.359 Z-17.994
X66.027 Y41.368 Z-17.997
X65.952 Y41.363 Z-17.999
X65.88 Y41.342 Z-18.002
X65.813 Y41.308 Z-18.004
X65.755 Y41.261 Z-18.007
X65.707 Y41.203 Z-18.01
X65.671 Y41.137 Z-18.012
X65.65 Y41.065 Z-18.015
X65.643 Y40.99 Z-18.018
X65.652 Y40.915 Z-18.02
X65.675 Y40.844 Z-18.023
X65.712 Y40.778 Z-18.026
X65.761 Y40.722 Z-18.028
X65.821 Y40.676 Z-18.031
X65.889 Y40.643 Z-18.033
G3 X66.254 Y40.813 R0.285
X66.085 Y41.179 R0.285
G1 X66.039 Y41.195 F254.
X66. Y41.201
X65.962 Y41.193
X65.93 Y41.17
X65.909 Y41.137
X65.901 Y41.099
Y41.002
X65.909 Y40.963
X65.93 Y40.93
X65.962 Y40.908
X66. Y40.899
X66.039 Y40.905
X66.266 Y40.988
X66.292 Y41.006
X66.307 Y41.034
Y41.066
X66.293 Y41.094
X66.266 Y41.112
X66.085 Y41.179
X66.053 Y41.198
X66.03 Y41.227
X66.02 Y41.263
X66.023 Y41.301
X66.04 Y41.334
X66.068 Y41.359
X66.104 Y41.371
X66.141 Y41.37
X68.151 Y40.92
X68.194 Y40.905
X68.233 Y40.899
X68.271 Y40.907
X68.303 Y40.93
X68.325 Y40.963
X68.332 Y41.001
Y41.097
X68.325 Y41.136
X68.303 Y41.169
X68.271 Y41.191
X68.233 Y41.2
X68.194 Y41.194
X67.966 Y41.112
X67.94 Y41.094
X67.925 Y41.066
Y41.034
X67.94 Y41.006
X67.966 Y40.988
X68.151 Y40.92
G2 X68.303 Y40.714 R0.231
G3 X68.455 Y40.507 R0.231
G1 X68.616 Y40.448
Y41.65
X67.658 Y41.302
X67.625 Y41.293
X67.59 Y41.29
X66.641 Y41.291
X66.607 Y41.294
X66.573 Y41.303
X65.616 Y41.653
Y40.448
X66.574 Y40.797
X66.607 Y40.806
X66.641 Y40.809
X67.59 Y40.81
X67.625 Y40.807
X67.658 Y40.798
X68.455 Y40.507
X68.477 Y40.506
X68.497 Y40.517
X68.507 Y40.538
X68.504 Y40.56
X68.439 Y40.702
X68.432 Y40.72
X68.435 Y40.74
X68.601 Y41.121
X68.604 Y41.134
X68.603 Y41.147
X68.575 Y41.217 Z-18.036 F85.
X68.534 Y41.28 Z-18.039
X68.48 Y41.332 Z-18.041
X68.417 Y41.373 Z-18.044
X68.347 Y41.4 Z-18.047
X68.272 Y41.411 Z-18.049
X68.197 Y41.408 Z-18.052
X68.125 Y41.388 Z-18.054
X68.058 Y41.355 Z-18.057
X67.999 Y41.308 Z-18.06
X67.951 Y41.25 Z-18.062
X67.916 Y41.184 Z-18.065
X67.895 Y41.111 Z-18.068
X67.89 Y41.036 Z-18.07
X67.901 Y40.962 Z-18.073
X67.926 Y40.891 Z-18.075
X67.965 Y40.827 Z-18.078
X68.017 Y40.773 Z-18.081
X68.079 Y40.73 Z-18.083
X68.148 Y40.701 Z-18.086
X68.222 Y40.687 Z-18.089
X68.297 Y40.688 Z-18.091
X68.37 Y40.705 Z-18.094
X68.438 Y40.736 Z-18.096
X68.499 Y40.781 Z-18.099
X68.548 Y40.837 Z-18.102
X68.586 Y40.903 Z-18.104
X68.609 Y40.974 Z-18.107
X68.616 Y41.049 Z-18.11
Y41.566 F254.
X68.585 Y41.554
X68.579 Y41.552
X67.657 Y41.22
X67.624 Y41.212
X67.59 Y41.209
X66.641
X66.607 Y41.212
X66.574 Y41.221
X65.616 Y41.568
Y40.531
X66.573 Y40.879
X66.605 Y40.888
X66.64 Y40.891
X67.586 Y40.892
X67.62 Y40.889
X67.653 Y40.88
X68.616 Y40.531
Y41.049
X68.61 Y41.077
X68.592 Y41.1
X68.565 Y41.113
X68.536
X68.509 Y41.101
X68.491 Y41.078
X68.4 Y40.892
X68.394 Y40.864
X68.4 Y40.835
X68.418 Y40.812
X68.445 Y40.799
X68.474
X68.501 Y40.811
X68.549 Y40.859 Z-18.112 F85.
X68.586 Y40.916 Z-18.114
X68.608 Y40.981 Z-18.117
X68.616 Y41.048 Z-18.119
X68.609 Y41.116 Z-18.122
X68.587 Y41.18 Z-18.124
X68.551 Y41.238 Z-18.126
X68.503 Y41.286 Z-18.129
X68.446 Y41.323 Z-18.131
X68.382 Y41.346 Z-18.133
X68.314 Y41.353 Z-18.136
X68.246 Y41.346 Z-18.138
X68.182 Y41.324 Z-18.141
X68.124 Y41.288 Z-18.143
X68.076 Y41.24 Z-18.145
X68.04 Y41.182 Z-18.148
X68.017 Y41.118 Z-18.15
X68.009 Y41.051 Z-18.152
X68.017 Y40.983 Z-18.155
X68.039 Y40.919 Z-18.157
X68.075 Y40.861 Z-18.16
X68.123 Y40.813 Z-18.162
X68.181 Y40.777 Z-18.164
X68.245 Y40.754 Z-18.167
X68.312 Y40.746 Z-18.169
X68.38 Y40.754 Z-18.172
X68.444 Y40.776 Z-18.174
X68.502 Y40.812 Z-18.176
X68.55 Y40.86 Z-18.179
X68.586 Y40.918 Z-18.181
X68.609 Y40.982 Z-18.183
X68.616 Y41.05 Z-18.186
Y41.482 F254.
X67.672 Y41.142
X67.639 Y41.133
X67.605 Y41.13
X66.624 Y41.131
X66.59 Y41.134
X66.557 Y41.143
X65.616 Y41.484
Y40.618
X66.547 Y40.956
X66.58 Y40.964
X66.614 Y40.967
X67.618 Y40.968
X67.652 Y40.965
X67.685 Y40.956
X68.616 Y40.616
Y41.05
X68.611 Y41.069
X68.598 Y41.083
X68.579 Y41.089
X68.56 Y41.085
X68.385 Y40.999
X68.205 Y40.922
X68.19 Y40.91
X68.182 Y40.892
X68.184 Y40.872
X68.195 Y40.856
X68.247 Y40.821 Z-18.188 F85.
X68.305 Y40.8 Z-18.19
X68.367 Y40.794 Z-18.192
X68.429 Y40.803 Z-18.195
X68.486 Y40.826 Z-18.197
X68.536 Y40.863 Z-18.199
X68.576 Y40.911 Z-18.201
X68.603 Y40.967 Z-18.203
X68.616 Y41.028 Z-18.205
X68.613 Y41.09 Z-18.208
X68.595 Y41.15 Z-18.21
X68.564 Y41.203 Z-18.212
X68.52 Y41.248 Z-18.214
X68.467 Y41.28 Z-18.216
X68.408 Y41.299 Z-18.218
X68.346 Y41.303 Z-18.221
X68.285 Y41.292 Z-18.223
X68.228 Y41.266 Z-18.225
X68.18 Y41.227 Z-18.227
X68.142 Y41.177 Z-18.229
X68.117 Y41.12 Z-18.232
X68.107 Y41.059 Z-18.234
X68.112 Y40.997 Z-18.236
X68.132 Y40.938 Z-18.238
X68.166 Y40.886 Z-18.24
X68.211 Y40.843 Z-18.242
X68.265 Y40.813 Z-18.245
X68.325 Y40.797 Z-18.247
X68.388 Y40.795 Z-18.249
X68.448 Y40.809 Z-18.251
X68.504 Y40.837 Z-18.253
X68.551 Y40.878 Z-18.255
X68.586 Y40.929 Z-18.258
X68.609 Y40.987 Z-18.26
X68.616 Y41.049 Z-18.262
Y41.411 F254.
X67.684 Y41.076
X67.651 Y41.067
X67.618 Y41.064
X66.614
X66.58 Y41.067
X66.547 Y41.076
X65.616 Y41.414
Y40.689
X66.547 Y41.024
X66.58 Y41.033
X66.614 Y41.036
X67.618
X67.652 Y41.033
X67.685 Y41.024
X68.616 Y40.685
Y41.049
X68.612 Y41.068
X68.598 Y41.082
X68.58 Y41.088
X68.561 Y41.084
X68.383 Y41.003
X68.199 Y40.937
X68.183 Y40.926
X68.174 Y40.909
X68.175 Y40.889
X68.185 Y40.872
X68.234 Y40.834 Z-18.264 F85.
X68.291 Y40.809 Z-18.266
X68.352 Y40.798 Z-18.269
X68.414 Y40.803 Z-18.271
X68.473 Y40.822 Z-18.273
X68.525 Y40.856 Z-18.275
X68.568 Y40.901 Z-18.277
X68.598 Y40.956 Z-18.279
X68.614 Y41.016 Z-18.282
X68.615 Y41.078 Z-18.284
X68.6 Y41.138 Z-18.286
X68.572 Y41.194 Z-18.288
X68.53 Y41.24 Z-18.29
X68.479 Y41.275 Z-18.292
X68.42 Y41.296 Z-18.295
X68.359 Y41.303 Z-18.297
X68.297 Y41.294 Z-18.299
X68.24 Y41.27 Z-18.301
X68.19 Y41.233 Z-18.303
X68.15 Y41.185 Z-18.306
X68.124 Y41.128 Z-18.308
X68.112 Y41.067 Z-18.31
X68.115 Y41.005 Z-18.312
X68.134 Y40.946 Z-18.314
X68.166 Y40.893 Z-18.316
X68.211 Y40.849 Z-18.319
X68.265 Y40.818 Z-18.321
X68.324 Y40.801 Z-18.323
X68.386 Y40.799 Z-18.325
X68.447 Y40.812 Z-18.327
X68.503 Y40.839 Z-18.329
X68.55 Y40.88 Z-18.332
X68.586 Y40.93 Z-18.334
X68.609 Y40.988 Z-18.336
X68.616 Y41.05 Z-18.338
Y41.41 F254.
X67.685 Y41.073
X67.652 Y41.064
X67.618 Y41.061
X66.614
X66.58 Y41.064
X66.547 Y41.073
X65.616 Y41.41
Y40.692
X66.547 Y41.027
X66.58 Y41.036
X66.614 Y41.039
X67.618
X67.652 Y41.036
X67.685 Y41.027
X68.616 Y40.69
Y41.05
X68.612 Y41.069
X68.599 Y41.083
X68.58 Y41.089
X68.561 Y41.086
X68.382 Y41.008
X68.195 Y40.949
X68.178 Y40.939
X68.168 Y40.923
Y40.903
X68.177 Y40.886
X68.223 Y40.844 Z-18.34 F85.
X68.278 Y40.815 Z-18.343
X68.338 Y40.801 Z-18.345
X68.4 Y40.802 Z-18.347
X68.461 Y40.818 Z-18.349
X68.515 Y40.849 Z-18.351
X68.56 Y40.891 Z-18.353
X68.593 Y40.944 Z-18.356
X68.612 Y41.003 Z-18.358
X68.616 Y41.065 Z-18.36
X68.604 Y41.126 Z-18.362
X68.578 Y41.183 Z-18.364
X68.539 Y41.231 Z-18.367
X68.489 Y41.268 Z-18.369
X68.432 Y41.292 Z-18.371
X68.37 Y41.3 Z-18.373
X68.308 Y41.294 Z-18.375
X68.25 Y41.272 Z-18.377
X68.199 Y41.237 Z-18.38
X68.158 Y41.19 Z-18.382
X68.13 Y41.134 Z-18.384
X68.117 Y41.073 Z-18.386
X68.118 Y41.011 Z-18.388
X68.136 Y40.952 Z-18.39
X68.167 Y40.898 Z-18.393
X68.211 Y40.854 Z-18.395
X68.264 Y40.821 Z-18.397
X68.323 Y40.803 Z-18.399
X68.385 Y40.8 Z-18.401
X68.446 Y40.813 Z-18.404
X68.502 Y40.84 Z-18.406
X68.55 Y40.88 Z-18.408
X68.586 Y40.93 Z-18.41
X68.609 Y40.988 Z-18.412
X68.616 Y41.05 Z-18.414
Y41.407 F254.
X67.685 Y41.07
X67.652 Y41.061
X67.618 Y41.058
X66.614
X66.58 Y41.061
X66.547 Y41.07
X65.616 Y41.407
Y40.695
X66.547 Y41.03
X66.58 Y41.039
X66.614 Y41.042
X67.618
X67.652 Y41.039
X67.685 Y41.03
X68.616 Y40.693
Y41.05
X68.612 Y41.069
X68.599 Y41.083
X68.581 Y41.089
X68.562 Y41.086
X68.381 Y41.012
X68.19 Y40.964
X68.173 Y40.955
X68.163 Y40.939
X68.161 Y40.92
X68.168 Y40.902
X68.211 Y40.857 Z-18.417 F85.
X68.264 Y40.824 Z-18.419
X68.323 Y40.805 Z-18.421
X68.385 Y40.802 Z-18.423
X68.446 Y40.814 Z-18.425
X68.502 Y40.84 Z-18.427
X68.55 Y40.88 Z-18.43
X68.586 Y40.931 Z-18.432
X68.609 Y40.989 Z-18.434
X68.616 Y41.05 Z-18.436
X68.608 Y41.112 Z-18.438
X68.585 Y41.17 Z-18.441
X68.549 Y41.22 Z-18.443
X68.501 Y41.259 Z-18.445
X68.444 Y41.286 Z-18.447
X68.383 Y41.297 Z-18.449
X68.321 Y41.293 Z-18.451
X68.262 Y41.274 Z-18.454
X68.21 Y41.24 Z-18.456
X68.167 Y41.195 Z-18.458
X68.137 Y41.14 Z-18.46
X68.122 Y41.08 Z-18.462
Y41.018 Z-18.464
X68.138 Y40.958 Z-18.467
X68.168 Y40.903 Z-18.469
X68.21 Y40.858 Z-18.471
X68.263 Y40.825 Z-18.473
X68.322 Y40.806 Z-18.475
X68.384 Y40.802 Z-18.478
X68.445 Y40.813 Z-18.48
X68.501 Y40.84 Z-18.482
X68.549 Y40.88 Z-18.484
X68.586 Y40.93 Z-18.486
X68.609 Y40.988 Z-18.488
X68.616 Y41.049 Z-18.491
Y41.402 F254.
X67.684 Y41.067
X67.651 Y41.059
X67.618 Y41.056
X66.614
X66.58 Y41.059
X66.547 Y41.067
X65.616 Y41.404
Y40.697
X66.547 Y41.033
X66.58 Y41.041
X66.614 Y41.044
X67.618
X67.652 Y41.041
X67.685 Y41.033
X68.616 Y40.696
Y41.049
X68.612 Y41.068
X68.599 Y41.082
X68.581 Y41.089
X68.562 Y41.086
X68.38 Y41.012
X68.19 Y40.966
X68.173 Y40.957
X68.162 Y40.941
X68.16 Y40.922
X68.167 Y40.904
X68.21 Y40.859 Z-18.493 F85.
X68.262 Y40.825 Z-18.495
X68.321 Y40.806 Z-18.497
X68.383 Y40.802 Z-18.499
X68.444 Y40.813 Z-18.501
X68.501 Y40.84 Z-18.504
X68.549 Y40.879 Z-18.506
X68.585 Y40.929 Z-18.508
X68.608 Y40.987 Z-18.51
X68.616 Y41.049 Z-18.512
X68.609 Y41.111 Z-18.515
X68.586 Y41.168 Z-18.517
X68.55 Y41.219 Z-18.519
X68.502 Y41.259 Z-18.521
X68.445 Y41.285 Z-18.523
X68.384 Y41.297 Z-18.525
X68.322 Y41.293 Z-18.528
X68.263 Y41.274 Z-18.53
X68.211 Y41.241 Z-18.532
X68.168 Y41.195 Z-18.534
X68.138 Y41.141 Z-18.536
X68.122 Y41.081 Z-18.538
Y41.019 Z-18.541
X68.138 Y40.958 Z-18.543
X68.168 Y40.904 Z-18.545
X68.21 Y40.858 Z-18.547
X68.263 Y40.825 Z-18.549
X68.322 Y40.806 Z-18.552
X68.384 Y40.802 Z-18.554
X68.445 Y40.814 Z-18.556
X68.501 Y40.84 Z-18.558
X68.549 Y40.88 Z-18.56
X68.586 Y40.93 Z-18.562
X68.609 Y40.988 Z-18.565
X68.616 Y41.049 Z-18.567
Y41.402 F254.
X67.684 Y41.067
X67.651 Y41.058
X67.618 Y41.055
X66.614
X66.58 Y41.058
X66.547 Y41.067
X65.616 Y41.403
Y40.698
X66.547 Y41.033
X66.58 Y41.042
X66.614 Y41.045
X67.618
X67.652 Y41.042
X67.685 Y41.033
X68.616 Y40.696
Y41.049
X68.612 Y41.068
X68.599 Y41.082
X68.581 Y41.089
X68.562 Y41.086
X68.38 Y41.012
X68.19 Y40.966
X68.173 Y40.957
X68.162 Y40.941
X68.16 Y40.922
X68.167 Y40.904
X68.191 Y40.876 Z-18.568 F85.
X68.22 Y40.851 Z-18.569
X68.273 Y40.82 Z-18.572
X68.333 Y40.804 Z-18.574
X68.395 Y40.803 Z-18.576
X68.455 Y40.817 Z-18.578
X68.51 Y40.846 Z-18.58
X68.556 Y40.887 Z-18.582
X68.59 Y40.938 Z-18.585
X68.611 Y40.997 Z-18.587
X68.616 Y41.058 Z-18.589
X68.606 Y41.119 Z-18.591
X68.582 Y41.176 Z-18.593
X68.544 Y41.225 Z-18.595
X68.495 Y41.263 Z-18.598
X68.438 Y41.287 Z-18.6
X68.377 Y41.297 Z-18.602
X68.316 Y41.292 Z-18.604
X68.258 Y41.271 Z-18.606
X68.206 Y41.237 Z-18.608
X68.165 Y41.191 Z-18.611
X68.136 Y41.136 Z-18.613
X68.122 Y41.076 Z-18.615
X68.123 Y41.014 Z-18.617
X68.139 Y40.955 Z-18.619
X68.17 Y40.901 Z-18.621
X68.213 Y40.856 Z-18.624
X68.265 Y40.824 Z-18.626
X68.324 Y40.805 Z-18.628
X68.386 Y40.802 Z-18.63
X68.447 Y40.814 Z-18.632
X68.502 Y40.841 Z-18.634
X68.55 Y40.88 Z-18.637
X68.586 Y40.931 Z-18.639
X68.609 Y40.988 Z-18.641
X68.616 Y41.049 Z-18.643
Y41.402 F254.
X67.684 Y41.067
X67.651 Y41.058
X67.618 Y41.055
X66.614
X66.58 Y41.058
X66.547 Y41.067
X65.616 Y41.403
Y40.698
X66.547 Y41.033
X66.58 Y41.042
X66.614 Y41.045
X67.618
X67.652 Y41.042
X67.685 Y41.033
X68.616 Y40.696
Y41.049
X68.612 Y41.068
X68.599 Y41.082
X68.581 Y41.089
X68.562 Y41.086
X68.38 Y41.012
X68.19 Y40.966
X68.173 Y40.957
X68.162 Y40.941
X68.16 Y40.922
X68.167 Y40.904
X68.21 Y40.859 Z-18.645 F85.
X68.262 Y40.825 Z-18.647
X68.321 Y40.806 Z-18.65
X68.383 Y40.802 Z-18.652
X68.444 Y40.813 Z-18.654
X68.501 Y40.84 Z-18.656
X68.549 Y40.879 Z-18.658
X68.585 Y40.929 Z-18.66
X68.608 Y40.987 Z-18.663
X68.616 Y41.049 Z-18.665
X68.609 Y41.111 Z-18.667
X68.586 Y41.168 Z-18.669
X68.55 Y41.219 Z-18.671
X68.502 Y41.259 Z-18.673
X68.445 Y41.285 Z-18.676
X68.384 Y41.297 Z-18.678
X68.322 Y41.293 Z-18.68
X68.263 Y41.274 Z-18.682
X68.211 Y41.241 Z-18.684
X68.168 Y41.195 Z-18.687
X68.138 Y41.141 Z-18.689
X68.122 Y41.081 Z-18.691
Y41.019 Z-18.693
X68.138 Y40.958 Z-18.695
X68.168 Y40.904 Z-18.697
X68.21 Y40.858 Z-18.7
X68.263 Y40.825 Z-18.702
X68.322 Y40.806 Z-18.704
X68.384 Y40.802 Z-18.706
X68.445 Y40.814 Z-18.708
X68.501 Y40.84 Z-18.71
X68.549 Y40.88 Z-18.713
X68.586 Y40.93 Z-18.715
X68.609 Y40.988 Z-18.717
X68.616 Y41.049 Z-18.719
Y41.402 F254.
X67.684 Y41.067
X67.651 Y41.058
X67.618 Y41.055
X66.614
X66.58 Y41.058
X66.547 Y41.067
X65.616 Y41.403
Y40.698
X66.547 Y41.033
X66.58 Y41.042
X66.614 Y41.045
X67.618
X67.652 Y41.042
X67.685 Y41.033
X68.616 Y40.696
Y41.049
X68.611 Y41.07
X68.595 Y41.084
X68.574 Y41.089
X68.374 Y41.075
X68.196 Y41.168
X68.175 Y41.173
X68.155 Y41.166
X68.142 Y41.149
X68.124 Y41.089 Z-18.721 F85.
X68.122 Y41.026 Z-18.724
X68.135 Y40.965 Z-18.726
X68.164 Y40.909 Z-18.728
X68.206 Y40.862 Z-18.73
X68.258 Y40.827 Z-18.732
X68.317 Y40.807 Z-18.735
X68.38 Y40.802 Z-18.737
X68.442 Y40.813 Z-18.739
X68.499 Y40.839 Z-18.741
X68.548 Y40.878 Z-18.743
X68.585 Y40.929 Z-18.746
X68.608 Y40.987 Z-18.748
X68.616 Y41.049 Z-18.75
Y41.402 F254.
X67.684 Y41.067
X67.651 Y41.058
X67.618 Y41.055
X66.614
X66.58 Y41.058
X66.547 Y41.067
X65.616 Y41.403
Y40.698
X66.547 Y41.033
X66.58 Y41.042
X66.614 Y41.045
X67.618
X67.652 Y41.042
X67.685 Y41.033
X68.616 Y40.696
Y41.049
X68.614 Y41.069 Z-18.745
X68.607 Y41.087 Z-18.739
X68.589 Y41.109 Z-18.711
X68.58 Y41.116 Z-18.671
G0 Z5.
X67.575 Y60.349
Z-17.341
G1 X67.582 Y60.341 Z-17.38 F85.
X67.602 Y60.321 Z-17.409
X67.631 Y60.297 Z-17.42
X67.696 Y60.257 Z-17.422
X67.767 Y60.231 Z-17.425
X67.843 Y60.22 Z-17.427
X67.919 Y60.224 Z-17.43
X67.993 Y60.244 Z-17.432
X68.061 Y60.279 Z-17.435
X68.12 Y60.327 Z-17.437
X68.169 Y60.386 Z-17.44
X68.205 Y60.453 Z-17.442
X68.226 Y60.526 Z-17.445
X68.232 Y60.602 Z-17.447
X68.223 Y60.678 Z-17.45
X68.198 Y60.75 Z-17.452
X68.159 Y60.816 Z-17.455
X68.107 Y60.872 Z-17.457
X68.046 Y60.917 Z-17.46
X67.976 Y60.948 Z-17.462
X67.901 Y60.965 Z-17.465
X67.825 Y60.966 Z-17.467
X67.75 Y60.952 Z-17.47
X67.68 Y60.922 Z-17.472
X67.617 Y60.879 Z-17.475
X67.564 Y60.824 Z-17.477
X67.523 Y60.759 Z-17.479
X67.496 Y60.688 Z-17.482
X67.485 Y60.612 Z-17.484
X67.489 Y60.536 Z-17.487
X67.508 Y60.462 Z-17.489
X67.542 Y60.394 Z-17.492
X67.589 Y60.334 Z-17.494
X67.647 Y60.285 Z-17.497
X67.714 Y60.248 Z-17.499
X67.787 Y60.226 Z-17.502
X67.863 Y60.219 Z-17.504
X67.939 Y60.228 Z-17.507
X68.012 Y60.252 Z-17.509
X68.078 Y60.291 Z-17.512
X68.135 Y60.342 Z-17.514
X68.18 Y60.403 Z-17.517
X68.212 Y60.472 Z-17.519
X68.229 Y60.547 Z-17.522
X68.231 Y60.623 Z-17.524
X68.217 Y60.698 Z-17.527
X68.189 Y60.769 Z-17.529
X68.146 Y60.832 Z-17.532
X68.092 Y60.886 Z-17.534
X68.028 Y60.927 Z-17.537
X67.956 Y60.954 Z-17.539
X67.881 Y60.967 Z-17.541
X67.805 Y60.964 Z-17.544
X67.731 Y60.945 Z-17.546
X67.662 Y60.912 Z-17.549
X67.601 Y60.865 Z-17.551
X67.552 Y60.808 Z-17.554
X67.515 Y60.741 Z-17.556
X67.492 Y60.668 Z-17.559
X67.484 Y60.592 Z-17.561
X67.492 Y60.516 Z-17.564
X67.516 Y60.443 Z-17.566
X67.553 Y60.377 Z-17.569
X67.604 Y60.32 Z-17.571
X67.665 Y60.274 Z-17.574
X67.734 Y60.241 Z-17.576
X67.806 Y60.21 F254.
G3 X68.051 Y60.106 R2.491
G1 X68.09 Y60.1
X68.128 Y60.109
X68.16 Y60.131
X68.181 Y60.164
X68.189 Y60.203
Y60.897
X68.181 Y60.936
X68.16 Y60.969
X68.128 Y60.991
X68.09 Y61.
X68.051 Y60.994
G3 X67.744 Y60.878 R13.347
G2 X67.421 Y60.816 R0.896
G3 X66.983 Y60.799 R6.491
G2 X66.548 Y60.853 R1.117
G1 X66.365 Y60.921
X66.182 Y60.993
X66.143 Y60.999
X66.105 Y60.99
X66.073 Y60.967
X66.051 Y60.935
X66.044 Y60.896
Y60.204
X66.051 Y60.165
X66.073 Y60.132
X66.105 Y60.11
X66.143 Y60.101
X66.182 Y60.107
G3 X66.442 Y60.216 R2.786
G2 X66.718 Y60.28 R0.645
G3 X67.133 Y60.287 R27.531
G2 X67.549 Y60.278 R4.88
G1 X67.643 Y60.266
X67.734 Y60.241
G2 X67.973 Y59.916 R0.36
G3 X68.213 Y59.592 R0.365
G1 X68.616 Y59.445
Y61.655
X67.576 Y61.276
X67.544 Y61.267
X67.51 Y61.264
X66.751 Y61.26
X66.719 Y61.263
X66.687 Y61.27
X66.465 Y61.344
X66.46 Y61.346
X65.616 Y61.655
Y59.447
X65.625 Y59.45
X66.655 Y59.824
X66.688 Y59.832
X66.721 Y59.835
X67.426 Y59.841
X67.44 Y59.84
X67.521 Y59.835
X67.549 Y59.832
X67.576 Y59.824
X68.213 Y59.592
X68.234 Y59.59
X68.254 Y59.601
X68.264 Y59.619
Y59.641
X68.184 Y59.896
X67.82 Y60.502
X67.717 Y60.69
X67.704 Y60.704
X67.686 Y60.71
X67.667 Y60.707
X67.652 Y60.696
X67.611 Y60.633 Z-17.579 F85.
X67.583 Y60.563 Z-17.581
X67.569 Y60.489 Z-17.584
X67.571 Y60.414 Z-17.587
X67.588 Y60.341 Z-17.589
X67.619 Y60.273 Z-17.592
X67.663 Y60.212 Z-17.595
X67.718 Y60.161 Z-17.597
X67.783 Y60.122 Z-17.6
X67.853 Y60.097 Z-17.602
X67.928 Y60.087 Z-17.605
X68.003 Y60.091 Z-17.608
X68.075 Y60.111 Z-17.61
X68.142 Y60.145 Z-17.613
X68.202 Y60.191 Z-17.616
X68.25 Y60.248 Z-17.618
X68.286 Y60.314 Z-17.621
X68.309 Y60.386 Z-17.623
X68.316 Y60.46 Z-17.626
X68.309 Y60.535 Z-17.629
X68.287 Y60.607 Z-17.631
X68.25 Y60.673 Z-17.634
X68.202 Y60.73 Z-17.637
X68.143 Y60.776 Z-17.639
X68.076 Y60.81 Z-17.642
X68.003 Y60.83 Z-17.645
X67.928 Y60.834 Z-17.647
X67.854 Y60.824 Z-17.65
X67.783 Y60.799 Z-17.652
G2 X67.509 Y60.737 R0.642 F254.
G3 X67.006 Y60.716 R5.959
G2 X66.506 Y60.782 R1.176
G1 X66.344 Y60.847
X66.182 Y60.911
X66.143 Y60.917
X66.105 Y60.909
X66.073 Y60.886
X66.051 Y60.853
X66.044 Y60.814
Y60.286
X66.051 Y60.248
X66.073 Y60.215
X66.105 Y60.192
X66.143 Y60.183
X66.182 Y60.189
G3 X66.445 Y60.299 R2.822
G2 X66.722 Y60.362 R0.642
G3 X67.226 Y60.384 R5.945
G2 X67.725 Y60.318 R1.175
G1 X67.888 Y60.253
X68.051 Y60.189
X68.09 Y60.182
X68.128 Y60.191
X68.16 Y60.214
X68.181 Y60.247
X68.189 Y60.285
Y60.815
X68.181 Y60.853
X68.16 Y60.886
X68.128 Y60.909
X68.09 Y60.918
X68.051 Y60.912
G3 X67.787 Y60.801 R2.836
G1 X67.783 Y60.799
G2 X67.335 Y60.944 R0.344
G3 X66.929 Y61.183 R0.464
G1 X66.723
X66.689 Y61.186
X66.656 Y61.195
X65.616 Y61.571
Y59.531
X66.656 Y59.905
X66.689 Y59.914
X66.723 Y59.917
X67.509
X67.543 Y59.914
X67.576 Y59.906
X68.616 Y59.529
Y61.572
X67.576 Y61.194
X67.543 Y61.186
X67.509 Y61.183
X66.929
X66.907 Y61.176
X66.893 Y61.158
X66.721 Y60.728
X66.497 Y60.535
X66.46 Y60.471
X66.457 Y60.455
X66.467 Y60.441
X66.483 Y60.437
X66.497 Y60.445
X66.54 Y60.507 Z-17.655 F85.
X66.57 Y60.576 Z-17.658
X66.585 Y60.65 Z-17.66
Y60.725 Z-17.663
X66.57 Y60.798 Z-17.666
X66.541 Y60.868 Z-17.668
X66.498 Y60.93 Z-17.671
X66.444 Y60.982 Z-17.673
X66.381 Y61.022 Z-17.676
X66.311 Y61.049 Z-17.679
X66.237 Y61.061 Z-17.681
X66.162 Y61.059 Z-17.684
X66.089 Y61.041 Z-17.687
X66.021 Y61.009 Z-17.689
X65.961 Y60.964 Z-17.692
X65.91 Y60.908 Z-17.694
X65.873 Y60.843 Z-17.697
X65.848 Y60.772 Z-17.7
X65.839 Y60.698 Z-17.702
X65.844 Y60.623 Z-17.705
X65.865 Y60.551 Z-17.708
X65.899 Y60.484 Z-17.71
X65.947 Y60.425 Z-17.713
X66.004 Y60.378 Z-17.715
X66.071 Y60.342 Z-17.718
X66.143 Y60.321 Z-17.721
X66.218 Y60.314 Z-17.723
X66.292 Y60.323 Z-17.726
X66.364 Y60.346 Z-17.729
X66.437 Y60.38 F254.
G2 X66.706 Y60.44 R0.63
G3 X67.223 Y60.464 R5.903
G2 X67.735 Y60.397 R1.193
G1 X67.893 Y60.334
X68.051 Y60.271
X68.09 Y60.265
X68.128 Y60.274
X68.16 Y60.297
X68.181 Y60.33
X68.189 Y60.368
Y60.733
X68.181 Y60.771
X68.16 Y60.804
X68.128 Y60.827
X68.09 Y60.836
X68.051 Y60.83
G3 X67.791 Y60.72 R2.852
G2 X67.517 Y60.658 R0.635
G3 X67.012 Y60.636 R5.971
G2 X66.511 Y60.699 R1.213
G1 X66.346 Y60.762
X66.182 Y60.825
X66.143 Y60.831
X66.105 Y60.822
X66.073 Y60.799
X66.051 Y60.766
X66.044 Y60.727
Y60.37
X66.051 Y60.332
X66.073 Y60.299
X66.105 Y60.276
X66.143 Y60.267
X66.182 Y60.273
X66.364 Y60.346
G2 X66.792 Y60.214 R0.342
G3 X67.184 Y59.996 R0.462
G1 X67.518 Y59.997
X67.552 Y59.994
X67.586 Y59.985
X68.616 Y59.611
Y61.49
X67.584 Y61.115
X67.551 Y61.106
X67.517 Y61.103
X66.72 Y61.102
X66.687 Y61.105
X66.655 Y61.113
X66.278 Y61.244
X65.616 Y61.486
Y59.615
X66.64 Y59.984
X66.673 Y59.993
X66.707 Y59.996
X67.184
X67.204 Y60.002
X67.219 Y60.016
X67.328 Y60.21
X67.337 Y60.221
X67.35 Y60.228
X67.998 Y60.448
X68.021
X68.041 Y60.436
X68.087 Y60.381
X68.101 Y60.37
X68.12 Y60.367
X68.194 Y60.379 Z-17.731 F85.
X68.264 Y60.406 Z-17.734
X68.327 Y60.447 Z-17.736
X68.381 Y60.499 Z-17.739
X68.423 Y60.561 Z-17.742
X68.452 Y60.631 Z-17.744
X68.467 Y60.704 Z-17.747
Y60.779 Z-17.75
X68.451 Y60.853 Z-17.752
X68.421 Y60.922 Z-17.755
X68.378 Y60.984 Z-17.758
X68.324 Y61.035 Z-17.76
X68.26 Y61.075 Z-17.763
X68.19 Y61.102 Z-17.765
X68.116 Y61.113 Z-17.768
X68.041 Y61.11 Z-17.771
X67.968 Y61.092 Z-17.773
X67.9 Y61.06 Z-17.776
X67.84 Y61.014 Z-17.779
X67.791 Y60.958 Z-17.781
X67.753 Y60.893 Z-17.784
X67.73 Y60.821 Z-17.786
X67.721 Y60.747 Z-17.789
X67.727 Y60.672 Z-17.792
X67.748 Y60.6 Z-17.794
X67.783 Y60.533 Z-17.797
X67.83 Y60.475 Z-17.8
X67.889 Y60.428 Z-17.802
X67.955 Y60.393 Z-17.805
X68.051 Y60.357 F254.
X68.09 Y60.35
X68.128 Y60.359
X68.16 Y60.382
X68.181 Y60.415
X68.189 Y60.454
Y60.645
X68.181 Y60.684
X68.16 Y60.717
X68.128 Y60.74
X68.089 Y60.749
X68.051 Y60.743
G3 X67.8 Y60.639 R2.862
G2 X67.536 Y60.58 R0.621
G1 X66.695 Y60.581
G2 X66.432 Y60.64 R0.619
G3 X66.182 Y60.743 R2.884
G1 X66.143 Y60.749
X66.105 Y60.741
X66.073 Y60.718
X66.051 Y60.685
X66.044 Y60.646
Y60.454
X66.051 Y60.416
X66.073 Y60.383
X66.105 Y60.36
X66.143 Y60.351
X66.182 Y60.357
G3 X66.432 Y60.46 R2.874
G2 X66.695 Y60.519 R0.62
G1 X67.536 Y60.52
G2 X67.801 Y60.46 R0.62
G1 X67.955 Y60.393
G2 X68.175 Y60.082 R0.352
G3 X68.401 Y59.775 R0.342
G1 X68.616 Y59.698
Y61.405
X68.365 Y61.31
X67.603 Y61.036
X67.57 Y61.028
X67.536 Y61.025
X66.695
X66.661 Y61.028
X66.629 Y61.037
X65.616 Y61.402
Y59.699
X65.625 Y59.702
X66.629 Y60.063
X66.662 Y60.072
X66.695 Y60.075
X67.536
X67.57 Y60.072
X67.603 Y60.064
X68.401 Y59.775
X68.422 Y59.774
X68.441 Y59.784
X68.452 Y59.802
Y59.823
X68.4 Y60.002
X68.263 Y60.37
X68.256 Y60.382
X68.246 Y60.39
X68.186 Y60.425
X68.163 Y60.43
X68.141 Y60.421
X68.128 Y60.401
X68.13 Y60.377
X68.145 Y60.358
X68.168 Y60.352
X68.242 Y60.361 Z-17.807 F85.
X68.313 Y60.385 Z-17.81
X68.378 Y60.424 Z-17.813
X68.434 Y60.474 Z-17.815
X68.479 Y60.534 Z-17.818
X68.51 Y60.602 Z-17.821
X68.528 Y60.675 Z-17.823
X68.53 Y60.75 Z-17.826
X68.518 Y60.824 Z-17.828
X68.491 Y60.894 Z-17.831
X68.45 Y60.958 Z-17.834
X68.398 Y61.012 Z-17.836
X68.336 Y61.054 Z-17.839
X68.267 Y61.083 Z-17.842
X68.193 Y61.098 Z-17.844
X68.118 Y61.097 Z-17.847
X68.044 Y61.082 Z-17.849
X67.975 Y61.052 Z-17.852
X67.914 Y61.009 Z-17.855
X67.862 Y60.955 Z-17.857
X67.822 Y60.891 Z-17.86
X67.795 Y60.821 Z-17.863
X67.784 Y60.747 Z-17.865
X67.787 Y60.672 Z-17.868
X67.805 Y60.599 Z-17.87
X67.838 Y60.531 Z-17.873
X67.883 Y60.471 Z-17.876
X67.939 Y60.421 Z-17.878
X68.004 Y60.384 Z-17.881
X68.129 Y60.333 F254.
X68.167 Y60.327
X68.205 Y60.335
X68.236 Y60.357
X68.257 Y60.39
X68.265 Y60.427
Y60.671
X68.257 Y60.709
X68.236 Y60.741
X68.205 Y60.763
X68.167 Y60.772
X68.129 Y60.766
G3 X67.839 Y60.646 R3.374
G2 X67.533 Y60.577 R0.728
G1 X66.698 Y60.573
G2 X66.393 Y60.645 R0.675
G3 X66.104 Y60.767 R2.454
G1 X66.066 Y60.772
X66.028 Y60.763
X65.996 Y60.741
X65.975 Y60.708
X65.968 Y60.67
Y60.426
X65.975 Y60.388
X65.996 Y60.356
X66.028 Y60.334
X66.065 Y60.325
X66.103 Y60.332
G3 X66.376 Y60.451 R2.45
G2 X66.665 Y60.522 R0.641
G3 X67.236 Y60.534 R16.746
G2 X67.803 Y60.464 R1.759
G1 X67.886 Y60.435
X67.967 Y60.401
X68.004 Y60.384
G2 X68.178 Y60.125 R0.295
G3 X68.361 Y59.873 R0.28
G1 X68.616 Y59.779
Y61.322
X68.148 Y61.147
X67.63 Y60.96
X67.598 Y60.951
X67.564 Y60.948
X66.696 Y60.944
X66.663 Y60.947
X66.631 Y60.955
X66.136 Y61.128
X65.616 Y61.32
Y59.778
X66.6 Y60.139
X66.633 Y60.148
X66.667 Y60.151
X67.535 Y60.156
X67.564 Y60.154
X67.592 Y60.148
X67.7 Y60.116
X67.713 Y60.112
X68.361 Y59.873
X68.398 Y59.867
X68.434 Y59.874
X68.465 Y59.894
X68.486 Y59.924
X68.495 Y59.96
X68.491 Y59.997
X68.474 Y60.029
X68.446 Y60.053
X67.639 Y60.518
X67.605 Y60.53
X67.569 Y60.529
X67.536 Y60.515
X67.509 Y60.491
X67.493 Y60.458
X67.49 Y60.422
X67.499 Y60.388
X67.539 Y60.324 Z-17.884 F85.
X67.59 Y60.269 Z-17.886
X67.651 Y60.225 Z-17.889
X67.72 Y60.195 Z-17.892
X67.793 Y60.178 Z-17.894
X67.868 Y60.177 Z-17.897
X67.942 Y60.191 Z-17.899
X68.011 Y60.22 Z-17.902
X68.074 Y60.261 Z-17.905
X68.127 Y60.315 Z-17.907
X68.168 Y60.377 Z-17.91
X68.196 Y60.447 Z-17.913
X68.209 Y60.521 Z-17.915
X68.207 Y60.596 Z-17.918
X68.191 Y60.669 Z-17.92
X68.16 Y60.738 Z-17.923
X68.116 Y60.799 Z-17.926
X68.06 Y60.85 Z-17.928
X67.996 Y60.888 Z-17.931
X67.925 Y60.913 Z-17.934
X67.851 Y60.924 Z-17.936
X67.776 Y60.919 Z-17.939
X67.703 Y60.9 Z-17.941
X67.636 Y60.866 Z-17.944
X67.577 Y60.82 Z-17.947
X67.528 Y60.762 Z-17.949
X67.492 Y60.696 Z-17.952
X67.47 Y60.625 Z-17.955
X67.462 Y60.55 Z-17.957
G3 X67.815 Y60.197 R0.353
X68.168 Y60.55 R0.353
X68.135 Y60.583 R0.033 F254.
X68.102 Y60.55 R0.033
X68.135 Y60.517 R0.033
X68.168 Y60.55 R0.033
G1 X68.162 Y60.582
X68.148 Y60.61
X68.125 Y60.632
X68.096 Y60.646
X68.064 Y60.65
X66.098 Y60.583
G3 X66.065 Y60.551 R0.032
X66.097 Y60.519 R0.032
X66.13 Y60.551 R0.032
X66.098 Y60.583 R0.032
G2 X65.875 Y60.727 R0.244
G3 X65.696 Y60.795 R0.135
X65.616 Y60.671 R0.135
G1 Y59.863
X66.591 Y60.219
X66.624 Y60.228
X66.658 Y60.231
X67.563 Y60.233
X67.597 Y60.23
X67.631 Y60.221
X68.616 Y59.862
Y61.238
X67.631 Y60.879
X67.598 Y60.87
X67.563 Y60.867
X66.672 Y60.866
X66.638 Y60.869
X66.605 Y60.878
X65.616 Y61.238
Y60.671
X65.621 Y60.64
X65.636 Y60.612
X65.963 Y60.163
X65.988 Y60.139
X66.02 Y60.125
X66.054 Y60.122
X66.128 Y60.137 Z-17.96 F85.
X66.197 Y60.166 Z-17.962
X66.259 Y60.209 Z-17.965
X66.311 Y60.263 Z-17.968
X66.351 Y60.326 Z-17.97
X66.378 Y60.396 Z-17.973
X66.391 Y60.47 Z-17.976
X66.388 Y60.545 Z-17.978
X66.37 Y60.618 Z-17.981
X66.339 Y60.686 Z-17.983
X66.294 Y60.746 Z-17.986
X66.238 Y60.797 Z-17.989
X66.173 Y60.835 Z-17.991
X66.102 Y60.859 Z-17.994
X66.027 Y60.868 Z-17.997
X65.952 Y60.863 Z-17.999
X65.88 Y60.842 Z-18.002
X65.813 Y60.808 Z-18.004
X65.755 Y60.761 Z-18.007
X65.707 Y60.703 Z-18.01
X65.672 Y60.636 Z-18.012
X65.65 Y60.564 Z-18.015
X65.643 Y60.49 Z-18.018
X65.652 Y60.415 Z-18.02
X65.675 Y60.344 Z-18.023
X65.712 Y60.278 Z-18.026
X65.762 Y60.222 Z-18.028
X65.821 Y60.176 Z-18.031
X65.889 Y60.143 Z-18.033
G3 X66.254 Y60.313 R0.285
X66.085 Y60.678 R0.285
G1 X66.039 Y60.695 F254.
X66. Y60.701
X65.962 Y60.693
X65.93 Y60.67
X65.909 Y60.637
X65.901 Y60.599
Y60.501
X65.909 Y60.463
X65.93 Y60.43
X65.962 Y60.407
X66. Y60.399
X66.039 Y60.405
X66.266 Y60.488
X66.292 Y60.506
X66.307 Y60.534
Y60.566
X66.292 Y60.594
X66.266 Y60.612
X66.085 Y60.678
X66.053 Y60.698
X66.03 Y60.727
X66.02 Y60.763
X66.023 Y60.8
X66.04 Y60.834
X66.069 Y60.858
X66.104 Y60.871
X66.141 Y60.87
X68.151 Y60.42
X68.194 Y60.404
X68.233 Y60.398
X68.271 Y60.407
X68.303 Y60.429
X68.324 Y60.462
X68.332 Y60.501
Y60.597
X68.324 Y60.636
X68.303 Y60.669
X68.271 Y60.691
X68.233 Y60.7
X68.194 Y60.694
X67.966 Y60.612
X67.94 Y60.594
X67.925 Y60.566
Y60.534
X67.94 Y60.506
X67.966 Y60.488
X68.151 Y60.42
G2 X68.303 Y60.213 R0.231
G3 X68.454 Y60.006 R0.231
G1 X68.616 Y59.947
Y61.15
X67.658 Y60.802
X67.625 Y60.793
X67.59 Y60.79
X66.641 Y60.791
X66.607 Y60.794
X66.573 Y60.803
X65.616 Y61.153
Y59.947
X66.573 Y60.297
X66.607 Y60.306
X66.641 Y60.309
X67.59 Y60.31
X67.625 Y60.307
X67.658 Y60.298
X68.454 Y60.006
X68.477 Y60.005
X68.496 Y60.017
X68.506 Y60.037
X68.503 Y60.06
X68.438 Y60.202
X68.431 Y60.22
X68.434 Y60.24
X68.6 Y60.626
X68.603 Y60.639
X68.602 Y60.652
X68.574 Y60.722 Z-18.036 F85.
X68.531 Y60.784 Z-18.039
X68.478 Y60.836 Z-18.041
X68.414 Y60.877 Z-18.044
X68.344 Y60.903 Z-18.047
X68.269 Y60.914 Z-18.049
X68.194 Y60.91 Z-18.052
X68.122 Y60.89 Z-18.054
X68.055 Y60.856 Z-18.057
X67.996 Y60.809 Z-18.06
X67.949 Y60.751 Z-18.062
X67.914 Y60.684 Z-18.065
X67.894 Y60.612 Z-18.068
X67.889 Y60.537 Z-18.07
X67.9 Y60.462 Z-18.073
X67.926 Y60.392 Z-18.075
X67.965 Y60.328 Z-18.078
X68.017 Y60.274 Z-18.081
X68.079 Y60.231 Z-18.083
X68.148 Y60.202 Z-18.086
X68.222 Y60.188 Z-18.089
X68.297 Y60.19 Z-18.091
X68.37 Y60.206 Z-18.094
X68.439 Y60.238 Z-18.096
X68.499 Y60.283 Z-18.099
X68.549 Y60.339 Z-18.102
X68.586 Y60.404 Z-18.104
X68.609 Y60.476 Z-18.107
X68.616 Y60.551 Z-18.11
Y61.07 F254.
X67.658 Y60.721
X67.625 Y60.712
X67.59 Y60.709
X66.641
X66.607 Y60.712
X66.574 Y60.721
X65.616 Y61.07
Y60.032
X66.574 Y60.379
X66.607 Y60.388
X66.641 Y60.391
X67.59
X67.624 Y60.388
X67.658 Y60.379
X68.616 Y60.032
Y60.551
X68.609 Y60.573
X68.591 Y60.587
X68.568 Y60.588
X68.549 Y60.575
X68.465 Y60.473
X68.439 Y60.346
X68.441 Y60.324
X68.456 Y60.307
X68.478 Y60.302
X68.499 Y60.309
X68.547 Y60.357 Z-18.112 F85.
X68.584 Y60.414 Z-18.114
X68.608 Y60.478 Z-18.117
X68.616 Y60.545 Z-18.119
X68.61 Y60.613 Z-18.122
X68.588 Y60.677 Z-18.124
X68.553 Y60.735 Z-18.126
X68.505 Y60.784 Z-18.129
X68.448 Y60.821 Z-18.131
X68.384 Y60.844 Z-18.133
X68.316 Y60.853 Z-18.136
X68.249 Y60.846 Z-18.138
X68.184 Y60.824 Z-18.141
X68.126 Y60.788 Z-18.143
X68.078 Y60.74 Z-18.145
X68.041 Y60.683 Z-18.148
X68.018 Y60.619 Z-18.15
X68.01 Y60.551 Z-18.152
X68.017 Y60.484 Z-18.155
X68.039 Y60.419 Z-18.157
X68.075 Y60.361 Z-18.16
X68.123 Y60.313 Z-18.162
X68.18 Y60.277 Z-18.164
X68.245 Y60.254 Z-18.167
X68.312 Y60.246 Z-18.169
X68.38 Y60.253 Z-18.172
X68.444 Y60.276 Z-18.174
X68.502 Y60.312 Z-18.176
X68.55 Y60.36 Z-18.179
X68.586 Y60.417 Z-18.181
X68.609 Y60.482 Z-18.183
X68.616 Y60.549 Z-18.186
Y60.982 F254.
X67.685 Y60.644
X67.652 Y60.635
X67.618 Y60.632
X66.614 Y60.633
X66.58 Y60.636
X66.547 Y60.645
X65.616 Y60.984
Y60.116
X66.547 Y60.455
X66.58 Y60.464
X66.614 Y60.467
X67.618 Y60.468
X67.652 Y60.465
X67.685 Y60.456
X68.616 Y60.116
Y60.549
X68.611 Y60.568
X68.598 Y60.583
X68.579 Y60.589
X68.56 Y60.585
X68.384 Y60.499
X68.204 Y60.424
X68.189 Y60.413
X68.181 Y60.395
X68.182 Y60.375
X68.193 Y60.359
X68.245 Y60.323 Z-18.188 F85.
X68.303 Y60.302 Z-18.19
X68.365 Y60.295 Z-18.192
X68.426 Y60.303 Z-18.195
X68.484 Y60.326 Z-18.197
X68.535 Y60.362 Z-18.199
X68.575 Y60.41 Z-18.201
X68.602 Y60.466 Z-18.203
X68.615 Y60.527 Z-18.205
X68.613 Y60.589 Z-18.208
X68.596 Y60.648 Z-18.21
X68.565 Y60.702 Z-18.212
X68.522 Y60.747 Z-18.214
X68.469 Y60.78 Z-18.216
X68.41 Y60.799 Z-18.218
X68.348 Y60.803 Z-18.221
X68.287 Y60.792 Z-18.223
X68.23 Y60.767 Z-18.225
X68.181 Y60.728 Z-18.227
X68.143 Y60.679 Z-18.229
X68.118 Y60.622 Z-18.232
X68.108 Y60.56 Z-18.234
X68.113 Y60.498 Z-18.236
X68.132 Y60.44 Z-18.238
X68.166 Y60.387 Z-18.24
X68.211 Y60.344 Z-18.242
X68.265 Y60.314 Z-18.245
X68.325 Y60.297 Z-18.247
X68.387 Y60.296 Z-18.249
X68.448 Y60.31 Z-18.251
X68.504 Y60.338 Z-18.253
X68.551 Y60.379 Z-18.255
X68.586 Y60.429 Z-18.258
X68.609 Y60.487 Z-18.26
X68.616 Y60.549 Z-18.262
Y60.911 F254.
X67.684 Y60.576
X67.651 Y60.567
X67.618 Y60.564
X66.614
X66.58 Y60.567
X66.547 Y60.576
X65.616 Y60.914
Y60.186
X66.547 Y60.524
X66.58 Y60.533
X66.614 Y60.536
X67.618
X67.652 Y60.533
X67.685 Y60.524
X68.616 Y60.186
Y60.549
X68.609 Y60.587
X68.587 Y60.62
X68.555 Y60.641
X68.517 Y60.649
X68.479 Y60.642
X68.218 Y60.535
X68.185 Y60.514
X68.163 Y60.481
X68.155 Y60.443
X68.163 Y60.405
X68.184 Y60.373
X68.233 Y60.334 Z-18.264 F85.
X68.289 Y60.308 Z-18.266
X68.351 Y60.297 Z-18.269
X68.413 Y60.302 Z-18.271
X68.472 Y60.321 Z-18.273
X68.524 Y60.354 Z-18.275
X68.567 Y60.399 Z-18.277
X68.598 Y60.454 Z-18.279
X68.614 Y60.514 Z-18.282
X68.615 Y60.576 Z-18.284
X68.601 Y60.636 Z-18.286
X68.572 Y60.692 Z-18.288
X68.531 Y60.738 Z-18.29
X68.48 Y60.773 Z-18.292
X68.422 Y60.795 Z-18.295
X68.36 Y60.802 Z-18.297
X68.298 Y60.793 Z-18.299
X68.241 Y60.769 Z-18.301
X68.191 Y60.732 Z-18.303
X68.151 Y60.684 Z-18.306
X68.124 Y60.628 Z-18.308
X68.112 Y60.567 Z-18.31
X68.116 Y60.505 Z-18.312
X68.134 Y60.446 Z-18.314
X68.166 Y60.392 Z-18.316
X68.211 Y60.349 Z-18.319
X68.264 Y60.317 Z-18.321
X68.324 Y60.3 Z-18.323
X68.386 Y60.298 Z-18.325
X68.447 Y60.311 Z-18.327
X68.503 Y60.339 Z-18.329
X68.55 Y60.379 Z-18.332
X68.586 Y60.43 Z-18.334
X68.609 Y60.488 Z-18.336
X68.616 Y60.549 Z-18.338
Y60.908 F254.
X67.684 Y60.573
X67.651 Y60.564
X67.618 Y60.561
X66.614
X66.58 Y60.564
X66.547 Y60.573
X65.616 Y60.911
Y60.19
X66.547 Y60.527
X66.58 Y60.536
X66.614 Y60.539
X67.618
X67.652 Y60.536
X67.685 Y60.527
X68.616 Y60.189
Y60.549
X68.612 Y60.568
X68.599 Y60.582
X68.58 Y60.588
X68.561 Y60.585
X68.381 Y60.507
X68.193 Y60.45
X68.177 Y60.44
X68.167 Y60.423
X68.166 Y60.404
X68.175 Y60.386
X68.221 Y60.345 Z-18.34 F85.
X68.276 Y60.316 Z-18.343
X68.337 Y60.301 Z-18.345
X68.399 Y60.302 Z-18.347
X68.459 Y60.318 Z-18.349
X68.513 Y60.349 Z-18.351
X68.558 Y60.392 Z-18.353
X68.591 Y60.444 Z-18.356
X68.61 Y60.503 Z-18.358
X68.614 Y60.565 Z-18.36
X68.603 Y60.626 Z-18.362
X68.577 Y60.683 Z-18.364
X68.538 Y60.731 Z-18.367
X68.488 Y60.768 Z-18.369
X68.43 Y60.792 Z-18.371
X68.369 Y60.801 Z-18.373
X68.307 Y60.794 Z-18.375
X68.248 Y60.772 Z-18.377
X68.197 Y60.737 Z-18.38
X68.157 Y60.69 Z-18.382
X68.129 Y60.634 Z-18.384
X68.115 Y60.574 Z-18.386
X68.117 Y60.511 Z-18.388
X68.134 Y60.452 Z-18.39
X68.166 Y60.398 Z-18.393
X68.209 Y60.354 Z-18.395
X68.262 Y60.321 Z-18.397
X68.322 Y60.303 Z-18.399
X68.384 Y60.3 Z-18.401
X68.445 Y60.313 Z-18.404
X68.501 Y60.34 Z-18.406
X68.548 Y60.38 Z-18.408
X68.585 Y60.431 Z-18.41
X68.607 Y60.489 Z-18.412
X68.615 Y60.55 Z-18.414
Y60.907 F254.
X67.685 Y60.57
X67.652 Y60.561
X67.618 Y60.558
X66.614
X66.58 Y60.561
X66.547 Y60.57
X65.618 Y60.908
Y60.193
X66.547 Y60.53
X66.58 Y60.539
X66.614 Y60.542
X67.618
X67.652 Y60.539
X67.685 Y60.53
X68.615 Y60.193
Y60.55
X68.608 Y60.587
X68.588 Y60.619
X68.557 Y60.641
X68.52 Y60.65
X68.483 Y60.645
X68.217 Y60.556
X68.184 Y60.538
X68.161 Y60.508
X68.15 Y60.473
X68.152 Y60.435
X68.169 Y60.402
X68.212 Y60.357 Z-18.417 F85.
X68.264 Y60.324 Z-18.419
X68.324 Y60.305 Z-18.421
X68.386 Y60.302 Z-18.423
X68.447 Y60.314 Z-18.425
X68.503 Y60.341 Z-18.427
X68.55 Y60.381 Z-18.43
X68.587 Y60.432 Z-18.432
X68.609 Y60.49 Z-18.434
X68.616 Y60.551 Z-18.436
X68.608 Y60.613 Z-18.438
X68.585 Y60.671 Z-18.441
X68.548 Y60.721 Z-18.443
X68.5 Y60.76 Z-18.445
X68.443 Y60.786 Z-18.447
X68.382 Y60.797 Z-18.449
X68.32 Y60.793 Z-18.451
X68.261 Y60.774 Z-18.454
X68.209 Y60.74 Z-18.456
X68.167 Y60.695 Z-18.458
X68.137 Y60.64 Z-18.46
X68.122 Y60.58 Z-18.462
Y60.518 Z-18.464
X68.137 Y60.457 Z-18.467
X68.168 Y60.403 Z-18.469
X68.21 Y60.358 Z-18.471
X68.263 Y60.325 Z-18.473
X68.322 Y60.305 Z-18.475
X68.384 Y60.302 Z-18.478
X68.445 Y60.313 Z-18.48
X68.501 Y60.34 Z-18.482
X68.549 Y60.38 Z-18.484
X68.586 Y60.43 Z-18.486
X68.609 Y60.488 Z-18.488
X68.616 Y60.55 Z-18.491
Y60.903 F254.
X67.684 Y60.567
X67.651 Y60.559
X67.618 Y60.556
X66.614
X66.58 Y60.559
X66.547 Y60.568
X65.617 Y60.905
Y60.198
X66.547 Y60.533
X66.58 Y60.541
X66.614 Y60.544
X67.618
X67.652 Y60.541
X67.685 Y60.533
X68.616 Y60.196
Y60.55
X68.612 Y60.568
X68.599 Y60.582
X68.581 Y60.589
X68.562 Y60.586
X68.38 Y60.512
X68.19 Y60.465
X68.173 Y60.456
X68.163 Y60.44
X68.161 Y60.421
X68.168 Y60.403
X68.21 Y60.358 Z-18.493 F85.
X68.263 Y60.325 Z-18.495
X68.322 Y60.306 Z-18.497
X68.384 Y60.302 Z-18.499
X68.445 Y60.314 Z-18.501
X68.501 Y60.34 Z-18.504
X68.549 Y60.38 Z-18.506
X68.586 Y60.43 Z-18.508
X68.609 Y60.488 Z-18.51
X68.616 Y60.55 Z-18.512
X68.609 Y60.611 Z-18.515
X68.586 Y60.669 Z-18.517
X68.549 Y60.719 Z-18.519
X68.501 Y60.759 Z-18.521
X68.445 Y60.786 Z-18.523
X68.384 Y60.797 Z-18.525
X68.322 Y60.793 Z-18.528
X68.263 Y60.774 Z-18.53
X68.21 Y60.741 Z-18.532
X68.168 Y60.695 Z-18.534
X68.138 Y60.641 Z-18.536
X68.122 Y60.581 Z-18.538
Y60.518 Z-18.541
X68.138 Y60.458 Z-18.543
X68.168 Y60.404 Z-18.545
X68.21 Y60.358 Z-18.547
X68.263 Y60.325 Z-18.549
X68.322 Y60.306 Z-18.552
X68.384 Y60.302 Z-18.554
X68.445 Y60.314 Z-18.556
X68.501 Y60.34 Z-18.558
X68.549 Y60.38 Z-18.56
X68.586 Y60.43 Z-18.562
X68.609 Y60.488 Z-18.565
X68.616 Y60.55 Z-18.567
Y60.903 F254.
X67.684 Y60.567
X67.651 Y60.558
X67.618 Y60.555
X66.614
X66.58 Y60.558
X66.547 Y60.567
X65.617 Y60.905
Y60.198
X66.547 Y60.533
X66.58 Y60.542
X66.614 Y60.545
X67.618
X67.652 Y60.542
X67.685 Y60.533
X68.616 Y60.196
Y60.55
X68.612 Y60.568
X68.599 Y60.582
X68.581 Y60.589
X68.562 Y60.586
X68.38 Y60.512
X68.19 Y60.465
X68.173 Y60.456
X68.163 Y60.44
X68.161 Y60.421
X68.168 Y60.403
X68.21 Y60.358 Z-18.569 F85.
X68.263 Y60.325 Z-18.571
X68.322 Y60.306 Z-18.573
X68.384 Y60.302 Z-18.576
X68.445 Y60.314 Z-18.578
X68.501 Y60.34 Z-18.58
X68.549 Y60.38 Z-18.582
X68.586 Y60.43 Z-18.584
X68.609 Y60.488 Z-18.586
X68.616 Y60.55 Z-18.589
X68.609 Y60.611 Z-18.591
X68.586 Y60.669 Z-18.593
X68.549 Y60.719 Z-18.595
X68.501 Y60.759 Z-18.597
X68.445 Y60.786 Z-18.599
X68.384 Y60.797 Z-18.602
X68.322 Y60.793 Z-18.604
X68.263 Y60.774 Z-18.606
X68.21 Y60.741 Z-18.608
X68.168 Y60.695 Z-18.61
X68.138 Y60.641 Z-18.613
X68.122 Y60.581 Z-18.615
Y60.518 Z-18.617
X68.138 Y60.458 Z-18.619
X68.168 Y60.404 Z-18.621
X68.21 Y60.358 Z-18.623
X68.263 Y60.325 Z-18.626
X68.322 Y60.306 Z-18.628
X68.384 Y60.302 Z-18.63
X68.445 Y60.314 Z-18.632
X68.501 Y60.34 Z-18.634
X68.549 Y60.38 Z-18.636
X68.586 Y60.43 Z-18.639
X68.609 Y60.488 Z-18.641
X68.616 Y60.55 Z-18.643
Y60.903 F254.
X67.684 Y60.567
X67.651 Y60.558
X67.618 Y60.555
X66.614
X66.58 Y60.558
X66.547 Y60.567
X65.617 Y60.905
Y60.198
X66.547 Y60.533
X66.58 Y60.542
X66.614 Y60.545
X67.618
X67.652 Y60.542
X67.685 Y60.533
X68.616 Y60.196
Y60.55
X68.612 Y60.568
X68.599 Y60.582
X68.581 Y60.589
X68.562 Y60.586
X68.38 Y60.512
X68.19 Y60.465
X68.173 Y60.456
X68.163 Y60.44
X68.161 Y60.421
X68.168 Y60.403
X68.192 Y60.375 Z-18.644 F85.
X68.219 Y60.351 Z-18.646
X68.273 Y60.32 Z-18.648
X68.333 Y60.304 Z-18.65
X68.395 Y60.303 Z-18.652
X68.455 Y60.317 Z-18.654
X68.51 Y60.346 Z-18.656
X68.556 Y60.387 Z-18.659
X68.59 Y60.438 Z-18.661
X68.611 Y60.497 Z-18.663
X68.616 Y60.558 Z-18.665
X68.606 Y60.619 Z-18.667
X68.582 Y60.676 Z-18.669
X68.544 Y60.725 Z-18.672
X68.495 Y60.763 Z-18.674
X68.438 Y60.788 Z-18.676
X68.377 Y60.797 Z-18.678
X68.316 Y60.792 Z-18.68
X68.257 Y60.771 Z-18.682
X68.206 Y60.737 Z-18.685
X68.165 Y60.691 Z-18.687
X68.136 Y60.636 Z-18.689
X68.122 Y60.576 Z-18.691
X68.123 Y60.514 Z-18.693
X68.139 Y60.455 Z-18.695
X68.17 Y60.401 Z-18.698
X68.213 Y60.356 Z-18.7
X68.265 Y60.324 Z-18.702
X68.324 Y60.305 Z-18.704
X68.386 Y60.302 Z-18.706
X68.447 Y60.314 Z-18.708
X68.502 Y60.341 Z-18.711
X68.55 Y60.38 Z-18.713
X68.586 Y60.431 Z-18.715
X68.609 Y60.488 Z-18.717
X68.616 Y60.55 Z-18.719
Y60.903 F254.
X67.684 Y60.567
X67.651 Y60.558
X67.618 Y60.555
X66.614
X66.58 Y60.558
X66.547 Y60.567
X65.617 Y60.905
Y60.198
X66.547 Y60.533
X66.58 Y60.542
X66.614 Y60.545
X67.618
X67.652 Y60.542
X67.685 Y60.533
X68.616 Y60.196
Y60.55
X68.611 Y60.57
X68.595 Y60.585
X68.574 Y60.589
X68.374 Y60.575
X68.196 Y60.668
X68.175 Y60.673
X68.155 Y60.666
X68.141 Y60.649
X68.123 Y60.589 Z-18.721 F85.
X68.121 Y60.526 Z-18.724
X68.135 Y60.465 Z-18.726
X68.164 Y60.409 Z-18.728
X68.206 Y60.362 Z-18.73
X68.258 Y60.327 Z-18.732
X68.317 Y60.307 Z-18.735
X68.38 Y60.302 Z-18.737
X68.442 Y60.313 Z-18.739
X68.499 Y60.339 Z-18.741
X68.548 Y60.378 Z-18.743
X68.585 Y60.429 Z-18.746
X68.608 Y60.487 Z-18.748
X68.616 Y60.55 Z-18.75
Y60.903 F254.
X67.684 Y60.567
X67.651 Y60.558
X67.618 Y60.555
X66.614
X66.58 Y60.558
X66.547 Y60.567
X65.617 Y60.905
Y60.198
X66.547 Y60.533
X66.58 Y60.542
X66.614 Y60.545
X67.618
X67.652 Y60.542
X67.685 Y60.533
X68.616 Y60.196
Y60.55
X68.614 Y60.569 Z-18.745
X68.607 Y60.587 Z-18.739
X68.589 Y60.609 Z-18.711
X68.58 Y60.616 Z-18.671
G0 Z5.
X67.921 Y80.376
Z-17.341
G1 X67.911 Y80.377 Z-17.38 F85.
X67.883 Y80.38 Z-17.409
X67.845 Y80.381 Z-17.42
X67.769 Y80.37 Z-17.422
X67.698 Y80.345 Z-17.425
X67.632 Y80.305 Z-17.427
X67.577 Y80.253 Z-17.43
X67.533 Y80.19 Z-17.432
X67.502 Y80.12 Z-17.435
X67.487 Y80.046 Z-17.437
X67.486 Y79.969 Z-17.44
X67.502 Y79.895 Z-17.442
X67.532 Y79.824 Z-17.445
X67.576 Y79.762 Z-17.447
X67.632 Y79.71 Z-17.45
X67.697 Y79.67 Z-17.452
X67.768 Y79.644 Z-17.455
X67.844 Y79.633 Z-17.457
X67.92 Y79.638 Z-17.46
X67.994 Y79.658 Z-17.462
X68.062 Y79.693 Z-17.465
X68.121 Y79.741 Z-17.467
X68.17 Y79.8 Z-17.47
X68.205 Y79.867 Z-17.472
X68.227 Y79.941 Z-17.475
X68.232 Y80.017 Z-17.477
X68.223 Y80.092 Z-17.479
X68.198 Y80.165 Z-17.482
X68.159 Y80.23 Z-17.484
X68.107 Y80.286 Z-17.487
X68.045 Y80.331 Z-17.489
X67.976 Y80.362 Z-17.492
X67.901 Y80.379 Z-17.494
X67.825 Z-17.497
X67.75 Y80.365 Z-17.499
X67.679 Y80.335 Z-17.502
X67.616 Y80.292 Z-17.504
X67.564 Y80.237 Z-17.507
X67.523 Y80.172 Z-17.509
X67.496 Y80.101 Z-17.512
X67.485 Y80.025 Z-17.514
X67.489 Y79.949 Z-17.517
X67.509 Y79.875 Z-17.519
X67.543 Y79.807 Z-17.522
X67.59 Y79.747 Z-17.524
X67.648 Y79.698 Z-17.527
X67.715 Y79.661 Z-17.529
X67.788 Y79.64 Z-17.532
X67.865 Y79.633 Z-17.534
X67.94 Y79.642 Z-17.537
X68.013 Y79.666 Z-17.539
X68.079 Y79.705 Z-17.541
X68.135 Y79.756 Z-17.544
X68.181 Y79.817 Z-17.546
X68.213 Y79.886 Z-17.549
X68.23 Y79.961 Z-17.551
X68.231 Y80.037 Z-17.554
X68.217 Y80.112 Z-17.556
X68.189 Y80.183 Z-17.559
X68.146 Y80.246 Z-17.561
X68.091 Y80.3 Z-17.564
X68.027 Y80.341 Z-17.566
X67.956 Y80.368 Z-17.569
X67.881 Y80.38 Z-17.571
X67.804 Y80.377 Z-17.574
X67.73 Y80.358 Z-17.576
X67.659 Y80.337 F254.
X67.587 Y80.324
X67.513 Y80.319
G3 X67.026 Y80.296 R5.837
G2 X66.542 Y80.355 R1.166
G1 X66.362 Y80.423
X66.182 Y80.492
X66.143 Y80.499
X66.105 Y80.49
X66.073 Y80.467
X66.051 Y80.434
X66.044 Y80.396
Y79.703
X66.051 Y79.664
X66.073 Y79.631
X66.105 Y79.609
X66.143 Y79.6
X66.182 Y79.606
G3 X66.458 Y79.719 R3.687
G2 X66.749 Y79.782 R0.699
G3 X67.24 Y79.802 R6.076
G2 X67.726 Y79.736 R1.147
G1 X67.889 Y79.671
X68.051 Y79.605
X68.09 Y79.599
X68.128 Y79.608
X68.16 Y79.63
X68.181 Y79.663
X68.189 Y79.702
Y80.396
X68.181 Y80.435
X68.16 Y80.468
X68.128 Y80.491
X68.09 Y80.499
X68.051 Y80.493
G3 X67.789 Y80.383 R2.797
G1 X67.73 Y80.358
G2 X67.303 Y80.524 R0.347
G3 X66.911 Y80.761 R0.439
G1 X66.751 Y80.76
X66.718 Y80.763
X66.686 Y80.771
X66.334 Y80.892
X65.616 Y81.155
Y78.946
X66.66 Y79.325
X66.693 Y79.333
X66.727 Y79.336
X67.508
X67.542 Y79.333
X67.576 Y79.324
X68.616 Y78.943
Y81.153
X67.576 Y80.776
X67.544 Y80.767
X67.51 Y80.764
X66.911 Y80.761
X66.891 Y80.755
X66.877 Y80.74
X66.617 Y80.271
X66.605 Y80.261
X66.597 Y80.246
X66.512 Y79.939
Y79.918
X66.523 Y79.9
X66.542 Y79.89
X66.563 Y79.892
X66.581 Y79.904
X66.622 Y79.967 Z-17.579 F85.
X66.65 Y80.036 Z-17.581
X66.663 Y80.11 Z-17.584
X66.662 Y80.185 Z-17.587
X66.645 Y80.259 Z-17.589
X66.614 Y80.327 Z-17.592
X66.57 Y80.388 Z-17.595
X66.515 Y80.439 Z-17.597
X66.451 Y80.478 Z-17.6
X66.38 Y80.503 Z-17.602
X66.305 Y80.514 Z-17.605
X66.23 Y80.509 Z-17.608
X66.158 Y80.49 Z-17.61
X66.091 Y80.456 Z-17.613
X66.032 Y80.41 Z-17.616
X65.983 Y80.353 Z-17.618
X65.946 Y80.287 Z-17.621
X65.924 Y80.215 Z-17.623
X65.916 Y80.141 Z-17.626
X65.924 Y80.066 Z-17.629
X65.946 Y79.994 Z-17.631
X65.982 Y79.928 Z-17.634
X66.031 Y79.871 Z-17.637
X66.09 Y79.824 Z-17.639
X66.157 Y79.791 Z-17.642
X66.229 Y79.771 Z-17.645
X66.304 Y79.766 Z-17.647
X66.379 Y79.776 Z-17.65
X66.449 Y79.801 Z-17.652
G2 X66.722 Y79.862 R0.642 F254.
G3 X67.226 Y79.884 R5.945
G2 X67.725 Y79.818 R1.175
G1 X67.888 Y79.753
X68.051 Y79.689
X68.09 Y79.682
X68.128 Y79.691
X68.16 Y79.714
X68.181 Y79.747
X68.189 Y79.785
Y80.314
X68.181 Y80.353
X68.16 Y80.386
X68.128 Y80.408
X68.09 Y80.417
X68.051 Y80.411
G3 X67.787 Y80.301 R2.824
G2 X67.509 Y80.237 R0.643
G3 X67.005 Y80.216 R5.954
G2 X66.505 Y80.283 R1.173
G1 X66.344 Y80.347
X66.182 Y80.412
X66.143 Y80.418
X66.105 Y80.409
X66.073 Y80.387
X66.051 Y80.354
X66.044 Y80.315
Y79.786
X66.051 Y79.748
X66.073 Y79.715
X66.105 Y79.692
X66.143 Y79.683
X66.182 Y79.689
G3 X66.445 Y79.799 R2.822
G1 X66.449 Y79.801
G2 X66.897 Y79.656 R0.344
G3 X67.302 Y79.417 R0.463
G1 X67.509
X67.543 Y79.414
X67.576 Y79.406
X68.616 Y79.029
Y81.07
X67.576 Y80.694
X67.543 Y80.686
X67.509 Y80.683
X66.723
X66.688 Y80.686
X66.655 Y80.695
X65.616 Y81.072
Y79.031
X66.656 Y79.405
X66.689 Y79.414
X66.723 Y79.417
X67.302
X67.323 Y79.423
X67.337 Y79.438
X67.434 Y79.619
X67.443 Y79.63
X67.455 Y79.637
X67.999 Y79.841
X68.039 Y79.815
X68.113 Y79.827 Z-17.655 F85.
X68.183 Y79.853 Z-17.658
X68.247 Y79.893 Z-17.66
X68.301 Y79.945 Z-17.663
X68.344 Y80.007 Z-17.666
X68.374 Y80.076 Z-17.668
X68.389 Y80.15 Z-17.671
Y80.225 Z-17.673
X68.374 Y80.298 Z-17.676
X68.345 Y80.368 Z-17.679
X68.303 Y80.43 Z-17.681
X68.249 Y80.482 Z-17.684
X68.185 Y80.522 Z-17.687
X68.115 Y80.549 Z-17.689
X68.041 Y80.561 Z-17.692
X67.966 Y80.559 Z-17.694
X67.893 Y80.541 Z-17.697
X67.825 Y80.509 Z-17.7
X67.765 Y80.464 Z-17.702
X67.715 Y80.408 Z-17.705
X67.677 Y80.344 Z-17.708
X67.653 Y80.273 Z-17.71
X67.643 Y80.198 Z-17.713
X67.649 Y80.123 Z-17.715
X67.669 Y80.051 Z-17.718
X67.704 Y79.984 Z-17.721
X67.751 Y79.926 Z-17.723
X67.809 Y79.878 Z-17.726
X67.875 Y79.842 Z-17.729
X67.884 Y79.839 F254.
X68.052 Y79.775
X68.091 Y79.769
X68.129 Y79.779
X68.16 Y79.801
X68.181 Y79.834
X68.189 Y79.873
Y80.229
X68.181 Y80.268
X68.16 Y80.301
X68.128 Y80.323
X68.09 Y80.332
X68.051 Y80.326
G3 X67.785 Y80.22 R4.668
G2 X67.505 Y80.161 R0.712
G3 X67.013 Y80.138 R6.044
G2 X66.525 Y80.195 R1.23
G1 X66.353 Y80.258
X66.182 Y80.325
X66.143 Y80.331
X66.105 Y80.322
X66.073 Y80.299
X66.051 Y80.267
X66.044 Y80.228
Y79.871
X66.051 Y79.833
X66.073 Y79.8
X66.105 Y79.777
X66.143 Y79.769
X66.182 Y79.775
G3 X66.43 Y79.878 R2.852
G2 X66.692 Y79.938 R0.62
G3 X67.205 Y79.963 R5.835
G2 X67.716 Y79.902 R1.22
G1 X67.875 Y79.842
G2 X68.096 Y79.529 R0.358
G3 X68.323 Y79.221 R0.347
G1 X68.616 Y79.114
Y80.986
X67.603 Y80.618
X67.571 Y80.609
X67.537 Y80.606
X66.724 Y80.602
X66.692 Y80.605
X66.661 Y80.612
X66.473 Y80.674
X66.466 Y80.676
X65.616 Y80.986
Y79.115
X66.628 Y79.482
X66.661 Y79.49
X66.694 Y79.493
X67.508 Y79.498
X67.541 Y79.495
X67.573 Y79.487
X67.926 Y79.366
X68.323 Y79.221
X68.345 Y79.219
X68.364 Y79.229
X68.375 Y79.247
Y79.268
X68.325 Y79.452
X68.175 Y79.878
X68.152 Y79.924
X68.135 Y79.941
X68.111 Y79.945
X68.09 Y79.935
X68.078 Y79.914
X68.081 Y79.89
X68.096 Y79.872
X68.119 Y79.867
X68.193 Y79.879 Z-17.731 F85.
X68.264 Y79.906 Z-17.734
X68.327 Y79.947 Z-17.736
X68.381 Y79.999 Z-17.739
X68.423 Y80.061 Z-17.742
X68.452 Y80.13 Z-17.744
X68.467 Y80.204 Z-17.747
Y80.279 Z-17.75
X68.451 Y80.353 Z-17.752
X68.421 Y80.422 Z-17.755
X68.379 Y80.483 Z-17.758
X68.324 Y80.535 Z-17.76
X68.261 Y80.575 Z-17.763
X68.19 Y80.602 Z-17.765
X68.116 Y80.613 Z-17.768
X68.041 Y80.61 Z-17.771
X67.968 Y80.592 Z-17.773
X67.9 Y80.56 Z-17.776
X67.84 Y80.514 Z-17.779
X67.791 Y80.458 Z-17.781
X67.753 Y80.393 Z-17.784
X67.73 Y80.322 Z-17.786
X67.721 Y80.247 Z-17.789
X67.727 Y80.172 Z-17.792
X67.748 Y80.1 Z-17.794
X67.783 Y80.034 Z-17.797
X67.83 Y79.975 Z-17.8
X67.888 Y79.928 Z-17.802
X67.955 Y79.893 Z-17.805
X68.051 Y79.857 F254.
X68.09 Y79.85
X68.128 Y79.859
X68.16 Y79.882
X68.181 Y79.915
X68.189 Y79.954
Y80.146
X68.181 Y80.185
X68.16 Y80.218
X68.128 Y80.24
X68.089 Y80.249
X68.051 Y80.243
G3 X67.8 Y80.139 R2.872
G2 X67.536 Y80.08 R0.621
G1 X66.695 Y80.081
G2 X66.432 Y80.14 R0.619
G3 X66.182 Y80.243 R2.884
G1 X66.143 Y80.249
X66.105 Y80.241
X66.073 Y80.218
X66.051 Y80.185
X66.044 Y80.146
Y79.954
X66.051 Y79.915
X66.073 Y79.882
X66.105 Y79.86
X66.143 Y79.851
X66.182 Y79.857
G3 X66.418 Y79.957 R2.829
G2 X66.667 Y80.015 R0.608
X67.539 Y80.019 R32.77
X67.802 Y79.96 R0.622
G1 X67.955 Y79.893
G2 X68.175 Y79.582 R0.352
G3 X68.401 Y79.275 R0.342
G1 X68.616 Y79.198
Y80.902
X68.586 Y80.89
X68.579 Y80.888
X67.603 Y80.536
X67.57 Y80.528
X67.536 Y80.525
X66.695
X66.661 Y80.528
X66.629 Y80.537
X65.616 Y80.902
Y79.194
X66.611 Y79.56
X66.643 Y79.568
X66.675 Y79.572
X66.99 Y79.577
X67.537 Y79.575
X67.571 Y79.572
X67.603 Y79.564
X68.401 Y79.275
X68.422 Y79.274
X68.441 Y79.284
X68.452 Y79.302
Y79.324
X68.4 Y79.502
X68.262 Y79.87
X68.255 Y79.881
X68.245 Y79.89
X68.185 Y79.924
X68.161 Y79.93
X68.14 Y79.92
X68.127 Y79.9
X68.128 Y79.876
X68.143 Y79.858
X68.166 Y79.851
X68.241 Y79.86 Z-17.807 F85.
X68.312 Y79.885 Z-17.81
X68.377 Y79.923 Z-17.813
X68.433 Y79.973 Z-17.815
X68.477 Y80.033 Z-17.818
X68.509 Y80.101 Z-17.821
X68.527 Y80.174 Z-17.823
X68.53 Y80.249 Z-17.826
X68.517 Y80.323 Z-17.828
X68.49 Y80.393 Z-17.831
X68.45 Y80.457 Z-17.834
X68.398 Y80.511 Z-17.836
X68.336 Y80.553 Z-17.839
X68.267 Y80.582 Z-17.842
X68.193 Y80.597 Z-17.844
X68.118 Z-17.847
X68.044 Y80.582 Z-17.849
X67.975 Y80.552 Z-17.852
X67.913 Y80.509 Z-17.855
X67.862 Y80.455 Z-17.857
X67.821 Y80.391 Z-17.86
X67.795 Y80.321 Z-17.863
X67.783 Y80.247 Z-17.865
X67.786 Y80.172 Z-17.868
X67.804 Y80.099 Z-17.87
X67.836 Y80.031 Z-17.873
X67.882 Y79.971 Z-17.876
X67.938 Y79.921 Z-17.878
X68.003 Y79.884 Z-17.881
X68.13 Y79.832 F254.
X68.168 Y79.826
X68.206 Y79.834
X68.237 Y79.856
X68.258 Y79.888
X68.265 Y79.926
Y80.174
X68.258 Y80.211
X68.237 Y80.244
X68.206 Y80.266
X68.168 Y80.275
X68.13 Y80.269
G3 X67.841 Y80.147 R2.954
G2 X67.536 Y80.076 R0.697
G1 X66.677 Y80.077
G2 X66.381 Y80.148 R0.648
G3 X66.103 Y80.27 R2.463
G1 X66.065 Y80.276
X66.027 Y80.268
X65.996 Y80.246
X65.975 Y80.213
X65.967 Y80.176
Y79.928
X65.975 Y79.89
X65.996 Y79.858
X66.027 Y79.836
X66.065 Y79.827
X66.103 Y79.833
G3 X66.376 Y79.951 R2.431
G2 X66.665 Y80.021 R0.647
G3 X67.236 Y80.033 R16.693
G2 X67.803 Y79.963 R1.758
G1 X67.886 Y79.935
X67.968 Y79.9
X68.003 Y79.884
G2 X68.176 Y79.625 R0.294
G3 X68.358 Y79.373 R0.279
G1 X68.616 Y79.278
Y80.818
X67.623 Y80.458
X67.59 Y80.45
X67.556 Y80.447
X66.677
X66.643 Y80.45
X66.61 Y80.459
X65.616 Y80.822
Y79.278
X66.057 Y79.443
X66.601 Y79.64
X66.634 Y79.648
X66.667 Y79.651
X67.535 Y79.656
X67.564 Y79.654
X67.592 Y79.648
X67.7 Y79.616
X67.713 Y79.612
X68.358 Y79.373
X68.395 Y79.367
X68.431 Y79.375
X68.462 Y79.395
X68.484 Y79.425
X68.493 Y79.46
X68.489 Y79.497
X68.471 Y79.53
X68.443 Y79.554
X67.639 Y80.018
X67.605 Y80.03
X67.569 Y80.029
X67.536 Y80.016
X67.509 Y79.991
X67.493 Y79.959
X67.49 Y79.923
X67.499 Y79.888
X67.539 Y79.824 Z-17.884 F85.
X67.59 Y79.769 Z-17.886
X67.651 Y79.725 Z-17.889
X67.72 Y79.695 Z-17.892
X67.793 Y79.679 Z-17.894
X67.868 Y79.677 Z-17.897
X67.942 Y79.691 Z-17.899
X68.011 Y79.72 Z-17.902
X68.074 Y79.761 Z-17.905
X68.127 Y79.815 Z-17.907
X68.168 Y79.878 Z-17.91
X68.196 Y79.947 Z-17.913
X68.209 Y80.021 Z-17.915
X68.207 Y80.096 Z-17.918
X68.191 Y80.17 Z-17.92
X68.16 Y80.238 Z-17.923
X68.116 Y80.299 Z-17.926
X68.06 Y80.35 Z-17.928
X67.996 Y80.388 Z-17.931
X67.925 Y80.413 Z-17.934
X67.851 Y80.424 Z-17.936
X67.776 Y80.419 Z-17.939
X67.703 Y80.4 Z-17.941
X67.636 Y80.366 Z-17.944
X67.577 Y80.32 Z-17.947
X67.528 Y80.262 Z-17.949
X67.492 Y80.197 Z-17.952
X67.47 Y80.125 Z-17.955
X67.462 Y80.05 Z-17.957
G3 X67.815 Y79.697 R0.353
X68.168 Y80.05 R0.353
X68.135 Y80.083 R0.033 F254.
X68.102 Y80.05 R0.033
X68.135 Y80.018 R0.033
X68.168 Y80.05 R0.033
G1 X68.162 Y80.082
X68.148 Y80.11
X68.125 Y80.132
X68.096 Y80.146
X68.064 Y80.15
X66.098 Y80.083
G3 X66.065 Y80.05 R0.033
X66.098 Y80.018 R0.033
X66.13 Y80.05 R0.033
X66.098 Y80.083 R0.033
G2 X65.875 Y80.226 R0.244
G3 X65.696 Y80.294 R0.135
X65.616 Y80.171 R0.135
G1 Y79.363
X66.601 Y79.721
X66.634 Y79.73
X66.668 Y79.733
X67.563
X67.597 Y79.73
X67.631 Y79.721
X68.616 Y79.363
Y80.738
X67.631 Y80.379
X67.598 Y80.37
X67.563 Y80.367
X66.668
X66.634 Y80.37
X66.601 Y80.379
X65.616 Y80.738
Y80.171
X65.621 Y80.14
X65.636 Y80.112
X65.963 Y79.663
X65.988 Y79.639
X66.019 Y79.625
X66.054 Y79.622
X66.127 Y79.637 Z-17.96 F85.
X66.197 Y79.666 Z-17.962
X66.259 Y79.709 Z-17.965
X66.311 Y79.763 Z-17.968
X66.351 Y79.826 Z-17.97
X66.378 Y79.896 Z-17.973
X66.391 Y79.97 Z-17.976
X66.388 Y80.045 Z-17.978
X66.371 Y80.118 Z-17.981
X66.339 Y80.186 Z-17.983
X66.294 Y80.246 Z-17.986
X66.238 Y80.297 Z-17.989
X66.173 Y80.335 Z-17.991
X66.102 Y80.359 Z-17.994
X66.028 Y80.368 Z-17.997
X65.953 Y80.363 Z-17.999
X65.88 Y80.342 Z-18.002
X65.814 Y80.308 Z-18.004
X65.755 Y80.261 Z-18.007
X65.707 Y80.203 Z-18.01
X65.672 Y80.137 Z-18.012
X65.65 Y80.065 Z-18.015
X65.644 Y79.99 Z-18.018
X65.652 Y79.915 Z-18.02
X65.675 Y79.844 Z-18.023
X65.712 Y79.779 Z-18.026
X65.761 Y79.722 Z-18.028
X65.821 Y79.676 Z-18.031
X65.889 Y79.643 Z-18.033
G3 X66.254 Y79.813 R0.285
X66.085 Y80.179 R0.285
G1 X66.039 Y80.195 F254.
X66. Y80.202
X65.962 Y80.193
X65.93 Y80.17
X65.909 Y80.138
X65.901 Y80.099
Y80.001
X65.909 Y79.963
X65.93 Y79.93
X65.962 Y79.908
X66. Y79.899
X66.039 Y79.905
X66.266 Y79.988
X66.292 Y80.006
X66.307 Y80.034
Y80.066
X66.292 Y80.094
X66.266 Y80.112
X66.085 Y80.179
X66.053 Y80.198
X66.03 Y80.227
X66.02 Y80.263
X66.024 Y80.301
X66.041 Y80.334
X66.069 Y80.359
X66.104 Y80.371
X66.141 Y80.37
X68.151 Y79.921
X68.194 Y79.905
X68.232 Y79.899
X68.271 Y79.907
X68.303 Y79.93
X68.324 Y79.963
X68.332 Y80.001
Y80.099
X68.324 Y80.137
X68.303 Y80.17
X68.271 Y80.193
X68.232 Y80.201
X68.194 Y80.195
X67.967 Y80.112
X67.94 Y80.094
X67.925 Y80.066
Y80.034
X67.94 Y80.006
X67.967 Y79.988
X68.151 Y79.921
G2 X68.302 Y79.714 R0.231
G3 X68.454 Y79.506 R0.231
G1 X68.616 Y79.447
Y80.653
X67.658 Y80.302
X67.625 Y80.293
X67.59 Y80.29
X66.641 Y80.291
X66.607 Y80.294
X66.573 Y80.303
X65.616 Y80.654
Y79.447
X66.573 Y79.797
X66.607 Y79.806
X66.641 Y79.809
X67.59 Y79.81
X67.625 Y79.807
X67.658 Y79.798
X68.454 Y79.506
X68.477 Y79.505
X68.496 Y79.517
X68.506 Y79.537
X68.503 Y79.56
X68.438 Y79.702
X68.431 Y79.721
X68.435 Y79.74
X68.601 Y80.12
X68.605 Y80.133
X68.603 Y80.146
X68.576 Y80.216 Z-18.036 F85.
X68.535 Y80.279 Z-18.039
X68.482 Y80.332 Z-18.041
X68.419 Y80.373 Z-18.044
X68.349 Y80.4 Z-18.047
X68.275 Y80.412 Z-18.049
X68.2 Y80.408 Z-18.052
X68.127 Y80.39 Z-18.054
X68.06 Y80.356 Z-18.057
X68.001 Y80.31 Z-18.06
X67.953 Y80.252 Z-18.062
X67.917 Y80.186 Z-18.065
X67.896 Y80.114 Z-18.068
X67.891 Y80.039 Z-18.07
X67.901 Y79.964 Z-18.073
X67.926 Y79.893 Z-18.075
X67.965 Y79.829 Z-18.078
X68.017 Y79.775 Z-18.081
X68.079 Y79.732 Z-18.083
X68.148 Y79.703 Z-18.086
X68.222 Y79.688 Z-18.089
X68.297 Y79.689 Z-18.091
X68.37 Y79.706 Z-18.094
X68.438 Y79.737 Z-18.096
X68.499 Y79.782 Z-18.099
X68.548 Y79.838 Z-18.102
X68.586 Y79.904 Z-18.104
X68.609 Y79.975 Z-18.107
X68.616 Y80.05 Z-18.11
Y80.566 F254.
X67.657 Y80.221
X67.624 Y80.212
X67.591 Y80.209
X66.65 Y80.208
X66.617 Y80.211
X66.584 Y80.219
X66.06 Y80.404
X65.616 Y80.568
Y79.531
X65.839 Y79.616
X66.575 Y79.879
X66.607 Y79.888
X66.641 Y79.891
X67.59
X67.624 Y79.888
X67.657 Y79.879
X68.616 Y79.533
Y80.05
X68.609 Y80.072
X68.591 Y80.086
X68.568 Y80.087
X68.549 Y80.074
X68.465 Y79.972
X68.439 Y79.846
X68.442 Y79.824
X68.456 Y79.807
X68.478 Y79.802
X68.499 Y79.809
X68.548 Y79.857 Z-18.112 F85.
X68.585 Y79.914 Z-18.114
X68.608 Y79.978 Z-18.117
X68.616 Y80.045 Z-18.119
X68.61 Y80.113 Z-18.122
X68.588 Y80.178 Z-18.124
X68.552 Y80.236 Z-18.126
X68.505 Y80.284 Z-18.129
X68.448 Y80.321 Z-18.131
X68.384 Y80.344 Z-18.133
X68.316 Y80.352 Z-18.136
X68.248 Y80.346 Z-18.138
X68.184 Y80.324 Z-18.141
X68.126 Y80.288 Z-18.143
X68.077 Y80.24 Z-18.145
X68.041 Y80.183 Z-18.148
X68.018 Y80.119 Z-18.15
X68.01 Y80.051 Z-18.152
X68.017 Y79.984 Z-18.155
X68.039 Y79.919 Z-18.157
X68.075 Y79.861 Z-18.16
X68.123 Y79.813 Z-18.162
X68.18 Y79.777 Z-18.164
X68.245 Y79.754 Z-18.167
X68.312 Y79.746 Z-18.169
X68.38 Y79.753 Z-18.172
X68.444 Y79.776 Z-18.174
X68.502 Y79.812 Z-18.176
X68.55 Y79.86 Z-18.179
X68.586 Y79.917 Z-18.181
X68.609 Y79.982 Z-18.183
X68.616 Y80.049 Z-18.186
Y80.482 F254.
X67.685 Y80.144
X67.652 Y80.135
X67.618 Y80.132
X66.614 Y80.133
X66.58 Y80.136
X66.547 Y80.145
X65.616 Y80.484
Y79.617
X66.557 Y79.957
X66.59 Y79.966
X66.624 Y79.969
X67.616 Y79.968
X67.651 Y79.965
X67.684 Y79.956
X68.616 Y79.616
Y80.049
X68.611 Y80.068
X68.598 Y80.083
X68.579 Y80.089
X68.56 Y80.085
X68.385 Y79.999
X68.206 Y79.922
X68.19 Y79.91
X68.183 Y79.892
X68.185 Y79.873
X68.196 Y79.856
X68.248 Y79.822 Z-18.188 F85.
X68.306 Y79.801 Z-18.19
X68.368 Y79.795 Z-18.192
X68.43 Y79.805 Z-18.195
X68.487 Y79.828 Z-18.197
X68.537 Y79.865 Z-18.199
X68.577 Y79.914 Z-18.201
X68.603 Y79.97 Z-18.203
X68.616 Y80.031 Z-18.205
X68.613 Y80.093 Z-18.208
X68.595 Y80.152 Z-18.21
X68.563 Y80.206 Z-18.212
X68.52 Y80.25 Z-18.214
X68.466 Y80.282 Z-18.216
X68.407 Y80.301 Z-18.218
X68.345 Y80.304 Z-18.221
X68.284 Y80.293 Z-18.223
X68.227 Y80.267 Z-18.225
X68.179 Y80.228 Z-18.227
X68.141 Y80.178 Z-18.229
X68.117 Y80.121 Z-18.232
X68.107 Y80.06 Z-18.234
X68.112 Y79.998 Z-18.236
X68.132 Y79.939 Z-18.238
X68.166 Y79.887 Z-18.24
X68.211 Y79.844 Z-18.242
X68.266 Y79.814 Z-18.245
X68.326 Y79.798 Z-18.247
X68.388 Y79.797 Z-18.249
X68.448 Y79.811 Z-18.251
X68.504 Y79.839 Z-18.253
X68.551 Y79.879 Z-18.255
X68.587 Y79.93 Z-18.258
X68.609 Y79.988 Z-18.26
X68.616 Y80.05 Z-18.262
Y80.414 F254.
X67.685 Y80.076
X67.652 Y80.067
X67.618 Y80.064
X66.614
X66.58 Y80.067
X66.547 Y80.076
X65.616 Y80.413
Y79.686
X66.547 Y80.024
X66.58 Y80.033
X66.614 Y80.036
X67.618
X67.652 Y80.033
X67.685 Y80.024
X68.616 Y79.687
Y80.05
X68.612 Y80.069
X68.598 Y80.083
X68.58 Y80.089
X68.561 Y80.086
X68.383 Y80.004
X68.199 Y79.938
X68.183 Y79.927
X68.174 Y79.909
Y79.89
X68.184 Y79.873
X68.233 Y79.834 Z-18.264 F85.
X68.289 Y79.809 Z-18.266
X68.35 Y79.798 Z-18.269
X68.412 Y79.802 Z-18.271
X68.472 Y79.821 Z-18.273
X68.524 Y79.855 Z-18.275
X68.567 Y79.9 Z-18.277
X68.598 Y79.954 Z-18.279
X68.614 Y80.014 Z-18.282
X68.615 Y80.076 Z-18.284
X68.601 Y80.137 Z-18.286
X68.572 Y80.192 Z-18.288
X68.531 Y80.238 Z-18.29
X68.48 Y80.274 Z-18.292
X68.422 Y80.295 Z-18.295
X68.36 Y80.302 Z-18.297
X68.298 Y80.293 Z-18.299
X68.241 Y80.27 Z-18.301
X68.191 Y80.233 Z-18.303
X68.151 Y80.185 Z-18.306
X68.125 Y80.128 Z-18.308
X68.112 Y80.067 Z-18.31
X68.116 Y80.005 Z-18.312
X68.134 Y79.946 Z-18.314
X68.166 Y79.893 Z-18.316
X68.211 Y79.849 Z-18.319
X68.264 Y79.818 Z-18.321
X68.324 Y79.8 Z-18.323
X68.386 Y79.798 Z-18.325
X68.447 Y79.811 Z-18.327
X68.503 Y79.839 Z-18.329
X68.55 Y79.879 Z-18.332
X68.586 Y79.93 Z-18.334
X68.609 Y79.988 Z-18.336
X68.616 Y80.05 Z-18.338
Y80.409 F254.
X67.684 Y80.073
X67.651 Y80.064
X67.618 Y80.061
X66.614
X66.58 Y80.064
X66.547 Y80.073
X65.616 Y80.41
Y79.69
X66.547 Y80.027
X66.58 Y80.036
X66.614 Y80.039
X67.618
X67.652 Y80.036
X67.685 Y80.027
X68.616 Y79.69
Y80.05
X68.612 Y80.068
X68.599 Y80.082
X68.58 Y80.089
X68.561 Y80.086
X68.382 Y80.008
X68.194 Y79.95
X68.178 Y79.94
X68.168 Y79.924
X68.167 Y79.904
X68.176 Y79.887
X68.222 Y79.845 Z-18.34 F85.
X68.277 Y79.816 Z-18.343
X68.337 Y79.801 Z-18.345
X68.399 Y79.802 Z-18.347
X68.459 Y79.817 Z-18.349
X68.514 Y79.848 Z-18.351
X68.559 Y79.89 Z-18.353
X68.592 Y79.943 Z-18.356
X68.612 Y80.002 Z-18.358
X68.616 Y80.064 Z-18.36
X68.605 Y80.125 Z-18.362
X68.579 Y80.182 Z-18.364
X68.54 Y80.23 Z-18.367
X68.49 Y80.267 Z-18.369
X68.433 Y80.291 Z-18.371
X68.371 Y80.3 Z-18.373
X68.309 Y80.294 Z-18.375
X68.251 Y80.272 Z-18.377
X68.2 Y80.237 Z-18.38
X68.159 Y80.19 Z-18.382
X68.131 Y80.135 Z-18.384
X68.117 Y80.074 Z-18.386
X68.119 Y80.012 Z-18.388
X68.136 Y79.952 Z-18.39
X68.167 Y79.898 Z-18.393
X68.21 Y79.854 Z-18.395
X68.264 Y79.821 Z-18.397
X68.323 Y79.803 Z-18.399
X68.385 Y79.8 Z-18.401
X68.446 Y79.813 Z-18.404
X68.502 Y79.84 Z-18.406
X68.55 Y79.88 Z-18.408
X68.586 Y79.93 Z-18.41
X68.609 Y79.988 Z-18.412
X68.616 Y80.05 Z-18.414
Y80.406 F254.
X67.684 Y80.07
X67.651 Y80.061
X67.618 Y80.058
X66.614
X66.58 Y80.061
X66.547 Y80.07
X65.616 Y80.408
Y79.693
X66.547 Y80.03
X66.58 Y80.039
X66.614 Y80.042
X67.618
X67.652 Y80.039
X67.685 Y80.03
X68.616 Y79.693
Y80.05
X68.612 Y80.068
X68.599 Y80.082
X68.581 Y80.089
X68.562 Y80.086
X68.381 Y80.012
X68.19 Y79.965
X68.173 Y79.956
X68.163 Y79.94
X68.161 Y79.921
X68.168 Y79.903
X68.211 Y79.858 Z-18.417 F85.
X68.263 Y79.825 Z-18.419
X68.322 Y79.806 Z-18.421
X68.384 Y79.802 Z-18.423
X68.446 Y79.814 Z-18.425
X68.502 Y79.84 Z-18.427
X68.55 Y79.88 Z-18.43
X68.586 Y79.931 Z-18.432
X68.609 Y79.988 Z-18.434
X68.616 Y80.05 Z-18.436
X68.608 Y80.112 Z-18.438
X68.585 Y80.17 Z-18.441
X68.549 Y80.22 Z-18.443
X68.501 Y80.259 Z-18.445
X68.445 Y80.286 Z-18.447
X68.383 Y80.297 Z-18.449
X68.321 Y80.293 Z-18.451
X68.262 Y80.274 Z-18.454
X68.21 Y80.241 Z-18.456
X68.167 Y80.195 Z-18.458
X68.137 Y80.141 Z-18.46
X68.122 Y80.08 Z-18.462
Y80.018 Z-18.464
X68.138 Y79.958 Z-18.467
X68.168 Y79.904 Z-18.469
X68.21 Y79.858 Z-18.471
X68.263 Y79.825 Z-18.473
X68.322 Y79.806 Z-18.475
X68.384 Y79.802 Z-18.478
X68.445 Y79.814 Z-18.48
X68.501 Y79.84 Z-18.482
X68.549 Y79.88 Z-18.484
X68.586 Y79.93 Z-18.486
X68.609 Y79.988 Z-18.488
X68.616 Y80.05 Z-18.491
Y80.403 F254.
X67.684 Y80.067
X67.651 Y80.059
X67.618 Y80.056
X66.614
X66.58 Y80.059
X66.547 Y80.067
X65.616 Y80.404
Y79.696
X66.547 Y80.033
X66.58 Y80.041
X66.614 Y80.044
X67.618
X67.652 Y80.041
X67.684 Y80.033
X68.616 Y79.696
Y80.05
X68.612 Y80.068
X68.599 Y80.082
X68.581 Y80.089
X68.562 Y80.086
X68.38 Y80.013
X68.19 Y79.966
X68.173 Y79.958
X68.162 Y79.942
X68.16 Y79.923
X68.167 Y79.905
X68.191 Y79.876 Z-18.492 F85.
X68.22 Y79.851 Z-18.493
X68.273 Y79.821 Z-18.495
X68.333 Y79.804 Z-18.498
X68.395 Y79.803 Z-18.5
X68.455 Y79.817 Z-18.502
X68.51 Y79.846 Z-18.504
X68.556 Y79.887 Z-18.506
X68.59 Y79.939 Z-18.508
X68.611 Y79.997 Z-18.511
X68.616 Y80.058 Z-18.513
X68.606 Y80.119 Z-18.515
X68.582 Y80.176 Z-18.517
X68.544 Y80.225 Z-18.519
X68.495 Y80.263 Z-18.521
X68.438 Y80.287 Z-18.524
X68.377 Y80.297 Z-18.526
X68.316 Y80.292 Z-18.528
X68.258 Y80.271 Z-18.53
X68.206 Y80.237 Z-18.532
X68.165 Y80.191 Z-18.534
X68.136 Y80.136 Z-18.537
X68.122 Y80.076 Z-18.539
X68.123 Y80.014 Z-18.541
X68.139 Y79.955 Z-18.543
X68.17 Y79.901 Z-18.545
X68.213 Y79.857 Z-18.547
X68.265 Y79.824 Z-18.549
X68.324 Y79.806 Z-18.552
X68.386 Y79.802 Z-18.554
X68.447 Y79.814 Z-18.556
X68.503 Y79.841 Z-18.558
X68.55 Y79.881 Z-18.56
X68.586 Y79.931 Z-18.562
X68.609 Y79.988 Z-18.565
X68.616 Y80.05 Z-18.567
Y80.402 F254.
X67.684 Y80.067
X67.651 Y80.058
X67.618 Y80.055
X66.614
X66.58 Y80.058
X66.547 Y80.067
X65.616 Y80.403
Y79.697
X66.547 Y80.033
X66.58 Y80.042
X66.614 Y80.045
X67.618
X67.652 Y80.042
X67.684 Y80.033
X68.616 Y79.697
Y80.05
X68.612 Y80.068
X68.599 Y80.082
X68.581 Y80.089
X68.562 Y80.086
X68.38 Y80.013
X68.19 Y79.966
X68.173 Y79.958
X68.162 Y79.942
X68.16 Y79.923
X68.167 Y79.905
X68.209 Y79.86 Z-18.569 F85.
X68.262 Y79.826 Z-18.571
X68.321 Y79.806 Z-18.573
X68.383 Y79.802 Z-18.576
X68.444 Y79.814 Z-18.578
X68.5 Y79.84 Z-18.58
X68.548 Y79.879 Z-18.582
X68.585 Y79.929 Z-18.584
X68.608 Y79.987 Z-18.586
X68.616 Y80.049 Z-18.589
X68.609 Y80.11 Z-18.591
X68.586 Y80.168 Z-18.593
X68.55 Y80.219 Z-18.595
X68.502 Y80.259 Z-18.597
X68.446 Y80.285 Z-18.599
X68.385 Y80.297 Z-18.602
X68.323 Y80.293 Z-18.604
X68.264 Y80.274 Z-18.606
X68.211 Y80.241 Z-18.608
X68.168 Y80.196 Z-18.61
X68.138 Y80.141 Z-18.613
X68.123 Y80.081 Z-18.615
X68.122 Y80.019 Z-18.617
X68.138 Y79.959 Z-18.619
X68.168 Y79.904 Z-18.621
X68.21 Y79.859 Z-18.623
X68.263 Y79.826 Z-18.626
X68.322 Y79.806 Z-18.628
X68.384 Y79.802 Z-18.63
X68.445 Y79.814 Z-18.632
X68.501 Y79.84 Z-18.634
X68.549 Y79.88 Z-18.636
X68.586 Y79.93 Z-18.639
X68.609 Y79.988 Z-18.641
X68.616 Y80.05 Z-18.643
Y80.402 F254.
X67.684 Y80.067
X67.651 Y80.058
X67.618 Y80.055
X66.614
X66.58 Y80.058
X66.547 Y80.067
X65.616 Y80.403
Y79.697
X66.547 Y80.033
X66.58 Y80.042
X66.614 Y80.045
X67.618
X67.652 Y80.042
X67.684 Y80.033
X68.616 Y79.697
Y80.05
X68.612 Y80.068
X68.599 Y80.082
X68.581 Y80.089
X68.562 Y80.086
X68.38 Y80.013
X68.19 Y79.966
X68.173 Y79.958
X68.162 Y79.942
X68.16 Y79.923
X68.167 Y79.905
X68.209 Y79.86 Z-18.645 F85.
X68.262 Y79.826 Z-18.647
X68.321 Y79.806 Z-18.65
X68.383 Y79.802 Z-18.652
X68.444 Y79.814 Z-18.654
X68.5 Y79.84 Z-18.656
X68.548 Y79.879 Z-18.658
X68.585 Y79.929 Z-18.66
X68.608 Y79.987 Z-18.663
X68.616 Y80.049 Z-18.665
X68.609 Y80.11 Z-18.667
X68.586 Y80.168 Z-18.669
X68.55 Y80.219 Z-18.671
X68.502 Y80.259 Z-18.673
X68.446 Y80.285 Z-18.676
X68.385 Y80.297 Z-18.678
X68.323 Y80.293 Z-18.68
X68.264 Y80.274 Z-18.682
X68.211 Y80.241 Z-18.684
X68.168 Y80.196 Z-18.687
X68.138 Y80.141 Z-18.689
X68.123 Y80.081 Z-18.691
X68.122 Y80.019 Z-18.693
X68.138 Y79.959 Z-18.695
X68.168 Y79.904 Z-18.697
X68.21 Y79.859 Z-18.7
X68.263 Y79.826 Z-18.702
X68.322 Y79.806 Z-18.704
X68.384 Y79.802 Z-18.706
X68.445 Y79.814 Z-18.708
X68.501 Y79.84 Z-18.71
X68.549 Y79.88 Z-18.713
X68.586 Y79.93 Z-18.715
X68.609 Y79.988 Z-18.717
X68.616 Y80.05 Z-18.719
Y80.402 F254.
X67.684 Y80.067
X67.651 Y80.058
X67.618 Y80.055
X66.614
X66.58 Y80.058
X66.547 Y80.067
X65.616 Y80.403
Y79.697
X66.547 Y80.033
X66.58 Y80.042
X66.614 Y80.045
X67.618
X67.652 Y80.042
X67.684 Y80.033
X68.616 Y79.697
Y80.05
X68.611 Y80.07
X68.595 Y80.085
X68.574 Y80.089
X68.374 Y80.075
X68.196 Y80.169
X68.176 Y80.173
X68.155 Y80.166
X68.142 Y80.15
X68.124 Y80.09 Z-18.721 F85.
X68.122 Y80.027 Z-18.724
X68.135 Y79.966 Z-18.726
X68.164 Y79.91 Z-18.728
X68.206 Y79.863 Z-18.73
X68.258 Y79.828 Z-18.732
X68.317 Y79.807 Z-18.735
X68.38 Y79.802 Z-18.737
X68.442 Y79.813 Z-18.739
X68.499 Y79.839 Z-18.741
X68.548 Y79.878 Z-18.743
X68.585 Y79.929 Z-18.746
X68.608 Y79.987 Z-18.748
X68.616 Y80.05 Z-18.75
Y80.402 F254.
X67.684 Y80.067
X67.651 Y80.058
X67.618 Y80.055
X66.614
X66.58 Y80.058
X66.547 Y80.067
X65.616 Y80.403
Y79.697
X66.547 Y80.033
X66.58 Y80.042
X66.614 Y80.045
X67.618
X67.652 Y80.042
X67.684 Y80.033
X68.616 Y79.697
Y80.05
X68.614 Y80.069 Z-18.745
X68.607 Y80.087 Z-18.739
X68.589 Y80.11 Z-18.711
X68.58 Y80.116 Z-18.671
G0 Z5.
X48.42 Y80.375
Z-17.341
G1 X48.41 Y80.377 Z-17.38 F85.
X48.383 Y80.38 Z-17.409
X48.344 Z-17.42
X48.269 Y80.37 Z-17.422
X48.197 Y80.344 Z-17.425
X48.132 Y80.305 Z-17.427
X48.076 Y80.253 Z-17.43
X48.032 Y80.19 Z-17.432
X48.001 Y80.12 Z-17.435
X47.986 Y80.046 Z-17.437
Y79.969 Z-17.44
X48.001 Y79.894 Z-17.442
X48.031 Y79.824 Z-17.445
X48.075 Y79.762 Z-17.447
X48.131 Y79.71 Z-17.45
X48.196 Y79.67 Z-17.452
X48.267 Y79.644 Z-17.455
X48.343 Y79.633 Z-17.457
X48.419 Y79.638 Z-17.46
X48.493 Y79.658 Z-17.462
X48.561 Y79.693 Z-17.465
X48.62 Y79.74 Z-17.467
X48.669 Y79.799 Z-17.47
X48.705 Y79.867 Z-17.472
X48.726 Y79.94 Z-17.475
X48.732 Y80.016 Z-17.477
X48.722 Y80.092 Z-17.479
X48.697 Y80.164 Z-17.482
X48.658 Y80.23 Z-17.484
X48.606 Y80.286 Z-17.487
X48.544 Y80.331 Z-17.489
X48.475 Y80.362 Z-17.492
X48.4 Y80.378 Z-17.494
X48.324 Y80.379 Z-17.497
X48.249 Y80.365 Z-17.499
X48.179 Y80.335 Z-17.502
X48.116 Y80.292 Z-17.504
X48.063 Y80.237 Z-17.507
X48.022 Y80.172 Z-17.509
X47.996 Y80.101 Z-17.512
X47.984 Y80.025 Z-17.514
X47.988 Y79.949 Z-17.517
X48.008 Y79.875 Z-17.519
X48.042 Y79.807 Z-17.522
X48.089 Y79.747 Z-17.524
X48.147 Y79.698 Z-17.527
X48.214 Y79.661 Z-17.529
X48.287 Y79.639 Z-17.532
X48.364 Y79.633 Z-17.534
X48.439 Y79.642 Z-17.537
X48.512 Y79.666 Z-17.539
X48.578 Y79.704 Z-17.541
X48.635 Y79.755 Z-17.544
X48.68 Y79.817 Z-17.546
X48.712 Y79.886 Z-17.549
X48.729 Y79.96 Z-17.551
X48.73 Y80.037 Z-17.554
X48.717 Y80.112 Z-17.556
X48.688 Y80.183 Z-17.559
X48.645 Y80.246 Z-17.561
X48.591 Y80.299 Z-17.564
X48.526 Y80.34 Z-17.566
X48.455 Y80.368 Z-17.569
X48.38 Y80.38 Z-17.571
X48.304 Y80.377 Z-17.574
X48.23 Y80.358 Z-17.576
X48.159 Y80.337 F254.
X48.086 Y80.324
X48.012 Y80.319
G3 X47.528 Y80.296 R5.871
G2 X47.047 Y80.353 R1.19
G1 X46.864 Y80.422
X46.682 Y80.493
X46.643 Y80.499
X46.605 Y80.491
X46.573 Y80.468
X46.551 Y80.435
X46.544 Y80.397
Y79.702
X46.551 Y79.663
X46.573 Y79.631
X46.605 Y79.608
X46.643 Y79.599
X46.682 Y79.605
G3 X46.958 Y79.719 R3.561
G2 X47.25 Y79.783 R0.698
G3 X47.734 Y79.803 R6.046
G2 X48.214 Y79.739 R1.138
G1 X48.382 Y79.672
X48.551 Y79.605
X48.59 Y79.599
X48.628 Y79.608
X48.66 Y79.63
X48.681 Y79.663
X48.689 Y79.702
Y80.397
X48.681 Y80.435
X48.66 Y80.468
X48.628 Y80.491
X48.59 Y80.499
X48.551 Y80.493
G3 X48.289 Y80.383 R2.798
G1 X48.23 Y80.358
G2 X47.803 Y80.524 R0.347
G3 X47.41 Y80.761 R0.439
G1 X47.25 Y80.76
X47.218 Y80.763
X47.187 Y80.77
X46.97 Y80.843
X46.964 Y80.845
X46.116 Y81.158
Y78.945
X47.164 Y79.325
X47.197 Y79.334
X47.231 Y79.337
X47.997 Y79.338
X48.031 Y79.335
X48.065 Y79.326
X49.116 Y78.945
Y81.153
X48.075 Y80.776
X48.043 Y80.767
X48.009 Y80.764
X47.41 Y80.761
X47.39 Y80.755
X47.376 Y80.74
X47.117 Y80.271
X47.104 Y80.261
X47.097 Y80.246
X47.012 Y79.939
Y79.918
X47.023 Y79.9
X47.042 Y79.89
X47.063 Y79.892
X47.08 Y79.904
X47.122 Y79.967 Z-17.579 F85.
X47.15 Y80.036 Z-17.581
X47.163 Y80.11 Z-17.584
X47.161 Y80.185 Z-17.587
X47.145 Y80.259 Z-17.589
X47.114 Y80.327 Z-17.592
X47.07 Y80.388 Z-17.595
X47.015 Y80.439 Z-17.597
X46.951 Y80.478 Z-17.6
X46.88 Y80.503 Z-17.602
X46.805 Y80.514 Z-17.605
X46.73 Y80.509 Z-17.608
X46.658 Y80.49 Z-17.61
X46.591 Y80.456 Z-17.613
X46.531 Y80.41 Z-17.616
X46.483 Y80.353 Z-17.618
X46.446 Y80.287 Z-17.621
X46.424 Y80.215 Z-17.623
X46.416 Y80.141 Z-17.626
X46.424 Y80.066 Z-17.629
X46.446 Y79.994 Z-17.631
X46.482 Y79.928 Z-17.634
X46.53 Y79.871 Z-17.637
X46.589 Y79.824 Z-17.639
X46.657 Y79.791 Z-17.642
X46.729 Y79.771 Z-17.645
X46.804 Y79.766 Z-17.647
X46.878 Y79.776 Z-17.65
X46.949 Y79.801 Z-17.652
G2 X47.222 Y79.862 R0.641 F254.
G3 X47.725 Y79.884 R5.938
G2 X48.224 Y79.818 R1.174
G1 X48.388 Y79.753
X48.551 Y79.688
X48.59 Y79.682
X48.628 Y79.691
X48.66 Y79.714
X48.681 Y79.747
X48.689 Y79.785
Y80.315
X48.681 Y80.354
X48.66 Y80.387
X48.628 Y80.409
X48.59 Y80.418
X48.551 Y80.412
G3 X48.287 Y80.301 R2.837
G2 X48.008 Y80.237 R0.642
G3 X47.505 Y80.216 R5.966
G2 X47.005 Y80.283 R1.175
G1 X46.844 Y80.347
X46.682 Y80.411
X46.643 Y80.418
X46.605 Y80.409
X46.573 Y80.386
X46.551 Y80.353
X46.544 Y80.315
Y79.786
X46.551 Y79.747
X46.573 Y79.714
X46.605 Y79.692
X46.643 Y79.683
X46.682 Y79.689
G3 X46.944 Y79.799 R2.827
G1 X46.949 Y79.801
G2 X47.397 Y79.656 R0.344
G3 X47.802 Y79.417 R0.463
G1 X48.008
X48.042 Y79.414
X48.075 Y79.406
X49.116 Y79.029
Y81.072
X48.076 Y80.694
X48.042 Y80.686
X48.008 Y80.683
X47.222
X47.188 Y80.686
X47.155 Y80.695
X46.116 Y81.072
Y79.03
X47.155 Y79.405
X47.188 Y79.414
X47.222 Y79.417
X47.802
X47.822 Y79.423
X47.836 Y79.437
X47.962 Y79.655
X47.971 Y79.666
X47.983 Y79.673
X48.486 Y79.847
X48.533 Y79.815
X48.607 Y79.824 Z-17.655 F85.
X48.678 Y79.848 Z-17.658
X48.743 Y79.886 Z-17.66
X48.799 Y79.936 Z-17.663
X48.844 Y79.997 Z-17.666
X48.876 Y80.065 Z-17.668
X48.893 Y80.138 Z-17.671
X48.896 Y80.213 Z-17.673
X48.884 Y80.287 Z-17.676
X48.857 Y80.357 Z-17.679
X48.817 Y80.42 Z-17.681
X48.764 Y80.474 Z-17.684
X48.702 Y80.517 Z-17.687
X48.633 Y80.546 Z-17.689
X48.56 Y80.561 Z-17.692
X48.484 Z-17.694
X48.411 Y80.546 Z-17.697
X48.342 Y80.516 Z-17.7
X48.28 Y80.473 Z-17.702
X48.228 Y80.419 Z-17.705
X48.188 Y80.355 Z-17.708
X48.162 Y80.285 Z-17.71
X48.15 Y80.211 Z-17.713
X48.153 Y80.136 Z-17.715
X48.171 Y80.063 Z-17.718
X48.203 Y79.995 Z-17.721
X48.248 Y79.935 Z-17.723
X48.304 Y79.885 Z-17.726
X48.369 Y79.848 Z-17.729
X48.551 Y79.774 F254.
X48.59 Y79.768
X48.628 Y79.777
X48.66 Y79.799
X48.681 Y79.832
X48.689 Y79.871
Y80.229
X48.681 Y80.267
X48.66 Y80.3
X48.628 Y80.323
X48.59 Y80.332
X48.551 Y80.325
G3 X48.302 Y80.222 R2.849
G2 X48.039 Y80.162 R0.622
G3 X47.53 Y80.138 R5.909
G2 X47.024 Y80.195 R1.257
G1 X46.852 Y80.258
X46.682 Y80.325
X46.643 Y80.331
X46.605 Y80.322
X46.573 Y80.3
X46.551 Y80.267
X46.544 Y80.228
Y79.872
X46.551 Y79.833
X46.573 Y79.8
X46.605 Y79.777
X46.643 Y79.769
X46.682 Y79.775
G3 X46.929 Y79.878 R2.838
G2 X47.19 Y79.937 R0.62
G3 X47.624 Y79.942 R76.715
G2 X48.058 Y79.937 R8.966
X48.311 Y79.875 R0.636
G1 X48.369 Y79.848
G2 X48.581 Y79.533 R0.36
G3 X48.805 Y79.226 R0.34
G1 X49.116 Y79.113
Y80.987
X49.057 Y80.964
X49.052 Y80.962
X48.103 Y80.618
X48.07 Y80.609
X48.036 Y80.606
X47.223 Y80.602
X47.191 Y80.605
X47.161 Y80.612
X46.971 Y80.674
X46.964 Y80.677
X46.116 Y80.988
Y79.115
X47.128 Y79.481
X47.16 Y79.49
X47.193 Y79.493
X47.898 Y79.499
X47.907
X48.042 Y79.494
X48.073 Y79.49
X48.103 Y79.482
X48.805 Y79.226
X48.826 Y79.225
X48.845 Y79.234
X48.856 Y79.252
X48.857 Y79.273
X48.808 Y79.473
X48.672 Y79.877
X48.653 Y79.922
X48.637 Y79.94
X48.613 Y79.945
X48.591 Y79.936
X48.578 Y79.915
X48.58 Y79.891
X48.596 Y79.873
X48.619 Y79.867
X48.693 Y79.879 Z-17.731 F85.
X48.764 Y79.906 Z-17.734
X48.827 Y79.947 Z-17.736
X48.881 Y79.999 Z-17.739
X48.923 Y80.061 Z-17.742
X48.952 Y80.131 Z-17.744
X48.967 Y80.204 Z-17.747
X48.966 Y80.279 Z-17.75
X48.951 Y80.353 Z-17.752
X48.921 Y80.422 Z-17.755
X48.878 Y80.484 Z-17.758
X48.824 Y80.535 Z-17.76
X48.76 Y80.575 Z-17.763
X48.69 Y80.602 Z-17.765
X48.616 Y80.613 Z-17.768
X48.541 Y80.61 Z-17.771
X48.468 Y80.592 Z-17.773
X48.4 Y80.559 Z-17.776
X48.34 Y80.514 Z-17.779
X48.29 Y80.458 Z-17.781
X48.253 Y80.393 Z-17.784
X48.229 Y80.321 Z-17.786
X48.22 Y80.247 Z-17.789
X48.227 Y80.172 Z-17.792
X48.248 Y80.1 Z-17.794
X48.283 Y80.033 Z-17.797
X48.33 Y79.975 Z-17.8
X48.388 Y79.928 Z-17.802
X48.455 Y79.893 Z-17.805
X48.551 Y79.856 F254.
X48.59 Y79.85
X48.628 Y79.859
X48.66 Y79.882
X48.681 Y79.915
X48.689 Y79.953
Y80.146
X48.681 Y80.185
X48.66 Y80.218
X48.628 Y80.24
X48.589 Y80.249
X48.551 Y80.243
G3 X48.3 Y80.139 R2.87
G2 X48.035 Y80.08 R0.621
G1 X47.194 Y80.081
G2 X46.931 Y80.14 R0.616
G3 X46.682 Y80.244 R2.913
G1 X46.643 Y80.25
X46.605 Y80.242
X46.573 Y80.219
X46.551 Y80.186
X46.544 Y80.148
Y79.955
X46.551 Y79.916
X46.573 Y79.884
X46.605 Y79.861
X46.643 Y79.852
X46.682 Y79.858
G3 X46.926 Y79.959 R2.897
G2 X47.185 Y80.017 R0.611
G1 X48.036 Y80.02
G2 X48.3 Y79.96 R0.62
G1 X48.455 Y79.893
G2 X48.675 Y79.582 R0.352
G3 X48.901 Y79.275 R0.342
G1 X49.116 Y79.198
Y80.903
X49.057 Y80.88
X49.051 Y80.878
X48.102 Y80.536
X48.069 Y80.528
X48.035 Y80.525
X47.195
X47.16 Y80.528
X47.127 Y80.537
X46.116 Y80.906
Y79.199
X47.119 Y79.562
X47.152 Y79.57
X47.186 Y79.573
X48.035 Y79.575
X48.069 Y79.572
X48.102 Y79.564
X48.901 Y79.275
X48.922 Y79.274
X48.941 Y79.284
X48.952 Y79.302
Y79.324
X48.9 Y79.502
X48.762 Y79.87
X48.755 Y79.881
X48.745 Y79.89
X48.685 Y79.924
X48.662 Y79.93
X48.64 Y79.92
X48.627 Y79.9
X48.629 Y79.876
X48.644 Y79.858
X48.667 Y79.851
X48.741 Y79.861 Z-17.807 F85.
X48.812 Y79.885 Z-17.81
X48.877 Y79.923 Z-17.813
X48.933 Y79.974 Z-17.815
X48.977 Y80.034 Z-17.818
X49.009 Y80.102 Z-17.821
X49.026 Y80.175 Z-17.823
X49.029 Y80.25 Z-17.826
X49.016 Y80.324 Z-17.828
X48.989 Y80.394 Z-17.831
X48.949 Y80.458 Z-17.834
X48.896 Y80.511 Z-17.836
X48.834 Y80.554 Z-17.839
X48.765 Y80.583 Z-17.842
X48.691 Y80.597 Z-17.844
X48.616 Z-17.847
X48.542 Y80.581 Z-17.849
X48.474 Y80.551 Z-17.852
X48.412 Y80.508 Z-17.855
X48.36 Y80.454 Z-17.857
X48.32 Y80.39 Z-17.86
X48.294 Y80.32 Z-17.863
X48.282 Y80.246 Z-17.865
X48.286 Y80.171 Z-17.868
X48.304 Y80.098 Z-17.87
X48.336 Y80.03 Z-17.873
X48.382 Y79.97 Z-17.876
X48.438 Y79.921 Z-17.878
X48.503 Y79.883 Z-17.881
X48.63 Y79.832 F254.
X48.668 Y79.825
X48.706 Y79.834
X48.737 Y79.856
X48.758 Y79.888
X48.765 Y79.926
Y80.174
X48.758 Y80.211
X48.737 Y80.244
X48.706 Y80.266
X48.668 Y80.275
X48.63 Y80.269
G3 X48.341 Y80.147 R2.974
G2 X48.036 Y80.076 R0.699
G1 X47.177 Y80.077
G2 X46.882 Y80.148 R0.65
G3 X46.603 Y80.269 R2.455
G1 X46.565 Y80.275
X46.527 Y80.266
X46.496 Y80.244
X46.475 Y80.212
X46.467 Y80.174
Y79.925
X46.475 Y79.888
X46.496 Y79.855
X46.527 Y79.833
X46.565 Y79.825
X46.603 Y79.831
G3 X46.875 Y79.95 R2.443
G2 X47.165 Y80.021 R0.642
G3 X47.715 Y80.036 R11.984
G2 X48.263 Y79.978 R1.758
G1 X48.357 Y79.948
X48.448 Y79.909
X48.503 Y79.883
G2 X48.677 Y79.625 R0.294
G3 X48.86 Y79.373 R0.279
G1 X49.116 Y79.278
Y80.818
X48.123 Y80.458
X48.09 Y80.45
X48.056 Y80.447
X47.177
X47.143 Y80.45
X47.11 Y80.459
X46.116 Y80.819
Y79.279
X47.1 Y79.639
X47.133 Y79.648
X47.167 Y79.651
X48.034 Y79.656
X48.087 Y79.649
X48.168 Y79.627
X48.185 Y79.622
X48.86 Y79.373
X48.896 Y79.367
X48.932 Y79.374
X48.963 Y79.394
X48.985 Y79.424
X48.994 Y79.46
X48.99 Y79.497
X48.972 Y79.529
X48.944 Y79.553
X48.139 Y80.018
X48.105 Y80.03
X48.069 Y80.029
X48.036 Y80.015
X48.009 Y79.991
X47.993 Y79.958
X47.99 Y79.923
X47.999 Y79.888
X48.039 Y79.824 Z-17.884 F85.
X48.09 Y79.769 Z-17.886
X48.151 Y79.725 Z-17.889
X48.22 Y79.695 Z-17.892
X48.293 Y79.678 Z-17.894
X48.368 Y79.677 Z-17.897
X48.442 Y79.691 Z-17.899
X48.511 Y79.72 Z-17.902
X48.574 Y79.761 Z-17.905
X48.627 Y79.815 Z-17.907
X48.668 Y79.877 Z-17.91
X48.696 Y79.947 Z-17.913
X48.709 Y80.021 Z-17.915
X48.707 Y80.096 Z-17.918
X48.691 Y80.169 Z-17.92
X48.66 Y80.238 Z-17.923
X48.616 Y80.299 Z-17.926
X48.56 Y80.35 Z-17.928
X48.496 Y80.388 Z-17.931
X48.425 Y80.413 Z-17.934
X48.351 Y80.424 Z-17.936
X48.276 Y80.419 Z-17.939
X48.203 Y80.4 Z-17.941
X48.136 Y80.366 Z-17.944
X48.077 Y80.32 Z-17.947
X48.028 Y80.262 Z-17.949
X47.992 Y80.196 Z-17.952
X47.97 Y80.125 Z-17.955
X47.962 Y80.05 Z-17.957
G3 X48.315 Y79.697 R0.353
X48.668 Y80.05 R0.353
X48.635 Y80.083 R0.033 F254.
X48.602 Y80.05 R0.033
X48.635 Y80.017 R0.033
X48.668 Y80.05 R0.033
G1 X48.662 Y80.082
X48.648 Y80.11
X48.625 Y80.132
X48.596 Y80.146
X48.564 Y80.15
X46.597 Y80.082
G3 X46.565 Y80.05 R0.032
X46.597 Y80.018 R0.032
X46.629 Y80.05 R0.032
X46.597 Y80.082 R0.032
G2 X46.375 Y80.225 R0.245
G3 X46.195 Y80.292 R0.135
X46.116 Y80.169 R0.135
G1 Y79.365
X47.101 Y79.721
X47.134 Y79.73
X47.168 Y79.733
X48.063
X48.097 Y79.73
X48.13 Y79.721
X49.116 Y79.362
Y80.738
X48.13 Y80.379
X48.097 Y80.37
X48.063 Y80.367
X47.168
X47.133 Y80.37
X47.1 Y80.379
X46.116 Y80.736
Y80.169
X46.121 Y80.138
X46.136 Y80.11
X46.465 Y79.662
X46.49 Y79.638
X46.521 Y79.624
X46.556 Y79.622
X46.629 Y79.637 Z-17.96 F85.
X46.698 Y79.667 Z-17.962
X46.76 Y79.71 Z-17.965
X46.812 Y79.764 Z-17.968
X46.852 Y79.828 Z-17.97
X46.878 Y79.898 Z-17.973
X46.89 Y79.972 Z-17.976
X46.887 Y80.047 Z-17.978
X46.869 Y80.12 Z-17.981
X46.836 Y80.188 Z-17.983
X46.791 Y80.248 Z-17.986
X46.735 Y80.298 Z-17.989
X46.669 Y80.335 Z-17.991
X46.598 Y80.359 Z-17.994
X46.524 Y80.368 Z-17.997
X46.449 Y80.362 Z-17.999
X46.377 Y80.341 Z-18.002
X46.31 Y80.306 Z-18.004
X46.252 Y80.258 Z-18.007
X46.204 Y80.2 Z-18.01
X46.17 Y80.133 Z-18.012
X46.149 Y80.061 Z-18.015
X46.143 Y79.986 Z-18.018
X46.152 Y79.912 Z-18.02
X46.175 Y79.84 Z-18.023
X46.213 Y79.775 Z-18.026
X46.263 Y79.719 Z-18.028
X46.323 Y79.674 Z-18.031
X46.39 Y79.642 Z-18.033
G3 X46.754 Y79.814 R0.285
X46.582 Y80.178 R0.285
G1 X46.538 Y80.194 F254.
X46.5 Y80.2
X46.461 Y80.191
X46.429 Y80.169
X46.408 Y80.136
X46.4 Y80.098
Y80.002
X46.408 Y79.964
X46.429 Y79.931
X46.461 Y79.908
X46.5 Y79.899
X46.538 Y79.905
X46.771 Y79.99
X46.798 Y80.008
X46.812 Y80.036
Y80.067
X46.797 Y80.095
X46.771 Y80.113
X46.654 Y80.153
X46.582 Y80.178
X46.55 Y80.197
X46.527 Y80.226
X46.517 Y80.262
X46.52 Y80.3
X46.537 Y80.333
X46.565 Y80.358
X46.6 Y80.37
X46.638 Y80.369
X48.652 Y79.921
X48.694 Y79.905
X48.733 Y79.899
X48.771 Y79.908
X48.803 Y79.93
X48.825 Y79.963
X48.832 Y80.001
Y80.098
X48.825 Y80.136
X48.803 Y80.169
X48.771 Y80.192
X48.733 Y80.2
X48.694 Y80.194
X48.468 Y80.112
X48.441 Y80.095
X48.426 Y80.067
Y80.035
X48.441 Y80.006
X48.467 Y79.989
X48.652 Y79.921
G2 X48.803 Y79.714 R0.231
G3 X48.953 Y79.507 R0.231
G1 X49.116 Y79.447
Y80.65
X48.157 Y80.302
X48.124 Y80.293
X48.091 Y80.29
X47.168 Y80.286
X47.135 Y80.289
X47.103 Y80.297
X46.643 Y80.458
X46.116 Y80.653
Y79.45
X47.073 Y79.797
X47.106 Y79.806
X47.14 Y79.809
X48.062 Y79.814
X48.105 Y79.809
X48.159 Y79.797
X48.185 Y79.79
X48.953 Y79.507
X48.976 Y79.506
X48.996 Y79.517
X49.006 Y79.538
X49.003 Y79.56
X48.938 Y79.702
X48.932 Y79.721
X48.935 Y79.741
X49.101 Y80.121
X49.104 Y80.134
X49.103 Y80.147
X49.075 Y80.217 Z-18.036 F85.
X49.034 Y80.28 Z-18.039
X48.98 Y80.333 Z-18.041
X48.917 Y80.373 Z-18.044
X48.847 Y80.4 Z-18.047
X48.773 Y80.412 Z-18.049
X48.698 Y80.408 Z-18.052
X48.625 Y80.389 Z-18.054
X48.558 Y80.355 Z-18.057
X48.499 Y80.309 Z-18.06
X48.451 Y80.251 Z-18.062
X48.416 Y80.184 Z-18.065
X48.396 Y80.112 Z-18.068
X48.39 Y80.037 Z-18.07
X48.401 Y79.963 Z-18.073
X48.426 Y79.892 Z-18.075
X48.465 Y79.828 Z-18.078
X48.517 Y79.774 Z-18.081
X48.579 Y79.731 Z-18.083
X48.648 Y79.702 Z-18.086
X48.722 Y79.688 Z-18.089
X48.797 Y79.689 Z-18.091
X48.87 Y79.705 Z-18.094
X48.938 Y79.737 Z-18.096
X48.999 Y79.782 Z-18.099
X49.048 Y79.838 Z-18.102
X49.086 Y79.903 Z-18.104
X49.109 Y79.975 Z-18.107
X49.116 Y80.049 Z-18.11
Y80.566 F254.
X48.156 Y80.22
X48.124 Y80.212
X48.09 Y80.209
X47.139
X47.105 Y80.212
X47.072 Y80.221
X46.116 Y80.567
Y79.534
X47.074 Y79.879
X47.107 Y79.888
X47.14 Y79.891
X48.09
X48.124 Y79.888
X48.157 Y79.879
X49.116 Y79.531
Y80.049
X49.109 Y80.071
X49.091 Y80.085
X49.068 Y80.086
X49.049 Y80.074
X48.965 Y79.972
X48.939 Y79.846
X48.941 Y79.824
X48.956 Y79.807
X48.978 Y79.802
X48.998 Y79.809
X49.047 Y79.857 Z-18.112 F85.
X49.084 Y79.914 Z-18.114
X49.108 Y79.978 Z-18.117
X49.116 Y80.045 Z-18.119
X49.11 Y80.113 Z-18.122
X49.088 Y80.177 Z-18.124
X49.053 Y80.235 Z-18.126
X49.005 Y80.284 Z-18.129
X48.948 Y80.321 Z-18.131
X48.884 Y80.344 Z-18.133
X48.816 Y80.352 Z-18.136
X48.749 Y80.346 Z-18.138
X48.684 Y80.324 Z-18.141
X48.626 Y80.288 Z-18.143
X48.578 Y80.24 Z-18.145
X48.541 Y80.183 Z-18.148
X48.518 Y80.119 Z-18.15
X48.51 Y80.051 Z-18.152
X48.517 Y79.984 Z-18.155
X48.539 Y79.919 Z-18.157
X48.575 Y79.862 Z-18.16
X48.623 Y79.813 Z-18.162
X48.68 Y79.777 Z-18.164
X48.745 Y79.754 Z-18.167
X48.812 Y79.746 Z-18.169
X48.88 Y79.753 Z-18.172
X48.944 Y79.776 Z-18.174
X49.002 Y79.812 Z-18.176
X49.05 Y79.86 Z-18.179
X49.086 Y79.917 Z-18.181
X49.109 Y79.982 Z-18.183
X49.116 Y80.049 Z-18.186
Y80.481 F254.
X48.184 Y80.144
X48.151 Y80.135
X48.117 Y80.132
X47.113 Y80.133
X47.079 Y80.136
X47.046 Y80.145
X46.116 Y80.484
Y79.618
X47.05 Y79.956
X47.083 Y79.965
X47.117 Y79.968
X48.117
X48.151 Y79.965
X48.184 Y79.956
X49.116 Y79.616
Y80.049
X49.111 Y80.068
X49.098 Y80.083
X49.079 Y80.089
X49.06 Y80.085
X48.884 Y80.
X48.704 Y79.925
X48.689 Y79.913
X48.681 Y79.895
X48.682 Y79.875
X48.693 Y79.859
X48.745 Y79.824 Z-18.188 F85.
X48.803 Y79.802 Z-18.19
X48.865 Y79.795 Z-18.192
X48.926 Y79.803 Z-18.195
X48.984 Y79.826 Z-18.197
X49.035 Y79.863 Z-18.199
X49.075 Y79.91 Z-18.201
X49.102 Y79.966 Z-18.203
X49.115 Y80.027 Z-18.205
X49.113 Y80.089 Z-18.208
X49.096 Y80.149 Z-18.21
X49.065 Y80.202 Z-18.212
X49.022 Y80.247 Z-18.214
X48.969 Y80.28 Z-18.216
X48.91 Y80.299 Z-18.218
X48.848 Y80.303 Z-18.221
X48.787 Y80.292 Z-18.223
X48.73 Y80.267 Z-18.225
X48.681 Y80.228 Z-18.227
X48.643 Y80.179 Z-18.229
X48.618 Y80.122 Z-18.232
X48.608 Y80.061 Z-18.234
X48.613 Y79.999 Z-18.236
X48.632 Y79.94 Z-18.238
X48.666 Y79.887 Z-18.24
X48.711 Y79.845 Z-18.242
X48.765 Y79.814 Z-18.245
X48.825 Y79.798 Z-18.247
X48.887 Y79.796 Z-18.249
X48.948 Y79.81 Z-18.251
X49.004 Y79.838 Z-18.253
X49.051 Y79.879 Z-18.255
X49.086 Y79.93 Z-18.258
X49.109 Y79.988 Z-18.26
X49.116 Y80.049 Z-18.262
Y80.411 F254.
X48.184 Y80.075
X48.151 Y80.067
X48.117 Y80.064
X47.113
X47.079 Y80.067
X47.046 Y80.076
X46.116 Y80.414
Y79.689
X47.047 Y80.024
X47.079 Y80.033
X47.113 Y80.036
X48.117
X48.151 Y80.033
X48.184 Y80.024
X49.116 Y79.687
Y80.049
X49.112 Y80.068
X49.098 Y80.083
X49.08 Y80.089
X49.061 Y80.085
X48.883 Y80.004
X48.699 Y79.937
X48.683 Y79.927
X48.674 Y79.909
Y79.89
X48.684 Y79.873
X48.733 Y79.834 Z-18.264 F85.
X48.789 Y79.809 Z-18.266
X48.851 Y79.798 Z-18.269
X48.913 Y79.802 Z-18.271
X48.972 Y79.821 Z-18.273
X49.024 Y79.855 Z-18.275
X49.067 Y79.9 Z-18.277
X49.098 Y79.954 Z-18.279
X49.114 Y80.014 Z-18.282
X49.115 Y80.076 Z-18.284
X49.101 Y80.137 Z-18.286
X49.072 Y80.192 Z-18.288
X49.031 Y80.239 Z-18.29
X48.98 Y80.274 Z-18.292
X48.922 Y80.295 Z-18.295
X48.86 Y80.302 Z-18.297
X48.798 Y80.293 Z-18.299
X48.741 Y80.27 Z-18.301
X48.691 Y80.233 Z-18.303
X48.651 Y80.185 Z-18.306
X48.624 Y80.128 Z-18.308
X48.612 Y80.067 Z-18.31
X48.616 Y80.005 Z-18.312
X48.634 Y79.946 Z-18.314
X48.666 Y79.893 Z-18.316
X48.711 Y79.849 Z-18.319
X48.764 Y79.818 Z-18.321
X48.824 Y79.8 Z-18.323
X48.886 Y79.798 Z-18.325
X48.947 Y79.811 Z-18.327
X49.003 Y79.839 Z-18.329
X49.05 Y79.879 Z-18.332
X49.086 Y79.93 Z-18.334
X49.109 Y79.988 Z-18.336
X49.116 Y80.05 Z-18.338
Y80.409 F254.
X48.184 Y80.073
X48.151 Y80.064
X48.117 Y80.061
X47.113
X47.079 Y80.064
X47.046 Y80.073
X46.116 Y80.412
Y79.692
X47.047 Y80.027
X47.079 Y80.036
X47.113 Y80.039
X48.117
X48.151 Y80.036
X48.184 Y80.027
X49.116 Y79.69
Y80.05
X49.112 Y80.068
X49.098 Y80.083
X49.08 Y80.089
X49.061 Y80.086
X48.882 Y80.006
X48.696 Y79.945
X48.679 Y79.935
X48.67 Y79.918
Y79.898
X48.679 Y79.881
X48.725 Y79.84 Z-18.34 F85.
X48.781 Y79.812 Z-18.343
X48.842 Y79.799 Z-18.345
X48.904 Y79.801 Z-18.347
X48.964 Y79.818 Z-18.349
X49.017 Y79.849 Z-18.351
X49.062 Y79.893 Z-18.353
X49.094 Y79.946 Z-18.356
X49.113 Y80.005 Z-18.358
X49.116 Y80.067 Z-18.36
X49.104 Y80.128 Z-18.362
X49.077 Y80.184 Z-18.364
X49.037 Y80.232 Z-18.367
X48.987 Y80.269 Z-18.369
X48.929 Y80.292 Z-18.371
X48.867 Y80.3 Z-18.373
X48.805 Y80.293 Z-18.375
X48.747 Y80.27 Z-18.377
X48.697 Y80.235 Z-18.38
X48.656 Y80.187 Z-18.382
X48.628 Y80.132 Z-18.384
X48.615 Y80.071 Z-18.386
X48.618 Y80.009 Z-18.388
X48.635 Y79.949 Z-18.39
X48.667 Y79.895 Z-18.393
X48.711 Y79.851 Z-18.395
X48.764 Y79.819 Z-18.397
X48.823 Y79.801 Z-18.399
X48.886 Y79.799 Z-18.401
X48.946 Y79.811 Z-18.404
X49.002 Y79.839 Z-18.406
X49.05 Y79.879 Z-18.408
X49.086 Y79.929 Z-18.41
X49.109 Y79.987 Z-18.412
X49.116 Y80.049 Z-18.414
Y80.406 F254.
X48.184 Y80.07
X48.151 Y80.061
X48.117 Y80.058
X47.113 Y80.059
X47.079 Y80.062
X47.046 Y80.071
X46.116 Y80.409
Y79.695
X47.047 Y80.03
X47.079 Y80.038
X47.113 Y80.041
X48.117 Y80.042
X48.151 Y80.039
X48.184 Y80.03
X49.116 Y79.69
Y80.049
X49.109 Y80.086
X49.089 Y80.118
X49.058 Y80.14
X49.022 Y80.149
X48.984 Y80.144
X48.717 Y80.053
X48.685 Y80.035
X48.661 Y80.005
X48.65 Y79.969
X48.653 Y79.931
X48.67 Y79.898
X48.714 Y79.853 Z-18.417 F85.
X48.767 Y79.821 Z-18.419
X48.826 Y79.803 Z-18.421
X48.888 Y79.801 Z-18.423
X48.949 Y79.814 Z-18.425
X49.005 Y79.841 Z-18.427
X49.052 Y79.882 Z-18.43
X49.088 Y79.933 Z-18.432
X49.11 Y79.991 Z-18.434
X49.116 Y80.053 Z-18.436
X49.108 Y80.114 Z-18.438
X49.084 Y80.172 Z-18.441
X49.046 Y80.222 Z-18.443
X48.998 Y80.261 Z-18.445
X48.941 Y80.286 Z-18.447
X48.88 Y80.297 Z-18.449
X48.818 Y80.292 Z-18.451
X48.759 Y80.272 Z-18.454
X48.707 Y80.239 Z-18.456
X48.665 Y80.193 Z-18.458
X48.636 Y80.138 Z-18.46
X48.621 Y80.078 Z-18.462
Y80.015 Z-18.464
X48.637 Y79.955 Z-18.467
X48.667 Y79.901 Z-18.469
X48.71 Y79.856 Z-18.471
X48.763 Y79.823 Z-18.473
X48.822 Y79.804 Z-18.475
X48.884 Y79.8 Z-18.478
X48.945 Y79.812 Z-18.48
X49.002 Y79.839 Z-18.482
X49.049 Y79.879 Z-18.484
X49.086 Y79.929 Z-18.486
X49.109 Y79.987 Z-18.488
X49.116 Y80.049 Z-18.491
Y80.402 F254.
X48.183 Y80.067
X48.151 Y80.058
X48.117 Y80.055
X47.113 Y80.056
X47.079 Y80.059
X47.046 Y80.068
X46.116 Y80.407
Y79.698
X47.047 Y80.033
X47.08 Y80.041
X47.113 Y80.044
X48.117 Y80.045
X48.151 Y80.042
X48.184 Y80.033
X49.116 Y79.693
Y80.049
X49.112 Y80.067
X49.099 Y80.081
X49.081 Y80.088
X49.062 Y80.085
X48.881 Y80.01
X48.691 Y79.961
X48.674 Y79.952
X48.663 Y79.936
X48.662 Y79.917
X48.669 Y79.9
X48.712 Y79.855 Z-18.493 F85.
X48.765 Y79.822 Z-18.495
X48.825 Y79.804 Z-18.497
X48.887 Y79.801 Z-18.499
X48.948 Y79.813 Z-18.501
X49.004 Y79.841 Z-18.504
X49.051 Y79.881 Z-18.506
X49.087 Y79.931 Z-18.508
X49.109 Y79.99 Z-18.51
X49.116 Y80.051 Z-18.512
X49.108 Y80.113 Z-18.515
X49.084 Y80.17 Z-18.517
X49.047 Y80.22 Z-18.519
X48.999 Y80.26 Z-18.521
X48.943 Y80.286 Z-18.523
X48.882 Y80.297 Z-18.525
X48.82 Y80.292 Z-18.528
X48.761 Y80.273 Z-18.53
X48.708 Y80.239 Z-18.532
X48.666 Y80.193 Z-18.534
X48.636 Y80.139 Z-18.536
X48.621 Y80.078 Z-18.538
X48.622 Y80.016 Z-18.541
X48.637 Y79.956 Z-18.543
X48.668 Y79.902 Z-18.545
X48.71 Y79.857 Z-18.547
X48.763 Y79.823 Z-18.549
X48.822 Y79.804 Z-18.552
X48.884 Y79.801 Z-18.554
X48.945 Y79.813 Z-18.556
X49.001 Y79.839 Z-18.558
X49.049 Y79.879 Z-18.56
X49.086 Y79.929 Z-18.562
X49.109 Y79.987 Z-18.565
X49.116 Y80.049 Z-18.567
Y80.402 F254.
X48.183 Y80.067
X48.151 Y80.058
X48.117 Y80.055
X47.113 Y80.056
X47.079 Y80.059
X47.046 Y80.067
X46.116 Y80.407
Y79.698
X47.047 Y80.033
X47.08 Y80.042
X47.113 Y80.044
X48.117 Y80.045
X48.151 Y80.042
X48.184 Y80.033
X49.116 Y79.694
Y80.049
X49.112 Y80.067
X49.099 Y80.081
X49.081 Y80.088
X49.062 Y80.085
X48.881 Y80.01
X48.691 Y79.961
X48.674 Y79.952
X48.663 Y79.936
X48.662 Y79.917
X48.669 Y79.9
X48.712 Y79.855 Z-18.569 F85.
X48.765 Y79.822 Z-18.571
X48.825 Y79.804 Z-18.573
X48.887 Y79.801 Z-18.576
X48.948 Y79.813 Z-18.578
X49.004 Y79.841 Z-18.58
X49.051 Y79.881 Z-18.582
X49.087 Y79.931 Z-18.584
X49.109 Y79.99 Z-18.586
X49.116 Y80.051 Z-18.589
X49.108 Y80.113 Z-18.591
X49.084 Y80.17 Z-18.593
X49.047 Y80.22 Z-18.595
X48.999 Y80.26 Z-18.597
X48.943 Y80.286 Z-18.599
X48.882 Y80.297 Z-18.602
X48.82 Y80.292 Z-18.604
X48.761 Y80.273 Z-18.606
X48.708 Y80.239 Z-18.608
X48.666 Y80.193 Z-18.61
X48.636 Y80.139 Z-18.613
X48.621 Y80.078 Z-18.615
X48.622 Y80.016 Z-18.617
X48.637 Y79.956 Z-18.619
X48.668 Y79.902 Z-18.621
X48.71 Y79.857 Z-18.623
X48.763 Y79.823 Z-18.626
X48.822 Y79.804 Z-18.628
X48.884 Y79.801 Z-18.63
X48.945 Y79.813 Z-18.632
X49.001 Y79.839 Z-18.634
X49.049 Y79.879 Z-18.636
X49.086 Y79.929 Z-18.639
