;FLAVOR:Marlin
;TIME:9211
;Filament used: 7.47146m
;Layer height: 0.2
;MINX:87.259
;MINY:121.703
;MINZ:0.2
;MAXX:212.741
;MAXY:202.297
;MAXZ:24
;Generated with Cura_SteamEngine main
M140 S50
M105
M190 S50
M104 S200
M105
M109 S200
M82 ;absolute extrusion mode
M201 X500.00 Y500.00 Z100.00 E5000.00 ;Setup machine max acceleration
M203 X500.00 Y500.00 Z10.00 E50.00 ;Setup machine max feedrate
M204 P500.00 R1000.00 T500.00 ;Setup Print/Retract/Travel acceleration
M205 X8.00 Y8.00 Z0.40 E5.00 ;Setup Jerk
M220 S100 ;Reset Feedrate
M221 S100 ;Reset Flowrate

G28 ;Home

G92 E0 ;Reset Extruder
G1 Z2.0 F3000 ;Move Z Axis up
G1 X10.1 Y20 Z0.28 F5000.0 ;Move to start position
G1 X10.1 Y200.0 Z0.28 F1500.0 E15 ;Draw the first line
G1 X10.4 Y200.0 Z0.28 F5000.0 ;Move to side a little
G1 X10.4 Y20 Z0.28 F1500.0 E30 ;Draw the second line
G92 E0 ;Reset Extruder
G1 Z2.0 F3000 ;Move Z Axis up

G92 E0
G92 E0
G1 F2700 E-5
;LAYER_COUNT:120
;LAYER:0
M107
G0 F6000 X91.885 Y123.754 Z0.2
G0 X87.26 Y133.228
;TYPE:SKIRT
G1 F2700 E0
G1 F1200 X87.269 Y132.563 E0.02212
G1 X87.322 Y131.627 E0.0533
G1 X87.454 Y130.698 E0.08451
G1 X87.665 Y129.784 E0.11571
G1 X87.953 Y128.892 E0.14689
G1 X88.316 Y128.027 E0.17809
G1 X88.751 Y127.196 E0.20928
G1 X89.255 Y126.406 E0.24045
G1 X89.825 Y125.661 E0.27165
G1 X90.457 Y124.967 E0.30287
G1 X91.145 Y124.33 E0.33405
G1 X91.885 Y123.754 E0.36524
G1 X92.671 Y123.242 E0.39644
G1 X93.498 Y122.8 E0.42763
G1 X94.36 Y122.43 E0.45883
G1 X95.25 Y122.134 E0.49003
G1 X96.162 Y121.916 E0.52122
G1 X97.089 Y121.775 E0.5524
G1 X97.96 Y121.716 E0.58144
G1 X98.589 Y121.703 E0.60236
G1 X201.192 Y121.704 E4.01495
G1 X201.89 Y121.714 E4.03817
G1 X202.826 Y121.768 E4.06935
G1 X203.754 Y121.9 E4.10053
G1 X204.668 Y122.112 E4.13174
G1 X205.56 Y122.401 E4.16292
G1 X206.425 Y122.764 E4.19412
G1 X207.255 Y123.2 E4.22531
G1 X208.046 Y123.705 E4.25652
G1 X208.79 Y124.276 E4.28771
G1 X209.483 Y124.908 E4.31891
G1 X210.12 Y125.596 E4.35009
G1 X210.695 Y126.337 E4.38129
G1 X211.206 Y127.123 E4.41247
G1 X211.648 Y127.951 E4.44369
G1 X212.017 Y128.813 E4.47488
G1 X212.312 Y129.703 E4.50606
G1 X212.53 Y130.615 E4.53725
G1 X212.67 Y131.543 E4.56846
G1 X212.728 Y132.404 E4.59716
G1 X212.741 Y133.033 E4.61809
G1 X212.74 Y190.697 E6.536
G1 X212.731 Y191.424 E6.56018
G1 X212.68 Y192.361 E6.5914
G1 X212.548 Y193.289 E6.62257
G1 X212.339 Y194.203 E6.65376
G1 X212.052 Y195.096 E6.68495
G1 X211.69 Y195.962 E6.71617
G1 X211.256 Y196.793 E6.74735
G1 X210.752 Y197.584 E6.77855
G1 X210.183 Y198.329 E6.80973
G1 X209.552 Y199.024 E6.84095
G1 X208.865 Y199.662 E6.87213
G1 X208.126 Y200.239 E6.90332
G1 X207.34 Y200.751 E6.93452
G1 X206.514 Y201.194 E6.96569
G1 X205.652 Y201.566 E6.99692
G1 X204.763 Y201.862 E7.02808
G1 X203.851 Y202.082 E7.05928
G1 X202.924 Y202.223 E7.09047
G1 X202.04 Y202.284 E7.11994
G1 X201.411 Y202.297 E7.14087
G1 X98.824 Y202.296 E10.55293
G1 X98.126 Y202.287 E10.57614
G1 X97.19 Y202.235 E10.60732
G1 X96.261 Y202.103 E10.63853
G1 X95.347 Y201.893 E10.66972
G1 X94.454 Y201.606 E10.70092
G1 X93.589 Y201.243 E10.73212
G1 X92.758 Y200.809 E10.7633
G1 X91.967 Y200.305 E10.7945
G1 X91.222 Y199.735 E10.8257
G1 X90.528 Y199.104 E10.8569
G1 X89.891 Y198.417 E10.88806
G1 X89.314 Y197.677 E10.91927
G1 X88.802 Y196.891 E10.95047
G1 X88.359 Y196.064 E10.98167
G1 X87.988 Y195.203 E11.01285
G1 X87.692 Y194.313 E11.04405
G1 X87.473 Y193.401 E11.07524
G1 X87.332 Y192.474 E11.10643
G1 X87.272 Y191.585 E11.13607
G1 X87.259 Y190.955 E11.15702
G1 X87.26 Y133.228 E13.07703
G0 F6000 X87.66 Y133.234
G1 F1200 X87.669 Y132.569 E13.09915
G1 X87.721 Y131.649 E13.1298
G1 X87.853 Y130.738 E13.16042
G1 X88.064 Y129.842 E13.19103
G1 X88.351 Y128.967 E13.22166
G1 X88.714 Y128.121 E13.25228
G1 X89.148 Y127.309 E13.2829
G1 X89.651 Y126.538 E13.31352
G1 X90.22 Y125.814 E13.34415
G1 X90.848 Y125.142 E13.37474
G1 X91.533 Y124.526 E13.40538
G1 X92.269 Y123.973 E13.436
G1 X93.05 Y123.485 E13.46663
G1 X93.87 Y123.067 E13.49724
G1 X94.724 Y122.722 E13.52788
G1 X95.604 Y122.452 E13.55849
G1 X96.504 Y122.26 E13.5891
G1 X97.418 Y122.146 E13.61974
G1 X97.971 Y122.116 E13.63816
G1 X98.589 Y122.103 E13.65871
G1 X201.186 Y122.104 E17.0711
G1 X201.884 Y122.114 E17.09432
G1 X202.803 Y122.167 E17.12494
G1 X203.714 Y122.3 E17.15556
G1 X204.61 Y122.511 E17.18618
G1 X205.484 Y122.799 E17.21678
G1 X206.331 Y123.162 E17.24743
G1 X207.142 Y123.597 E17.27804
G1 X207.912 Y124.101 E17.30865
G1 X208.636 Y124.67 E17.33928
G1 X209.308 Y125.3 E17.36992
G1 X209.923 Y125.985 E17.40053
G1 X210.476 Y126.721 E17.43115
G1 X210.963 Y127.502 E17.46177
G1 X211.38 Y128.323 E17.49239
G1 X211.725 Y129.177 E17.52303
G1 X211.994 Y130.057 E17.55363
G1 X212.186 Y130.958 E17.58427
G1 X212.299 Y131.871 E17.61487
G1 X212.328 Y132.415 E17.63299
G1 X212.341 Y133.033 E17.65355
G1 X212.34 Y190.692 E19.5713
G1 X212.331 Y191.419 E19.59548
G1 X212.28 Y192.338 E19.62609
G1 X212.149 Y193.25 E19.65674
G1 X211.939 Y194.146 E19.68734
G1 X211.653 Y195.021 E19.71796
G1 X211.292 Y195.868 E19.74858
G1 X210.858 Y196.68 E19.77921
G1 X210.356 Y197.452 E19.80984
G1 X209.788 Y198.177 E19.84047
G1 X209.16 Y198.85 E19.87108
G1 X208.476 Y199.466 E19.9017
G1 X207.741 Y200.02 E19.93231
G1 X206.961 Y200.509 E19.96293
G1 X206.141 Y200.928 E19.99356
G1 X205.288 Y201.274 E20.02418
G1 X204.408 Y201.545 E20.0548
G1 X203.508 Y201.738 E20.08542
G1 X202.594 Y201.853 E20.11606
G1 X202.029 Y201.884 E20.13488
G1 X201.411 Y201.897 E20.15543
G1 X98.829 Y201.896 E23.56733
G1 X98.131 Y201.887 E23.59054
G1 X97.212 Y201.835 E23.62116
G1 X96.301 Y201.704 E23.65177
G1 X95.405 Y201.494 E23.68238
G1 X94.53 Y201.207 E23.71301
G1 X93.683 Y200.845 E23.74364
G1 X92.871 Y200.411 E23.77427
G1 X92.1 Y199.909 E23.80487
G1 X91.375 Y199.341 E23.8355
G1 X90.702 Y198.712 E23.86614
G1 X90.087 Y198.028 E23.89673
G1 X89.533 Y197.293 E23.92734
G1 X89.045 Y196.512 E23.95797
G1 X88.626 Y195.692 E23.9886
G1 X88.28 Y194.839 E24.01922
G1 X88.01 Y193.959 E24.04983
G1 X87.817 Y193.058 E24.08048
G1 X87.703 Y192.145 E24.11108
G1 X87.672 Y191.574 E24.1301
G1 X87.659 Y190.955 E24.15069
G1 X87.66 Y133.234 E26.0705
G0 F6000 X88.06 Y133.239
G1 F1200 X88.069 Y132.574 E26.09262
G1 X88.121 Y131.672 E26.12267
G1 X88.253 Y130.779 E26.1527
G1 X88.463 Y129.901 E26.18272
G1 X88.75 Y129.044 E26.21278
G1 X89.112 Y128.217 E26.24281
G1 X89.545 Y127.425 E26.27283
G1 X90.047 Y126.674 E26.30288
G1 X90.614 Y125.97 E26.33294
G1 X91.24 Y125.32 E26.36296
G1 X91.921 Y124.727 E26.39299
G1 X92.653 Y124.197 E26.42305
G1 X93.428 Y123.734 E26.45307
G1 X94.241 Y123.341 E26.48311
G1 X95.086 Y123.021 E26.51316
G1 X95.955 Y122.778 E26.54317
G1 X96.843 Y122.612 E26.57322
G1 X97.982 Y122.516 E26.61124
G1 X98.589 Y122.503 E26.63143
G1 X201.18 Y122.504 E30.04362
G1 X201.878 Y122.514 E30.06684
G1 X202.78 Y122.567 E30.09689
G1 X203.673 Y122.699 E30.12692
G1 X204.551 Y122.91 E30.15695
G1 X205.407 Y123.198 E30.18699
G1 X206.234 Y123.56 E30.21701
G1 X207.026 Y123.995 E30.24707
G1 X207.777 Y124.497 E30.27711
G1 X208.48 Y125.064 E30.30715
G1 X209.13 Y125.691 E30.33719
G1 X209.722 Y126.373 E30.36723
G1 X210.252 Y127.104 E30.39726
G1 X210.714 Y127.88 E30.4273
G1 X211.107 Y128.693 E30.45733
G1 X211.425 Y129.538 E30.48736
G1 X211.668 Y130.408 E30.5174
G1 X211.833 Y131.296 E30.54744
G1 X211.928 Y132.426 E30.58516
G1 X211.941 Y133.033 E30.60535
G1 X211.94 Y190.687 E32.52293
G1 X211.931 Y191.414 E32.54712
G1 X211.88 Y192.316 E32.57716
G1 X211.749 Y193.21 E32.60722
G1 X211.54 Y194.088 E32.63723
G1 X211.254 Y194.945 E32.66728
G1 X210.893 Y195.773 E32.69733
G1 X210.461 Y196.565 E32.72733
G1 X209.96 Y197.317 E32.75739
G1 X209.394 Y198.021 E32.78743
G1 X208.769 Y198.672 E32.81745
G1 X208.088 Y199.266 E32.8475
G1 X207.357 Y199.797 E32.87755
G1 X206.583 Y200.261 E32.90757
G1 X205.77 Y200.655 E32.93762
G1 X204.926 Y200.975 E32.96764
G1 X204.056 Y201.22 E32.9977
G1 X203.169 Y201.386 E33.02771
G1 X202.018 Y201.484 E33.06613
G1 X201.411 Y201.497 E33.08633
G1 X98.834 Y201.496 E36.49805
G1 X98.136 Y201.487 E36.52127
G1 X97.235 Y201.436 E36.55129
G1 X96.341 Y201.304 E36.58134
G1 X95.463 Y201.095 E36.61136
G1 X94.606 Y200.808 E36.64142
G1 X93.779 Y200.447 E36.67143
G1 X92.986 Y200.014 E36.70148
G1 X92.235 Y199.513 E36.73151
G1 X91.531 Y198.947 E36.76156
G1 X90.88 Y198.321 E36.79159
G1 X90.287 Y197.64 E36.82163
G1 X89.757 Y196.909 E36.85166
G1 X89.293 Y196.134 E36.8817
G1 X88.899 Y195.321 E36.91175
G1 X88.579 Y194.477 E36.94177
G1 X88.335 Y193.607 E36.97183
G1 X88.169 Y192.719 E37.00187
G1 X88.072 Y191.564 E37.04042
G1 X88.059 Y190.955 E37.06068
G1 X88.06 Y133.239 E38.98032
G1 F2700 E33.98032
;MESH:NMJ_0_0_1_Plate_Aligner1.stl
G0 F6000 X97.594 Y133.239
G0 X98.859 Y190.697
;TYPE:WALL-INNER
G1 F2700 E38.98032
G1 F1200 X201.141 Y190.697 E42.38224
G1 X201.141 Y162 E43.3367
G1 X201.141 Y133.303 E44.29117
G1 X98.859 Y133.303 E47.69308
G1 X98.859 Y190.697 E49.60202
G0 F6000 X98.459 Y191.097
;TYPE:WALL-OUTER
G1 F1200 X201.541 Y191.097 E53.03054
G1 X201.541 Y162 E53.99831
G1 X201.541 Y132.903 E54.96608
G1 X98.459 Y132.903 E58.3946
G1 X98.459 Y191.097 E60.33014
G0 F6000 X98.729 Y190.827
G0 X98.959 Y190.337
G0 X99.219 Y190.337
;TYPE:SKIN
G1 F1200 X200.781 Y190.337 E63.7081
G1 X200.781 Y133.663 E65.59309
G1 X99.219 Y133.663 E68.97106
G1 X99.219 Y190.337 E70.85604
G0 F6000 X99.627 Y190.136
G1 F1200 X99.419 Y189.928 E70.86582
G0 F6000 X99.419 Y189.363
G1 F1200 X100.192 Y190.136 E70.90218
G0 F6000 X100.758 Y190.136
G1 F1200 X99.419 Y188.797 E70.96517
G0 F6000 X99.419 Y188.231
G1 F1200 X101.324 Y190.136 E71.05477
G0 F6000 X101.889 Y190.136
G1 F1200 X99.419 Y187.666 E71.17095
G0 F6000 X99.419 Y187.1
G1 F1200 X102.455 Y190.136 E71.31376
G0 F6000 X103.021 Y190.136
G1 F1200 X99.419 Y186.534 E71.48318
G0 F6000 X99.419 Y185.969
G1 F1200 X103.586 Y190.136 E71.67919
G0 F6000 X104.152 Y190.136
G1 F1200 X99.419 Y185.403 E71.90181
G0 F6000 X99.419 Y184.837
G1 F1200 X104.718 Y190.136 E72.15106
G0 F6000 X105.283 Y190.136
G1 F1200 X99.419 Y184.272 E72.42689
G0 F6000 X99.419 Y183.706
G1 F1200 X105.849 Y190.136 E72.72933
G0 F6000 X106.415 Y190.136
G1 F1200 X99.419 Y183.14 E73.0584
G0 F6000 X99.419 Y182.574
G1 F1200 X106.981 Y190.136 E73.4141
G0 F6000 X107.546 Y190.136
G1 F1200 X99.419 Y182.009 E73.79637
G0 F6000 X99.419 Y181.443
G1 F1200 X108.112 Y190.136 E74.20526
G0 F6000 X108.678 Y190.136
G1 F1200 X99.419 Y180.877 E74.64077
G0 F6000 X99.419 Y180.312
G1 F1200 X109.243 Y190.136 E75.10286
G0 F6000 X109.809 Y190.136
G1 F1200 X99.419 Y179.746 E75.59158
G0 F6000 X99.419 Y179.18
G1 F1200 X110.375 Y190.136 E76.10691
G0 F6000 X110.94 Y190.136
G1 F1200 X99.419 Y178.615 E76.64883
G0 F6000 X99.419 Y178.049
G1 F1200 X111.506 Y190.136 E77.21736
G0 F6000 X112.072 Y190.136
G1 F1200 X99.419 Y177.483 E77.81252
G0 F6000 X99.419 Y176.918
G1 F1200 X112.637 Y190.136 E78.43425
G0 F6000 X113.203 Y190.136
G1 F1200 X99.419 Y176.352 E79.08261
G0 F6000 X99.419 Y175.786
G1 F1200 X113.769 Y190.136 E79.75759
G0 F6000 X114.334 Y190.136
G1 F1200 X99.419 Y175.221 E80.45915
G0 F6000 X99.419 Y174.655
G1 F1200 X114.9 Y190.136 E81.18733
G0 F6000 X115.466 Y190.136
G1 F1200 X99.419 Y174.089 E81.94213
G0 F6000 X99.419 Y173.524
G1 F1200 X116.031 Y190.136 E82.72351
G0 F6000 X116.597 Y190.136
G1 F1200 X99.419 Y172.958 E83.53151
G0 F6000 X99.419 Y172.392
G1 F1200 X117.163 Y190.136 E84.36613
G0 F6000 X117.729 Y190.136
G1 F1200 X99.419 Y171.826 E85.22738
G0 F6000 X99.419 Y171.261
G1 F1200 X118.294 Y190.136 E86.1152
G0 F6000 X118.86 Y190.136
G1 F1200 X99.419 Y170.695 E87.02964
G0 F6000 X99.419 Y170.129
G1 F1200 X119.426 Y190.136 E87.97071
G0 F6000 X119.991 Y190.136
G1 F1200 X99.419 Y169.564 E88.93835
G0 F6000 X99.419 Y168.998
G1 F1200 X120.557 Y190.136 E89.93262
G0 F6000 X121.123 Y190.136
G1 F1200 X99.419 Y168.432 E90.95351
G0 F6000 X99.419 Y167.867
G1 F1200 X121.688 Y190.136 E92.00098
G0 F6000 X122.254 Y190.136
G1 F1200 X99.419 Y167.301 E93.07506
G0 F6000 X99.419 Y166.735
G1 F1200 X122.82 Y190.136 E94.17578
G0 F6000 X123.385 Y190.136
G1 F1200 X99.419 Y166.17 E95.30306
G0 F6000 X99.419 Y165.604
G1 F1200 X123.951 Y190.136 E96.45697
G0 F6000 X124.517 Y190.136
G1 F1200 X99.419 Y165.038 E97.63751
G0 F6000 X99.419 Y164.473
G1 F1200 X125.082 Y190.136 E98.84462
G0 F6000 X125.648 Y190.136
G1 F1200 X99.419 Y163.907 E100.07835
G0 F6000 X99.419 Y163.341
G1 F1200 X126.214 Y190.136 E101.3387
G0 F6000 X126.78 Y190.136
G1 F1200 X99.419 Y162.775 E102.62568
G0 F6000 X99.419 Y162.21
G1 F1200 X127.345 Y190.136 E103.93923
G0 F6000 X127.911 Y190.136
G1 F1200 X99.419 Y161.644 E105.27941
G0 F6000 X99.419 Y161.078
G1 F1200 X128.477 Y190.136 E106.64621
G0 F6000 X129.042 Y190.136
G1 F1200 X99.419 Y160.513 E108.03958
G0 F6000 X99.419 Y159.947
G1 F1200 X129.608 Y190.136 E109.45958
G0 F6000 X130.174 Y190.136
G1 F1200 X99.419 Y159.381 E110.9062
G0 F6000 X99.419 Y158.816
G1 F1200 X130.739 Y190.136 E112.3794
G0 F6000 X131.305 Y190.136
G1 F1200 X99.419 Y158.25 E113.87922
G0 F6000 X99.419 Y157.684
G1 F1200 X131.871 Y190.136 E115.40566
G0 F6000 X132.436 Y190.136
G1 F1200 X99.419 Y157.119 E116.95868
G0 F6000 X99.419 Y156.553
G1 F1200 X133.002 Y190.136 E118.53832
G0 F6000 X133.568 Y190.136
G1 F1200 X99.419 Y155.987 E120.14459
G0 F6000 X99.419 Y155.422
G1 F1200 X134.133 Y190.136 E121.77743
G0 F6000 X134.699 Y190.136
G1 F1200 X99.419 Y154.856 E123.43689
G0 F6000 X99.419 Y154.29
G1 F1200 X135.265 Y190.136 E125.12297
G0 F6000 X135.83 Y190.136
G1 F1200 X99.419 Y153.725 E126.83564
G0 F6000 X99.419 Y153.159
G1 F1200 X136.396 Y190.136 E128.57492
G0 F6000 X136.962 Y190.136
G1 F1200 X99.419 Y152.593 E130.34083
G0 F6000 X99.419 Y152.027
G1 F1200 X137.528 Y190.136 E132.13336
G0 F6000 X138.093 Y190.136
G1 F1200 X99.419 Y151.462 E133.95247
G0 F6000 X99.419 Y150.896
G1 F1200 X138.659 Y190.136 E135.79819
G0 F6000 X139.225 Y190.136
G1 F1200 X99.419 Y150.33 E137.67055
G0 F6000 X99.419 Y149.765
G1 F1200 X139.79 Y190.136 E139.56947
G0 F6000 X140.356 Y190.136
G1 F1200 X99.419 Y149.199 E141.49503
G0 F6000 X99.419 Y148.633
G1 F1200 X140.922 Y190.136 E143.4472
G0 F6000 X141.487 Y190.136
G1 F1200 X99.419 Y148.068 E145.42595
G0 F6000 X99.419 Y147.502
G1 F1200 X142.053 Y190.136 E147.43132
G0 F6000 X142.619 Y190.136
G1 F1200 X99.419 Y146.936 E149.46332
G0 F6000 X99.419 Y146.371
G1 F1200 X143.184 Y190.136 E151.52189
G0 F6000 X143.75 Y190.136
G1 F1200 X99.419 Y145.805 E153.60708
G0 F6000 X99.419 Y145.239
G1 F1200 X144.316 Y190.136 E155.7189
G0 F6000 X144.881 Y190.136
G1 F1200 X99.419 Y144.674 E157.85729
G0 F6000 X99.419 Y144.108
G1 F1200 X145.447 Y190.136 E160.02231
G0 F6000 X146.013 Y190.136
G1 F1200 X99.419 Y143.542 E162.21395
G0 F6000 X99.419 Y142.976
G1 F1200 X146.578 Y190.136 E164.43219
G0 F6000 X147.144 Y190.136
G1 F1200 X99.419 Y142.411 E166.67702
G0 F6000 X99.419 Y141.845
G1 F1200 X147.71 Y190.136 E168.94849
G0 F6000 X148.276 Y190.136
G1 F1200 X99.419 Y141.279 E171.24657
G0 F6000 X99.419 Y140.714
G1 F1200 X148.841 Y190.136 E173.57123
G0 F6000 X149.407 Y190.136
G1 F1200 X99.419 Y140.148 E175.92251
G0 F6000 X99.419 Y139.582
G1 F1200 X149.973 Y190.136 E178.30042
G0 F6000 X150.538 Y190.136
G1 F1200 X99.419 Y139.017 E180.7049
G0 F6000 X99.419 Y138.451
G1 F1200 X151.104 Y190.136 E183.136
G0 F6000 X151.67 Y190.136
G1 F1200 X99.419 Y137.885 E185.59373
G0 F6000 X99.419 Y137.32
G1 F1200 X152.235 Y190.136 E188.07803
G0 F6000 X152.801 Y190.136
G1 F1200 X99.419 Y136.754 E190.58896
G0 F6000 X99.419 Y136.188
G1 F1200 X153.367 Y190.136 E193.1265
G0 F6000 X153.932 Y190.136
G1 F1200 X99.419 Y135.623 E195.69063
G0 F6000 X99.419 Y135.057
G1 F1200 X154.498 Y190.136 E198.28138
G0 F6000 X155.064 Y190.136
G1 F1200 X99.419 Y134.491 E200.89875
G0 F6000 X99.419 Y133.926
G1 F1200 X155.629 Y190.136 E203.54269
G0 F6000 X156.195 Y190.136
G1 F1200 X99.921 Y133.863 E206.18962
G0 F6000 X100.487 Y133.863
G1 F1200 X156.761 Y190.136 E208.83656
G0 F6000 X157.327 Y190.136
G1 F1200 X101.053 Y133.863 E211.48349
G0 F6000 X101.619 Y133.863
G1 F1200 X157.892 Y190.136 E214.1304
G0 F6000 X158.458 Y190.136
G1 F1200 X102.184 Y133.863 E216.77733
G0 F6000 X102.75 Y133.863
G1 F1200 X159.024 Y190.136 E219.42427
G0 F6000 X159.589 Y190.136
G1 F1200 X103.316 Y133.863 E222.07118
G0 F6000 X103.881 Y133.863
