(NMJPLATE0PT0PT1_BOTTOM_STEP1_4MM_SIDE1)
(T8  D=4. CR=0. - ZMIN=-6.3 - FLAT END MILL)
G0 G90 G94 G17
G21
G53 G0 Z0.

(ROUGH)
M5
T8
M3 S16000
G55
M8
G0 X110.371 Y95.537
Z15.
Z1.508
G1 Z0.933 F380.
X110.379 Z0.855 F1500.
X110.401 Z0.78
X110.438 Z0.711
X110.488 Z0.651
X110.548 Z0.601
X110.617 Z0.564
X110.692 Z0.541
X110.77 Z0.533
X136.543 Y95.536 Z0.503
X136.646 Y95.53
X137.428 Y95.449 Z0.502
X137.52 Y95.435
X137.611 Y95.413
X138.414 Y95.173 Z0.501
X138.479 Y95.151
X138.543 Y95.125
X138.697 Y95.055
X138.759 Y95.024 Z0.5
X139.43 Y94.659
X139.509 Y94.611 Z0.499
X139.583 Y94.557
X140.21 Y94.048 Z0.498
X140.295 Y93.97
X140.411 Y93.851
X140.47 Y93.786
X140.946 Y93.204 Z0.497
X140.99 Y93.145
X141.031 Y93.083
X141.128 Y92.92
X141.151 Y92.878
X141.464 Y92.291 Z0.496
X141.512 Y92.188
X141.569 Y92.044
X141.596 Y91.966 Z0.495
X141.81 Y91.258
X141.828 Y91.191 Z0.494
X141.841 Y91.122
X141.87 Y90.934
X141.878 Y90.871
X141.946 Y90.12 Z0.493
X141.95 Y90.03
X141.948 Y11.492 Z0.401
X141.942 Y11.389
X141.858 Y10.575 Z0.4
X141.844 Y10.482
X141.821 Y10.39
X141.572 Y9.565 Z0.399
X141.541 Y9.478 Z0.398
X141.503 Y9.395
X141.283 Y8.968
X141.27 Y8.944
X141.062 Y8.568 Z0.397
X141.014 Y8.49
X140.959 Y8.416
X140.401 Y7.738 Z0.396
X140.335 Y7.666
X140.263 Y7.601
X139.588 Y7.046 Z0.395
X139.511 Y6.989
X139.429 Y6.939 Z0.394
X138.698 Y6.545 Z0.393
X138.641 Y6.516
X138.581 Y6.491
X138.435 Y6.435
X138.361 Y6.41
X137.609 Y6.187 Z0.392
X137.516 Y6.164
X137.422 Y6.15
X136.545 Y6.065 Z0.391
X136.448 Y6.06
X15.89 Y6.062 Z0.249
X15.787 Y6.067
X14.973 Y6.151 Z0.248
X14.88 Y6.165
X14.788 Y6.188
X13.963 Y6.435 Z0.247
X13.854 Y6.475
X13.781 Y6.507
X13.702 Y6.545
X12.971 Y6.94 Z0.246
X12.89 Y6.989 Z0.245
X12.813 Y7.046
X12.138 Y7.6 Z0.244
X12.065 Y7.665
X12. Y7.737
X11.441 Y8.416 Z0.243
X11.383 Y8.493
X11.333 Y8.575
X10.94 Y9.302 Z0.242
X10.888 Y9.413
X10.829 Y9.562 Z0.241
X10.802 Y9.642
X10.578 Y10.393 Z0.24
X10.555 Y10.486
X10.541 Y10.58
X10.455 Y11.457 Z0.239
X10.45 Y11.555
X10.451 Y90.093 Z0.147
X10.456 Y90.193
X10.539 Y91.007 Z0.146
X10.552 Y91.098
X10.574 Y91.187
X10.758 Y91.813 Z0.145
X10.765 Y91.837
X10.834 Y92.054 Z0.144
X10.864 Y92.134
X10.9 Y92.211
X11.178 Y92.745
X11.19 Y92.767
X11.328 Y93.017 Z0.143
X11.374 Y93.092
X11.425 Y93.162
X11.926 Y93.782 Z0.142
X11.99 Y93.853
X12.107 Y93.972
X12.19 Y94.048
X12.816 Y94.557 Z0.141
X12.893 Y94.614
X12.975 Y94.663 Z0.14
X13.749 Y95.077 Z0.139
X13.835 Y95.118
X13.925 Y95.15
X14.717 Y95.396 Z0.138
X14.784 Y95.414
X14.853 Y95.428
X15.041 Y95.458
X15.106 Y95.467
X15.821 Y95.535 Z0.137
X15.916 Y95.539
X136.543 Y95.536 Z-0.005
X136.646 Y95.53
X137.428 Y95.449 Z-0.006
X137.52 Y95.435
X137.611 Y95.413
X138.414 Y95.173 Z-0.007
X138.479 Y95.151
X138.543 Y95.125
X138.697 Y95.055
X138.759 Y95.024 Z-0.008
X139.43 Y94.659
X139.509 Y94.611 Z-0.009
X139.583 Y94.557
X140.21 Y94.048 Z-0.01
X140.295 Y93.97
X140.411 Y93.851
X140.47 Y93.786
X140.946 Y93.204 Z-0.011
X140.99 Y93.145
X141.031 Y93.083
X141.128 Y92.92
X141.151 Y92.878
X141.464 Y92.291 Z-0.012
X141.512 Y92.188
X141.569 Y92.044
X141.596 Y91.966 Z-0.013
X141.81 Y91.258
X141.828 Y91.191 Z-0.014
X141.841 Y91.122
X141.87 Y90.934
X141.878 Y90.871
X141.946 Y90.12 Z-0.015
X141.95 Y90.03
X141.948 Y11.492 Z-0.107
X141.942 Y11.389
X141.858 Y10.575 Z-0.108
X141.844 Y10.482
X141.821 Y10.39
X141.572 Y9.565 Z-0.109
X141.541 Y9.478 Z-0.11
X141.503 Y9.395
X141.283 Y8.968
X141.27 Y8.944
X141.062 Y8.568 Z-0.111
X141.014 Y8.49
X140.959 Y8.416
X140.401 Y7.738 Z-0.112
X140.335 Y7.666
X140.263 Y7.601
X139.588 Y7.046 Z-0.113
X139.511 Y6.989
X139.429 Y6.939 Z-0.114
X138.698 Y6.545 Z-0.115
X138.641 Y6.516
X138.581 Y6.491
X138.435 Y6.435
X138.361 Y6.41
X137.609 Y6.187 Z-0.116
X137.516 Y6.164
X137.422 Y6.15
X136.545 Y6.065 Z-0.117
X136.448 Y6.06
X15.89 Y6.062 Z-0.259
X15.787 Y6.067
X14.973 Y6.151 Z-0.26
X14.88 Y6.165
X14.788 Y6.188
X13.963 Y6.435 Z-0.261
X13.854 Y6.475
X13.781 Y6.507
X13.702 Y6.545
X12.971 Y6.94 Z-0.262
X12.89 Y6.989 Z-0.263
X12.813 Y7.046
X12.138 Y7.6 Z-0.264
X12.065 Y7.665
X12. Y7.737
X11.441 Y8.416 Z-0.265
X11.383 Y8.493
X11.333 Y8.575
X10.94 Y9.302 Z-0.266
X10.888 Y9.413
X10.829 Y9.562 Z-0.267
X10.802 Y9.642
X10.578 Y10.393 Z-0.268
X10.555 Y10.486
X10.541 Y10.58
X10.455 Y11.457 Z-0.269
X10.45 Y11.555
X10.451 Y90.093 Z-0.361
X10.456 Y90.193
X10.539 Y91.007 Z-0.362
X10.552 Y91.098
X10.574 Y91.187
X10.758 Y91.813 Z-0.363
X10.765 Y91.837
X10.834 Y92.054 Z-0.364
X10.864 Y92.134
X10.9 Y92.211
X11.178 Y92.745
X11.19 Y92.767
X11.328 Y93.017 Z-0.365
X11.374 Y93.092
X11.425 Y93.162
X11.926 Y93.782 Z-0.366
X11.99 Y93.853
X12.107 Y93.972
X12.19 Y94.048
X12.816 Y94.557 Z-0.367
X12.893 Y94.614
X12.975 Y94.663 Z-0.368
X13.749 Y95.077 Z-0.369
X13.835 Y95.118
X13.925 Y95.15
X14.717 Y95.396 Z-0.37
X14.784 Y95.414
X14.853 Y95.428
X15.041 Y95.458
X15.106 Y95.467
X15.821 Y95.535 Z-0.371
X15.916 Y95.539
X132.394 Y95.536 Z-0.508
X136.543
X136.646 Y95.53
X137.428 Y95.449
X137.52 Y95.435
X137.611 Y95.413
X138.414 Y95.173
X138.479 Y95.151
X138.543 Y95.125
X138.697 Y95.055
X138.759 Y95.024
X139.43 Y94.659
X139.509 Y94.611
X139.583 Y94.557
X140.21 Y94.048
X140.295 Y93.97
X140.411 Y93.851
X140.47 Y93.786
X140.946 Y93.204
X140.99 Y93.145
X141.031 Y93.083
X141.128 Y92.92
X141.151 Y92.878
X141.464 Y92.291
X141.512 Y92.188
X141.569 Y92.044
X141.596 Y91.966
X141.81 Y91.258
X141.828 Y91.191
X141.841 Y91.122
X141.87 Y90.934
X141.878 Y90.871
X141.946 Y90.12
X141.95 Y90.03
X141.948 Y11.492
X141.942 Y11.389
X141.858 Y10.575
X141.844 Y10.482
X141.821 Y10.39
X141.572 Y9.565
X141.541 Y9.478
X141.503 Y9.395
X141.283 Y8.968
X141.27 Y8.944
X141.062 Y8.568
X141.014 Y8.49
X140.959 Y8.416
X140.401 Y7.738
X140.335 Y7.666
X140.263 Y7.601
X139.588 Y7.046
X139.511 Y6.989
X139.429 Y6.939
X138.698 Y6.545
X138.641 Y6.516
X138.581 Y6.491
X138.435 Y6.435
X138.361 Y6.41
X137.609 Y6.187
X137.516 Y6.164
X137.422 Y6.15
X136.545 Y6.065
X136.448 Y6.06
X15.89 Y6.062
X15.787 Y6.067
X14.973 Y6.151
X14.88 Y6.165
X14.788 Y6.188
X13.963 Y6.435
X13.854 Y6.475
X13.781 Y6.507
X13.702 Y6.545
X12.971 Y6.94
X12.89 Y6.989
X12.813 Y7.046
X12.138 Y7.6
X12.065 Y7.665
X12. Y7.737
X11.441 Y8.416
X11.383 Y8.493
X11.333 Y8.575
X10.94 Y9.302
X10.888 Y9.413
X10.829 Y9.562
X10.802 Y9.642
X10.578 Y10.393
X10.555 Y10.486
X10.541 Y10.58
X10.455 Y11.457
X10.45 Y11.555
X10.451 Y90.093
X10.456 Y90.193
X10.539 Y91.007
X10.552 Y91.098
X10.574 Y91.187
X10.758 Y91.813
X10.765 Y91.837
X10.834 Y92.054
X10.864 Y92.134
X10.9 Y92.211
X11.178 Y92.745
X11.19 Y92.767
X11.328 Y93.017
X11.374 Y93.092
X11.425 Y93.162
X11.926 Y93.782
X11.99 Y93.853
X12.107 Y93.972
X12.19 Y94.048
X12.816 Y94.557
X12.893 Y94.614
X12.975 Y94.663
X13.749 Y95.077
X13.835 Y95.118
X13.925 Y95.15
X14.717 Y95.396
X14.784 Y95.414
X14.853 Y95.428
X15.041 Y95.458
X15.106 Y95.467
X15.821 Y95.535
X15.916 Y95.539
X132.394 Y95.536
G3 X132.594 Y95.736 R0.2
X132.584 Y95.799 R0.2
G1 X132.436 Y96.243
X132.418 Y96.282
X132.392 Y96.316
X132.359 Y96.345
X132.321 Y96.365
X132.318 Y96.366
X132.235 Y96.404
X132.156 Y96.449
X132.077 Y96.407
X131.924 Y96.335
X131.84 Y96.301
X131.753 Y96.274
X131.566 Y96.225
X131.487 Y96.208
X131.408 Y96.197
X131.283 Y96.185
X131.187 Y96.18
X16.337
X15.865 Y96.171
X15.265 Y96.137
X14.225 Y95.93
X13.303 Y95.58
X12.401 Y95.046
X11.636 Y94.397
X10.841 Y93.427
X10.29 Y92.394
X9.943 Y91.254
X9.931 Y91.165
X9.81 Y89.907
X9.813 Y11.577
X9.854 Y10.869
X10.062 Y9.829
X10.406 Y8.922
X10.93 Y8.027
X11.618 Y7.223
X12.563 Y6.451
X13.584 Y5.907
X14.114 Y5.742
X14.767 Y5.547
X16.084 Y5.42
X136.4 Y5.421
X137.135 Y5.463
X138.175 Y5.67
X139.114 Y6.026
X139.997 Y6.552
X140.785 Y7.225
X141.557 Y8.169
X142.107 Y9.201
X142.134 Y9.281
X142.462 Y10.372
X142.59 Y11.679
X142.588 Y90.018
X142.547 Y90.717
X142.342 Y91.755
X141.973 Y92.722
X141.459 Y93.585
X140.78 Y94.38
X139.846 Y95.144
X138.809 Y95.697
X138.763 Y95.714
X137.631 Y96.053
X136.336 Y96.18
X133.065 Y96.184
X132.973 Y96.188
X132.883 Y96.201
X132.695 Y96.236
X132.599 Y96.258
X132.506 Y96.291
X132.321 Y96.365
G3 X132.134 Y96.285 R0.143
X132.196 Y96.108 R0.143
G1 X132.533 Y95.913
X132.558 Y95.902
X132.585 Y95.895
G3 X135.727 Y95.864 R11.952
G2 X138.826 Y95.337 R5.49
X142.257 Y90.219 R6.185
G1 X142.263 Y90.191
X142.382 Y89.864
X142.4 Y89.832
X142.428 Y89.809
X142.463 Y89.796
X142.5
X142.535 Y89.809
X142.563 Y89.832
X142.581 Y89.864
X142.588 Y89.901
Y90.018 Z-0.512
X142.547 Y90.717 Z-0.537
X142.342 Y91.755 Z-0.574
X141.973 Y92.722 Z-0.61
X141.459 Y93.585 Z-0.645
X140.78 Y94.38 Z-0.681
X139.846 Y95.144 Z-0.723
X138.809 Y95.697 Z-0.764
X138.763 Y95.714 Z-0.766
X137.631 Y96.053 Z-0.807
X136.336 Y96.18 Z-0.853
X133.065 Y96.184 Z-0.967
X132.973 Y96.188 Z-0.97
X132.883 Y96.201 Z-0.973
X132.695 Y96.236 Z-0.98
X132.599 Y96.258 Z-0.984
X132.506 Y96.291 Z-0.987
X132.318 Y96.366 Z-0.994
X132.235 Y96.404 Z-0.997
X132.156 Y96.449 Z-1.
X132.077 Y96.407 Z-1.004
X131.924 Y96.335 Z-1.009
X131.84 Y96.301 Z-1.013
X131.753 Y96.274 Z-1.016
X131.748 Y96.272
X131.566 Y96.225
X131.487 Y96.208
X131.408 Y96.197
X131.283 Y96.185
X131.187 Y96.18
X16.337
X15.865 Y96.171
X15.265 Y96.137
X14.225 Y95.93
X13.303 Y95.58
X12.401 Y95.046
X11.636 Y94.397
X10.841 Y93.427
X10.29 Y92.394
X9.943 Y91.254
X9.931 Y91.165
X9.81 Y89.907
X9.813 Y11.577
X9.854 Y10.869
X10.062 Y9.829
X10.406 Y8.922
X10.93 Y8.027
X11.618 Y7.223
X12.563 Y6.451
X13.584 Y5.907
X14.114 Y5.742
X14.767 Y5.547
X16.084 Y5.42
X136.4 Y5.421
X137.135 Y5.463
X138.175 Y5.67
X139.114 Y6.026
X139.997 Y6.552
X140.785 Y7.225
X141.557 Y8.169
X142.107 Y9.201
X142.134 Y9.281
X142.462 Y10.372
X142.59 Y11.679
X142.588 Y90.018
X142.547 Y90.717
X142.342 Y91.755
X141.973 Y92.722
X141.459 Y93.585
X140.78 Y94.38
X139.846 Y95.144
X138.809 Y95.697
X138.763 Y95.714
X137.631 Y96.053
X136.336 Y96.18
X133.065 Y96.184
X132.973 Y96.188
X132.883 Y96.201
X132.695 Y96.236
X132.599 Y96.258
X132.506 Y96.291
X132.318 Y96.366
X132.235 Y96.404
X132.156 Y96.449
X132.077 Y96.407
X131.924 Y96.335
X131.84 Y96.301
X131.753 Y96.274
X131.748 Y96.272
G3 X131.605 Y96.028 R0.2
X131.658 Y95.936 R0.2
G1 X132.008 Y95.593
X132.049 Y95.562
X132.097 Y95.543
X132.148 Y95.536
X136.543
X136.646 Y95.53
X137.428 Y95.449
X137.52 Y95.435
X137.611 Y95.413
X138.414 Y95.173
X138.479 Y95.151
X138.543 Y95.125
X138.697 Y95.055
X138.759 Y95.024
X139.43 Y94.659
X139.509 Y94.611
X139.583 Y94.557
X140.21 Y94.048
X140.295 Y93.97
X140.411 Y93.851
X140.47 Y93.786
X140.946 Y93.204
X140.99 Y93.145
X141.031 Y93.083
X141.128 Y92.92
X141.151 Y92.878
X141.464 Y92.291
X141.512 Y92.188
X141.569 Y92.044
X141.596 Y91.966
X141.81 Y91.258
X141.828 Y91.191
X141.841 Y91.122
X141.87 Y90.934
X141.878 Y90.871
X141.946 Y90.12
X141.95 Y90.03
X141.948 Y11.492
X141.942 Y11.389
X141.858 Y10.575
X141.844 Y10.482
X141.821 Y10.39
X141.572 Y9.565
X141.541 Y9.478
X141.503 Y9.395
X141.283 Y8.968
X141.27 Y8.944
X141.062 Y8.568
X141.014 Y8.49
X140.959 Y8.416
X140.401 Y7.738
X140.335 Y7.666
X140.263 Y7.601
X139.588 Y7.046
X139.511 Y6.989
X139.429 Y6.939
X138.698 Y6.545
X138.641 Y6.516
X138.581 Y6.491
X138.435 Y6.435
X138.361 Y6.41
X137.609 Y6.187
X137.516 Y6.164
X137.422 Y6.15
X136.545 Y6.065
X136.448 Y6.06
X15.89 Y6.062
X15.787 Y6.067
X14.973 Y6.151
X14.88 Y6.165
X14.788 Y6.188
X13.963 Y6.435
X13.854 Y6.475
X13.781 Y6.507
X13.702 Y6.545
X12.971 Y6.94
X12.89 Y6.989
X12.813 Y7.046
X12.138 Y7.6
X12.065 Y7.665
X12. Y7.737
X11.441 Y8.416
X11.383 Y8.493
X11.333 Y8.575
X10.94 Y9.302
X10.888 Y9.413
X10.829 Y9.562
X10.802 Y9.642
X10.578 Y10.393
X10.555 Y10.486
X10.541 Y10.58
X10.455 Y11.457
X10.45 Y11.555
X10.451 Y90.093
X10.456 Y90.193
X10.539 Y91.007
X10.552 Y91.098
X10.574 Y91.187
X10.758 Y91.813
X10.765 Y91.837
X10.834 Y92.054
X10.864 Y92.134
X10.9 Y92.211
X11.178 Y92.745
X11.19 Y92.767
X11.328 Y93.017
X11.374 Y93.092
X11.425 Y93.162
X11.926 Y93.782
X11.99 Y93.853
X12.107 Y93.972
X12.19 Y94.048
X12.816 Y94.557
X12.893 Y94.614
X12.975 Y94.663
X13.749 Y95.077
X13.835 Y95.118
X13.925 Y95.15
X14.717 Y95.396
X14.784 Y95.414
X14.853 Y95.428
X15.041 Y95.458
X15.106 Y95.467
X15.821 Y95.535
X15.916 Y95.539
X132.148 Y95.536
X132.185 Y95.543
X132.218 Y95.562
X132.242 Y95.591
X132.254 Y95.626
Y95.664
X132.24 Y95.699
X132.215 Y95.728
X132.182 Y95.745
X131.86 Y95.851
X131.826 Y95.856
X118.089 Y95.779
X118.063 Y95.775
X117.821 Y95.693
X117.794 Y95.677
X117.774 Y95.651
X117.767 Y95.62
X117.772 Y95.588
X117.789 Y95.561
X117.816 Y95.543
X117.847 Y95.536
X132.394 Z-1.524
X136.543
X136.646 Y95.53
X137.428 Y95.449
X137.52 Y95.435
X137.611 Y95.413
X138.414 Y95.173
X138.479 Y95.151
X138.543 Y95.125
X138.697 Y95.055
X138.759 Y95.024
X139.43 Y94.659
X139.509 Y94.611
X139.583 Y94.557
X140.21 Y94.048
X140.295 Y93.97
X140.411 Y93.851
X140.47 Y93.786
X140.946 Y93.204
X140.99 Y93.145
X141.031 Y93.083
X141.128 Y92.92
X141.151 Y92.878
X141.464 Y92.291
X141.512 Y92.188
X141.569 Y92.044
X141.596 Y91.966
X141.81 Y91.258
X141.828 Y91.191
X141.841 Y91.122
X141.87 Y90.934
X141.878 Y90.871
X141.946 Y90.12
X141.95 Y90.03
X141.948 Y11.492
X141.942 Y11.389
X141.858 Y10.575
X141.844 Y10.482
X141.821 Y10.39
X141.572 Y9.565
X141.541 Y9.478
X141.503 Y9.395
X141.283 Y8.968
X141.27 Y8.944
X141.062 Y8.568
X141.014 Y8.49
X140.959 Y8.416
X140.401 Y7.738
X140.335 Y7.666
X140.263 Y7.601
X139.588 Y7.046
X139.511 Y6.989
X139.429 Y6.939
X138.698 Y6.545
X138.641 Y6.516
X138.581 Y6.491
X138.435 Y6.435
X138.361 Y6.41
X137.609 Y6.187
X137.516 Y6.164
X137.422 Y6.15
X136.545 Y6.065
X136.448 Y6.06
X15.89 Y6.062
X15.787 Y6.067
X14.973 Y6.151
X14.88 Y6.165
X14.788 Y6.188
X13.963 Y6.435
X13.854 Y6.475
X13.781 Y6.507
X13.702 Y6.545
X12.971 Y6.94
X12.89 Y6.989
X12.813 Y7.046
X12.138 Y7.6
X12.065 Y7.665
X12. Y7.737
X11.441 Y8.416
X11.383 Y8.493
X11.333 Y8.575
X10.94 Y9.302
X10.888 Y9.413
X10.829 Y9.562
X10.802 Y9.642
X10.578 Y10.393
X10.555 Y10.486
X10.541 Y10.58
X10.455 Y11.457
X10.45 Y11.555
X10.451 Y90.093
X10.456 Y90.193
X10.539 Y91.007
X10.552 Y91.098
X10.574 Y91.187
X10.758 Y91.813
X10.765 Y91.837
X10.834 Y92.054
X10.864 Y92.134
X10.9 Y92.211
X11.178 Y92.745
X11.19 Y92.767
X11.328 Y93.017
X11.374 Y93.092
X11.425 Y93.162
X11.926 Y93.782
X11.99 Y93.853
X12.107 Y93.972
X12.19 Y94.048
X12.816 Y94.557
X12.893 Y94.614
X12.975 Y94.663
X13.749 Y95.077
X13.835 Y95.118
X13.925 Y95.15
X14.717 Y95.396
X14.784 Y95.414
X14.853 Y95.428
X15.041 Y95.458
X15.106 Y95.467
X15.821 Y95.535
X15.916 Y95.539
X132.394 Y95.536
G3 X132.594 Y95.736 R0.2
X132.584 Y95.799 R0.2
G1 X132.436 Y96.243
X132.418 Y96.282
X132.392 Y96.316
X132.359 Y96.345
X132.321 Y96.365
X132.318 Y96.366
X132.235 Y96.404
X132.156 Y96.449
X132.077 Y96.407
X131.924 Y96.335
X131.84 Y96.301
X131.753 Y96.274
X131.566 Y96.225
X131.487 Y96.208
X131.408 Y96.197
X131.283 Y96.185
X131.187 Y96.18
X16.337
X15.865 Y96.171
X15.265 Y96.137
X14.225 Y95.93
X13.303 Y95.58
X12.401 Y95.046
X11.636 Y94.397
X10.841 Y93.427
X10.29 Y92.394
X9.943 Y91.254
X9.931 Y91.165
X9.81 Y89.907
X9.813 Y11.577
X9.854 Y10.869
X10.062 Y9.829
X10.406 Y8.922
X10.93 Y8.027
X11.618 Y7.223
X12.563 Y6.451
X13.584 Y5.907
X14.114 Y5.742
X14.767 Y5.547
X16.084 Y5.42
X136.4 Y5.421
X137.135 Y5.463
X138.175 Y5.67
X139.114 Y6.026
X139.784 Y6.425
X139.997 Y6.552
X140.785 Y7.225
X141.557 Y8.169
X142.107 Y9.201
X142.134 Y9.281
X142.462 Y10.372
X142.59 Y11.679
X142.588 Y90.018
X142.547 Y90.717
X142.342 Y91.755
X141.973 Y92.722
X141.459 Y93.585
X140.78 Y94.38
X139.846 Y95.144
X138.809 Y95.697
X138.763 Y95.714
X137.631 Y96.053
X136.336 Y96.18
X133.065 Y96.184
X132.973 Y96.188
X132.883 Y96.201
X132.695 Y96.236
X132.599 Y96.258
X132.506 Y96.291
X132.321 Y96.365
G3 X132.134 Y96.285 R0.143
X132.196 Y96.108 R0.143
G1 X132.533 Y95.913
X132.558 Y95.902
X132.585 Y95.895
G3 X135.727 Y95.864 R11.952
G2 X138.826 Y95.337 R5.49
X142.257 Y90.219 R6.185
G1 X142.263 Y90.191
X142.382 Y89.864
X142.4 Y89.832
X142.428 Y89.809
X142.463 Y89.796
X142.5
X142.535 Y89.809
X142.563 Y89.832
X142.581 Y89.864
X142.588 Y89.901
Y90.018 Z-1.528
X142.547 Y90.717 Z-1.553
X142.342 Y91.755 Z-1.59
X141.973 Y92.722 Z-1.626
X141.459 Y93.585 Z-1.661
X140.78 Y94.38 Z-1.697
X139.846 Y95.144 Z-1.739
X138.809 Y95.697 Z-1.78
X138.763 Y95.714 Z-1.782
X137.631 Y96.053 Z-1.823
X136.336 Y96.18 Z-1.869
X133.065 Y96.184 Z-1.983
X132.973 Y96.188 Z-1.986
X132.883 Y96.201 Z-1.989
X132.695 Y96.236 Z-1.996
X132.599 Y96.258 Z-2.
X132.506 Y96.291 Z-2.003
X132.318 Y96.366 Z-2.01
X132.235 Y96.404 Z-2.013
X132.156 Y96.449 Z-2.016
X132.077 Y96.407 Z-2.02
X131.924 Y96.335 Z-2.025
X131.84 Y96.301 Z-2.029
X131.753 Y96.274 Z-2.032
X131.748 Y96.272
X131.566 Y96.225
X131.487 Y96.208
X131.408 Y96.197
X131.283 Y96.185
X131.187 Y96.18
X16.337
X15.887 Y96.172
X15.865 Y96.171
X15.265 Y96.137
X14.225 Y95.93
X13.303 Y95.58
X12.401 Y95.046
X11.636 Y94.397
X10.841 Y93.427
X10.29 Y92.394
X9.943 Y91.254
X9.931 Y91.165
X9.81 Y89.907
X9.813 Y11.577
X9.854 Y10.869
X10.062 Y9.829
X10.406 Y8.922
X10.93 Y8.027
X11.618 Y7.223
X12.563 Y6.451
X13.584 Y5.907
X14.114 Y5.742
X14.767 Y5.547
X16.084 Y5.42
X136.4 Y5.421
X137.135 Y5.463
X138.175 Y5.67
X139.114 Y6.026
X139.997 Y6.552
X140.785 Y7.225
X141.557 Y8.169
X142.107 Y9.201
X142.134 Y9.281
X142.462 Y10.372
X142.59 Y11.679
X142.588 Y90.018
X142.547 Y90.717
X142.342 Y91.755
X141.973 Y92.722
X141.459 Y93.585
X140.78 Y94.38
X139.846 Y95.144
X138.809 Y95.697
X138.763 Y95.714
X137.631 Y96.053
X136.336 Y96.18
X133.065 Y96.184
X132.973 Y96.188
X132.883 Y96.201
X132.695 Y96.236
X132.599 Y96.258
X132.506 Y96.291
X132.318 Y96.366
X132.235 Y96.404
X132.156 Y96.449
X132.077 Y96.407
X131.924 Y96.335
X131.84 Y96.301
X131.753 Y96.274
X131.748 Y96.272
G3 X131.605 Y96.028 R0.2
X131.658 Y95.936 R0.2
G1 X132.008 Y95.593
X132.049 Y95.562
X132.097 Y95.543
X132.148 Y95.536
X136.543
X136.646 Y95.53
X137.428 Y95.449
X137.52 Y95.435
X137.611 Y95.413
X138.414 Y95.173
X138.479 Y95.151
X138.543 Y95.125
X138.697 Y95.055
X138.759 Y95.024
X139.43 Y94.659
X139.509 Y94.611
X139.583 Y94.557
X140.21 Y94.048
X140.295 Y93.97
X140.411 Y93.851
X140.47 Y93.786
X140.946 Y93.204
X140.99 Y93.145
X141.031 Y93.083
X141.128 Y92.92
X141.151 Y92.878
X141.464 Y92.291
X141.512 Y92.188
X141.569 Y92.044
X141.596 Y91.966
X141.81 Y91.258
X141.828 Y91.191
X141.841 Y91.122
X141.87 Y90.934
X141.878 Y90.871
X141.946 Y90.12
X141.95 Y90.03
X141.948 Y11.492
X141.942 Y11.389
X141.858 Y10.575
X141.844 Y10.482
X141.821 Y10.39
X141.572 Y9.565
X141.541 Y9.478
X141.503 Y9.395
X141.283 Y8.968
X141.27 Y8.944
X141.062 Y8.568
X141.014 Y8.49
X140.959 Y8.416
X140.401 Y7.738
X140.335 Y7.666
X140.263 Y7.601
X139.588 Y7.046
X139.511 Y6.989
X139.429 Y6.939
X138.698 Y6.545
X138.641 Y6.516
X138.581 Y6.491
X138.435 Y6.435
X138.361 Y6.41
X137.609 Y6.187
X137.516 Y6.164
X137.422 Y6.15
X136.545 Y6.065
X136.448 Y6.06
X15.89 Y6.062
X15.787 Y6.067
X14.973 Y6.151
X14.88 Y6.165
X14.788 Y6.188
X13.963 Y6.435
X13.854 Y6.475
X13.781 Y6.507
X13.702 Y6.545
X12.971 Y6.94
X12.89 Y6.989
X12.813 Y7.046
X12.138 Y7.6
X12.065 Y7.665
X12. Y7.737
X11.441 Y8.416
X11.383 Y8.493
X11.333 Y8.575
X10.94 Y9.302
X10.888 Y9.413
X10.829 Y9.562
X10.802 Y9.642
X10.578 Y10.393
X10.555 Y10.486
X10.541 Y10.58
X10.455 Y11.457
X10.45 Y11.555
X10.451 Y90.093
X10.456 Y90.193
X10.539 Y91.007
X10.552 Y91.098
X10.574 Y91.187
X10.758 Y91.813
X10.765 Y91.837
X10.834 Y92.054
X10.864 Y92.134
X10.9 Y92.211
X11.178 Y92.745
X11.19 Y92.767
X11.328 Y93.017
X11.374 Y93.092
X11.425 Y93.162
X11.926 Y93.782
X11.99 Y93.853
X12.107 Y93.972
X12.19 Y94.048
X12.816 Y94.557
X12.893 Y94.614
X12.975 Y94.663
X13.749 Y95.077
X13.835 Y95.118
X13.925 Y95.15
X14.717 Y95.396
X14.784 Y95.414
X14.853 Y95.428
X15.041 Y95.458
X15.106 Y95.467
X15.821 Y95.535
X15.916 Y95.539
X132.148 Y95.536
X132.185 Y95.543
X132.218 Y95.562
X132.242 Y95.591
X132.254 Y95.626
Y95.664
X132.24 Y95.699
X132.215 Y95.728
X132.182 Y95.745
X131.86 Y95.851
X131.826 Y95.856
X118.089 Y95.779
X118.063 Y95.775
X117.821 Y95.693
X117.794 Y95.677
X117.774 Y95.651
X117.767 Y95.62
X117.772 Y95.588
X117.789 Y95.561
X117.816 Y95.543
X117.847 Y95.536
X132.394 Z-2.54
X136.543
X136.646 Y95.53
X137.428 Y95.449
X137.52 Y95.435
X137.611 Y95.413
X138.414 Y95.173
X138.479 Y95.151
X138.543 Y95.125
X138.697 Y95.055
X138.759 Y95.024
X139.43 Y94.659
X139.509 Y94.611
X139.583 Y94.557
X140.21 Y94.048
X140.295 Y93.97
X140.411 Y93.851
X140.47 Y93.786
X140.946 Y93.204
X140.99 Y93.145
X141.031 Y93.083
X141.128 Y92.92
X141.151 Y92.878
X141.464 Y92.291
X141.512 Y92.188
X141.569 Y92.044
X141.596 Y91.966
X141.81 Y91.258
X141.828 Y91.191
X141.841 Y91.122
X141.87 Y90.934
X141.878 Y90.871
X141.946 Y90.12
X141.95 Y90.03
X141.948 Y11.492
X141.942 Y11.389
X141.858 Y10.575
X141.844 Y10.482
X141.821 Y10.39
X141.572 Y9.565
X141.541 Y9.478
X141.503 Y9.395
X141.283 Y8.968
X141.27 Y8.944
X141.062 Y8.568
X141.014 Y8.49
X140.959 Y8.416
X140.401 Y7.738
X140.335 Y7.666
X140.263 Y7.601
X139.588 Y7.046
X139.511 Y6.989
X139.429 Y6.939
X138.698 Y6.545
X138.641 Y6.516
X138.581 Y6.491
X138.435 Y6.435
X138.361 Y6.41
X137.609 Y6.187
X137.516 Y6.164
X137.422 Y6.15
X136.545 Y6.065
X136.448 Y6.06
X15.89 Y6.062
X15.787 Y6.067
X14.973 Y6.151
X14.88 Y6.165
X14.788 Y6.188
X13.963 Y6.435
X13.854 Y6.475
X13.781 Y6.507
X13.702 Y6.545
X12.971 Y6.94
X12.89 Y6.989
X12.813 Y7.046
X12.138 Y7.6
X12.065 Y7.665
X12. Y7.737
X11.441 Y8.416
X11.383 Y8.493
X11.333 Y8.575
X10.94 Y9.302
X10.888 Y9.413
X10.829 Y9.562
X10.802 Y9.642
X10.578 Y10.393
X10.555 Y10.486
X10.541 Y10.58
X10.455 Y11.457
X10.45 Y11.555
X10.451 Y90.093
X10.456 Y90.193
X10.539 Y91.007
X10.552 Y91.098
X10.574 Y91.187
X10.758 Y91.813
X10.765 Y91.837
X10.834 Y92.054
X10.864 Y92.134
X10.9 Y92.211
X11.178 Y92.745
X11.19 Y92.767
X11.328 Y93.017
X11.374 Y93.092
X11.425 Y93.162
X11.926 Y93.782
X11.99 Y93.853
X12.107 Y93.972
X12.19 Y94.048
X12.816 Y94.557
X12.893 Y94.614
X12.975 Y94.663
X13.749 Y95.077
X13.835 Y95.118
X13.925 Y95.15
X14.717 Y95.396
X14.784 Y95.414
X14.853 Y95.428
X15.041 Y95.458
X15.106 Y95.467
X15.821 Y95.535
X15.916 Y95.539
X132.394 Y95.536
G3 X132.594 Y95.736 R0.2
X132.584 Y95.799 R0.2
G1 X132.436 Y96.243
X132.418 Y96.282
X132.392 Y96.316
X132.359 Y96.345
X132.321 Y96.365
X132.318 Y96.366
X132.235 Y96.404
X132.156 Y96.449
X132.077 Y96.407
X131.924 Y96.335
X131.84 Y96.301
X131.753 Y96.274
X131.566 Y96.225
X131.487 Y96.208
X131.408 Y96.197
X131.283 Y96.185
X131.187 Y96.18
X16.337
X15.865 Y96.171
X15.265 Y96.137
X14.225 Y95.93
X13.303 Y95.58
X12.401 Y95.046
X11.636 Y94.397
X10.841 Y93.427
X10.29 Y92.394
X9.943 Y91.254
X9.931 Y91.165
X9.81 Y89.907
X9.813 Y11.577
X9.854 Y10.869
X10.062 Y9.829
X10.406 Y8.922
X10.93 Y8.027
X11.618 Y7.223
X12.563 Y6.451
X13.584 Y5.907
X14.114 Y5.742
X14.767 Y5.547
X16.084 Y5.42
X136.4 Y5.421
X137.135 Y5.463
X138.175 Y5.67
X139.114 Y6.026
X139.997 Y6.552
X140.785 Y7.225
X141.557 Y8.169
X142.107 Y9.201
X142.134 Y9.281
X142.462 Y10.372
X142.59 Y11.679
X142.588 Y90.018
X142.547 Y90.717
X142.342 Y91.755
X141.973 Y92.722
X141.459 Y93.585
X140.78 Y94.38
X139.846 Y95.144
X138.809 Y95.697
X138.763 Y95.714
X137.631 Y96.053
X136.336 Y96.18
X133.065 Y96.184
X132.973 Y96.188
X132.883 Y96.201
X132.695 Y96.236
X132.599 Y96.258
X132.506 Y96.291
X132.321 Y96.365
G3 X132.134 Y96.285 R0.143
X132.196 Y96.108 R0.143
G1 X132.533 Y95.913
X132.558 Y95.902
X132.585 Y95.895
G3 X135.727 Y95.864 R11.952
G2 X138.826 Y95.337 R5.49
X140.869 Y93.777 R6.698
X142.068 Y91.503 R5.393
G1 X142.08 Y91.474
X142.251 Y91.191
X142.275 Y91.164
X142.306 Y91.147
X142.341 Y91.141
X142.376 Y91.148
X142.406 Y91.167
X142.429 Y91.194
X142.44 Y91.228
X142.439 Y91.263
X142.342 Y91.755 Z-2.558
X141.973 Y92.722 Z-2.594
X141.459 Y93.585 Z-2.629
X140.78 Y94.38 Z-2.665
X139.846 Y95.144 Z-2.707
X138.809 Y95.697 Z-2.748
X138.763 Y95.714 Z-2.75
X137.631 Y96.053 Z-2.791
X136.336 Y96.18 Z-2.837
X133.065 Y96.184 Z-2.951
X132.973 Y96.188 Z-2.954
X132.883 Y96.201 Z-2.957
X132.695 Y96.236 Z-2.964
X132.599 Y96.258 Z-2.968
X132.506 Y96.291 Z-2.971
X132.318 Y96.366 Z-2.978
X132.235 Y96.404 Z-2.981
X132.156 Y96.449 Z-2.984
X132.077 Y96.407 Z-2.988
X131.924 Y96.335 Z-2.993
X131.84 Y96.301 Z-2.997
X131.753 Y96.274 Z-3.
X131.748 Y96.272
X131.566 Y96.225
X131.487 Y96.208
X131.408 Y96.197
X131.283 Y96.185
X131.187 Y96.18
X16.337
X15.865 Y96.171
X15.265 Y96.137
X14.225 Y95.93
X13.303 Y95.58
X12.401 Y95.046
X11.636 Y94.397
X10.841 Y93.427
X10.29 Y92.394
X9.943 Y91.254
X9.931 Y91.165
X9.81 Y89.907
X9.813 Y11.577
X9.854 Y10.869
X10.062 Y9.829
X10.406 Y8.922
X10.93 Y8.027
X11.618 Y7.223
X12.563 Y6.451
X13.584 Y5.907
X14.114 Y5.742
X14.767 Y5.547
X16.084 Y5.42
X136.4 Y5.421
X137.135 Y5.463
X138.175 Y5.67
X139.114 Y6.026
X139.997 Y6.552
X140.785 Y7.225
X141.557 Y8.169
X142.107 Y9.201
X142.134 Y9.281
X142.462 Y10.372
X142.59 Y11.679
X142.588 Y90.018
X142.547 Y90.717
X142.342 Y91.755
X141.973 Y92.722
X141.459 Y93.585
X140.78 Y94.38
X139.846 Y95.144
X138.809 Y95.697
X138.763 Y95.714
X137.631 Y96.053
X136.336 Y96.18
X133.065 Y96.184
X132.973 Y96.188
X132.883 Y96.201
X132.695 Y96.236
X132.599 Y96.258
X132.506 Y96.291
X132.318 Y96.366
X132.235 Y96.404
X132.156 Y96.449
X132.077 Y96.407
X131.924 Y96.335
X131.84 Y96.301
X131.753 Y96.274
X131.748 Y96.272
G3 X131.605 Y96.028 R0.2
X131.658 Y95.936 R0.2
G1 X132.008 Y95.593
X132.049 Y95.562
X132.097 Y95.543
X132.148 Y95.536
X136.543
X136.646 Y95.53
X137.428 Y95.449
X137.52 Y95.435
X137.611 Y95.413
X138.414 Y95.173
X138.479 Y95.151
X138.543 Y95.125
X138.697 Y95.055
X138.759 Y95.024
X139.43 Y94.659
X139.509 Y94.611
X139.583 Y94.557
X140.21 Y94.048
X140.295 Y93.97
X140.411 Y93.851
X140.47 Y93.786
X140.946 Y93.204
X140.99 Y93.145
X141.031 Y93.083
X141.128 Y92.92
X141.151 Y92.878
X141.464 Y92.291
X141.512 Y92.188
X141.569 Y92.044
X141.596 Y91.966
X141.81 Y91.258
X141.828 Y91.191
X141.841 Y91.122
X141.87 Y90.934
X141.878 Y90.871
X141.946 Y90.12
X141.95 Y90.03
X141.948 Y11.492
X141.942 Y11.389
X141.858 Y10.575
X141.844 Y10.482
X141.821 Y10.39
X141.572 Y9.565
X141.541 Y9.478
X141.503 Y9.395
X141.283 Y8.968
X141.27 Y8.944
X141.062 Y8.568
X141.014 Y8.49
X140.959 Y8.416
X140.401 Y7.738
X140.335 Y7.666
X140.263 Y7.601
X139.588 Y7.046
X139.511 Y6.989
X139.429 Y6.939
X138.698 Y6.545
X138.641 Y6.516
X138.581 Y6.491
X138.435 Y6.435
X138.361 Y6.41
X137.609 Y6.187
X137.516 Y6.164
X137.422 Y6.15
X136.545 Y6.065
X136.448 Y6.06
X15.89 Y6.062
X15.787 Y6.067
X14.973 Y6.151
X14.88 Y6.165
X14.788 Y6.188
X13.963 Y6.435
X13.854 Y6.475
X13.781 Y6.507
X13.702 Y6.545
X12.971 Y6.94
X12.89 Y6.989
X12.813 Y7.046
X12.138 Y7.6
X12.065 Y7.665
X12. Y7.737
X11.441 Y8.416
X11.383 Y8.493
X11.333 Y8.575
X10.94 Y9.302
X10.888 Y9.413
X10.829 Y9.562
X10.802 Y9.642
X10.578 Y10.393
X10.555 Y10.486
X10.541 Y10.58
X10.455 Y11.457
X10.45 Y11.555
X10.451 Y90.093
X10.456 Y90.193
X10.539 Y91.007
X10.552 Y91.098
X10.574 Y91.187
X10.758 Y91.813
X10.765 Y91.837
X10.834 Y92.054
X10.864 Y92.134
X10.9 Y92.211
X11.178 Y92.745
X11.19 Y92.767
X11.328 Y93.017
X11.374 Y93.092
X11.425 Y93.162
X11.926 Y93.782
X11.99 Y93.853
X12.107 Y93.972
X12.19 Y94.048
X12.816 Y94.557
X12.893 Y94.614
X12.975 Y94.663
X13.749 Y95.077
X13.835 Y95.118
X13.925 Y95.15
X14.717 Y95.396
X14.784 Y95.414
X14.853 Y95.428
X15.041 Y95.458
X15.106 Y95.467
X15.821 Y95.535
X15.916 Y95.539
X132.148 Y95.536
X132.185 Y95.543
X132.218 Y95.562
X132.242 Y95.591
X132.254 Y95.626
Y95.664
X132.24 Y95.699
X132.215 Y95.728
X132.182 Y95.745
X131.86 Y95.851
X131.826 Y95.856
X118.089 Y95.779
X118.063 Y95.775
X117.821 Y95.693
X117.794 Y95.677
X117.774 Y95.651
X117.767 Y95.62
X117.772 Y95.588
X117.789 Y95.561
X117.816 Y95.543
X117.847 Y95.536
X132.394 Z-3.508
X136.543
X136.646 Y95.53
X137.428 Y95.449
X137.52 Y95.435
X137.611 Y95.413
X138.414 Y95.173
X138.479 Y95.151
X138.543 Y95.125
X138.697 Y95.055
X138.759 Y95.024
X139.43 Y94.659
X139.509 Y94.611
X139.583 Y94.557
X140.21 Y94.048
X140.295 Y93.97
X140.411 Y93.851
X140.47 Y93.786
X140.946 Y93.204
X140.99 Y93.145
X141.031 Y93.083
X141.128 Y92.92
X141.151 Y92.878
X141.464 Y92.291
X141.512 Y92.188
X141.569 Y92.044
X141.596 Y91.966
X141.81 Y91.258
X141.828 Y91.191
X141.841 Y91.122
X141.87 Y90.934
X141.878 Y90.871
X141.946 Y90.12
X141.95 Y90.03
X141.948 Y11.492
X141.942 Y11.389
X141.858 Y10.575
X141.844 Y10.482
X141.821 Y10.39
X141.572 Y9.565
X141.541 Y9.478
X141.503 Y9.395
X141.283 Y8.968
X141.27 Y8.944
X141.062 Y8.568
X141.014 Y8.49
X140.959 Y8.416
X140.401 Y7.738
X140.335 Y7.666
X140.263 Y7.601
X139.588 Y7.046
X139.511 Y6.989
X139.429 Y6.939
X138.698 Y6.545
X138.641 Y6.516
X138.581 Y6.491
X138.435 Y6.435
X138.361 Y6.41
X137.609 Y6.187
X137.516 Y6.164
X137.422 Y6.15
X136.545 Y6.065
X136.448 Y6.06
X15.89 Y6.062
X15.787 Y6.067
X14.973 Y6.151
X14.88 Y6.165
X14.788 Y6.188
X13.963 Y6.435
X13.854 Y6.475
X13.781 Y6.507
X13.702 Y6.545
X12.971 Y6.94
X12.89 Y6.989
X12.813 Y7.046
X12.138 Y7.6
X12.065 Y7.665
X12. Y7.737
X11.441 Y8.416
X11.383 Y8.493
X11.333 Y8.575
X10.94 Y9.302
X10.888 Y9.413
X10.829 Y9.562
X10.802 Y9.642
X10.578 Y10.393
X10.555 Y10.486
X10.541 Y10.58
X10.455 Y11.457
X10.45 Y11.555
X10.451 Y90.093
X10.456 Y90.193
X10.539 Y91.007
X10.552 Y91.098
X10.574 Y91.187
X10.758 Y91.813
X10.765 Y91.837
X10.834 Y92.054
X10.864 Y92.134
X10.9 Y92.211
X11.178 Y92.745
X11.19 Y92.767
X11.328 Y93.017
X11.374 Y93.092
X11.425 Y93.162
X11.926 Y93.782
X11.99 Y93.853
X12.107 Y93.972
X12.19 Y94.048
X12.816 Y94.557
X12.893 Y94.614
X12.975 Y94.663
X13.749 Y95.077
X13.835 Y95.118
X13.925 Y95.15
X14.717 Y95.396
X14.784 Y95.414
X14.853 Y95.428
X15.041 Y95.458
X15.106 Y95.467
X15.821 Y95.535
X15.916 Y95.539
X132.394 Y95.536
G3 X132.594 Y95.736 R0.2
X132.584 Y95.799 R0.2
G1 X132.436 Y96.243
X132.418 Y96.282
X132.392 Y96.316
X132.359 Y96.345
X132.321 Y96.365
X132.318 Y96.366
X132.235 Y96.404
X132.156 Y96.449
X132.077 Y96.407
X131.924 Y96.335
X131.84 Y96.301
X131.753 Y96.274
X131.566 Y96.225
X131.487 Y96.208
X131.408 Y96.197
X131.283 Y96.185
X131.187 Y96.18
X16.337
X15.865 Y96.171
X15.265 Y96.137
X14.225 Y95.93
X13.303 Y95.58
X12.401 Y95.046
X11.636 Y94.397
X10.841 Y93.427
X10.29 Y92.394
X9.943 Y91.254
X9.931 Y91.165
X9.81 Y89.907
X9.813 Y11.577
X9.854 Y10.869
X10.062 Y9.829
X10.406 Y8.922
X10.93 Y8.027
X11.618 Y7.223
X12.563 Y6.451
X13.584 Y5.907
X14.114 Y5.742
X14.767 Y5.547
X16.084 Y5.42
X136.4 Y5.421
X137.135 Y5.463
X138.175 Y5.67
X139.114 Y6.026
X139.997 Y6.552
X140.785 Y7.225
X141.557 Y8.169
X142.107 Y9.201
X142.134 Y9.281
X142.462 Y10.372
X142.59 Y11.679
X142.588 Y90.018
X142.547 Y90.717
X142.342 Y91.755
X141.973 Y92.722
X141.459 Y93.585
X140.78 Y94.38
X139.846 Y95.144
X138.809 Y95.697
X138.763 Y95.714
X137.631 Y96.053
X136.336 Y96.18
X133.065 Y96.184
X132.973 Y96.188
X132.883 Y96.201
X132.695 Y96.236
X132.599 Y96.258
X132.506 Y96.291
X132.321 Y96.365
G3 X132.134 Y96.285 R0.143
X132.196 Y96.108 R0.143
G1 X132.533 Y95.913
X132.558 Y95.902
X132.585 Y95.895
G3 X135.727 Y95.864 R11.952
G2 X138.826 Y95.337 R5.49
X142.257 Y90.219 R6.185
G1 X142.263 Y90.191
X142.382 Y89.864
X142.4 Y89.832
X142.428 Y89.809
X142.463 Y89.796
X142.5
X142.535 Y89.809
X142.563 Y89.832
X142.581 Y89.864
X142.588 Y89.901
Y90.018 Z-3.512
X142.547 Y90.717 Z-3.537
X142.342 Y91.755 Z-3.574
X141.973 Y92.722 Z-3.61
X141.459 Y93.585 Z-3.645
X140.78 Y94.38 Z-3.681
X139.846 Y95.144 Z-3.723
X138.809 Y95.697 Z-3.764
X138.763 Y95.714 Z-3.766
X137.631 Y96.053 Z-3.807
X136.336 Y96.18 Z-3.853
X133.065 Y96.184 Z-3.967
X132.973 Y96.188 Z-3.97
X132.883 Y96.201 Z-3.973
X132.695 Y96.236 Z-3.98
X132.599 Y96.258 Z-3.984
X132.506 Y96.291 Z-3.987
X132.318 Y96.366 Z-3.994
X132.235 Y96.404 Z-3.997
X132.156 Y96.449 Z-4.
X132.077 Y96.407 Z-4.004
X131.924 Y96.335 Z-4.009
X131.84 Y96.301 Z-4.013
X131.753 Y96.274 Z-4.016
X131.748 Y96.272
X131.566 Y96.225
X131.487 Y96.208
X131.408 Y96.197
X131.283 Y96.185
X131.187 Y96.18
X16.337
X15.865 Y96.171
X15.265 Y96.137
X14.225 Y95.93
X13.303 Y95.58
X12.401 Y95.046
X11.636 Y94.397
X10.841 Y93.427
X10.29 Y92.394
X9.943 Y91.254
X9.931 Y91.165
X9.81 Y89.907
X9.813 Y11.577
X9.854 Y10.869
X10.062 Y9.829
X10.406 Y8.922
X10.93 Y8.027
X11.618 Y7.223
X12.563 Y6.451
X13.584 Y5.907
X14.114 Y5.742
X14.767 Y5.547
X16.084 Y5.42
X136.4 Y5.421
X137.135 Y5.463
X138.175 Y5.67
X139.114 Y6.026
X139.997 Y6.552
X140.785 Y7.225
X141.557 Y8.169
X142.107 Y9.201
X142.134 Y9.281
X142.462 Y10.372
X142.59 Y11.679
X142.588 Y90.018
X142.547 Y90.717
X142.342 Y91.755
X141.973 Y92.722
X141.459 Y93.585
X140.78 Y94.38
X139.846 Y95.144
X138.809 Y95.697
X138.763 Y95.714
X137.631 Y96.053
X136.336 Y96.18
X133.065 Y96.184
X132.973 Y96.188
X132.883 Y96.201
X132.695 Y96.236
X132.599 Y96.258
X132.506 Y96.291
X132.318 Y96.366
X132.235 Y96.404
X132.156 Y96.449
X132.077 Y96.407
X131.924 Y96.335
X131.84 Y96.301
X131.753 Y96.274
X131.748 Y96.272
G3 X131.605 Y96.028 R0.2
X131.658 Y95.936 R0.2
G1 X132.008 Y95.593
X132.049 Y95.562
X132.097 Y95.543
X132.148 Y95.536
X136.543
X136.646 Y95.53
X137.428 Y95.449
X137.52 Y95.435
X137.611 Y95.413
X138.414 Y95.173
X138.479 Y95.151
X138.543 Y95.125
X138.697 Y95.055
X138.759 Y95.024
X139.43 Y94.659
X139.509 Y94.611
X139.583 Y94.557
X140.21 Y94.048
X140.295 Y93.97
X140.411 Y93.851
X140.47 Y93.786
X140.946 Y93.204
X140.99 Y93.145
X141.031 Y93.083
X141.128 Y92.92
X141.151 Y92.878
X141.464 Y92.291
X141.512 Y92.188
X141.569 Y92.044
X141.596 Y91.966
X141.81 Y91.258
X141.828 Y91.191
X141.841 Y91.122
X141.87 Y90.934
X141.878 Y90.871
X141.946 Y90.12
X141.95 Y90.03
X141.948 Y11.492
X141.942 Y11.389
X141.858 Y10.575
X141.844 Y10.482
X141.821 Y10.39
X141.572 Y9.565
X141.541 Y9.478
X141.503 Y9.395
X141.283 Y8.968
X141.27 Y8.944
X141.062 Y8.568
X141.014 Y8.49
X140.959 Y8.416
X140.401 Y7.738
X140.335 Y7.666
X140.263 Y7.601
X139.588 Y7.046
X139.511 Y6.989
X139.429 Y6.939
X138.698 Y6.545
X138.641 Y6.516
X138.581 Y6.491
X138.435 Y6.435
X138.361 Y6.41
X137.609 Y6.187
X137.516 Y6.164
X137.422 Y6.15
X136.545 Y6.065
X136.448 Y6.06
X15.89 Y6.062
X15.787 Y6.067
X14.973 Y6.151
X14.88 Y6.165
X14.788 Y6.188
X13.963 Y6.435
X13.854 Y6.475
X13.781 Y6.507
X13.702 Y6.545
X12.971 Y6.94
X12.89 Y6.989
X12.813 Y7.046
X12.138 Y7.6
X12.065 Y7.665
X12. Y7.737
X11.441 Y8.416
X11.383 Y8.493
X11.333 Y8.575
X10.94 Y9.302
X10.888 Y9.413
X10.829 Y9.562
X10.802 Y9.642
X10.578 Y10.393
X10.555 Y10.486
X10.541 Y10.58
X10.455 Y11.457
X10.45 Y11.555
X10.451 Y90.093
X10.456 Y90.193
X10.539 Y91.007
X10.552 Y91.098
X10.574 Y91.187
X10.758 Y91.813
X10.765 Y91.837
X10.834 Y92.054
X10.864 Y92.134
X10.9 Y92.211
X11.178 Y92.745
X11.19 Y92.767
X11.328 Y93.017
X11.374 Y93.092
X11.425 Y93.162
X11.926 Y93.782
X11.99 Y93.853
X12.107 Y93.972
X12.19 Y94.048
X12.816 Y94.557
X12.893 Y94.614
X12.975 Y94.663
X13.749 Y95.077
X13.835 Y95.118
X13.925 Y95.15
X14.717 Y95.396
X14.784 Y95.414
X14.853 Y95.428
X15.041 Y95.458
X15.106 Y95.467
X15.821 Y95.535
X15.916 Y95.539
X132.148 Y95.536
X132.185 Y95.543
X132.218 Y95.562
X132.242 Y95.591
X132.254 Y95.626
Y95.664
X132.24 Y95.699
X132.215 Y95.728
X132.182 Y95.745
X131.86 Y95.851
X131.826 Y95.856
X118.089 Y95.779
X118.063 Y95.775
X117.821 Y95.693
X117.794 Y95.677
X117.774 Y95.651
X117.767 Y95.62
X117.772 Y95.588
X117.789 Y95.561
X117.816 Y95.543
X117.847 Y95.536
X132.394 Z-4.524
X136.543
X136.646 Y95.53
X137.428 Y95.449
X137.52 Y95.435
X137.611 Y95.413
X138.414 Y95.173
X138.479 Y95.151
X138.543 Y95.125
X138.697 Y95.055
X138.759 Y95.024
X139.43 Y94.659
X139.509 Y94.611
X139.583 Y94.557
X140.21 Y94.048
X140.295 Y93.97
X140.411 Y93.851
X140.47 Y93.786
X140.946 Y93.204
X140.99 Y93.145
X141.031 Y93.083
X141.128 Y92.92
X141.151 Y92.878
X141.464 Y92.291
X141.512 Y92.188
X141.569 Y92.044
X141.596 Y91.966
X141.81 Y91.258
X141.828 Y91.191
X141.841 Y91.122
X141.87 Y90.934
X141.878 Y90.871
X141.946 Y90.12
X141.95 Y90.03
X141.948 Y11.492
X141.942 Y11.389
X141.858 Y10.575
X141.844 Y10.482
X141.821 Y10.39
X141.572 Y9.565
X141.541 Y9.478
X141.503 Y9.395
X141.283 Y8.968
X141.27 Y8.944
X141.062 Y8.568
X141.014 Y8.49
X140.959 Y8.416
X140.401 Y7.738
X140.335 Y7.666
X140.263 Y7.601
X139.588 Y7.046
X139.511 Y6.989
X139.429 Y6.939
X138.698 Y6.545
X138.641 Y6.516
X138.581 Y6.491
X138.435 Y6.435
X138.361 Y6.41
X137.609 Y6.187
X137.516 Y6.164
X137.422 Y6.15
X136.545 Y6.065
X136.448 Y6.06
X15.89 Y6.062
X15.787 Y6.067
X14.973 Y6.151
X14.88 Y6.165
X14.788 Y6.188
X13.963 Y6.435
X13.854 Y6.475
X13.781 Y6.507
X13.702 Y6.545
X12.971 Y6.94
X12.89 Y6.989
X12.813 Y7.046
X12.138 Y7.6
X12.065 Y7.665
X12. Y7.737
X11.441 Y8.416
X11.383 Y8.493
X11.333 Y8.575
X10.94 Y9.302
X10.888 Y9.413
X10.829 Y9.562
X10.802 Y9.642
X10.578 Y10.393
X10.555 Y10.486
X10.541 Y10.58
X10.455 Y11.457
X10.45 Y11.555
X10.451 Y90.093
X10.456 Y90.193
X10.539 Y91.007
X10.552 Y91.098
X10.574 Y91.187
X10.758 Y91.813
X10.765 Y91.837
X10.834 Y92.054
X10.864 Y92.134
X10.9 Y92.211
X11.178 Y92.745
X11.19 Y92.767
X11.328 Y93.017
X11.374 Y93.092
X11.425 Y93.162
X11.926 Y93.782
X11.99 Y93.853
X12.107 Y93.972
X12.19 Y94.048
X12.816 Y94.557
X12.893 Y94.614
X12.975 Y94.663
X13.749 Y95.077
X13.835 Y95.118
X13.925 Y95.15
X14.717 Y95.396
X14.784 Y95.414
X14.853 Y95.428
X15.041 Y95.458
X15.106 Y95.467
X15.821 Y95.535
X15.916 Y95.539
X132.394 Y95.536
G3 X132.594 Y95.736 R0.2
X132.584 Y95.799 R0.2
G1 X132.436 Y96.243
X132.418 Y96.282
X132.392 Y96.316
X132.359 Y96.345
X132.321 Y96.365
X132.318 Y96.366
X132.235 Y96.404
X132.156 Y96.449
X132.077 Y96.407
X131.924 Y96.335
X131.84 Y96.301
X131.753 Y96.274
X131.566 Y96.225
X131.487 Y96.208
X131.408 Y96.197
X131.283 Y96.185
X131.187 Y96.18
X16.337
X15.865 Y96.171
X15.265 Y96.137
X14.225 Y95.93
X13.303 Y95.58
X12.401 Y95.046
X11.636 Y94.397
X10.841 Y93.427
X10.29 Y92.394
X9.943 Y91.254
X9.931 Y91.165
X9.81 Y89.907
X9.813 Y11.577
X9.854 Y10.869
X10.062 Y9.829
X10.406 Y8.922
X10.93 Y8.027
X11.618 Y7.223
X12.563 Y6.451
X13.584 Y5.907
X14.114 Y5.742
X14.767 Y5.547
X16.084 Y5.42
X136.4 Y5.421
X137.135 Y5.463
X138.175 Y5.67
X139.114 Y6.026
X139.997 Y6.552
X140.785 Y7.225
X141.557 Y8.169
X142.107 Y9.201
X142.134 Y9.281
X142.462 Y10.372
X142.59 Y11.679
X142.588 Y90.018
X142.547 Y90.717
X142.342 Y91.755
X141.973 Y92.722
X141.459 Y93.585
X140.78 Y94.38
X139.846 Y95.144
X138.809 Y95.697
X138.763 Y95.714
X137.631 Y96.053
X136.336 Y96.18
X133.065 Y96.184
X132.973 Y96.188
X132.883 Y96.201
X132.695 Y96.236
X132.599 Y96.258
X132.506 Y96.291
X132.321 Y96.365
G3 X132.134 Y96.285 R0.143
X132.196 Y96.108 R0.143
G1 X132.533 Y95.913
X132.558 Y95.902
X132.585 Y95.895
G3 X136.463 Y95.711 R20.593
G2 X140.15 Y94.495 R5.432
G1 X140.179 Y94.479
X140.484 Y94.363
X140.519 Y94.356
X140.555 Y94.362
X140.586 Y94.38
X140.609 Y94.408
X140.622 Y94.441
X140.621 Y94.478
X140.609 Y94.511
X140.585 Y94.539
X139.846 Y95.144 Z-4.557
X138.809 Y95.697 Z-4.598
X138.763 Y95.714 Z-4.6
X137.631 Y96.053 Z-4.641
X136.336 Y96.18 Z-4.687
X133.065 Y96.184 Z-4.801
X132.973 Y96.188 Z-4.804
X132.883 Y96.201 Z-4.807
X132.695 Y96.236 Z-4.814
X132.599 Y96.258 Z-4.818
X132.506 Y96.291 Z-4.821
X132.318 Y96.366 Z-4.828
X132.235 Y96.404 Z-4.831
X132.156 Y96.449 Z-4.834
X132.077 Y96.407 Z-4.838
X131.924 Y96.335 Z-4.843
X131.84 Y96.301 Z-4.847
X131.753 Y96.274 Z-4.85
X131.748 Y96.272
X131.566 Y96.225
X131.487 Y96.208
X131.408 Y96.197
X131.283 Y96.185
X131.187 Y96.18
X16.337
X15.865 Y96.171
X15.265 Y96.137
X14.225 Y95.93
X13.303 Y95.58
X12.401 Y95.046
X11.636 Y94.397
X10.841 Y93.427
X10.29 Y92.394
X9.943 Y91.254
X9.931 Y91.165
X9.81 Y89.907
X9.813 Y11.577
X9.854 Y10.869
X10.062 Y9.829
X10.406 Y8.922
X10.93 Y8.027
X11.618 Y7.223
X12.563 Y6.451
X13.584 Y5.907
X14.114 Y5.742
X14.767 Y5.547
X16.084 Y5.42
X136.4 Y5.421
X137.135 Y5.463
X138.175 Y5.67
X139.114 Y6.026
X139.997 Y6.552
X140.785 Y7.225
X141.557 Y8.169
X142.107 Y9.201
X142.134 Y9.281
X142.462 Y10.372
X142.59 Y11.679
X142.588 Y90.018
X142.547 Y90.717
X142.342 Y91.755
X141.973 Y92.722
X141.459 Y93.585
X140.78 Y94.38
X139.846 Y95.144
X138.809 Y95.697
X138.763 Y95.714
X137.631 Y96.053
X136.336 Y96.18
X133.065 Y96.184
X132.973 Y96.188
X132.883 Y96.201
X132.695 Y96.236
X132.599 Y96.258
X132.506 Y96.291
X132.318 Y96.366
X132.235 Y96.404
X132.156 Y96.449
X132.077 Y96.407
X131.924 Y96.335
X131.84 Y96.301
X131.753 Y96.274
X131.748 Y96.272
G3 X131.605 Y96.028 R0.2
X131.658 Y95.936 R0.2
G1 X132.008 Y95.593
X132.049 Y95.562
X132.097 Y95.543
X132.148 Y95.536
X136.543
X136.646 Y95.53
X137.428 Y95.449
X137.52 Y95.435
X137.611 Y95.413
X138.414 Y95.173
X138.479 Y95.151
X138.543 Y95.125
X138.697 Y95.055
X138.759 Y95.024
X139.43 Y94.659
X139.509 Y94.611
X139.583 Y94.557
X140.21 Y94.048
X140.295 Y93.97
X140.411 Y93.851
X140.47 Y93.786
X140.946 Y93.204
X140.99 Y93.145
X141.031 Y93.083
X141.128 Y92.92
X141.151 Y92.878
X141.464 Y92.291
X141.512 Y92.188
X141.569 Y92.044
X141.596 Y91.966
X141.81 Y91.258
X141.828 Y91.191
X141.841 Y91.122
X141.87 Y90.934
X141.878 Y90.871
X141.946 Y90.12
X141.95 Y90.03
X141.948 Y11.492
X141.942 Y11.389
X141.858 Y10.575
X141.844 Y10.482
X141.821 Y10.39
X141.572 Y9.565
X141.541 Y9.478
X141.503 Y9.395
X141.283 Y8.968
X141.27 Y8.944
X141.062 Y8.568
X141.014 Y8.49
X140.959 Y8.416
X140.401 Y7.738
X140.335 Y7.666
X140.263 Y7.601
X139.588 Y7.046
X139.511 Y6.989
X139.429 Y6.939
X138.698 Y6.545
X138.641 Y6.516
X138.581 Y6.491
X138.435 Y6.435
X138.361 Y6.41
X137.609 Y6.187
X137.516 Y6.164
X137.422 Y6.15
X136.545 Y6.065
X136.448 Y6.06
X15.89 Y6.062
X15.787 Y6.067
X14.973 Y6.151
X14.88 Y6.165
X14.788 Y6.188
X13.963 Y6.435
X13.854 Y6.475
X13.781 Y6.507
X13.702 Y6.545
X12.971 Y6.94
X12.89 Y6.989
X12.813 Y7.046
X12.138 Y7.6
X12.065 Y7.665
X12. Y7.737
X11.441 Y8.416
X11.383 Y8.493
X11.333 Y8.575
X10.94 Y9.302
X10.888 Y9.413
X10.829 Y9.562
X10.802 Y9.642
X10.578 Y10.393
X10.555 Y10.486
X10.541 Y10.58
X10.455 Y11.457
X10.45 Y11.555
X10.451 Y90.093
X10.456 Y90.193
X10.539 Y91.007
X10.552 Y91.098
X10.574 Y91.187
X10.758 Y91.813
X10.765 Y91.837
X10.834 Y92.054
X10.864 Y92.134
X10.9 Y92.211
X11.178 Y92.745
X11.19 Y92.767
X11.328 Y93.017
X11.374 Y93.092
X11.425 Y93.162
X11.926 Y93.782
X11.99 Y93.853
X12.107 Y93.972
X12.19 Y94.048
X12.816 Y94.557
X12.893 Y94.614
X12.975 Y94.663
X13.749 Y95.077
X13.835 Y95.118
X13.925 Y95.15
X14.717 Y95.396
X14.784 Y95.414
X14.853 Y95.428
X15.041 Y95.458
X15.106 Y95.467
X15.821 Y95.535
X15.916 Y95.539
X132.148 Y95.536
X132.185 Y95.542
X132.218 Y95.561
X132.242 Y95.59
X132.254 Y95.626
Y95.663
X132.241 Y95.698
X132.216 Y95.727
X132.183 Y95.745
X131.86 Y95.855
X131.826 Y95.861
X123.383 Y95.936
X123.357 Y95.941
X123.334 Y95.954
X123.316 Y95.974
X123.21 Y96.142
X123.192 Y96.162
X123.169 Y96.175
X123.142 Y96.18
X109.155 Z-5.338
Y95.62 Z-5.358
Y95.54
X129.155
Y96.18
X109.155
Y95.62
X109.159 Y95.605
X109.172 Y95.595
X109.187 Y95.594
X109.315 Y95.621
X122.823 Y95.855
X122.856 Y95.861
X123.177 Y95.973
X123.21 Y95.991
X123.234 Y96.019
X123.247 Y96.054
Y96.091
X123.235 Y96.126
X123.211 Y96.155
X123.179 Y96.173
X123.142 Y96.18
X109.155 Z-5.846
Y95.62 Z-5.866
Y95.54
X129.155
Y96.18
X109.155
Y95.62
X109.159 Y95.605
X109.172 Y95.595
X109.187 Y95.594
X109.315 Y95.621
X120.704 Y95.854
X120.737 Y95.86
X121.058 Y95.973
X121.091 Y95.991
X121.115 Y96.019
X121.128 Y96.054
Y96.091
X121.116 Y96.126
X121.092 Y96.155
X121.06 Y96.173
X121.023 Y96.18
X109.155 Z-6.28
Y95.62 Z-6.3
Y95.54
X129.155
Y96.18
X109.155
Y95.62
Y95.58 Z-6.298
Y95.54 Z-6.292
X109.23 Z-6.269
X109.298 Z-6.232
X109.359 Z-6.182
X109.408 Z-6.122
X109.445 Z-6.053
X109.467 Z-5.978
X109.475 Z-5.9
G0 Z5.
X100.859
G1 Z-3.917 F380.
X100.867 Z-3.994 F1500.
X100.889 Z-4.069
X100.926 Z-4.138
X100.975 Z-4.198
X101.035 Z-4.248
X101.103 Z-4.285
X101.178 Z-4.308
X101.255 Z-4.317
X103.155 Z-4.336
Y96.18 Z-4.343
X79.2 Z-4.59
Y95.54 Z-4.597
X103.155 Z-4.844
Y96.18 Z-4.851
X79.2 Z-5.098
Y95.54 Z-5.105
X103.155 Z-5.352
Y96.1 Z-5.358
Y96.18
X79.2
Y95.54
X103.155
Y96.1
X103.15 Y96.115
X103.138 Y96.125
X103.123 Y96.126
X102.995 Y96.098
X89.487 Y95.865
X89.454 Y95.859
X89.132 Y95.747
X89.1 Y95.729
X89.076 Y95.701
X89.063 Y95.666
Y95.629
X89.075 Y95.594
X89.099 Y95.565
X89.131 Y95.546
X89.168 Y95.54
X103.155 Z-5.846
Y96.1 Z-5.866
Y96.18
X79.2
Y95.54
X103.155
Y96.1
X103.15 Y96.115
X103.138 Y96.125
X103.123 Y96.126
X102.995 Y96.098
X91.606 Y95.866
X91.573 Y95.86
X91.251 Y95.747
X91.219 Y95.729
X91.195 Y95.7
X91.182 Y95.666
Y95.629
X91.194 Y95.594
X91.218 Y95.565
X91.25 Y95.546
X91.287 Y95.54
X103.155 Z-6.28
Y96.1 Z-6.3
Y96.18
X79.2
Y95.54
X103.155
Y96.1
Y96.14 Z-6.298
Y96.18 Z-6.292
X103.08 Z-6.269
X103.011 Z-6.232
X102.951 Z-6.182
X102.902 Z-6.122
X102.865 Z-6.053
X102.842 Z-5.978
X102.835 Z-5.9
G0 Z5.
X71.301 Y95.54
G1 Z-3.917 F380.
X71.308 Z-3.994 F1500.
X71.331 Z-4.069
X71.367 Z-4.137
X71.416 Z-4.198
X71.476 Z-4.247
X71.544 Z-4.285
X71.619 Z-4.308
X71.696 Z-4.317
X73.2 Z-4.335
Y96.18 Z-4.343
X53.2 Z-4.589
Y95.54 Z-4.597
X73.2 Z-4.843
Y96.18 Z-4.851
X53.2 Z-5.097
Y95.54 Z-5.105
X73.2 Z-5.351
Y96.1 Z-5.358
Y96.18
X53.2
Y95.54
X73.2
Y96.1
X73.195 Y96.115
X73.183 Y96.125
X73.168 Y96.126
X73.04 Y96.098
X59.532 Y95.865
X59.499 Y95.859
X59.178 Y95.747
X59.145 Y95.729
X59.121 Y95.701
X59.108 Y95.666
Y95.629
X59.12 Y95.594
X59.144 Y95.565
X59.176 Y95.546
X59.213 Y95.54
X73.2 Z-5.846
Y96.1 Z-5.866
Y96.18
X53.2
Y95.54
X73.2
Y96.1
X73.195 Y96.115
X73.183 Y96.125
X73.168 Y96.126
X73.04 Y96.098
X61.651 Y95.866
X61.618 Y95.86
X61.296 Y95.747
X61.264 Y95.729
X61.24 Y95.7
X61.227 Y95.666
Y95.629
X61.239 Y95.594
X61.263 Y95.565
X61.295 Y95.546
X61.332 Y95.54
X73.2 Z-6.28
Y96.1 Z-6.3
Y96.18
X53.2
Y95.54
X73.2
Y96.1
Y96.14 Z-6.298
Y96.18 Z-6.292
X73.125 Z-6.269
X73.057 Z-6.232
X72.996 Z-6.182
X72.947 Z-6.122
X72.91 Z-6.053
X72.887 Z-5.978
X72.88 Z-5.9
G0 Z5.
X45.301 Y95.54
G1 Z-3.917 F380.
X45.308 Z-3.994 F1500.
X45.331 Z-4.069
X45.367 Z-4.137
X45.416 Z-4.198
X45.476 Z-4.247
X45.544 Z-4.285
X45.619 Z-4.308
X45.696 Z-4.317
X47.2 Z-4.335
Y96.18 Z-4.343
X27.2 Z-4.589
Y95.54 Z-4.597
X47.2 Z-4.843
Y96.18 Z-4.851
X27.2 Z-5.097
Y95.54 Z-5.105
X47.2 Z-5.351
Y96.1 Z-5.358
Y96.18
X27.2
Y95.54
X47.2
Y96.1
X47.195 Y96.115
X47.183 Y96.125
X47.168 Y96.126
X47.04 Y96.098
X33.532 Y95.865
X33.499 Y95.859
X33.178 Y95.747
X33.145 Y95.729
X33.121 Y95.701
X33.108 Y95.666
Y95.629
X33.12 Y95.594
X33.144 Y95.565
X33.176 Y95.546
X33.213 Y95.54
X47.2 Z-5.846
Y96.1 Z-5.866
Y96.18
X27.2
Y95.54
X47.2
Y96.1
X47.195 Y96.115
X47.183 Y96.125
X47.168 Y96.126
X47.04 Y96.098
X35.651 Y95.866
X35.618 Y95.86
X35.296 Y95.747
X35.264 Y95.729
X35.24 Y95.7
X35.227 Y95.666
Y95.629
X35.239 Y95.594
X35.263 Y95.565
X35.295 Y95.546
X35.332 Y95.54
X47.2 Z-6.28
Y96.1 Z-6.3
Y96.18
X27.2
Y95.54
X47.2
Y96.1
Y96.14 Z-6.298
Y96.18 Z-6.292
X47.125 Z-6.269
X47.057 Z-6.232
X46.996 Z-6.182
X46.947 Z-6.122
X46.91 Z-6.053
X46.887 Z-5.978
X46.88 Z-5.9
G0 Z5.
X12.186 Y94.045
G1 Z-3.917 F380.
X12.19 Y94.048 Z-3.979 F1500.
X12.203 Y94.059 Z-4.047
X12.225 Y94.077 Z-4.111
X12.256 Y94.101 Z-4.169
X12.294 Y94.132 Z-4.219
X12.338 Y94.168 Z-4.26
X12.387 Y94.208 Z-4.291
X12.439 Y94.25 Z-4.31
X12.493 Y94.294 Z-4.317
X12.816 Y94.557 Z-4.321
X12.893 Y94.614 Z-4.322
X12.975 Y94.663 Z-4.323
X13.749 Y95.077 Z-4.332
X13.835 Y95.118 Z-4.333
X13.925 Y95.15 Z-4.334
X14.717 Y95.396 Z-4.343
X14.784 Y95.414 Z-4.344
X14.853 Y95.428
X15.041 Y95.458 Z-4.346
X15.106 Y95.467 Z-4.347
X15.821 Y95.535 Z-4.354
X15.916 Y95.539 Z-4.355
X21.2 Y95.54 Z-4.411
Y96.18 Z-4.417
X16.337 Z-4.468
X15.865 Y96.171 Z-4.473
X15.265 Y96.137 Z-4.48
X14.225 Y95.93 Z-4.491
X13.303 Y95.58 Z-4.501
X12.401 Y95.046 Z-4.512
X11.636 Y94.397 Z-4.523
X10.841 Y93.427 Z-4.536
X10.29 Y92.394 Z-4.548
X9.943 Y91.254 Z-4.56
X9.931 Y91.165 Z-4.561
X9.81 Y89.907 Z-4.575
X9.812 Y80.789 Z-4.67
X10.45 Z-4.677
X10.451 Y90.093 Z-4.774
X10.456 Y90.193 Z-4.775
X10.539 Y91.007 Z-4.784
X10.552 Y91.098 Z-4.785
X10.574 Y91.187 Z-4.786
X10.758 Y91.813 Z-4.792
X10.765 Y91.837 Z-4.793
X10.834 Y92.054 Z-4.795
X10.864 Y92.134 Z-4.796
X10.9 Y92.211 Z-4.797
X11.178 Y92.745 Z-4.803
X11.19 Y92.767
X11.328 Y93.017 Z-4.806
X11.374 Y93.092 Z-4.807
X11.425 Y93.162 Z-4.808
X11.926 Y93.782 Z-4.817
X11.99 Y93.853 Z-4.818
X12.107 Y93.972 Z-4.819
X12.19 Y94.048 Z-4.821
X12.816 Y94.557 Z-4.829
X12.893 Y94.614 Z-4.83
X12.975 Y94.663 Z-4.831
X13.749 Y95.077 Z-4.84
X13.835 Y95.118 Z-4.841
X13.925 Y95.15 Z-4.842
X14.717 Y95.396 Z-4.851
X14.784 Y95.414 Z-4.852
X14.853 Y95.428
X15.041 Y95.458 Z-4.854
X15.106 Y95.467 Z-4.855
X15.821 Y95.535 Z-4.862
X15.916 Y95.539 Z-4.863
X21.2 Y95.54 Z-4.919
Y96.18 Z-4.925
X16.337 Z-4.976
X15.865 Y96.171 Z-4.981
X15.265 Y96.137 Z-4.988
X14.225 Y95.93 Z-4.999
X13.303 Y95.58 Z-5.009
X12.401 Y95.046 Z-5.02
X11.636 Y94.397 Z-5.031
X10.841 Y93.427 Z-5.044
X10.29 Y92.394 Z-5.056
X9.943 Y91.254 Z-5.068
X9.931 Y91.165 Z-5.069
X9.81 Y89.907 Z-5.083
X9.812 Y80.789 Z-5.178
X10.45 Z-5.185
X10.451 Y90.093 Z-5.282
X10.456 Y90.193 Z-5.283
X10.539 Y91.007 Z-5.292
X10.552 Y91.098 Z-5.293
X10.574 Y91.187 Z-5.294
X10.758 Y91.813 Z-5.3
X10.765 Y91.837 Z-5.301
X10.834 Y92.054 Z-5.303
X10.864 Y92.134 Z-5.304
X10.9 Y92.211 Z-5.305
X11.178 Y92.745 Z-5.311
X11.19 Y92.767
X11.328 Y93.017 Z-5.314
X11.374 Y93.092 Z-5.315
X11.425 Y93.162 Z-5.316
X11.926 Y93.782 Z-5.325
X11.99 Y93.853 Z-5.326
X12.107 Y93.972 Z-5.327
X12.19 Y94.048 Z-5.329
X12.816 Y94.557 Z-5.337
X12.893 Y94.614 Z-5.338
X12.975 Y94.663 Z-5.339
X13.749 Y95.077 Z-5.348
X13.835 Y95.118 Z-5.349
X13.925 Y95.15 Z-5.35
X14.642 Y95.373 Z-5.358
X14.717 Y95.396
X14.784 Y95.414
X14.853 Y95.428
X15.041 Y95.458
X15.106 Y95.467
X15.821 Y95.535
X15.916 Y95.539
X21.2 Y95.54
Y96.18
X16.337
X15.865 Y96.171
X15.265 Y96.137
X14.225 Y95.93
X13.303 Y95.58
X12.401 Y95.046
X11.636 Y94.397
X10.841 Y93.427
X10.29 Y92.394
X9.943 Y91.254
X9.931 Y91.165
X9.81 Y89.907
X9.812 Y80.789
X10.45
X10.451 Y90.093
X10.456 Y90.193
X10.539 Y91.007
X10.552 Y91.098
X10.574 Y91.187
X10.758 Y91.813
X10.765 Y91.837
X10.834 Y92.054
X10.864 Y92.134
X10.9 Y92.211
X11.178 Y92.745
X11.19 Y92.767
X11.328 Y93.017
X11.374 Y93.092
X11.425 Y93.162
X11.926 Y93.782
X11.99 Y93.853
X12.107 Y93.972
X12.19 Y94.048
X12.816 Y94.557
X12.893 Y94.614
X12.975 Y94.663
X13.749 Y95.077
X13.835 Y95.118
X13.925 Y95.15
X14.642 Y95.373
X14.674 Y95.389
X14.699 Y95.416
X14.713 Y95.449
X14.715 Y95.486
X14.704 Y95.521
X14.682 Y95.55
X14.652 Y95.569
X14.616 Y95.578
X14.285 Y95.596
X14.245 Y95.59
G3 X10.192 Y90.013 R6.012
X10.131 Y83.119 R386.616
G1 X10.137 Y83.086
X10.243 Y82.767
X10.261 Y82.734
X10.289 Y82.709
X10.324 Y82.696
X10.361 Y82.695
X10.396 Y82.708
X10.425 Y82.731
X10.444 Y82.764
X10.45 Y82.8
X10.451 Y90.093 Z-5.613
X10.456 Y90.193 Z-5.616
X10.539 Y91.007 Z-5.645
X10.552 Y91.098 Z-5.648
X10.574 Y91.187 Z-5.651
X10.758 Y91.813 Z-5.674
X10.765 Y91.837 Z-5.675
X10.834 Y92.054 Z-5.683
X10.864 Y92.134 Z-5.686
X10.9 Y92.211 Z-5.689
X11.178 Y92.745 Z-5.71
X11.19 Y92.767 Z-5.711
X11.328 Y93.017 Z-5.721
X11.374 Y93.092 Z-5.724
X11.425 Y93.162 Z-5.727
X11.926 Y93.782 Z-5.755
X11.99 Y93.853 Z-5.758
X12.107 Y93.972 Z-5.764
X12.19 Y94.048 Z-5.768
X12.816 Y94.557 Z-5.796
X12.893 Y94.614 Z-5.799
X12.975 Y94.663 Z-5.802
X13.749 Y95.077 Z-5.833
X13.835 Y95.118 Z-5.836
X13.925 Y95.15 Z-5.84
X14.642 Y95.373 Z-5.866
X14.717 Y95.396
X14.784 Y95.414
X14.853 Y95.428
X15.041 Y95.458
X15.106 Y95.467
X15.821 Y95.535
X15.916 Y95.539
X21.2 Y95.54
Y96.18
X16.337
X15.865 Y96.171
X15.265 Y96.137
X14.225 Y95.93
X13.303 Y95.58
X12.401 Y95.046
X11.636 Y94.397
X10.841 Y93.427
X10.29 Y92.394
X9.943 Y91.254
X9.931 Y91.165
X9.81 Y89.907
X9.812 Y80.789
X10.45
X10.451 Y90.093
X10.456 Y90.193
X10.539 Y91.007
X10.552 Y91.098
X10.574 Y91.187
X10.758 Y91.813
X10.765 Y91.837
X10.834 Y92.054
X10.864 Y92.134
X10.9 Y92.211
X11.178 Y92.745
X11.19 Y92.767
X11.328 Y93.017
X11.374 Y93.092
X11.425 Y93.162
X11.926 Y93.782
X11.99 Y93.853
X12.107 Y93.972
X12.19 Y94.048
X12.816 Y94.557
X12.893 Y94.614
X12.975 Y94.663
X13.749 Y95.077
X13.835 Y95.118
X13.925 Y95.15
X14.642 Y95.373
X14.674 Y95.389
X14.699 Y95.416
X14.713 Y95.449
X14.715 Y95.486
X14.704 Y95.521
X14.682 Y95.55
X14.652 Y95.569
X14.616 Y95.578
X14.285 Y95.596
X14.245 Y95.59
G3 X10.531 Y91.073 R5.585
X10.131 Y85.239 R42.674
G1 X10.137 Y85.205
X10.243 Y84.886
X10.261 Y84.853
X10.289 Y84.828
X10.324 Y84.815
X10.361 Y84.814
X10.396 Y84.827
X10.425 Y84.85
X10.444 Y84.883
X10.451 Y84.919
Y90.093 Z-6.047
X10.456 Y90.193 Z-6.05
X10.539 Y91.007 Z-6.079
X10.552 Y91.098 Z-6.082
X10.574 Y91.187 Z-6.085
X10.758 Y91.813 Z-6.108
X10.765 Y91.837 Z-6.109
X10.834 Y92.054 Z-6.117
X10.864 Y92.134 Z-6.12
X10.9 Y92.211 Z-6.123
X11.178 Y92.745 Z-6.144
X11.19 Y92.767 Z-6.145
X11.328 Y93.017 Z-6.155
X11.374 Y93.092 Z-6.158
X11.425 Y93.162 Z-6.161
X11.926 Y93.782 Z-6.189
X11.99 Y93.853 Z-6.192
X12.107 Y93.972 Z-6.198
X12.19 Y94.048 Z-6.202
X12.816 Y94.557 Z-6.23
X12.893 Y94.614 Z-6.233
X12.975 Y94.663 Z-6.236
X13.749 Y95.077 Z-6.267
X13.835 Y95.118 Z-6.27
X13.925 Y95.15 Z-6.274
X14.642 Y95.373 Z-6.3
X14.717 Y95.396
X14.784 Y95.414
X14.853 Y95.428
X15.041 Y95.458
X15.106 Y95.467
X15.821 Y95.535
X15.916 Y95.539
X21.2 Y95.54
Y96.18
X16.337
X15.865 Y96.171
X15.265 Y96.137
X14.225 Y95.93
X13.303 Y95.58
X12.401 Y95.046
X11.636 Y94.397
X10.841 Y93.427
X10.29 Y92.394
X9.943 Y91.254
X9.931 Y91.165
X9.81 Y89.907
X9.812 Y80.789
X10.45
X10.451 Y90.093
X10.456 Y90.193
X10.539 Y91.007
X10.552 Y91.098
X10.574 Y91.187
X10.758 Y91.813
X10.765 Y91.837
X10.834 Y92.054
X10.864 Y92.134
X10.9 Y92.211
X11.178 Y92.745
X11.19 Y92.767
X11.328 Y93.017
X11.374 Y93.092
X11.425 Y93.162
X11.926 Y93.782
X11.99 Y93.853
X12.107 Y93.972
X12.19 Y94.048
X12.816 Y94.557
X12.893 Y94.614
X12.975 Y94.663
X13.749 Y95.077
X13.835 Y95.118
X13.925 Y95.15
X14.642 Y95.373
X14.717 Y95.396 Z-6.292
X14.787 Y95.415 Z-6.27
X14.853 Y95.428 Z-6.235
X14.914 Y95.438 Z-6.185
X14.964 Y95.446 Z-6.125
X15.001 Y95.452 Z-6.055
X15.024 Y95.456 Z-5.979
X15.032 Y95.457 Z-5.9
G0 Z5.
X9.813 Y56.051
G1 Z-3.917 F380.
Y56.044 Z-3.994 F1500.
Y56.022 Z-4.069
Y55.985 Z-4.137
Y55.936 Z-4.198
Y55.876 Z-4.248
Y55.808 Z-4.285
Y55.734 Z-4.308
Y55.656 Z-4.317
Y54.789 Z-4.327
X10.45 Z-4.335
Y74.789 Z-4.581
X9.813 Z-4.589
Y54.789 Z-4.835
X10.45 Z-4.843
Y74.789 Z-5.089
X9.813 Z-5.097
Y54.789 Z-5.343
X10.45 Z-5.351
Y55.347 Z-5.358
Y74.789
X9.813
Y54.789
X10.45
Y55.347
X10.446 Y55.374
X10.433 Y55.397
X10.413 Y55.415
X10.245 Y55.52
X10.226 Y55.537
X10.213 Y55.56
X10.208 Y55.586
X10.055 Y67.901
X10.05 Y67.926
X9.968 Y68.166
X9.952 Y68.193
X9.926 Y68.212
X9.895 Y68.22
X9.864 Y68.214
X9.837 Y68.197
X9.819 Y68.171
X9.813 Y68.14
Y54.789 Z-5.824
X10.45 Z-5.846
Y55.347 Z-5.866
Y74.789
X9.813
Y54.789
X10.45
Y55.347
X10.446 Y55.374
X10.433 Y55.397
X10.413 Y55.415
X10.245 Y55.52
X10.225 Y55.538
X10.212 Y55.56
X10.207 Y55.586
X10.055 Y65.782
X10.051 Y65.807
X9.968 Y66.047
X9.951 Y66.074
X9.926 Y66.093
X9.895 Y66.1
X9.864 Y66.095
X9.837 Y66.078
X9.819 Y66.052
X9.813 Y66.021
Y54.789 Z-6.258
X10.45 Z-6.28
Y55.347 Z-6.3
Y74.789
X9.813
Y54.789
X10.45
Y55.347
Y55.425 Z-6.292
Y55.5 Z-6.27
Y55.57 Z-6.233
Y55.63 Z-6.183
Y55.68 Z-6.122
Y55.717 Z-6.053
Y55.74 Z-5.978
Y55.747 Z-5.9
G0 Z5.
X9.813 Y30.051
G1 Z-3.917 F380.
Y30.044 Z-3.994 F1500.
Y30.022 Z-4.069
Y29.985 Z-4.137
Y29.936 Z-4.198
Y29.876 Z-4.247
Y29.808 Z-4.285
Y29.734 Z-4.308
Y29.656 Z-4.317
Y28.789 Z-4.327
X10.45 Z-4.335
Y48.789 Z-4.581
X9.813 Z-4.589
Y28.789 Z-4.835
X10.45 Z-4.843
Y48.789 Z-5.089
X9.813 Z-5.097
Y28.789 Z-5.343
X10.45 Z-5.351
Y29.347 Z-5.358
Y48.789
X9.813
Y28.789
X10.45
Y29.347
X10.446 Y29.374
X10.433 Y29.397
X10.413 Y29.415
X10.245 Y29.52
X10.226 Y29.537
X10.213 Y29.56
X10.208 Y29.586
X10.055 Y41.901
X10.05 Y41.926
X9.968 Y42.166
X9.952 Y42.193
X9.926 Y42.212
X9.895 Y42.22
X9.864 Y42.214
X9.837 Y42.197
X9.819 Y42.171
X9.813 Y42.14
Y28.789 Z-5.824
X10.45 Z-5.846
Y29.347 Z-5.866
Y48.789
X9.813
Y28.789
X10.45
Y29.347
X10.446 Y29.374
X10.433 Y29.397
X10.413 Y29.415
X10.245 Y29.52
X10.225 Y29.538
X10.212 Y29.56
X10.207 Y29.586
X10.055 Y39.782
X10.051 Y39.807
X9.968 Y40.047
X9.951 Y40.074
X9.926 Y40.093
X9.895 Y40.1
X9.864 Y40.095
X9.837 Y40.078
X9.819 Y40.052
X9.813 Y40.021
Y28.789 Z-6.258
X10.45 Z-6.28
Y29.347 Z-6.3
Y48.789
X9.813
Y28.789
X10.45
Y29.347
Y29.425 Z-6.292
Y29.5 Z-6.27
Y29.57 Z-6.233
Y29.63 Z-6.183
Y29.68 Z-6.122
Y29.717 Z-6.053
Y29.74 Z-5.978
Y29.747 Z-5.9
G0 Z5.
X11.955 Y7.792
G1 Z-3.917 F380.
X11.95 Y7.798 Z-3.994 F1500.
X11.936 Y7.815 Z-4.069
X11.912 Y7.843 Z-4.138
X11.881 Y7.881 Z-4.198
X11.843 Y7.928 Z-4.248
X11.8 Y7.98 Z-4.285
X11.752 Y8.038 Z-4.308
X11.703 Y8.098 Z-4.317
X11.441 Y8.416 Z-4.321
X11.383 Y8.493 Z-4.322
X11.333 Y8.575 Z-4.323
X10.94 Y9.302 Z-4.332
X10.888 Y9.413 Z-4.333
X10.829 Y9.562 Z-4.335
X10.802 Y9.642
X10.578 Y10.393 Z-4.344
X10.555 Y10.486 Z-4.345
X10.541 Y10.58 Z-4.346
X10.455 Y11.457 Z-4.355
X10.45 Y11.555 Z-4.356
Y22.789 Z-4.473
X9.813 Z-4.48
Y11.577 Z-4.598
X9.854 Y10.869 Z-4.605
X10.062 Y9.829 Z-4.616
X10.406 Y8.922 Z-4.626
X10.93 Y8.027 Z-4.637
X11.618 Y7.223 Z-4.648
X12.563 Y6.451 Z-4.661
X13.584 Y5.907 Z-4.673
X14.114 Y5.742 Z-4.679
X14.767 Y5.547 Z-4.686
X16.084 Y5.42 Z-4.7
X19.223 Y5.421 Z-4.733
Y6.06 Z-4.739
X15.889 Y6.062 Z-4.774
X15.787 Y6.067 Z-4.775
X14.973 Y6.151 Z-4.784
X14.88 Y6.165 Z-4.785
X14.788 Y6.188 Z-4.786
X13.963 Y6.435 Z-4.795
X13.854 Y6.475 Z-4.796
X13.781 Y6.507 Z-4.797
X13.702 Y6.545 Z-4.798
X12.971 Y6.94 Z-4.807
X12.89 Y6.989 Z-4.808
X12.813 Y7.046 Z-4.809
X12.138 Y7.6 Z-4.818
X12.065 Y7.665 Z-4.819
X12. Y7.737 Z-4.82
X11.441 Y8.416 Z-4.829
X11.383 Y8.493 Z-4.83
X11.333 Y8.575 Z-4.831
X10.94 Y9.302 Z-4.84
X10.888 Y9.413 Z-4.841
X10.829 Y9.562 Z-4.843
X10.802 Y9.642
X10.578 Y10.393 Z-4.852
X10.555 Y10.486 Z-4.853
X10.541 Y10.58 Z-4.854
X10.455 Y11.457 Z-4.863
X10.45 Y11.555 Z-4.864
Y22.789 Z-4.981
X9.813 Z-4.988
Y11.577 Z-5.106
X9.854 Y10.869 Z-5.113
X10.062 Y9.829 Z-5.124
X10.406 Y8.922 Z-5.134
X10.93 Y8.027 Z-5.145
X11.618 Y7.223 Z-5.156
X12.563 Y6.451 Z-5.169
X13.584 Y5.907 Z-5.181
X14.114 Y5.742 Z-5.187
X14.767 Y5.547 Z-5.194
X16.084 Y5.42 Z-5.208
X19.223 Y5.421 Z-5.241
Y6.06 Z-5.247
X15.889 Y6.062 Z-5.282
X15.787 Y6.067 Z-5.283
X14.973 Y6.151 Z-5.292
X14.88 Y6.165 Z-5.293
X14.788 Y6.188 Z-5.294
X13.963 Y6.435 Z-5.303
X13.854 Y6.475 Z-5.304
X13.781 Y6.507 Z-5.305
X13.702 Y6.545 Z-5.306
X12.971 Y6.94 Z-5.315
X12.89 Y6.989 Z-5.316
X12.813 Y7.046 Z-5.317
X12.138 Y7.6 Z-5.326
X12.065 Y7.665 Z-5.327
X12. Y7.737 Z-5.328
X11.441 Y8.416 Z-5.337
X11.383 Y8.493 Z-5.338
X11.333 Y8.575 Z-5.339
X10.94 Y9.302 Z-5.348
X10.888 Y9.413 Z-5.349
X10.829 Y9.562 Z-5.351
X10.802 Y9.642
X10.623 Y10.244 Z-5.358
X10.578 Y10.393
X10.555 Y10.486
X10.541 Y10.58
X10.455 Y11.457
X10.45 Y11.555
Y22.789
X9.813
Y11.577
X9.854 Y10.869
X10.062 Y9.829
X10.406 Y8.922
X10.93 Y8.027
X11.618 Y7.223
X12.563 Y6.451
X13.584 Y5.907
X14.114 Y5.742
X14.767 Y5.547
X16.084 Y5.42
X19.223 Y5.421
Y6.06
X15.889 Y6.062
X15.787 Y6.067
X14.973 Y6.151
X14.88 Y6.165
X14.788 Y6.188
X13.963 Y6.435
X13.854 Y6.475
X13.781 Y6.507
X13.702 Y6.545
X12.971 Y6.94
X12.89 Y6.989
X12.813 Y7.046
X12.138 Y7.6
X12.065 Y7.665
X12. Y7.737
X11.441 Y8.416
X11.383 Y8.493
X11.333 Y8.575
X10.94 Y9.302
X10.888 Y9.413
X10.829 Y9.562
X10.802 Y9.642
X10.623 Y10.244
X10.606 Y10.276
X10.58 Y10.302
X10.546 Y10.316
X10.51 Y10.318
X10.474 Y10.308
X10.445 Y10.286
X10.425 Y10.256
X10.416 Y10.22
X10.396 Y9.888
X10.402 Y9.848
G3 X12.404 Y7.046 R5.937
X15.606 Y5.776 R6.266
G1 X15.639 Y5.767
X15.667 Y5.748
X15.688 Y5.72
X15.805 Y5.495
X15.825 Y5.467
X15.854 Y5.448
X15.887 Y5.439
X16.084 Y5.42 Z-5.365
X19.223 Y5.421 Z-5.475
Y6.06 Z-5.497
X15.889 Y6.062 Z-5.613
X15.787 Y6.067 Z-5.617
X14.973 Y6.151 Z-5.645
X14.88 Y6.165 Z-5.649
X14.788 Y6.188 Z-5.652
X13.963 Y6.435 Z-5.682
X13.854 Y6.475 Z-5.686
X13.781 Y6.507 Z-5.689
X13.702 Y6.545 Z-5.692
X12.971 Y6.94 Z-5.721
X12.89 Y6.989 Z-5.724
X12.813 Y7.046 Z-5.728
X12.138 Y7.6 Z-5.758
X12.065 Y7.665 Z-5.762
X12. Y7.737 Z-5.765
X11.441 Y8.416 Z-5.796
X11.383 Y8.493 Z-5.799
X11.333 Y8.575 Z-5.802
X10.94 Y9.302 Z-5.831
X10.888 Y9.413 Z-5.836
X10.829 Y9.562 Z-5.841
X10.802 Y9.642 Z-5.844
X10.623 Y10.244 Z-5.866
X10.578 Y10.393
X10.555 Y10.486
X10.541 Y10.58
X10.455 Y11.457
X10.45 Y11.555
Y22.789
X9.813
Y11.577
X9.854 Y10.869
X10.062 Y9.829
X10.406 Y8.922
X10.93 Y8.027
X11.618 Y7.223
X12.563 Y6.451
X13.584 Y5.907
X14.114 Y5.742
X14.767 Y5.547
X16.084 Y5.42
X19.223 Y5.421
Y6.06
X15.889 Y6.062
X15.787 Y6.067
X14.973 Y6.151
X14.88 Y6.165
X14.788 Y6.188
X13.963 Y6.435
X13.854 Y6.475
X13.781 Y6.507
X13.702 Y6.545
X12.971 Y6.94
X12.89 Y6.989
X12.813 Y7.046
X12.138 Y7.6
X12.065 Y7.665
X12. Y7.737
X11.441 Y8.416
X11.383 Y8.493
X11.333 Y8.575
X10.94 Y9.302
X10.888 Y9.413
X10.829 Y9.562
X10.802 Y9.642
X10.623 Y10.244
X10.606 Y10.276
X10.58 Y10.302
X10.546 Y10.316
X10.51 Y10.318
X10.474 Y10.308
X10.445 Y10.286
X10.425 Y10.256
X10.416 Y10.22
X10.396 Y9.888
X10.402 Y9.848
G3 X13.383 Y6.623 R5.385
X17.685 Y5.741 R10.933
G1 X17.72 Y5.735
X17.751 Y5.718
X17.775 Y5.691
X17.915 Y5.47
X17.939 Y5.444
X17.97 Y5.426
X18.005 Y5.421
X19.223 Z-5.909
Y6.06 Z-5.931
X15.889 Y6.062 Z-6.047
X15.787 Y6.067 Z-6.051
X14.973 Y6.151 Z-6.079
X14.88 Y6.165 Z-6.083
X14.788 Y6.188 Z-6.086
X13.963 Y6.435 Z-6.116
X13.854 Y6.475 Z-6.12
X13.781 Y6.507 Z-6.123
X13.702 Y6.545 Z-6.126
X12.971 Y6.94 Z-6.155
X12.89 Y6.989 Z-6.158
X12.813 Y7.046 Z-6.162
X12.138 Y7.6 Z-6.192
X12.065 Y7.665 Z-6.196
X12. Y7.737 Z-6.199
X11.441 Y8.416 Z-6.23
X11.383 Y8.493 Z-6.233
X11.333 Y8.575 Z-6.236
X10.94 Y9.302 Z-6.265
X10.888 Y9.413 Z-6.27
X10.829 Y9.562 Z-6.275
X10.802 Y9.642 Z-6.278
X10.623 Y10.244 Z-6.3
X10.578 Y10.393
X10.555 Y10.486
X10.541 Y10.58
X10.455 Y11.457
X10.45 Y11.555
Y22.789
X9.813
Y11.577
X9.854 Y10.869
X10.062 Y9.829
X10.406 Y8.922
X10.93 Y8.027
X11.618 Y7.223
X12.563 Y6.451
X13.584 Y5.907
X14.114 Y5.742
X14.767 Y5.547
X16.084 Y5.42
X19.223 Y5.421
Y6.06
X15.889 Y6.062
X15.787 Y6.067
X14.973 Y6.151
X14.88 Y6.165
X14.788 Y6.188
X13.963 Y6.435
X13.854 Y6.475
X13.781 Y6.507
X13.702 Y6.545
X12.971 Y6.94
X12.89 Y6.989
X12.813 Y7.046
X12.138 Y7.6
X12.065 Y7.665
X12. Y7.737
X11.441 Y8.416
X11.383 Y8.493
X11.333 Y8.575
X10.94 Y9.302
X10.888 Y9.413
X10.829 Y9.562
X10.802 Y9.642
X10.623 Y10.244
X10.607 Y10.295 Z-6.296
X10.593 Y10.345 Z-6.286
X10.578 Y10.393 Z-6.268
X10.559 Y10.466 Z-6.226
X10.548 Y10.53 Z-6.169
X10.541 Y10.58 Z-6.099
X10.539 Y10.609 Z-6.036
X10.537 Y10.627 Z-5.969
X10.536 Y10.633 Z-5.9
G0 Z5.
X27.122 Y6.06
G1 Z-3.917 F380.
X27.114 Z-3.994 F1500.
X27.092 Z-4.069
X27.055 Z-4.137
X27.006 Z-4.198
X26.947 Z-4.247
X26.878 Z-4.285
X26.804 Z-4.308
X26.727 Z-4.317
X25.223 Z-4.335
Y5.42 Z-4.343
X45.223 Y5.421 Z-4.589
Y6.06 Z-4.597
X25.223 Z-4.843
Y5.42 Z-4.851
X45.223 Y5.421 Z-5.097
Y6.06 Z-5.105
X25.223 Z-5.351
Y5.5 Z-5.358
Y5.42
X45.223 Y5.421
Y6.06
X25.223
Y5.5
X25.227 Y5.485
X25.239 Y5.475
X25.255 Y5.474
X25.382 Y5.502
X38.891 Y5.735
X38.924 Y5.741
X39.245 Y5.853
X39.277 Y5.871
X39.302 Y5.899
X39.315 Y5.934
Y5.971
X39.302 Y6.006
X39.279 Y6.035
X39.247 Y6.054
X39.21 Y6.06
X25.223 Z-5.846
Y5.5 Z-5.866
Y5.42
X45.223 Y5.421
Y6.06
X25.223
Y5.5
X25.227 Y5.485
X25.239 Y5.475
X25.255 Y5.474
X25.382 Y5.502
X36.772 Y5.734
X36.805 Y5.74
X37.126 Y5.853
X37.158 Y5.871
X37.183 Y5.9
X37.196 Y5.934
Y5.971
X37.183 Y6.006
X37.16 Y6.035
X37.127 Y6.054
X37.091 Y6.06
X25.223 Z-6.28
Y5.5 Z-6.3
Y5.42
X45.223 Y5.421
Y6.06
X25.223
Y5.5
Y5.46 Z-6.298
Y5.42 Z-6.292
X25.297 Z-6.269
X25.366 Z-6.232
X25.426 Z-6.182
X25.476 Z-6.122
X25.512 Z-6.053
X25.535 Z-5.978
X25.543 Z-5.9
G0 Z5.
X52.482 Y6.06
G1 Z-3.917 F380.
X52.475 Z-3.994 F1500.
X52.452 Z-4.069
X52.416 Z-4.137
X52.367 Z-4.198
X52.307 Z-4.247
X52.239 Z-4.285
X52.164 Z-4.308
X52.087 Z-4.317
X51.223 Z-4.327
Y5.42 Z-4.335
X71.223 Y5.421 Z-4.581
Y6.06 Z-4.589
X51.223 Z-4.835
Y5.42 Z-4.843
X71.223 Y5.421 Z-5.089
Y6.06 Z-5.097
X51.223 Z-5.343
Y5.42 Z-5.351
X51.782 Z-5.358
X71.223 Y5.421
Y6.06
X51.223
Y5.42
X51.782
X51.809 Y5.425
X51.832 Y5.438
X51.85 Y5.458
X51.956 Y5.626
X51.973 Y5.646
X51.996 Y5.659
X52.022 Y5.663
X64.331 Y5.817
X64.356 Y5.822
X64.596 Y5.905
X64.624 Y5.921
X64.643 Y5.946
X64.65 Y5.977
X64.645 Y6.009
X64.628 Y6.036
X64.602 Y6.054
X64.57 Y6.06
X51.223 Z-5.824
Y5.42 Z-5.846
X51.782 Z-5.866
X71.223 Y5.421
Y6.06
X51.223
Y5.42
X51.782
X51.809 Y5.425
X51.832 Y5.438
X51.85 Y5.458
X51.956 Y5.626
X51.973 Y5.646
X51.996 Y5.659
X52.022 Y5.664
X62.211 Y5.817
X62.236 Y5.821
X62.477 Y5.905
X62.505 Y5.921
X62.524 Y5.946
X62.531 Y5.977
X62.526 Y6.009
X62.509 Y6.036
X62.482 Y6.054
X62.451 Y6.06
X51.223 Z-6.258
Y5.42 Z-6.28
X51.782 Z-6.3
X71.223 Y5.421
Y6.06
X51.223
Y5.42
X51.782
X51.86 Z-6.292
X51.935 Z-6.27
X52.005 Z-6.233
X52.065 Z-6.183
X52.115 Z-6.122
X52.152 Z-6.053
X52.175 Z-5.978
X52.182 Z-5.9
G0 Z5.
X78.482 Y6.06
G1 Z-3.917 F380.
X78.475 Z-3.994 F1500.
X78.452 Z-4.069
X78.416 Z-4.137
X78.367 Z-4.198
X78.307 Z-4.248
X78.239 Z-4.285
X78.164 Z-4.308
X78.087 Z-4.317
X77.223 Z-4.327
Y5.42 Z-4.335
X97.223 Y5.421 Z-4.581
Y6.06 Z-4.589
X77.223 Z-4.835
Y5.42 Z-4.843
X97.223 Y5.421 Z-5.089
Y6.06 Z-5.097
X77.223 Z-5.343
Y5.42 Z-5.351
X77.782 Z-5.358
X97.223 Y5.421
Y6.06
X77.223
Y5.42
X77.782
X77.809 Y5.425
X77.832 Y5.438
X77.85 Y5.458
X77.956 Y5.626
X77.973 Y5.646
X77.996 Y5.659
X78.022 Y5.663
X90.331 Y5.817
X90.356 Y5.822
X90.596 Y5.905
X90.624 Y5.921
X90.643 Y5.946
X90.65 Y5.977
X90.645 Y6.009
X90.628 Y6.036
X90.602 Y6.054
X90.57 Y6.06
X77.223 Z-5.824
Y5.42 Z-5.846
X77.782 Z-5.866
X97.223 Y5.421
Y6.06
X77.223
Y5.42
X77.782
X77.809 Y5.425
X77.832 Y5.438
X77.85 Y5.458
X77.956 Y5.626
X77.973 Y5.646
X77.996 Y5.659
X78.022 Y5.664
X88.211 Y5.817
X88.236 Y5.821
X88.477 Y5.905
X88.505 Y5.921
X88.524 Y5.946
X88.531 Y5.977
X88.526 Y6.009
X88.509 Y6.036
X88.482 Y6.054
X88.451 Y6.06
X77.223 Z-6.258
Y5.42 Z-6.28
X77.782 Z-6.3
X97.223 Y5.421
Y6.06
X77.223
Y5.42
X77.782
X77.86 Z-6.292
X77.935 Z-6.27
X78.005 Z-6.233
X78.065 Z-6.183
X78.115 Z-6.122
X78.152 Z-6.053
X78.175 Z-5.978
X78.182 Z-5.9
G0 Z5.
X105.122 Y6.06
G1 Z-3.917 F380.
X105.114 Z-3.994 F1500.
X105.092 Z-4.069
X105.055 Z-4.137
X105.006 Z-4.198
X104.947 Z-4.248
X104.878 Z-4.285
X104.804 Z-4.308
X104.727 Z-4.317
X103.223 Z-4.335
Y5.42 Z-4.343
X123.223 Y5.421 Z-4.589
Y6.06 Z-4.597
X103.223 Z-4.843
Y5.42 Z-4.851
X123.223 Y5.421 Z-5.097
Y6.06 Z-5.105
X103.223 Z-5.351
Y5.5 Z-5.358
Y5.42
X123.223 Y5.421
Y6.06
X103.223
Y5.5
X103.227 Y5.485
X103.239 Y5.475
X103.255 Y5.474
X103.382 Y5.502
X116.891 Y5.735
X116.924 Y5.741
X117.245 Y5.853
X117.277 Y5.871
X117.302 Y5.899
X117.315 Y5.934
Y5.971
X117.302 Y6.006
X117.279 Y6.035
X117.247 Y6.054
X117.21 Y6.06
X103.223 Z-5.846
Y5.5 Z-5.866
Y5.42
X123.223 Y5.421
Y6.06
X103.223
Y5.5
X103.227 Y5.485
X103.239 Y5.475
X103.255 Y5.474
X103.382 Y5.502
X114.772 Y5.734
X114.805 Y5.74
X115.126 Y5.853
X115.158 Y5.871
X115.183 Y5.9
X115.196 Y5.934
Y5.971
X115.183 Y6.006
X115.16 Y6.035
X115.127 Y6.054
X115.091 Y6.06
X103.223 Z-6.28
Y5.5 Z-6.3
Y5.42
X123.223 Y5.421
Y6.06
X103.223
Y5.5
Y5.46 Z-6.298
Y5.42 Z-6.292
X103.297 Z-6.269
X103.366 Z-6.232
X103.426 Z-6.182
X103.476 Z-6.122
X103.512 Z-6.053
X103.535 Z-5.978
X103.543 Z-5.9
G0 Z5.
X140.215 Y7.561
G1 Z-3.917 F380.
X140.209 Y7.556 Z-3.994 F1500.
X140.191 Y7.542 Z-4.069
X140.163 Y7.519 Z-4.138
X140.125 Y7.488 Z-4.198
X140.079 Y7.45 Z-4.248
X140.026 Y7.406 Z-4.285
X139.969 Y7.359 Z-4.308
X139.909 Y7.31 Z-4.317
X139.588 Y7.046 Z-4.321
X139.511 Y6.989 Z-4.322
X139.429 Y6.939 Z-4.323
X138.698 Y6.545 Z-4.332
X138.641 Y6.516
X138.581 Y6.491 Z-4.333
X138.435 Y6.435 Z-4.335
X138.361 Y6.41
X137.609 Y6.187 Z-4.344
X137.516 Y6.164 Z-4.345
X137.422 Y6.15 Z-4.346
X136.545 Y6.065 Z-4.355
X136.448 Y6.06 Z-4.356
X129.223 Z-4.432
Y5.42 Z-4.438
X136.4 Y5.421 Z-4.513
X137.135 Y5.463 Z-4.521
X138.175 Y5.67 Z-4.532
X139.114 Y6.026 Z-4.543
X139.997 Y6.552 Z-4.553
X140.785 Y7.225 Z-4.564
X141.557 Y8.169 Z-4.577
X142.107 Y9.201 Z-4.589
X142.134 Y9.281 Z-4.59
X142.462 Y10.372 Z-4.602
X142.59 Y11.679 Z-4.616
X142.588 Y18.834 Z-4.691
X141.95 Z-4.697
X141.948 Y11.492 Z-4.774
X141.942 Y11.389 Z-4.775
X141.858 Y10.575 Z-4.784
X141.844 Y10.482 Z-4.785
X141.821 Y10.39 Z-4.786
X141.572 Y9.565 Z-4.795
X141.541 Y9.478 Z-4.796
X141.503 Y9.395 Z-4.797
X141.283 Y8.968 Z-4.802
X141.27 Y8.944
X141.062 Y8.568 Z-4.807
X141.014 Y8.49 Z-4.808
X140.959 Y8.416 Z-4.809
X140.401 Y7.738 Z-4.818
X140.335 Y7.666 Z-4.819
X140.263 Y7.601 Z-4.82
X139.588 Y7.046 Z-4.829
X139.511 Y6.989 Z-4.83
X139.429 Y6.939 Z-4.831
X138.698 Y6.545 Z-4.84
X138.641 Y6.516
X138.581 Y6.491 Z-4.841
X138.435 Y6.435 Z-4.843
X138.361 Y6.41
X137.609 Y6.187 Z-4.852
X137.516 Y6.164 Z-4.853
X137.422 Y6.15 Z-4.854
X136.545 Y6.065 Z-4.863
X136.448 Y6.06 Z-4.864
X129.223 Z-4.94
Y5.42 Z-4.946
X136.4 Y5.421 Z-5.021
X137.135 Y5.463 Z-5.029
X138.175 Y5.67 Z-5.04
X139.114 Y6.026 Z-5.051
X139.997 Y6.552 Z-5.061
X140.785 Y7.225 Z-5.072
X141.557 Y8.169 Z-5.085
X142.107 Y9.201 Z-5.097
X142.134 Y9.281 Z-5.098
X142.462 Y10.372 Z-5.11
X142.59 Y11.679 Z-5.124
X142.588 Y18.834 Z-5.199
X141.95 Z-5.205
X141.948 Y11.492 Z-5.282
X141.942 Y11.389 Z-5.283
X141.858 Y10.575 Z-5.292
X141.844 Y10.482 Z-5.293
X141.821 Y10.39 Z-5.294
X141.572 Y9.565 Z-5.303
X141.541 Y9.478 Z-5.304
X141.503 Y9.395 Z-5.305
X141.283 Y8.968 Z-5.31
X141.27 Y8.944
X141.062 Y8.568 Z-5.315
X141.014 Y8.49 Z-5.316
X140.959 Y8.416 Z-5.317
X140.401 Y7.738 Z-5.326
X140.335 Y7.666 Z-5.327
X140.263 Y7.601 Z-5.328
X139.588 Y7.046 Z-5.337
X139.511 Y6.989 Z-5.338
X139.429 Y6.939 Z-5.339
X138.698 Y6.545 Z-5.348
X138.641 Y6.516
X138.581 Y6.491 Z-5.349
X138.435 Y6.435 Z-5.351
X138.361 Y6.41
X137.761 Y6.232 Z-5.358
X137.609 Y6.187
X137.516 Y6.164
X137.422 Y6.15
X136.545 Y6.065
X136.448 Y6.06
X129.223
Y5.42
X136.4 Y5.421
X137.135 Y5.463
X138.175 Y5.67
X139.114 Y6.026
X139.997 Y6.552
X140.785 Y7.225
X141.557 Y8.169
X142.107 Y9.201
X142.134 Y9.281
X142.414 Y10.212
X142.462 Y10.372
X142.59 Y11.679
X142.588 Y18.834
X141.95
X141.948 Y11.492
X141.942 Y11.389
X141.858 Y10.575
X141.844 Y10.482
X141.821 Y10.39
X141.572 Y9.565
X141.541 Y9.478
X141.503 Y9.395
X141.283 Y8.968
X141.27 Y8.944
X141.062 Y8.568
X141.014 Y8.49
X140.959 Y8.416
X140.401 Y7.738
X140.335 Y7.666
X140.263 Y7.601
X139.588 Y7.046
X139.511 Y6.989
X139.429 Y6.939
X138.698 Y6.545
X138.641 Y6.516
X138.581 Y6.491
X138.435 Y6.435
X138.361 Y6.41
X137.761 Y6.232
X137.709 Y6.216 Z-5.354
X137.658 Y6.201 Z-5.343
X137.609 Y6.187 Z-5.325
X137.536 Y6.168 Z-5.282
X137.472 Y6.156 Z-5.223
X137.422 Y6.15 Z-5.151
X137.394 Y6.147 Z-5.09
X137.378 Y6.146 Z-5.025
X137.372 Y6.145 Z-4.958
G0 Z5.
X140.215 Y7.561
G1 Z-4.425 F380.
X140.209 Y7.556 Z-4.502 F1500.
X140.191 Y7.542 Z-4.577
X140.163 Y7.519 Z-4.646
X140.125 Y7.488 Z-4.706
X140.079 Y7.45 Z-4.756
X140.026 Y7.406 Z-4.793
X139.969 Y7.359 Z-4.816
X139.909 Y7.31 Z-4.825
X139.588 Y7.046 Z-4.829
X139.511 Y6.989 Z-4.83
X139.429 Y6.939 Z-4.831
X138.698 Y6.545 Z-4.84
X138.641 Y6.516
X138.581 Y6.491 Z-4.841
X138.435 Y6.435 Z-4.843
X138.361 Y6.41
X137.609 Y6.187 Z-4.852
X137.516 Y6.164 Z-4.853
X137.422 Y6.15 Z-4.854
X136.545 Y6.065 Z-4.863
X136.448 Y6.06 Z-4.864
X129.223 Z-4.94
Y5.42 Z-4.946
X136.4 Y5.421 Z-5.021
X137.135 Y5.463 Z-5.029
X138.175 Y5.67 Z-5.04
X139.114 Y6.026 Z-5.051
X139.997 Y6.552 Z-5.061
X140.785 Y7.225 Z-5.072
X141.557 Y8.169 Z-5.085
X142.107 Y9.201 Z-5.097
X142.134 Y9.281 Z-5.098
X142.462 Y10.372 Z-5.11
X142.59 Y11.679 Z-5.124
X142.588 Y18.834 Z-5.199
X141.95 Z-5.205
X141.948 Y11.492 Z-5.282
X141.942 Y11.389 Z-5.283
X141.858 Y10.575 Z-5.292
X141.844 Y10.482 Z-5.293
X141.821 Y10.39 Z-5.294
X141.572 Y9.565 Z-5.303
X141.541 Y9.478 Z-5.304
X141.503 Y9.395 Z-5.305
X141.283 Y8.968 Z-5.31
X141.27 Y8.944
X141.062 Y8.568 Z-5.315
X141.014 Y8.49 Z-5.316
X140.959 Y8.416 Z-5.317
X140.401 Y7.738 Z-5.326
X140.335 Y7.666 Z-5.327
X140.263 Y7.601 Z-5.328
X139.588 Y7.046 Z-5.337
X139.511 Y6.989 Z-5.338
X139.429 Y6.939 Z-5.339
X138.698 Y6.545 Z-5.348
X138.641 Y6.516
X138.581 Y6.491 Z-5.349
X138.435 Y6.435 Z-5.351
X138.361 Y6.41
X137.609 Y6.187 Z-5.36
X137.516 Y6.164 Z-5.361
X137.422 Y6.15 Z-5.362
X136.545 Y6.065 Z-5.371
X136.448 Y6.06 Z-5.372
X129.223 Z-5.448
Y5.42 Z-5.454
X136.4 Y5.421 Z-5.529
X137.135 Y5.463 Z-5.537
X138.175 Y5.67 Z-5.548
X139.114 Y6.026 Z-5.559
X139.997 Y6.552 Z-5.569
X140.785 Y7.225 Z-5.58
X141.557 Y8.169 Z-5.593
X142.107 Y9.201 Z-5.605
X142.134 Y9.281 Z-5.606
X142.462 Y10.372 Z-5.618
X142.59 Y11.679 Z-5.632
X142.588 Y18.834 Z-5.707
X141.95 Z-5.713
X141.948 Y11.492 Z-5.79
X141.942 Y11.389 Z-5.791
X141.858 Y10.575 Z-5.8
X141.844 Y10.482 Z-5.801
X141.821 Y10.39 Z-5.802
X141.572 Y9.565 Z-5.811
X141.541 Y9.478 Z-5.812
X141.503 Y9.395 Z-5.813
X141.283 Y8.968 Z-5.818
X141.27 Y8.944
X141.062 Y8.568 Z-5.823
X141.014 Y8.49 Z-5.824
X140.959 Y8.416 Z-5.825
X140.401 Y7.738 Z-5.834
X140.335 Y7.666 Z-5.835
X140.263 Y7.601 Z-5.836
X139.588 Y7.046 Z-5.845
X139.511 Y6.989 Z-5.846
X139.429 Y6.939 Z-5.847
X138.698 Y6.545 Z-5.856
X138.641 Y6.516
X138.581 Y6.491 Z-5.857
X138.435 Y6.435 Z-5.859
X138.361 Y6.41
X137.761 Y6.232 Z-5.866
X137.609 Y6.187
X137.516 Y6.164
X137.422 Y6.15
X136.545 Y6.065
X136.448 Y6.06
X129.223
Y5.42
X136.4 Y5.421
X137.135 Y5.463
X138.175 Y5.67
X139.114 Y6.026
X139.997 Y6.552
X140.785 Y7.225
X141.557 Y8.169
X142.107 Y9.201
X142.134 Y9.281
X142.414 Y10.212
X142.462 Y10.372
X142.59 Y11.679
X142.588 Y18.834
X141.95
X141.948 Y11.492
X141.942 Y11.389
X141.858 Y10.575
X141.844 Y10.482
X141.821 Y10.39
X141.572 Y9.565
X141.541 Y9.478
X141.503 Y9.395
X141.283 Y8.968
X141.27 Y8.944
X141.062 Y8.568
X141.014 Y8.49
X140.959 Y8.416
X140.401 Y7.738
X140.335 Y7.666
X140.263 Y7.601
X139.588 Y7.046
X139.511 Y6.989
X139.429 Y6.939
X138.698 Y6.545
X138.641 Y6.516
X138.581 Y6.491
X138.435 Y6.435
X138.361 Y6.41
X137.761 Y6.232
X137.729 Y6.215
X137.703 Y6.189
X137.689 Y6.155
X137.687 Y6.119
X137.697 Y6.083
X137.719 Y6.054
X137.749 Y6.034
X137.785 Y6.025
X138.117 Y6.005
X138.157 Y6.01
G3 X141.879 Y10.526 R5.545
X142.269 Y16.365 R43.915
G1 X142.263 Y16.399
X142.157 Y16.719
X142.139 Y16.752
X142.111 Y16.776
X142.076 Y16.79
X142.039
X142.003 Y16.778
X141.975 Y16.754
X141.956 Y16.722
X141.949 Y16.685
X141.948 Y11.492 Z-6.047
X141.942 Y11.389 Z-6.051
X141.858 Y10.575 Z-6.08
X141.844 Y10.482 Z-6.083
X141.821 Y10.39 Z-6.086
X141.572 Y9.565 Z-6.116
X141.541 Y9.478 Z-6.119
X141.503 Y9.395 Z-6.123
X141.283 Y8.968 Z-6.139
X141.27 Y8.944 Z-6.14
X141.062 Y8.568 Z-6.155
X141.014 Y8.49 Z-6.159
X140.959 Y8.416 Z-6.162
X140.401 Y7.738 Z-6.192
X140.335 Y7.666 Z-6.196
X140.263 Y7.601 Z-6.199
X139.588 Y7.046 Z-6.23
X139.511 Y6.989 Z-6.233
X139.429 Y6.939 Z-6.236
X138.698 Y6.545 Z-6.265
X138.641 Y6.516 Z-6.268
X138.581 Y6.491 Z-6.27
X138.435 Y6.435 Z-6.275
X138.361 Y6.41 Z-6.278
X137.761 Y6.232 Z-6.3
X137.609 Y6.187
X137.516 Y6.164
X137.422 Y6.15
X136.545 Y6.065
X136.448 Y6.06
X129.223
Y5.42
X136.4 Y5.421
X137.135 Y5.463
X138.175 Y5.67
X139.114 Y6.026
X139.997 Y6.552
X140.785 Y7.225
X141.557 Y8.169
X142.107 Y9.201
X142.134 Y9.281
X142.414 Y10.212
X142.462 Y10.372
X142.59 Y11.679
X142.588 Y18.834
X141.95
X141.948 Y11.492
X141.942 Y11.389
X141.858 Y10.575
X141.844 Y10.482
X141.821 Y10.39
X141.572 Y9.565
X141.541 Y9.478
X141.503 Y9.395
X141.283 Y8.968
X141.27 Y8.944
X141.062 Y8.568
X141.014 Y8.49
X140.959 Y8.416
X140.401 Y7.738
X140.335 Y7.666
X140.263 Y7.601
X139.588 Y7.046
X139.511 Y6.989
X139.429 Y6.939
X138.698 Y6.545
X138.641 Y6.516
X138.581 Y6.491
X138.435 Y6.435
X138.361 Y6.41
X137.761 Y6.232
X137.709 Y6.216 Z-6.296
X137.658 Y6.201 Z-6.285
X137.609 Y6.187 Z-6.267
X137.536 Y6.168 Z-6.224
X137.472 Y6.156 Z-6.165
X137.422 Y6.15 Z-6.093
X137.394 Y6.147 Z-6.032
X137.378 Y6.146 Z-5.967
X137.372 Y6.145 Z-5.9
G0 Z5.
X141.95 Y26.096
G1 Z-3.917 F380.
Y26.089 Z-3.994 F1500.
Y26.066 Z-4.069
Y26.03 Z-4.137
Y25.981 Z-4.198
Y25.921 Z-4.247
Y25.853 Z-4.285
Y25.778 Z-4.308
Y25.701 Z-4.317
Y24.834 Z-4.327
X142.588 Z-4.335
Y44.834 Z-4.581
X141.95 Z-4.589
Y24.834 Z-4.835
X142.588 Z-4.843
Y44.834 Z-5.089
X141.95 Z-5.097
Y24.834 Z-5.343
X142.588 Z-5.351
Y25.393 Z-5.358
Y44.834
X141.95
Y24.834
X142.588
Y25.15
Y25.393
X142.583 Y25.419
X142.57 Y25.442
X142.55 Y25.46
X142.383 Y25.565
X142.363 Y25.583
X142.35 Y25.606
X142.346 Y25.632
X142.192 Y37.945
X142.188 Y37.97
X142.105 Y38.21
X142.089 Y38.238
X142.063 Y38.257
X142.032 Y38.264
X142.001 Y38.259
X141.974 Y38.242
X141.956 Y38.216
X141.95 Y38.185
Y24.834 Z-5.824
X142.588 Z-5.846
Y25.393 Z-5.866
Y44.834
X141.95
Y24.834
X142.588
Y25.393
X142.583 Y25.419
X142.57 Y25.442
X142.55 Y25.46
X142.382 Y25.565
X142.363 Y25.583
X142.35 Y25.606
X142.345 Y25.632
X142.193 Y35.826
X142.188 Y35.851
X142.105 Y36.092
X142.089 Y36.119
X142.063 Y36.138
X142.032 Y36.145
X142.001 Y36.14
X141.974 Y36.123
X141.956 Y36.097
X141.95 Y36.065
Y24.834 Z-6.258
X142.588 Z-6.28
Y25.393 Z-6.3
Y44.834
X141.95
Y24.834
X142.588
Y25.393
Y25.471 Z-6.292
Y25.546 Z-6.27
Y25.615 Z-6.233
Y25.676 Z-6.183
Y25.725 Z-6.122
Y25.762 Z-6.053
Y25.785 Z-5.978
Y25.793 Z-5.9
G0 Z5.
Y68.296
G1 Z-3.917 F380.
Y68.304 Z-3.994 F1500.
Y68.326 Z-4.069
Y68.363 Z-4.137
Y68.412 Z-4.198
Y68.471 Z-4.247
Y68.54 Z-4.285
Y68.614 Z-4.308
Y68.691 Z-4.317
Y70.834 Z-4.343
X141.95 Z-4.351
Y50.834 Z-4.597
X142.588 Z-4.605
Y70.834 Z-4.851
X141.95 Z-4.859
Y50.834 Z-5.105
X142.588 Z-5.113
Y70.755 Z-5.358
Y70.834
X141.95
Y50.834
X142.588
Y70.755
X142.581 Y70.772
X142.566 Y70.781
X142.548 Y70.778
X142.537 Y70.764
X142.508 Y70.676
X142.277 Y56.523
X142.282 Y56.489
X142.382 Y56.176
X142.4 Y56.143
X142.427 Y56.118
X142.462 Y56.105
X142.499 Y56.104
X142.534 Y56.116
X142.562 Y56.139
X142.581 Y56.171
X142.588 Y56.208
Y70.755 Z-5.866
Y70.834
X141.95
Y50.834
X142.588
Y70.755
X142.581 Y70.772
X142.566 Y70.781
X142.548 Y70.778
X142.537 Y70.764
X142.507 Y70.676
X142.278 Y58.642
X142.283 Y58.608
X142.382 Y58.295
X142.4 Y58.262
X142.427 Y58.238
X142.462 Y58.224
X142.499 Y58.223
X142.534 Y58.235
X142.562 Y58.258
X142.581 Y58.29
X142.588 Y58.327
Y70.755 Z-6.3
Y70.834
X141.95
Y50.834
X142.588
Y70.755
Y70.834 Z-6.292
X142.513 Z-6.269
X142.444 Z-6.232
X142.383 Z-6.183
X142.334 Z-6.122
X142.297 Z-6.053
X142.274 Z-5.978
X142.267 Z-5.9
G0 Z5.
X140.46 Y93.798
G1 Z-3.917 F380.
X140.47 Y93.786 Z-4.027 F1500.
X140.486 Y93.766 Z-4.095
X140.511 Y93.736 Z-4.157
X140.542 Y93.698 Z-4.211
X140.579 Y93.653 Z-4.256
X140.62 Y93.602 Z-4.289
X140.664 Y93.548 Z-4.309
X140.711 Y93.492 Z-4.317
X140.946 Y93.204 Z-4.32
X140.99 Y93.145 Z-4.321
X141.031 Y93.083 Z-4.322
X141.128 Y92.92 Z-4.324
X141.151 Y92.878 Z-4.325
X141.464 Y92.291 Z-4.331
X141.512 Y92.188 Z-4.333
X141.569 Y92.044 Z-4.334
X141.596 Y91.966 Z-4.335
X141.81 Y91.258 Z-4.343
X141.828 Y91.191 Z-4.344
X141.841 Y91.122
X141.87 Y90.934 Z-4.346
X141.878 Y90.871 Z-4.347
X141.946 Y90.12 Z-4.355
X141.95 Y90.03 Z-4.356
Y76.834 Z-4.494
X142.588 Z-4.501
Y90.018 Z-4.639
X142.547 Y90.717 Z-4.646
X142.342 Y91.755 Z-4.657
X141.973 Y92.722 Z-4.668
X141.459 Y93.585 Z-4.678
X140.78 Y94.38 Z-4.689
X139.846 Y95.144 Z-4.702
X138.809 Y95.697 Z-4.714
X138.763 Y95.714 Z-4.715
X137.631 Y96.053 Z-4.727
X136.337 Y96.18 Z-4.741
X135.155 Z-4.753
Y95.538 Z-4.76
X136.545 Y95.536 Z-4.774
X136.646 Y95.53 Z-4.775
X137.428 Y95.449 Z-4.784
X137.52 Y95.435 Z-4.785
X137.611 Y95.413 Z-4.786
X138.414 Y95.173 Z-4.794
X138.479 Y95.151 Z-4.795
X138.543 Y95.125 Z-4.796
X138.697 Y95.055 Z-4.798
X138.759 Y95.024
X139.43 Y94.659 Z-4.806
X139.509 Y94.611 Z-4.807
X139.583 Y94.557 Z-4.808
X140.21 Y94.048 Z-4.817
X140.295 Y93.97 Z-4.818
X140.411 Y93.851 Z-4.82
X140.47 Y93.786 Z-4.821
X140.946 Y93.204 Z-4.828
X140.99 Y93.145 Z-4.829
X141.031 Y93.083 Z-4.83
X141.128 Y92.92 Z-4.832
X141.151 Y92.878 Z-4.833
X141.464 Y92.291 Z-4.839
X141.512 Y92.188 Z-4.841
X141.569 Y92.044 Z-4.842
X141.596 Y91.966 Z-4.843
X141.81 Y91.258 Z-4.851
X141.828 Y91.191 Z-4.852
X141.841 Y91.122
X141.87 Y90.934 Z-4.854
X141.878 Y90.871 Z-4.855
X141.946 Y90.12 Z-4.863
X141.95 Y90.03 Z-4.864
Y76.834 Z-5.002
X142.588 Z-5.009
Y90.018 Z-5.147
X142.547 Y90.717 Z-5.154
X142.342 Y91.755 Z-5.165
X141.973 Y92.722 Z-5.176
X141.459 Y93.585 Z-5.186
X140.78 Y94.38 Z-5.197
X139.846 Y95.144 Z-5.21
X138.809 Y95.697 Z-5.222
X138.763 Y95.714 Z-5.223
X137.631 Y96.053 Z-5.235
X136.337 Y96.18 Z-5.249
X135.155 Z-5.261
Y95.538 Z-5.268
X136.545 Y95.536 Z-5.282
X136.646 Y95.53 Z-5.283
X137.428 Y95.449 Z-5.292
X137.52 Y95.435 Z-5.293
X137.611 Y95.413 Z-5.294
X138.414 Y95.173 Z-5.302
X138.479 Y95.151 Z-5.303
X138.543 Y95.125 Z-5.304
X138.697 Y95.055 Z-5.306
X138.759 Y95.024
X139.43 Y94.659 Z-5.314
X139.509 Y94.611 Z-5.315
X139.583 Y94.557 Z-5.316
X140.21 Y94.048 Z-5.325
X140.295 Y93.97 Z-5.326
X140.411 Y93.851 Z-5.328
X140.47 Y93.786 Z-5.329
X140.946 Y93.204 Z-5.336
X140.99 Y93.145 Z-5.337
X141.031 Y93.083 Z-5.338
X141.128 Y92.92 Z-5.34
X141.151 Y92.878 Z-5.341
X141.464 Y92.291 Z-5.347
X141.512 Y92.188 Z-5.349
X141.569 Y92.044 Z-5.35
X141.596 Y91.966 Z-5.351
X141.785 Y91.341 Z-5.358
X141.81 Y91.258
X141.828 Y91.191
X141.841 Y91.122
X141.87 Y90.934
X141.878 Y90.871
X141.946 Y90.12
X141.95 Y90.03
Y76.834
X142.588
Y90.018
X142.547 Y90.717
X142.342 Y91.755
X141.973 Y92.722
X141.665 Y93.24
X141.459 Y93.585
X140.78 Y94.38
X139.846 Y95.144
X138.809 Y95.697
X138.763 Y95.714
X137.631 Y96.053
X136.337 Y96.18
X135.155
Y95.538
X136.545 Y95.536
X136.646 Y95.53
X137.428 Y95.449
X137.52 Y95.435
X137.611 Y95.413
X138.414 Y95.173
X138.479 Y95.151
X138.543 Y95.125
X138.697 Y95.055
X138.759 Y95.024
X139.43 Y94.659
X139.509 Y94.611
X139.583 Y94.557
X140.21 Y94.048
X140.295 Y93.97
X140.411 Y93.851
X140.47 Y93.786
X140.946 Y93.204
X140.99 Y93.145
X141.031 Y93.083
X141.128 Y92.92
X141.151 Y92.878
X141.464 Y92.291
X141.512 Y92.188
X141.569 Y92.044
X141.596 Y91.966
X141.785 Y91.341
X141.801 Y91.308
X141.828 Y91.284
X141.861 Y91.269
X141.898 Y91.267
X141.932 Y91.278
X141.961 Y91.299
X141.981 Y91.33
X141.99 Y91.365
X142.009 Y91.695
X142.004 Y91.735
X141.991 Y91.766
X141.975 Y91.794
X140.257 Y94.393
X140.233 Y94.424
X140.205 Y94.451
X140.182 Y94.477
X140.169 Y94.509
X140.168 Y94.543
X140.198 Y94.794
X140.197 Y94.828
X140.184 Y94.86
X140.161 Y94.886
X139.846 Y95.144 Z-5.372
X138.809 Y95.697 Z-5.413
X138.763 Y95.714 Z-5.415
X137.631 Y96.053 Z-5.456
X136.337 Y96.18 Z-5.502
X135.155 Z-5.543
Y95.538 Z-5.565
X136.545 Y95.536 Z-5.614
X136.646 Y95.53 Z-5.617
X137.428 Y95.449 Z-5.645
X137.52 Y95.435 Z-5.648
X137.611 Y95.413 Z-5.651
X138.414 Y95.173 Z-5.681
X138.479 Y95.151 Z-5.683
X138.543 Y95.125 Z-5.685
X138.697 Y95.055 Z-5.691
X138.759 Y95.024 Z-5.694
X139.43 Y94.659 Z-5.72
X139.509 Y94.611 Z-5.724
X139.583 Y94.557 Z-5.727
X140.21 Y94.048 Z-5.755
X140.295 Y93.97 Z-5.759
X140.411 Y93.851 Z-5.765
X140.47 Y93.786 Z-5.768
X140.946 Y93.204 Z-5.794
X140.99 Y93.145 Z-5.797
X141.031 Y93.083 Z-5.799
X141.128 Y92.92 Z-5.806
X141.151 Y92.878 Z-5.808
X141.464 Y92.291 Z-5.831
X141.512 Y92.188 Z-5.835
X141.569 Y92.044 Z-5.84
X141.596 Y91.966 Z-5.843
X141.785 Y91.341 Z-5.866
X141.81 Y91.258
X141.828 Y91.191
X141.841 Y91.122
X141.87 Y90.934
X141.878 Y90.871
X141.946 Y90.12
X141.95 Y90.03
Y76.834
X142.588
Y90.018
X142.547 Y90.717
X142.342 Y91.755
X141.973 Y92.722
X141.665 Y93.24
X141.459 Y93.585
X140.78 Y94.38
X139.846 Y95.144
X138.809 Y95.697
X138.763 Y95.714
X137.631 Y96.053
X136.337 Y96.18
X135.155
Y95.538
X136.545 Y95.536
X136.646 Y95.53
X137.428 Y95.449
X137.52 Y95.435
X137.611 Y95.413
X138.414 Y95.173
X138.479 Y95.151
X138.543 Y95.125
X138.697 Y95.055
X138.759 Y95.024
X139.43 Y94.659
X139.509 Y94.611
X139.583 Y94.557
X140.21 Y94.048
X140.295 Y93.97
X140.411 Y93.851
X140.47 Y93.786
X140.946 Y93.204
X140.99 Y93.145
X141.031 Y93.083
X141.128 Y92.92
X141.151 Y92.878
X141.464 Y92.291
X141.512 Y92.188
X141.569 Y92.044
X141.596 Y91.966
X141.785 Y91.341
X141.801 Y91.308
X141.828 Y91.284
X141.861 Y91.269
X141.898 Y91.267
X141.932 Y91.278
X141.961 Y91.299
X141.981 Y91.33
X141.99 Y91.365
X142.009 Y91.695
X142.004 Y91.735
G3 X140.706 Y94.026 R7.111
X138.503 Y95.469 R4.618
G1 X138.472 Y95.484
X138.448 Y95.509
X138.434 Y95.54
X138.366 Y95.783
X138.351 Y95.814
X138.327 Y95.839
X138.296 Y95.854
X137.631 Y96.053 Z-5.89
X136.337 Y96.18 Z-5.936
X135.155 Z-5.977
Y95.538 Z-5.999
X136.545 Y95.536 Z-6.048
X136.646 Y95.53 Z-6.051
X137.428 Y95.449 Z-6.079
X137.52 Y95.435 Z-6.082
X137.611 Y95.413 Z-6.085
X138.414 Y95.173 Z-6.115
X138.479 Y95.151 Z-6.117
X138.543 Y95.125 Z-6.119
X138.697 Y95.055 Z-6.125
X138.759 Y95.024 Z-6.128
X139.43 Y94.659 Z-6.154
X139.509 Y94.611 Z-6.158
X139.583 Y94.557 Z-6.161
X140.21 Y94.048 Z-6.189
X140.295 Y93.97 Z-6.193
X140.411 Y93.851 Z-6.199
X140.47 Y93.786 Z-6.202
X140.946 Y93.204 Z-6.228
X140.99 Y93.145 Z-6.231
X141.031 Y93.083 Z-6.233
X141.128 Y92.92 Z-6.24
X141.151 Y92.878 Z-6.242
X141.464 Y92.291 Z-6.265
X141.512 Y92.188 Z-6.269
X141.569 Y92.044 Z-6.274
X141.596 Y91.966 Z-6.277
X141.785 Y91.341 Z-6.3
X141.81 Y91.258
X141.828 Y91.191
X141.841 Y91.122
X141.87 Y90.934
X141.878 Y90.871
X141.946 Y90.12
X141.95 Y90.03
Y76.834
X142.588
Y90.018
X142.547 Y90.717
X142.342 Y91.755
X141.973 Y92.722
X141.665 Y93.24
X141.459 Y93.585
X140.78 Y94.38
X139.846 Y95.144
X138.809 Y95.697
X138.763 Y95.714
X137.631 Y96.053
X136.337 Y96.18
X135.155
Y95.538
X136.545 Y95.536
X136.646 Y95.53
X137.428 Y95.449
X137.52 Y95.435
X137.611 Y95.413
X138.414 Y95.173
X138.479 Y95.151
X138.543 Y95.125
X138.697 Y95.055
X138.759 Y95.024
X139.43 Y94.659
X139.509 Y94.611
X139.583 Y94.557
X140.21 Y94.048
X140.295 Y93.97
X140.411 Y93.851
X140.47 Y93.786
X140.946 Y93.204
X140.99 Y93.145
X141.031 Y93.083
X141.128 Y92.92
X141.151 Y92.878
X141.464 Y92.291
X141.512 Y92.188
X141.569 Y92.044
X141.596 Y91.966
X141.785 Y91.341
X141.798 Y91.299 Z-6.298
X141.81 Y91.258 Z-6.291
X141.829 Y91.188 Z-6.267
X141.841 Y91.122 Z-6.23
X141.85 Y91.063 Z-6.18
X141.858 Y91.015 Z-6.12
X141.863 Y90.98 Z-6.051
X141.867 Y90.958 Z-5.977
X141.868 Y90.95 Z-5.9
G0 Z5.
X81.498 Y60.912
Z0.933
G1 X81.495 Y60.893 Z0.812 F1500.
X81.486 Y60.84 Z0.703
X81.475 Y60.755 Z0.615
X81.466 Y60.648 Z0.556
X81.464 Y60.528 Z0.533
X81.474 Y60.355 Z0.527
X81.499 Y60.183 Z0.521
X81.54 Y60.015 Z0.515
X81.597 Y59.851 Z0.509
X81.668 Y59.693 Z0.503
X81.753 Y59.542 Z0.497
X81.852 Y59.4 Z0.491
X81.963 Y59.267 Z0.485
X82.086 Y59.144 Z0.479
X82.219 Y59.034 Z0.473
X82.362 Y58.936 Z0.467
X82.513 Y58.851 Z0.461
X82.672 Y58.781 Z0.455
X82.836 Y58.725 Z0.449
X83.004 Y58.685 Z0.443
X83.176 Y58.66 Z0.437
X83.349 Y58.65 Z0.43
X83.522 Y58.657 Z0.424
X83.694 Y58.679 Z0.418
X83.863 Y58.717 Z0.412
X84.028 Y58.77 Z0.406
X84.188 Y58.838 Z0.4
X84.34 Y58.921 Z0.394
X84.485 Y59.016 Z0.388
X84.62 Y59.125 Z0.382
X84.744 Y59.245 Z0.376
X84.858 Y59.377 Z0.37
X84.958 Y59.518 Z0.364
X85.046 Y59.667 Z0.358
X85.119 Y59.824 Z0.352
X85.178 Y59.987 Z0.346
X85.222 Y60.155 Z0.34
X85.25 Y60.326 Z0.334
X85.263 Y60.499 Z0.328
X85.26 Y60.672 Z0.321
X85.241 Y60.845 Z0.315
X85.206 Y61.014 Z0.309
X85.156 Y61.18 Z0.303
X85.091 Y61.341 Z0.297
X85.012 Y61.495 Z0.291
X84.919 Y61.642 Z0.285
X84.813 Y61.779 Z0.279
X84.695 Y61.906 Z0.273
X84.566 Y62.021 Z0.267
X84.427 Y62.125 Z0.261
X84.279 Y62.215 Z0.255
X84.124 Y62.292 Z0.249
X83.962 Y62.354 Z0.243
X83.795 Y62.401 Z0.237
X83.624 Y62.432 Z0.231
X83.452 Y62.448 Z0.225
X83.279 Z0.219
X83.106 Y62.433 Z0.213
X82.935 Y62.402 Z0.206
X82.769 Y62.355 Z0.2
X82.607 Y62.293 Z0.194
X82.451 Y62.217 Z0.188
X82.303 Y62.127 Z0.182
X82.164 Y62.024 Z0.176
X82.034 Y61.908 Z0.17
X81.916 Y61.781 Z0.164
X81.81 Y61.644 Z0.158
X81.717 Y61.498 Z0.152
X81.637 Y61.344 Z0.146
X81.572 Y61.184 Z0.14
X81.522 Y61.018 Z0.134
X81.487 Y60.848 Z0.128
X81.468 Y60.676 Z0.122
X81.464 Y60.502 Z0.116
X81.476 Y60.33 Z0.11
X81.504 Y60.158 Z0.104
X81.548 Y59.991 Z0.097
X81.606 Y59.828 Z0.091
X81.68 Y59.67 Z0.085
X81.767 Y59.521 Z0.079
X81.867 Y59.379 Z0.073
X81.98 Y59.248 Z0.067
X82.105 Y59.127 Z0.061
X82.239 Y59.019 Z0.055
X82.384 Y58.922 Z0.049
X82.536 Y58.84 Z0.043
X82.695 Y58.772 Z0.037
X82.86 Y58.718 Z0.031
X83.029 Y58.68 Z0.025
X83.201 Y58.657 Z0.019
X83.374 Y58.65 Z0.013
X83.548 Y58.659 Z0.007
X83.719 Y58.684 Z0.001
X83.888 Y58.724 Z-0.005
X84.052 Y58.78 Z-0.012
X84.21 Y58.85 Z-0.018
X84.362 Y58.934 Z-0.024
X84.505 Y59.032 Z-0.03
X84.639 Y59.142 Z-0.036
X84.762 Y59.264 Z-0.042
X84.873 Y59.397 Z-0.048
X84.972 Y59.539 Z-0.054
X85.057 Y59.69 Z-0.06
X85.129 Y59.848 Z-0.066
X85.185 Y60.012 Z-0.072
X85.227 Y60.18 Z-0.078
X85.253 Y60.351 Z-0.084
X85.263 Y60.524 Z-0.09
X85.258 Y60.698 Z-0.096
X85.236 Y60.87 Z-0.102
X85.2 Y61.039 Z-0.108
X85.147 Y61.204 Z-0.114
X85.08 Y61.364 Z-0.121
X84.999 Y61.517 Z-0.127
X84.904 Y61.662 Z-0.133
X84.797 Y61.798 Z-0.139
X84.677 Y61.923 Z-0.145
X84.546 Y62.037 Z-0.151
X84.406 Y62.139 Z-0.157
X84.257 Y62.227 Z-0.163
X84.1 Y62.302 Z-0.169
X83.938 Y62.362 Z-0.175
X83.77 Y62.406 Z-0.181
X83.599 Y62.436 Z-0.187
X83.427 Y62.449 Z-0.193
X83.253 Y62.447 Z-0.199
X83.081 Y62.429 Z-0.205
X82.911 Y62.396 Z-0.211
X82.745 Y62.347 Z-0.217
X82.583 Y62.283 Z-0.223
X82.429 Y62.205 Z-0.229
X82.282 Y62.113 Z-0.236
X82.144 Y62.007 Z-0.242
X82.016 Y61.89 Z-0.248
X81.9 Y61.762 Z-0.254
X81.796 Y61.624 Z-0.26
X81.704 Y61.476 Z-0.266
X81.627 Y61.321 Z-0.272
X81.564 Y61.16 Z-0.278
X81.516 Y60.993 Z-0.284
X81.483 Y60.823 Z-0.29
X81.466 Y60.65 Z-0.296
X81.465 Y60.477 Z-0.302
X81.479 Y60.304 Z-0.308
X81.51 Y60.134 Z-0.314
X81.555 Y59.967 Z-0.32
X81.616 Y59.804 Z-0.326
X81.691 Y59.648 Z-0.332
X81.781 Y59.499 Z-0.338
X81.883 Y59.36 Z-0.345
X81.998 Y59.23 Z-0.351
X82.124 Y59.111 Z-0.357
X82.26 Y59.004 Z-0.363
X82.406 Y58.91 Z-0.369
X82.559 Y58.829 Z-0.375
X82.719 Y58.763 Z-0.381
X82.885 Y58.712 Z-0.387
X83.054 Y58.676 Z-0.393
X83.227 Y58.655 Z-0.399
X83.4 Y58.651 Z-0.405
X83.573 Y58.662 Z-0.411
X83.744 Y58.689 Z-0.417
X83.912 Y58.731 Z-0.423
X84.075 Y58.789 Z-0.429
X84.233 Y58.861 Z-0.435
X84.383 Y58.947 Z-0.441
X84.525 Y59.047 Z-0.447
X84.657 Y59.159 Z-0.454
X84.779 Y59.283 Z-0.46
X84.888 Y59.417 Z-0.466
X84.985 Y59.561 Z-0.472
X85.069 Y59.713 Z-0.478
X85.138 Y59.871 Z-0.484
X85.193 Y60.036 Z-0.49
X85.232 Y60.205 Z-0.496
X85.255 Y60.377 Z-0.502
X85.263 Y60.55 Z-0.508
G3 X83.614 Y62.201 R1.65
X82.447 Y61.718 R1.65
X81.963 Y60.551 R1.65
X82.179 Y59.247 R4.037
X82.638 Y59.022 R0.362
X82.843 Y59.2 R0.362
G2 X83.083 Y59.661 R26.404
X83.361 Y60.101 R3.541
G3 X83.352 Y61.013 R0.757
G2 X83.076 Y61.444 R2.958
X82.842 Y61.899 R30.54
G3 X82.358 Y62.059 R0.36
X82.179 Y61.853 R0.36
X81.963 Y60.551 R4.037
G2 X81.32 Y59.231 R1.679
G3 X81.062 Y57.785 R1.101
G1 X81.504 Y57.07
X82.365 Y56.187
X83.417 Y55.504
X83.73 Y55.387
X83.731 Y56.363
X83.734 Y56.439
X83.742 Y56.515
X83.898 Y57.517
X83.912 Y57.591
X83.932 Y57.664
X83.989 Y57.844
X84.017 Y57.922
X84.051 Y57.997
X84.5 Y58.88
X84.563 Y58.987
X84.641 Y59.102
X84.69 Y59.169
X84.745 Y59.232
X84.959 Y59.456
X84.979 Y59.476
X85.517 Y60.009
X85.573 Y60.061
X85.634 Y60.108
X85.759 Y60.199
X85.823 Y60.242
X85.89 Y60.28
X86.417 Y60.55
X85.904 Y60.812
X85.847 Y60.843
X85.792 Y60.878
X85.68 Y60.956
X85.614 Y61.005
X85.552 Y61.06
X85.275 Y61.328
X85.262 Y61.341
X84.815 Y61.789
X84.741 Y61.872
X84.647 Y61.991
X84.593 Y62.065
X84.547 Y62.143
X84.343 Y62.526
X84.332 Y62.546
X84.047 Y63.114
X84.012 Y63.192
X83.983 Y63.272
X83.927 Y63.458
X83.908 Y63.527
X83.895 Y63.597
X83.742 Y64.596
X83.733 Y64.671
X83.73 Y64.747
X83.729 Y65.713
X83.417 Y65.596
X82.365 Y64.913
X82.341 Y64.891
X81.506 Y64.033
X80.838 Y62.948
X80.438 Y61.775
X80.303 Y60.555
X80.439 Y59.319
X80.843 Y58.139
X81.062 Y57.785
G3 X81.309 Y57.705 R0.2
G1 X83.67 Y58.679
X83.707 Y58.69
X83.875 Y58.732 Z-0.514
X84.038 Y58.79 Z-0.52
X84.196 Y58.861 Z-0.526
X84.346 Y58.947 Z-0.532
X84.488 Y59.046 Z-0.538
X84.62 Y59.158 Z-0.544
X84.742 Y59.281 Z-0.55
X84.852 Y59.415 Z-0.556
X84.949 Y59.558 Z-0.562
X85.033 Y59.71 Z-0.568
X85.103 Y59.868 Z-0.575
X85.157 Y60.032 Z-0.581
X85.197 Y60.201 Z-0.587
X85.222 Y60.372 Z-0.593
X85.23 Y60.545 Z-0.599
X85.223 Y60.718 Z-0.605
X85.2 Y60.89 Z-0.611
X85.162 Y61.058 Z-0.617
X85.108 Y61.223 Z-0.623
X85.04 Y61.382 Z-0.629
X84.957 Y61.534 Z-0.635
X84.861 Y61.678 Z-0.641
X84.752 Y61.813 Z-0.647
X84.631 Y61.937 Z-0.653
X84.5 Y62.05 Z-0.659
X84.359 Y62.15 Z-0.665
X84.209 Y62.237 Z-0.671
X84.052 Y62.31 Z-0.677
X83.889 Y62.369 Z-0.683
X83.722 Y62.412 Z-0.689
X83.551 Y62.44 Z-0.695
X83.378 Y62.452 Z-0.702
X83.205 Y62.449 Z-0.708
X83.033 Y62.429 Z-0.714
X82.863 Y62.394 Z-0.72
X82.698 Y62.344 Z-0.726
X82.537 Y62.279 Z-0.732
X82.383 Y62.2 Z-0.738
X82.237 Y62.107 Z-0.744
X82.1 Y62.001 Z-0.75
X81.974 Y61.883 Z-0.756
X81.858 Y61.754 Z-0.762
X81.755 Y61.615 Z-0.768
X81.665 Y61.467 Z-0.774
X81.588 Y61.312 Z-0.78
X81.527 Y61.15 Z-0.786
X81.48 Y60.984 Z-0.792
X81.448 Y60.813 Z-0.798
X81.432 Y60.641 Z-0.804
Y60.468 Z-0.81
X81.448 Y60.295 Z-0.816
X81.479 Y60.125 Z-0.822
X81.525 Y59.958 Z-0.829
X81.587 Y59.797 Z-0.835
X81.663 Y59.641 Z-0.841
X81.753 Y59.493 Z-0.847
X81.856 Y59.354 Z-0.853
X81.971 Y59.225 Z-0.859
X82.098 Y59.107 Z-0.865
X82.234 Y59. Z-0.871
X82.38 Y58.907 Z-0.877
X82.534 Y58.827 Z-0.883
X82.694 Y58.762 Z-0.889
X82.86 Y58.712 Z-0.895
X83.029 Y58.677 Z-0.901
X83.201 Y58.657 Z-0.907
X83.374 Y58.653 Z-0.913
X83.547 Y58.665 Z-0.919
X83.718 Y58.693 Z-0.925
X83.886 Y58.736 Z-0.931
X84.049 Y58.794 Z-0.937
X84.206 Y58.867 Z-0.943
X84.356 Y58.953 Z-0.949
X84.497 Y59.053 Z-0.956
X84.629 Y59.166 Z-0.962
X84.75 Y59.29 Z-0.968
X84.859 Y59.424 Z-0.974
X84.955 Y59.568 Z-0.98
X85.038 Y59.72 Z-0.986
X85.107 Y59.879 Z-0.992
X85.161 Y60.043 Z-0.998
X85.199 Y60.212 Z-1.004
X85.223 Y60.384 Z-1.01
X85.23 Y60.557 Z-1.016
G3 X83.596 Y62.185 R1.632
X82.443 Y61.706 R1.632
X81.967 Y60.551 R1.632
X82.18 Y59.266 R4.03
X82.638 Y59.04 R0.361
X82.844 Y59.218 R0.361
G2 X83.083 Y59.671 R19.01
X83.357 Y60.105 R3.968
G3 Y60.995 R0.757
G2 X83.084 Y61.428 R3.847
X82.847 Y61.882 R20.719
G3 X82.359 Y62.04 R0.362
X82.181 Y61.836 R0.362
X81.967 Y60.551 R3.909
G2 X81.331 Y59.238 R1.667
G3 X81.073 Y57.803 R1.099
G1 X81.5 Y57.103
X82.351 Y56.223
X83.372 Y55.548
X83.401 Y55.53
X83.712 Y55.413
X83.713 Y56.363
X83.716 Y56.439
X83.725 Y56.515
X83.88 Y57.516
X83.904 Y57.63
X83.939 Y57.755
X83.961 Y57.824
X83.987 Y57.891
X84.053 Y58.04
X84.078 Y58.092
X84.481 Y58.882
X84.512 Y58.938
X84.546 Y58.992
X84.644 Y59.134
X84.699 Y59.208
X84.762 Y59.277
X85.513 Y60.029
X85.576 Y60.087
X85.644 Y60.139
X85.769 Y60.227
X85.829 Y60.266
X85.891 Y60.301
X86.378 Y60.55
X85.898 Y60.795
X85.842 Y60.826
X85.787 Y60.861
X85.669 Y60.942
X85.602 Y60.992
X85.54 Y61.048
X85.275 Y61.303
X85.258 Y61.32
X84.757 Y61.828
X84.702 Y61.888
X84.652 Y61.953
X84.57 Y62.069
X84.531 Y62.13
X84.496 Y62.193
X84.031 Y63.105
X83.995 Y63.186
X83.965 Y63.27
X83.909 Y63.458
X83.891 Y63.526
X83.878 Y63.595
X83.724 Y64.596
X83.715 Y64.671
X83.712 Y64.747
Y65.685
X83.415 Y65.575
X82.776 Y65.163
X82.355 Y64.882
X81.51 Y64.01
X81.475 Y63.958
X80.867 Y62.967
X80.455 Y61.773
X80.321 Y60.554
X80.451 Y59.366
X80.454 Y59.341
X80.852 Y58.165
X81.073 Y57.803
G3 X81.32 Y57.722 R0.2
G1 X83.632 Y58.676
X83.669 Y58.687
X83.837 Y58.728 Z-1.022
X84. Y58.785 Z-1.028
X84.158 Y58.857 Z-1.034
X84.309 Y58.942 Z-1.04
X84.451 Y59.041 Z-1.046
X84.583 Y59.152 Z-1.052
X84.705 Y59.275 Z-1.058
X84.815 Y59.409 Z-1.064
X84.913 Y59.552 Z-1.07
X84.997 Y59.703 Z-1.076
X85.067 Y59.862 Z-1.083
X85.122 Y60.026 Z-1.089
X85.162 Y60.194 Z-1.095
X85.187 Y60.366 Z-1.101
X85.196 Y60.538 Z-1.107
X85.189 Y60.711 Z-1.113
X85.166 Y60.883 Z-1.119
X85.128 Y61.052 Z-1.125
X85.075 Y61.217 Z-1.131
X85.007 Y61.376 Z-1.137
X84.925 Y61.528 Z-1.143
X84.829 Y61.672 Z-1.149
X84.72 Y61.807 Z-1.155
X84.6 Y61.932 Z-1.161
X84.469 Y62.045 Z-1.167
X84.328 Y62.145 Z-1.173
X84.178 Y62.232 Z-1.179
X84.021 Y62.306 Z-1.185
X83.859 Y62.365 Z-1.191
X83.691 Y62.408 Z-1.197
X83.52 Y62.436 Z-1.203
X83.348 Y62.449 Z-1.21
X83.174 Y62.446 Z-1.216
X83.002 Y62.427 Z-1.222
X82.833 Y62.392 Z-1.228
X82.667 Y62.343 Z-1.234
X82.506 Y62.278 Z-1.24
X82.352 Y62.199 Z-1.246
X82.206 Y62.106 Z-1.252
X82.069 Y62.001 Z-1.258
X81.942 Y61.883 Z-1.264
X81.826 Y61.754 Z-1.27
X81.723 Y61.615 Z-1.276
X81.632 Y61.468 Z-1.282
X81.556 Y61.312 Z-1.288
X81.493 Y61.151 Z-1.294
X81.446 Y60.984 Z-1.3
X81.414 Y60.814 Z-1.306
X81.398 Y60.642 Z-1.312
Y60.469 Z-1.318
X81.413 Y60.296 Z-1.324
X81.444 Y60.126 Z-1.33
X81.49 Y59.959 Z-1.337
X81.551 Y59.797 Z-1.343
X81.627 Y59.642 Z-1.349
X81.717 Y59.493 Z-1.355
X81.819 Y59.354 Z-1.361
X81.934 Y59.225 Z-1.367
X82.061 Y59.106 Z-1.373
X82.197 Y59. Z-1.379
X82.343 Y58.906 Z-1.385
X82.496 Y58.826 Z-1.391
X82.656 Y58.761 Z-1.397
X82.822 Y58.71 Z-1.403
X82.991 Y58.674 Z-1.409
X83.163 Y58.654 Z-1.415
X83.336 Y58.65 Z-1.421
X83.509 Y58.662 Z-1.427
X83.68 Y58.689 Z-1.433
X83.848 Y58.732 Z-1.439
X84.011 Y58.79 Z-1.445
X84.168 Y58.862 Z-1.451
X84.318 Y58.948 Z-1.457
X84.46 Y59.048 Z-1.464
X84.592 Y59.16 Z-1.47
X84.713 Y59.284 Z-1.476
X84.822 Y59.418 Z-1.482
X84.919 Y59.562 Z-1.488
X85.002 Y59.714 Z-1.494
X85.071 Y59.872 Z-1.5
X85.125 Y60.037 Z-1.506
X85.164 Y60.205 Z-1.512
X85.188 Y60.377 Z-1.518
X85.196 Y60.55 Z-1.524
G3 X83.582 Y62.163 R1.613
X81.969 Y60.55 R1.613
X82.181 Y59.275 R3.941
X82.639 Y59.05 R0.361
X82.844 Y59.229 R0.361
G2 X83.082 Y59.679 R12.961
X83.354 Y60.11 R4.467
G3 X83.349 Y60.997 R0.757
G2 X83.08 Y61.424 R3.637
X82.845 Y61.872 R22.512
G3 X82.359 Y62.03 R0.362
X82.181 Y61.825 R0.362
X81.969 Y60.55 R3.941
G2 X81.32 Y59.409 R1.327
G3 X80.866 Y58.177 R1.041
G1 X80.868 Y58.17
X81.523 Y57.103
X82.358 Y56.239
X82.403 Y56.206
X83.394 Y55.553
X83.694 Y55.439
X83.695 Y56.363
X83.698 Y56.439
X83.707 Y56.515
X83.862 Y57.516
X83.874 Y57.583
X83.891 Y57.648
X83.943 Y57.82
X83.972 Y57.905
X84.008 Y57.986
X84.459 Y58.878
X84.492 Y58.938
X84.529 Y58.996
X84.647 Y59.166
X84.702 Y59.239
X84.763 Y59.306
X85.51 Y60.049
X85.574 Y60.108
X85.643 Y60.16
X85.765 Y60.246
X85.823 Y60.284
X85.883 Y60.317
X86.34 Y60.55
X85.893 Y60.778
X85.836 Y60.809
X85.782 Y60.843
X85.657 Y60.929
X85.59 Y60.979
X85.527 Y61.035
X85.275 Y61.278
X85.26 Y61.293
X84.759 Y61.798
X84.709 Y61.853
X84.663 Y61.911
X84.572 Y62.035
X84.527 Y62.102
X84.488 Y62.172
X84.012 Y63.105
X83.975 Y63.189
X83.944 Y63.275
X83.889 Y63.463
X83.872 Y63.529
X83.86 Y63.595
X83.706 Y64.596
X83.697 Y64.671
X83.694 Y64.747
Y65.661
X83.41 Y65.553
X83.253 Y65.455
X82.369 Y64.871
X81.504 Y63.972
X80.869 Y62.931
X80.473 Y61.775
X80.338 Y60.554
X80.45 Y59.528
X80.475 Y59.32
X80.866 Y58.177
X80.878 Y58.164
X80.896 Y58.165
X80.986 Y58.214
X83.367 Y58.862
X83.397 Y58.864
X83.425 Y58.857
X83.449 Y58.84
X83.582 Y58.704
X83.604 Y58.688
X83.631 Y58.68
X83.658 Y58.681
X83.826 Y58.721 Z-1.53
X83.99 Y58.777 Z-1.536
X84.148 Y58.848 Z-1.542
X84.299 Y58.932 Z-1.548
X84.442 Y59.03 Z-1.554
X84.575 Y59.141 Z-1.56
X84.698 Y59.263 Z-1.566
X84.809 Y59.396 Z-1.572
X84.907 Y59.539 Z-1.578
X84.992 Y59.689 Z-1.584
X85.063 Y59.847 Z-1.591
X85.119 Y60.011 Z-1.597
X85.16 Y60.179 Z-1.603
X85.186 Y60.35 Z-1.609
X85.196 Y60.523 Z-1.615
X85.19 Y60.696 Z-1.621
X85.169 Y60.868 Z-1.627
X85.132 Y61.037 Z-1.633
X85.079 Y61.202 Z-1.639
X85.012 Y61.362 Z-1.645
X84.931 Y61.515 Z-1.651
X84.836 Y61.659 Z-1.657
X84.728 Y61.795 Z-1.663
X84.608 Y61.92 Z-1.669
X84.478 Y62.034 Z-1.675
X84.338 Y62.135 Z-1.681
X84.189 Y62.223 Z-1.687
X84.032 Y62.298 Z-1.693
X83.87 Y62.357 Z-1.699
X83.703 Y62.402 Z-1.705
X83.532 Y62.431 Z-1.711
X83.359 Y62.445 Z-1.718
X83.186 Y62.443 Z-1.724
X83.014 Y62.425 Z-1.73
X82.844 Y62.391 Z-1.736
X82.678 Y62.343 Z-1.742
X82.517 Y62.279 Z-1.748
X82.363 Y62.201 Z-1.754
X82.216 Y62.109 Z-1.76
X82.078 Y62.004 Z-1.766
X81.95 Y61.887 Z-1.772
X81.834 Y61.759 Z-1.778
X81.73 Y61.621 Z-1.784
X81.638 Y61.474 Z-1.79
X81.561 Y61.319 Z-1.796
X81.497 Y61.158 Z-1.802
X81.449 Y60.992 Z-1.808
X81.416 Y60.822 Z-1.814
X81.399 Y60.65 Z-1.82
X81.397 Y60.476 Z-1.826
X81.412 Y60.304 Z-1.832
X81.442 Y60.133 Z-1.838
X81.487 Y59.966 Z-1.845
X81.547 Y59.804 Z-1.851
X81.622 Y59.648 Z-1.857
X81.711 Y59.499 Z-1.863
X81.812 Y59.359 Z-1.869
X81.927 Y59.229 Z-1.875
X82.052 Y59.11 Z-1.881
X82.188 Y59.003 Z-1.887
X82.333 Y58.908 Z-1.893
X82.486 Y58.827 Z-1.899
X82.646 Y58.761 Z-1.905
X82.811 Y58.709 Z-1.911
X82.98 Y58.672 Z-1.917
X83.152 Y58.651 Z-1.923
X83.325 Y58.646 Z-1.929
X83.498 Y58.657 Z-1.935
X83.669 Y58.683 Z-1.941
X83.837 Y58.725 Z-1.947
X84.001 Y58.782 Z-1.953
X84.158 Y58.853 Z-1.959
X84.309 Y58.938 Z-1.965
X84.451 Y59.037 Z-1.972
X84.584 Y59.149 Z-1.978
X84.705 Y59.272 Z-1.984
X84.816 Y59.405 Z-1.99
X84.913 Y59.548 Z-1.996
X84.997 Y59.7 Z-2.002
X85.067 Y59.858 Z-2.008
X85.122 Y60.022 Z-2.014
X85.163 Y60.19 Z-2.02
X85.187 Y60.362 Z-2.026
X85.196 Y60.535 Z-2.032
G3 X83.593 Y62.157 R1.613
X81.97 Y60.554 R1.613
X82.061 Y59.685 R3.962
G1 X82.086 Y59.586
X82.116 Y59.488
X82.181 Y59.294
G3 X82.641 Y59.068 R0.362
X82.846 Y59.245 R0.362
G2 X83.073 Y59.68 R43.26
X83.336 Y60.093 R3.064
G3 X83.344 Y60.994 R0.757
G2 X83.078 Y61.416 R3.806
X82.846 Y61.858 R18.648
G3 X82.36 Y62.016 R0.361
X82.182 Y61.811 R0.361
X81.97 Y60.554 R3.962
G2 X81.322 Y59.431 R1.312
G3 X80.871 Y58.215 R1.026
G1 X80.882 Y58.182
X81.522 Y57.13
X82.363 Y56.258
X83.393 Y55.574
X83.677 Y55.465
Y56.363
X83.68 Y56.441
X83.69 Y56.519
X83.859 Y57.583
X83.879 Y57.678
X83.908 Y57.77
X83.972 Y57.946
X84.022 Y58.059
X84.478 Y58.947
X84.521 Y59.022
X84.569 Y59.092
X84.671 Y59.227
X84.715 Y59.281
X84.764 Y59.333
X85.491 Y60.056
X85.548 Y60.11
X85.61 Y60.158
X85.723 Y60.24
X85.787 Y60.282
X85.853 Y60.32
X86.302 Y60.549
X85.893 Y60.757
X85.79 Y60.817
X85.665 Y60.901
X85.594 Y60.953
X85.527 Y61.012
X85.255 Y61.274
X85.238 Y61.29
X84.742 Y61.791
X84.69 Y61.847
X84.643 Y61.907
X84.552 Y62.032
X84.509 Y62.098
X84.47 Y62.167
X83.993 Y63.106
X83.954 Y63.192
X83.924 Y63.281
X83.869 Y63.469
X83.854 Y63.531
X83.842 Y63.595
X83.688 Y64.596
X83.68 Y64.671
X83.677 Y64.747
X83.676 Y65.635
X83.398 Y65.528
X83.368 Y65.511
X82.383 Y64.858
X81.519 Y63.965
X80.885 Y62.926
X80.492 Y61.775
X80.356 Y60.554
X80.451 Y59.682
X80.489 Y59.335
