(NMJPLATE0PT0PT1_TOP_STEP1_4MM)
(T8  D=4. CR=0. - ZMIN=-17. - FLAT END MILL)
G0 G90 G94 G17
G21
G53 G0 Z0.

(FACE1)
M5
T8
M3 S16000
G55
M8
G0 X157.587 Y-0.245
Z15.
Z5.
G1 Z1.25 F380.
X157.58 Z1.076 F1500.
X157.557 Z0.903
X157.519 Z0.732
X157.467 Z0.566
X157.4 Z0.405
X157.319 Z0.25
X157.225 Z0.103
X157.119 Z-0.036
X157.001 Z-0.164
X156.873 Z-0.282
X156.734 Z-0.388
X156.587 Z-0.482
X156.432 Z-0.563
X156.271 Z-0.629
X156.105 Z-0.682
X155.934 Z-0.72
X155.762 Z-0.742
X155.587 Z-0.75
X155.41
X-3.01
G2 X-4.374 Y1.119 R1.364
X-3.01 Y2.483 R1.364
G1 X155.41
G3 X156.774 Y3.847 R1.364
X155.41 Y5.21 R1.364
G1 X-3.01
G2 X-4.374 Y6.574 R1.364
X-3.01 Y7.938 R1.364
G1 X155.41
G3 X156.774 Y9.302 R1.364
X155.41 Y10.665 R1.364
G1 X-3.01
G2 X-4.374 Y12.029 R1.364
X-3.01 Y13.393 R1.364
G1 X155.41
G3 X156.774 Y14.757 R1.364
X155.41 Y16.12 R1.364
G1 X-3.01
G2 X-4.374 Y17.484 R1.364
X-3.01 Y18.848 R1.364
G1 X155.41
G3 X156.774 Y20.212 R1.364
X155.41 Y21.575 R1.364
G1 X-3.01
G2 X-4.374 Y22.939 R1.364
X-3.01 Y24.303 R1.364
G1 X155.41
G3 X156.774 Y25.666 R1.364
X155.41 Y27.03 R1.364
G1 X-3.01
G2 X-4.374 Y28.394 R1.364
X-3.01 Y29.758 R1.364
G1 X155.41
G3 X156.774 Y31.121 R1.364
X155.41 Y32.485 R1.364
G1 X-3.01
G2 X-4.374 Y33.849 R1.364
X-3.01 Y35.213 R1.364
G1 X155.41
G3 X156.774 Y36.576 R1.364
X155.41 Y37.94 R1.364
G1 X-3.01
G2 X-4.374 Y39.304 R1.364
X-3.01 Y40.668 R1.364
G1 X155.41
G3 X156.774 Y42.031 R1.364
X155.41 Y43.395 R1.364
G1 X-3.01
G2 X-4.374 Y44.759 R1.364
X-3.01 Y46.123 R1.364
G1 X155.41
G3 X156.774 Y47.486 R1.364
X155.41 Y48.85 R1.364
G1 X-3.01
G2 X-4.374 Y50.214 R1.364
X-3.01 Y51.577 R1.364
G1 X155.41
G3 X156.774 Y52.941 R1.364
X155.41 Y54.305 R1.364
G1 X-3.01
G2 X-4.374 Y55.669 R1.364
X-3.01 Y57.032 R1.364
G1 X155.41
G3 X156.774 Y58.396 R1.364
X155.41 Y59.76 R1.364
G1 X-3.01
G2 X-4.374 Y61.124 R1.364
X-3.01 Y62.487 R1.364
G1 X155.41
G3 X156.774 Y63.851 R1.364
X155.41 Y65.215 R1.364
G1 X-3.01
G2 X-4.374 Y66.579 R1.364
X-3.01 Y67.942 R1.364
G1 X155.41
G3 X156.774 Y69.306 R1.364
X155.41 Y70.67 R1.364
G1 X-3.01
G2 X-4.374 Y72.034 R1.364
X-3.01 Y73.397 R1.364
G1 X155.41
G3 X156.774 Y74.761 R1.364
X155.41 Y76.125 R1.364
G1 X-3.01
G2 X-4.374 Y77.488 R1.364
X-3.01 Y78.852 R1.364
G1 X155.41
G3 X156.774 Y80.216 R1.364
X155.41 Y81.58 R1.364
G1 X-3.01
G2 X-4.374 Y82.943 R1.364
X-3.01 Y84.307 R1.364
G1 X155.41
G3 X156.774 Y85.671 R1.364
X155.41 Y87.035 R1.364
G1 X-3.01
G2 X-4.374 Y88.398 R1.364
X-3.01 Y89.762 R1.364
G1 X155.41
G3 X156.774 Y91.126 R1.364
X155.41 Y92.49 R1.364
G1 X-3.01
G2 X-4.374 Y93.853 R1.364
X-3.01 Y95.217 R1.364
G1 X155.41
G3 X156.774 Y96.581 R1.364
X155.41 Y97.945 R1.364
G1 X-3.01
G2 X-4.374 Y99.308 R1.364
X-3.01 Y100.672 R1.364
G1 X155.41
X155.584 Z-0.742
X155.757 Z-0.72
X155.928 Z-0.682
X156.094 Z-0.629
X156.255 Z-0.563
X156.41 Z-0.482
X156.557 Z-0.388
X156.696 Z-0.282
X156.824 Z-0.164
X156.942 Z-0.036
X157.048 Z0.103
X157.142 Z0.25
X157.223 Z0.405
X157.289 Z0.566
X157.342 Z0.732
X157.38 Z0.903
X157.402 Z1.076
X157.41 Z1.25
G0 Z5.
X157.587 Y-0.245
G1 Z0.25 F380.
X157.58 Z0.076 F1500.
X157.557 Z-0.097
X157.519 Z-0.268
X157.467 Z-0.434
X157.4 Z-0.595
X157.319 Z-0.75
X157.225 Z-0.897
X157.119 Z-1.036
X157.001 Z-1.164
X156.873 Z-1.282
X156.734 Z-1.388
X156.587 Z-1.482
X156.432 Z-1.563
X156.271 Z-1.629
X156.105 Z-1.682
X155.934 Z-1.72
X155.762 Z-1.742
X155.587 Z-1.75
X155.41
X-3.01
G2 X-4.374 Y1.119 R1.364
X-3.01 Y2.483 R1.364
G1 X155.41
G3 X156.774 Y3.847 R1.364
X155.41 Y5.21 R1.364
G1 X-3.01
G2 X-4.374 Y6.574 R1.364
X-3.01 Y7.938 R1.364
G1 X155.41
G3 X156.774 Y9.302 R1.364
X155.41 Y10.665 R1.364
G1 X-3.01
G2 X-4.374 Y12.029 R1.364
X-3.01 Y13.393 R1.364
G1 X155.41
G3 X156.774 Y14.757 R1.364
X155.41 Y16.12 R1.364
G1 X-3.01
G2 X-4.374 Y17.484 R1.364
X-3.01 Y18.848 R1.364
G1 X155.41
G3 X156.774 Y20.212 R1.364
X155.41 Y21.575 R1.364
G1 X-3.01
G2 X-4.374 Y22.939 R1.364
X-3.01 Y24.303 R1.364
G1 X155.41
G3 X156.774 Y25.666 R1.364
X155.41 Y27.03 R1.364
G1 X-3.01
G2 X-4.374 Y28.394 R1.364
X-3.01 Y29.758 R1.364
G1 X155.41
G3 X156.774 Y31.121 R1.364
X155.41 Y32.485 R1.364
G1 X-3.01
G2 X-4.374 Y33.849 R1.364
X-3.01 Y35.213 R1.364
G1 X155.41
G3 X156.774 Y36.576 R1.364
X155.41 Y37.94 R1.364
G1 X-3.01
G2 X-4.374 Y39.304 R1.364
X-3.01 Y40.668 R1.364
G1 X155.41
G3 X156.774 Y42.031 R1.364
X155.41 Y43.395 R1.364
G1 X-3.01
G2 X-4.374 Y44.759 R1.364
X-3.01 Y46.123 R1.364
G1 X155.41
G3 X156.774 Y47.486 R1.364
X155.41 Y48.85 R1.364
G1 X-3.01
G2 X-4.374 Y50.214 R1.364
X-3.01 Y51.577 R1.364
G1 X155.41
G3 X156.774 Y52.941 R1.364
X155.41 Y54.305 R1.364
G1 X-3.01
G2 X-4.374 Y55.669 R1.364
X-3.01 Y57.032 R1.364
G1 X155.41
G3 X156.774 Y58.396 R1.364
X155.41 Y59.76 R1.364
G1 X-3.01
G2 X-4.374 Y61.124 R1.364
X-3.01 Y62.487 R1.364
G1 X155.41
G3 X156.774 Y63.851 R1.364
X155.41 Y65.215 R1.364
G1 X-3.01
G2 X-4.374 Y66.579 R1.364
X-3.01 Y67.942 R1.364
G1 X155.41
G3 X156.774 Y69.306 R1.364
X155.41 Y70.67 R1.364
G1 X-3.01
G2 X-4.374 Y72.034 R1.364
X-3.01 Y73.397 R1.364
G1 X155.41
G3 X156.774 Y74.761 R1.364
X155.41 Y76.125 R1.364
G1 X-3.01
G2 X-4.374 Y77.488 R1.364
X-3.01 Y78.852 R1.364
G1 X155.41
G3 X156.774 Y80.216 R1.364
X155.41 Y81.58 R1.364
G1 X-3.01
G2 X-4.374 Y82.943 R1.364
X-3.01 Y84.307 R1.364
G1 X155.41
G3 X156.774 Y85.671 R1.364
X155.41 Y87.035 R1.364
G1 X-3.01
G2 X-4.374 Y88.398 R1.364
X-3.01 Y89.762 R1.364
G1 X155.41
G3 X156.774 Y91.126 R1.364
X155.41 Y92.49 R1.364
G1 X-3.01
G2 X-4.374 Y93.853 R1.364
X-3.01 Y95.217 R1.364
G1 X155.41
G3 X156.774 Y96.581 R1.364
X155.41 Y97.945 R1.364
G1 X-3.01
G2 X-4.374 Y99.308 R1.364
X-3.01 Y100.672 R1.364
G1 X155.41
X155.584 Z-1.742
X155.757 Z-1.72
X155.928 Z-1.682
X156.094 Z-1.629
X156.255 Z-1.563
X156.41 Z-1.482
X156.557 Z-1.388
X156.696 Z-1.282
X156.824 Z-1.164
X156.942 Z-1.036
X157.048 Z-0.897
X157.142 Z-0.75
X157.223 Z-0.595
X157.289 Z-0.434
X157.342 Z-0.268
X157.38 Z-0.097
X157.402 Z0.076
X157.41 Z0.25
G0 Z5.
X157.587 Y-0.245
G1 Z-0.75 F380.
X157.58 Z-0.924 F1500.
X157.557 Z-1.097
X157.519 Z-1.268
X157.467 Z-1.434
X157.4 Z-1.595
X157.319 Z-1.75
X157.225 Z-1.897
X157.119 Z-2.036
X157.001 Z-2.164
X156.873 Z-2.282
X156.734 Z-2.388
X156.587 Z-2.482
X156.432 Z-2.563
X156.271 Z-2.629
X156.105 Z-2.682
X155.934 Z-2.72
X155.762 Z-2.742
X155.587 Z-2.75
X155.41
X-3.01
G2 X-4.374 Y1.119 R1.364
X-3.01 Y2.483 R1.364
G1 X155.41
G3 X156.774 Y3.847 R1.364
X155.41 Y5.21 R1.364
G1 X-3.01
G2 X-4.374 Y6.574 R1.364
X-3.01 Y7.938 R1.364
G1 X155.41
G3 X156.774 Y9.302 R1.364
X155.41 Y10.665 R1.364
G1 X-3.01
G2 X-4.374 Y12.029 R1.364
X-3.01 Y13.393 R1.364
G1 X155.41
G3 X156.774 Y14.757 R1.364
X155.41 Y16.12 R1.364
G1 X-3.01
G2 X-4.374 Y17.484 R1.364
X-3.01 Y18.848 R1.364
G1 X155.41
G3 X156.774 Y20.212 R1.364
X155.41 Y21.575 R1.364
G1 X-3.01
G2 X-4.374 Y22.939 R1.364
X-3.01 Y24.303 R1.364
G1 X155.41
G3 X156.774 Y25.666 R1.364
X155.41 Y27.03 R1.364
G1 X-3.01
G2 X-4.374 Y28.394 R1.364
X-3.01 Y29.758 R1.364
G1 X155.41
G3 X156.774 Y31.121 R1.364
X155.41 Y32.485 R1.364
G1 X-3.01
G2 X-4.374 Y33.849 R1.364
X-3.01 Y35.213 R1.364
G1 X155.41
G3 X156.774 Y36.576 R1.364
X155.41 Y37.94 R1.364
G1 X-3.01
G2 X-4.374 Y39.304 R1.364
X-3.01 Y40.668 R1.364
G1 X155.41
G3 X156.774 Y42.031 R1.364
X155.41 Y43.395 R1.364
G1 X-3.01
G2 X-4.374 Y44.759 R1.364
X-3.01 Y46.123 R1.364
G1 X155.41
G3 X156.774 Y47.486 R1.364
X155.41 Y48.85 R1.364
G1 X-3.01
G2 X-4.374 Y50.214 R1.364
X-3.01 Y51.577 R1.364
G1 X155.41
G3 X156.774 Y52.941 R1.364
X155.41 Y54.305 R1.364
G1 X-3.01
G2 X-4.374 Y55.669 R1.364
X-3.01 Y57.032 R1.364
G1 X155.41
G3 X156.774 Y58.396 R1.364
X155.41 Y59.76 R1.364
G1 X-3.01
G2 X-4.374 Y61.124 R1.364
X-3.01 Y62.487 R1.364
G1 X155.41
G3 X156.774 Y63.851 R1.364
X155.41 Y65.215 R1.364
G1 X-3.01
G2 X-4.374 Y66.579 R1.364
X-3.01 Y67.942 R1.364
G1 X155.41
G3 X156.774 Y69.306 R1.364
X155.41 Y70.67 R1.364
G1 X-3.01
G2 X-4.374 Y72.034 R1.364
X-3.01 Y73.397 R1.364
G1 X155.41
G3 X156.774 Y74.761 R1.364
X155.41 Y76.125 R1.364
G1 X-3.01
G2 X-4.374 Y77.488 R1.364
X-3.01 Y78.852 R1.364
G1 X155.41
G3 X156.774 Y80.216 R1.364
X155.41 Y81.58 R1.364
G1 X-3.01
G2 X-4.374 Y82.943 R1.364
X-3.01 Y84.307 R1.364
G1 X155.41
G3 X156.774 Y85.671 R1.364
X155.41 Y87.035 R1.364
G1 X-3.01
G2 X-4.374 Y88.398 R1.364
X-3.01 Y89.762 R1.364
G1 X155.41
G3 X156.774 Y91.126 R1.364
X155.41 Y92.49 R1.364
G1 X-3.01
G2 X-4.374 Y93.853 R1.364
X-3.01 Y95.217 R1.364
G1 X155.41
G3 X156.774 Y96.581 R1.364
X155.41 Y97.945 R1.364
G1 X-3.01
G2 X-4.374 Y99.308 R1.364
X-3.01 Y100.672 R1.364
G1 X155.41
X155.584 Z-2.742
X155.757 Z-2.72
X155.928 Z-2.682
X156.094 Z-2.629
X156.255 Z-2.563
X156.41 Z-2.482
X156.557 Z-2.388
X156.696 Z-2.282
X156.824 Z-2.164
X156.942 Z-2.036
X157.048 Z-1.897
X157.142 Z-1.75
X157.223 Z-1.595
X157.289 Z-1.434
X157.342 Z-1.268
X157.38 Z-1.097
X157.402 Z-0.924
X157.41 Z-0.75
G0 Z5.
X157.587 Y-0.245
G1 Z-1.75 F380.
X157.58 Z-1.924 F1500.
X157.557 Z-2.097
X157.519 Z-2.268
X157.467 Z-2.434
X157.4 Z-2.595
X157.319 Z-2.75
X157.225 Z-2.897
X157.119 Z-3.036
X157.001 Z-3.164
X156.873 Z-3.282
X156.734 Z-3.388
X156.587 Z-3.482
X156.432 Z-3.563
X156.271 Z-3.629
X156.105 Z-3.682
X155.934 Z-3.72
X155.762 Z-3.742
X155.587 Z-3.75
X155.41
X-3.01
G2 X-4.374 Y1.119 R1.364
X-3.01 Y2.483 R1.364
G1 X155.41
G3 X156.774 Y3.847 R1.364
X155.41 Y5.21 R1.364
G1 X-3.01
G2 X-4.374 Y6.574 R1.364
X-3.01 Y7.938 R1.364
G1 X155.41
G3 X156.774 Y9.302 R1.364
X155.41 Y10.665 R1.364
G1 X-3.01
G2 X-4.374 Y12.029 R1.364
X-3.01 Y13.393 R1.364
G1 X155.41
G3 X156.774 Y14.757 R1.364
X155.41 Y16.12 R1.364
G1 X-3.01
G2 X-4.374 Y17.484 R1.364
X-3.01 Y18.848 R1.364
G1 X155.41
G3 X156.774 Y20.212 R1.364
X155.41 Y21.575 R1.364
G1 X-3.01
G2 X-4.374 Y22.939 R1.364
X-3.01 Y24.303 R1.364
G1 X155.41
G3 X156.774 Y25.666 R1.364
X155.41 Y27.03 R1.364
G1 X-3.01
G2 X-4.374 Y28.394 R1.364
X-3.01 Y29.758 R1.364
G1 X155.41
G3 X156.774 Y31.121 R1.364
X155.41 Y32.485 R1.364
G1 X-3.01
G2 X-4.374 Y33.849 R1.364
X-3.01 Y35.213 R1.364
G1 X155.41
G3 X156.774 Y36.576 R1.364
X155.41 Y37.94 R1.364
G1 X-3.01
G2 X-4.374 Y39.304 R1.364
X-3.01 Y40.668 R1.364
G1 X155.41
G3 X156.774 Y42.031 R1.364
X155.41 Y43.395 R1.364
G1 X-3.01
G2 X-4.374 Y44.759 R1.364
X-3.01 Y46.123 R1.364
G1 X155.41
G3 X156.774 Y47.486 R1.364
X155.41 Y48.85 R1.364
G1 X-3.01
G2 X-4.374 Y50.214 R1.364
X-3.01 Y51.577 R1.364
G1 X155.41
G3 X156.774 Y52.941 R1.364
X155.41 Y54.305 R1.364
G1 X-3.01
G2 X-4.374 Y55.669 R1.364
X-3.01 Y57.032 R1.364
G1 X155.41
G3 X156.774 Y58.396 R1.364
X155.41 Y59.76 R1.364
G1 X-3.01
G2 X-4.374 Y61.124 R1.364
X-3.01 Y62.487 R1.364
G1 X155.41
G3 X156.774 Y63.851 R1.364
X155.41 Y65.215 R1.364
G1 X-3.01
G2 X-4.374 Y66.579 R1.364
X-3.01 Y67.942 R1.364
G1 X155.41
G3 X156.774 Y69.306 R1.364
X155.41 Y70.67 R1.364
G1 X-3.01
G2 X-4.374 Y72.034 R1.364
X-3.01 Y73.397 R1.364
G1 X155.41
G3 X156.774 Y74.761 R1.364
X155.41 Y76.125 R1.364
G1 X-3.01
G2 X-4.374 Y77.488 R1.364
X-3.01 Y78.852 R1.364
G1 X155.41
G3 X156.774 Y80.216 R1.364
X155.41 Y81.58 R1.364
G1 X-3.01
G2 X-4.374 Y82.943 R1.364
X-3.01 Y84.307 R1.364
G1 X155.41
G3 X156.774 Y85.671 R1.364
X155.41 Y87.035 R1.364
G1 X-3.01
G2 X-4.374 Y88.398 R1.364
X-3.01 Y89.762 R1.364
G1 X155.41
G3 X156.774 Y91.126 R1.364
X155.41 Y92.49 R1.364
G1 X-3.01
G2 X-4.374 Y93.853 R1.364
X-3.01 Y95.217 R1.364
G1 X155.41
G3 X156.774 Y96.581 R1.364
X155.41 Y97.945 R1.364
G1 X-3.01
G2 X-4.374 Y99.308 R1.364
X-3.01 Y100.672 R1.364
G1 X155.41
X155.584 Z-3.742
X155.757 Z-3.72
X155.928 Z-3.682
X156.094 Z-3.629
X156.255 Z-3.563
X156.41 Z-3.482
X156.557 Z-3.388
X156.696 Z-3.282
X156.824 Z-3.164
X156.942 Z-3.036
X157.048 Z-2.897
X157.142 Z-2.75
X157.223 Z-2.595
X157.289 Z-2.434
X157.342 Z-2.268
X157.38 Z-2.097
X157.402 Z-1.924
X157.41 Z-1.75
G0 Z15.

(OUTLINE)
G55
G0 X14.85 Y11.359
Z15.
Z-1.75
G1 Z-2.3 F380.
X14.833 Y11.366 Z-2.421 F1500.
X14.782 Y11.386 Z-2.531
X14.702 Y11.414 Z-2.619
X14.598 Y11.444 Z-2.677
X14.481 Y11.471 Z-2.7
X14.309 Y11.496 Z-2.706
X14.135 Y11.506 Z-2.712
X13.961 Y11.5 Z-2.718
X13.788 Y11.478 Z-2.724
X13.618 Y11.44 Z-2.73
X13.453 Y11.386 Z-2.736
X13.292 Y11.318 Z-2.743
X13.139 Y11.236 Z-2.749
X12.994 Y11.139 Z-2.755
X12.859 Y11.03 Z-2.761
X12.733 Y10.909 Z-2.767
X12.62 Y10.777 Z-2.773
X12.519 Y10.635 Z-2.779
X12.432 Y10.484 Z-2.785
X12.358 Y10.326 Z-2.791
X12.3 Y10.162 Z-2.797
X12.257 Y9.994 Z-2.803
X12.229 Y9.822 Z-2.809
X12.217 Y9.648 Z-2.816
X12.221 Y9.474 Z-2.822
X12.241 Y9.301 Z-2.828
X12.277 Y9.13 Z-2.834
X12.329 Y8.964 Z-2.84
X12.395 Y8.803 Z-2.846
X12.476 Y8.649 Z-2.852
X12.57 Y8.502 Z-2.858
X12.678 Y8.366 Z-2.864
X12.797 Y8.239 Z-2.87
X12.928 Y8.124 Z-2.876
X13.069 Y8.021 Z-2.882
X13.218 Y7.932 Z-2.889
X13.375 Y7.857 Z-2.895
X13.539 Y7.796 Z-2.901
X13.707 Y7.751 Z-2.907
X13.878 Y7.721 Z-2.913
X14.052 Y7.707 Z-2.919
X14.226 Y7.709 Z-2.925
X14.399 Y7.727 Z-2.931
X14.57 Y7.761 Z-2.937
X14.737 Y7.81 Z-2.943
X14.899 Y7.875 Z-2.949
X15.054 Y7.954 Z-2.955
X15.202 Y8.046 Z-2.962
X15.34 Y8.152 Z-2.968
X15.468 Y8.27 Z-2.974
X15.584 Y8.4 Z-2.98
X15.689 Y8.539 Z-2.986
X15.78 Y8.687 Z-2.992
X15.857 Y8.844 Z-2.998
X15.919 Y9.006 Z-3.004
X15.967 Y9.174 Z-3.01
X15.999 Y9.345 Z-3.016
X16.015 Y9.518 Z-3.022
Y9.692 Z-3.028
X15.999 Y9.866 Z-3.035
X15.967 Y10.037 Z-3.041
X15.92 Y10.205 Z-3.047
X15.858 Y10.367 Z-3.053
X15.781 Y10.523 Z-3.059
X15.69 Y10.672 Z-3.065
X15.585 Y10.811 Z-3.071
X15.469 Y10.941 Z-3.077
X15.341 Y11.059 Z-3.083
X15.203 Y11.165 Z-3.089
X15.056 Y11.258 Z-3.095
X14.9 Y11.337 Z-3.101
X14.739 Y11.402 Z-3.108
X14.572 Y11.451 Z-3.114
X14.401 Y11.485 Z-3.12
X14.228 Y11.503 Z-3.126
X14.054 Y11.505 Z-3.132
X13.88 Y11.491 Z-3.138
X13.708 Y11.462 Z-3.144
X13.54 Y11.417 Z-3.15
X13.377 Y11.356 Z-3.156
X13.22 Y11.281 Z-3.162
X13.07 Y11.192 Z-3.168
X12.929 Y11.09 Z-3.174
X12.799 Y10.975 Z-3.181
X12.679 Y10.848 Z-3.187
X12.571 Y10.711 Z-3.193
X12.476 Y10.565 Z-3.199
X12.396 Y10.411 Z-3.205
X12.329 Y10.25 Z-3.211
X12.278 Y10.084 Z-3.217
X12.242 Y9.913 Z-3.223
X12.221 Y9.74 Z-3.229
X12.217 Y9.566 Z-3.235
X12.229 Y9.393 Z-3.241
X12.256 Y9.221 Z-3.247
X12.299 Y9.052 Z-3.254
X12.358 Y8.888 Z-3.26
X12.431 Y8.73 Z-3.266
X12.518 Y8.579 Z-3.272
X12.619 Y8.437 Z-3.278
X12.732 Y8.305 Z-3.284
X12.857 Y8.184 Z-3.29
X12.993 Y8.074 Z-3.296
X13.138 Y7.978 Z-3.302
X13.291 Y7.895 Z-3.308
X13.451 Y7.827 Z-3.314
X13.617 Y7.773 Z-3.32
X13.787 Y7.735 Z-3.327
X13.959 Y7.713 Z-3.333
X14.133 Y7.706 Z-3.339
X14.307 Y7.716 Z-3.345
X14.48 Y7.741 Z-3.351
X14.649 Y7.782 Z-3.357
X14.814 Y7.839 Z-3.363
X14.972 Y7.91 Z-3.369
X15.124 Y7.995 Z-3.375
X15.267 Y8.094 Z-3.381
X15.401 Y8.206 Z-3.387
X15.524 Y8.33 Z-3.393
X15.635 Y8.464 Z-3.4
X15.733 Y8.607 Z-3.406
X15.818 Y8.76 Z-3.412
X15.888 Y8.919 Z-3.418
X15.944 Y9.084 Z-3.424
X15.984 Y9.253 Z-3.43
X16.008 Y9.426 Z-3.436
X16.017 Y9.6 Z-3.442
X16.009 Y9.774 Z-3.448
X15.986 Y9.946 Z-3.454
X15.947 Y10.116 Z-3.46
X15.893 Y10.281 Z-3.466
X15.823 Y10.441 Z-3.473
X15.74 Y10.594 Z-3.479
X15.642 Y10.738 Z-3.485
X15.532 Y10.873 Z-3.491
X15.41 Y10.998 Z-3.497
X15.278 Y11.11 Z-3.503
X15.135 Y11.21 Z-3.509
X14.984 Y11.297 Z-3.515
X14.826 Y11.369 Z-3.521
X14.661 Y11.427 Z-3.527
X14.492 Y11.469 Z-3.533
X14.32 Y11.495 Z-3.539
X14.146 Y11.506 Z-3.546
X13.972 Y11.501 Z-3.552
X13.799 Y11.48 Z-3.558
X13.629 Y11.443 Z-3.564
X13.463 Y11.39 Z-3.57
X13.303 Y11.323 Z-3.576
X13.149 Y11.241 Z-3.582
X13.003 Y11.146 Z-3.588
X12.867 Y11.037 Z-3.594
X12.741 Y10.917 Z-3.6
X12.627 Y10.785 Z-3.606
X12.525 Y10.644 Z-3.612
X12.437 Y10.494 Z-3.619
X12.363 Y10.337 Z-3.625
X12.303 Y10.173 Z-3.631
X12.259 Y10.004 Z-3.637
X12.23 Y9.833 Z-3.643
X12.217 Y9.659 Z-3.649
X12.221 Y9.485 Z-3.655
X12.24 Y9.312 Z-3.661
X12.274 Y9.141 Z-3.667
X12.325 Y8.974 Z-3.673
X12.39 Y8.813 Z-3.679
X12.47 Y8.658 Z-3.685
X12.564 Y8.512 Z-3.692
X12.67 Y8.374 Z-3.698
X12.789 Y8.247 Z-3.704
X12.919 Y8.131 Z-3.71
X13.06 Y8.028 Z-3.716
X13.208 Y7.937 Z-3.722
X13.365 Y7.861 Z-3.728
X13.528 Y7.8 Z-3.734
X13.696 Y7.753 Z-3.74
X13.867 Y7.723 Z-3.746
X14.041 Y7.708 Z-3.752
X14.215 Y7.709 Z-3.758
X14.388 Y7.726 Z-3.765
X14.559 Y7.758 Z-3.771
X14.727 Y7.807 Z-3.777
X14.889 Y7.87 Z-3.783
X15.044 Y7.948 Z-3.789
X15.192 Y8.04 Z-3.795
X15.331 Y8.145 Z-3.801
X15.46 Y8.262 Z-3.807
X15.577 Y8.391 Z-3.813
X15.682 Y8.53 Z-3.819
X15.774 Y8.678 Z-3.825
X15.852 Y8.833 Z-3.831
X15.916 Y8.996 Z-3.838
X15.964 Y9.163 Z-3.844
X15.997 Y9.334 Z-3.85
X16.014 Y9.507 Z-3.856
X16.015 Y9.681 Z-3.862
X16. Y9.855 Z-3.868
X15.97 Y10.026 Z-3.874
X15.923 Y10.194 Z-3.88
X15.862 Y10.357 Z-3.886
X15.786 Y10.514 Z-3.892
X15.696 Y10.663 Z-3.898
X15.593 Y10.803 Z-3.904
X15.477 Y10.933 Z-3.911
X15.35 Y11.052 Z-3.917
X15.212 Y11.159 Z-3.923
X15.065 Y11.252 Z-3.929
X14.911 Y11.332 Z-3.935
X14.749 Y11.398 Z-3.941
X14.583 Y11.448 Z-3.947
X14.412 Y11.483 Z-3.953
X14.239 Y11.502 Z-3.959
X14.065 Y11.506 Z-3.965
X13.891 Y11.493 Z-3.971
X13.719 Y11.464 Z-3.977
X13.551 Y11.42 Z-3.984
X13.387 Y11.361 Z-3.99
X13.23 Y11.286 Z-3.996
X13.08 Y11.198 Z-4.002
X12.938 Y11.097 Z-4.008
X12.807 Y10.982 Z-4.014
X12.686 Y10.857 Z-4.02
X12.578 Y10.72 Z-4.026
X12.482 Y10.575 Z-4.032
X12.4 Y10.421 Z-4.038
X12.333 Y10.261 Z-4.044
X12.281 Y10.095 Z-4.05
X12.244 Y9.924 Z-4.057
X12.222 Y9.752 Z-4.063
X12.217 Y9.577 Z-4.069
X12.228 Y9.404 Z-4.075
X12.254 Y9.232 Z-4.081
X12.296 Y9.063 Z-4.087
X12.354 Y8.898 Z-4.093
X12.426 Y8.74 Z-4.099
X12.512 Y8.589 Z-4.105
X12.612 Y8.446 Z-4.111
X12.725 Y8.313 Z-4.117
X12.849 Y8.191 Z-4.123
X12.984 Y8.081 Z-4.13
X13.128 Y7.984 Z-4.136
X13.281 Y7.9 Z-4.142
X13.441 Y7.831 Z-4.148
X13.606 Y7.776 Z-4.154
X13.776 Y7.737 Z-4.16
X13.948 Y7.714 Z-4.166
X14.122 Y7.706 Z-4.172
X14.296 Y7.715 Z-4.178
X14.469 Y7.739 Z-4.184
X14.638 Y7.779 Z-4.19
X14.803 Y7.835 Z-4.196
X14.962 Y7.905 Z-4.203
X15.115 Y7.989 Z-4.209
X15.259 Y8.088 Z-4.215
X15.393 Y8.199 Z-4.221
X15.516 Y8.321 Z-4.227
X15.628 Y8.455 Z-4.233
X15.727 Y8.598 Z-4.239
X15.813 Y8.75 Z-4.245
X15.884 Y8.909 Z-4.251
X15.94 Y9.073 Z-4.257
X15.982 Y9.243 Z-4.263
X16.007 Y9.415 Z-4.269
X16.017 Y9.589 Z-4.276
X16.01 Y9.763 Z-4.282
X15.988 Y9.935 Z-4.288
X15.95 Y10.105 Z-4.294
X15.897 Y10.271 Z-4.3
X15.828 Y10.431 Z-4.306
X15.746 Y10.584 Z-4.312
X15.649 Y10.729 Z-4.318
X15.54 Y10.865 Z-4.324
X15.419 Y10.99 Z-4.33
X15.286 Y11.103 Z-4.336
X15.144 Y11.204 Z-4.342
X14.994 Y11.292 Z-4.349
X14.836 Y11.365 Z-4.355
X14.672 Y11.423 Z-4.361
X14.503 Y11.467 Z-4.367
X14.331 Y11.494 Z-4.373
X14.157 Y11.506 Z-4.379
X13.983 Y11.502 Z-4.385
X13.81 Y11.481 Z-4.391
X13.64 Y11.445 Z-4.397
X13.474 Y11.394 Z-4.403
X13.313 Y11.328 Z-4.409
X13.158 Y11.247 Z-4.415
X13.012 Y11.152 Z-4.422
X12.875 Y11.045 Z-4.428
X12.749 Y10.925 Z-4.434
X12.634 Y10.794 Z-4.44
X12.531 Y10.653 Z-4.446
X12.442 Y10.504 Z-4.452
X12.367 Y10.347 Z-4.458
X12.306 Y10.183 Z-4.464
X12.261 Y10.015 Z-4.47
X12.232 Y9.844 Z-4.476
X12.218 Y9.67 Z-4.482
X12.22 Y9.496 Z-4.488
X12.238 Y9.323 Z-4.495
X12.272 Y9.152 Z-4.501
X12.321 Y8.985 Z-4.507
X12.386 Y8.823 Z-4.513
X12.464 Y8.668 Z-4.519
X12.557 Y8.521 Z-4.525
X12.663 Y8.382 Z-4.531
X12.781 Y8.255 Z-4.537
X12.911 Y8.138 Z-4.543
X13.05 Y8.034 Z-4.549
X13.199 Y7.943 Z-4.555
X13.355 Y7.866 Z-4.561
X13.517 Y7.803 Z-4.568
X13.685 Y7.756 Z-4.574
X13.856 Y7.724 Z-4.58
X14.03 Y7.708 Z-4.586
X14.204 Z-4.592
X14.377 Y7.724 Z-4.598
X14.548 Y7.756 Z-4.604
X14.716 Y7.803 Z-4.61
X14.879 Y7.866 Z-4.616
X15.035 Y7.943 Z-4.622
X15.183 Y8.034 Z-4.628
X15.323 Y8.138 Z-4.634
X15.452 Y8.255 Z-4.641
X15.57 Y8.383 Z-4.647
X15.676 Y8.521 Z-4.653
X15.769 Y8.668 Z-4.659
X15.848 Y8.823 Z-4.665
X15.912 Y8.985 Z-4.671
X15.962 Y9.152 Z-4.677
X15.995 Y9.323 Z-4.683
X16.013 Y9.496 Z-4.689
X16.016 Y9.67 Z-4.695
X16.002 Y9.844 Z-4.701
X15.972 Y10.015 Z-4.707
X15.927 Y10.184 Z-4.714
X15.866 Y10.347 Z-4.72
X15.791 Y10.504 Z-4.726
X15.702 Y10.653 Z-4.732
X15.6 Y10.794 Z-4.738
X15.485 Y10.925 Z-4.744
X15.358 Y11.045 Z-4.75
G3 X13.483 Y10.907 R1.329
X13.164 Y9.941 R1.329
X13.621 Y9.032 R1.329
X13.833 Y8.862 R3.995
X14.155 Y8.907 R0.23
X14.134 Y9.208 R0.23
G1 X13.624 Y9.718
G3 X13.288 R0.238
X13.265 Y9.408 R0.238
X13.529 Y9.114 R2.08
G1 X13.621 Y9.032
X13.697 Y8.969 Z-4.738
X13.769 Y8.911 Z-4.701
X13.833 Y8.862 Z-4.643
X13.862 Y8.843 Z-4.601
X13.894 Y8.829 Z-4.558
X13.936 Y8.818 Z-4.458
X13.951 Y8.816 Z-4.35
G0 Z5.
X15.75 Y91.141
Z-2.3
G1 X15.757 Y91.158 Z-2.421 F1500.
X15.777 Y91.209 Z-2.531
X15.805 Y91.289 Z-2.619
X15.835 Y91.392 Z-2.677
X15.862 Y91.509 Z-2.7
X15.887 Y91.682 Z-2.706
X15.897 Y91.855 Z-2.712
X15.891 Y92.029 Z-2.718
X15.869 Y92.202 Z-2.724
X15.831 Y92.372 Z-2.73
X15.777 Y92.538 Z-2.736
X15.709 Y92.698 Z-2.743
X15.626 Y92.851 Z-2.749
X15.53 Y92.996 Z-2.755
X15.421 Y93.132 Z-2.761
X15.3 Y93.257 Z-2.767
X15.168 Y93.371 Z-2.773
X15.026 Y93.471 Z-2.779
X14.875 Y93.559 Z-2.785
X14.717 Y93.632 Z-2.791
X14.553 Y93.691 Z-2.797
X14.384 Y93.734 Z-2.803
X14.213 Y93.762 Z-2.809
X14.039 Y93.773 Z-2.816
X13.865 Y93.769 Z-2.822
X13.692 Y93.749 Z-2.828
X13.521 Y93.713 Z-2.834
X13.355 Y93.662 Z-2.84
X13.194 Y93.596 Z-2.846
X13.04 Y93.515 Z-2.852
X12.893 Y93.42 Z-2.858
X12.756 Y93.313 Z-2.864
X12.63 Y93.193 Z-2.87
X12.515 Y93.062 Z-2.876
X12.412 Y92.922 Z-2.882
X12.323 Y92.772 Z-2.889
X12.248 Y92.615 Z-2.895
X12.187 Y92.452 Z-2.901
X12.142 Y92.284 Z-2.907
X12.112 Y92.112 Z-2.913
X12.098 Y91.939 Z-2.919
X12.1 Y91.764 Z-2.925
X12.118 Y91.591 Z-2.931
X12.152 Y91.42 Z-2.937
X12.201 Y91.253 Z-2.943
X12.266 Y91.092 Z-2.949
X12.345 Y90.936 Z-2.955
X12.437 Y90.789 Z-2.962
X12.543 Y90.651 Z-2.968
X12.661 Y90.523 Z-2.974
X12.791 Y90.406 Z-2.98
X12.93 Y90.302 Z-2.986
X13.079 Y90.211 Z-2.992
X13.235 Y90.134 Z-2.998
X13.397 Y90.071 Z-3.004
X13.565 Y90.024 Z-3.01
X13.736 Y89.992 Z-3.016
X13.909 Y89.976 Z-3.022
X14.083 Z-3.028
X14.257 Y89.992 Z-3.035
X14.428 Y90.023 Z-3.041
X14.596 Y90.071 Z-3.047
X14.758 Y90.133 Z-3.053
X14.915 Y90.21 Z-3.059
X15.063 Y90.301 Z-3.065
X15.203 Y90.405 Z-3.071
X15.332 Y90.522 Z-3.077
X15.45 Y90.649 Z-3.083
X15.556 Y90.788 Z-3.089
X15.649 Y90.935 Z-3.095
X15.728 Y91.09 Z-3.101
X15.793 Y91.252 Z-3.108
X15.842 Y91.419 Z-3.114
X15.876 Y91.59 Z-3.12
X15.894 Y91.763 Z-3.126
X15.896 Y91.937 Z-3.132
X15.882 Y92.111 Z-3.138
X15.853 Y92.282 Z-3.144
X15.808 Y92.45 Z-3.15
X15.747 Y92.614 Z-3.156
X15.672 Y92.771 Z-3.162
X15.583 Y92.92 Z-3.168
X15.481 Y93.061 Z-3.174
X15.366 Y93.192 Z-3.181
X15.239 Y93.312 Z-3.187
X15.102 Y93.419 Z-3.193
X14.956 Y93.514 Z-3.199
X14.802 Y93.595 Z-3.205
X14.641 Y93.661 Z-3.211
X14.475 Y93.713 Z-3.217
X14.304 Y93.749 Z-3.223
X14.131 Y93.769 Z-3.229
X13.957 Y93.773 Z-3.235
X13.784 Y93.762 Z-3.241
X13.612 Y93.734 Z-3.247
X13.443 Y93.691 Z-3.254
X13.279 Y93.633 Z-3.26
X13.121 Y93.56 Z-3.266
X12.97 Y93.472 Z-3.272
X12.828 Y93.372 Z-3.278
X12.696 Y93.258 Z-3.284
X12.575 Y93.133 Z-3.29
X12.465 Y92.998 Z-3.296
X12.369 Y92.853 Z-3.302
X12.286 Y92.7 Z-3.308
X12.218 Y92.539 Z-3.314
X12.164 Y92.374 Z-3.32
X12.126 Y92.204 Z-3.327
X12.104 Y92.031 Z-3.333
X12.097 Y91.857 Z-3.339
X12.107 Y91.683 Z-3.345
X12.132 Y91.511 Z-3.351
X12.173 Y91.342 Z-3.357
X12.23 Y91.177 Z-3.363
X12.301 Y91.018 Z-3.369
X12.386 Y90.866 Z-3.375
X12.485 Y90.723 Z-3.381
X12.597 Y90.589 Z-3.387
X12.721 Y90.467 Z-3.393
X12.855 Y90.356 Z-3.4
X12.999 Y90.257 Z-3.406
X13.151 Y90.173 Z-3.412
X13.31 Y90.102 Z-3.418
X13.475 Y90.047 Z-3.424
X13.645 Y90.007 Z-3.43
X13.817 Y89.982 Z-3.436
X13.991 Y89.974 Z-3.442
X14.165 Y89.981 Z-3.448
X14.337 Y90.005 Z-3.454
X14.507 Y90.044 Z-3.46
X14.673 Y90.098 Z-3.466
X14.832 Y90.167 Z-3.473
X14.985 Y90.251 Z-3.479
X15.129 Y90.348 Z-3.485
X15.264 Y90.458 Z-3.491
X15.389 Y90.58 Z-3.497
X15.501 Y90.713 Z-3.503
X15.601 Y90.855 Z-3.509
X15.688 Y91.007 Z-3.515
X15.76 Y91.165 Z-3.521
X15.818 Y91.329 Z-3.527
X15.86 Y91.498 Z-3.533
X15.886 Y91.67 Z-3.539
X15.897 Y91.844 Z-3.546
X15.892 Y92.018 Z-3.552
X15.871 Y92.191 Z-3.558
X15.834 Y92.361 Z-3.564
X15.781 Y92.527 Z-3.57
X15.714 Y92.688 Z-3.576
X15.632 Y92.842 Z-3.582
X15.537 Y92.987 Z-3.588
X15.428 Y93.124 Z-3.594
X15.308 Y93.249 Z-3.6
X15.176 Y93.364 Z-3.606
X15.035 Y93.465 Z-3.612
X14.885 Y93.554 Z-3.619
X14.727 Y93.628 Z-3.625
X14.564 Y93.687 Z-3.631
X14.395 Y93.732 Z-3.637
X14.224 Y93.76 Z-3.643
X14.05 Y93.773 Z-3.649
X13.876 Y93.77 Z-3.655
X13.703 Y93.751 Z-3.661
X13.532 Y93.716 Z-3.667
X13.365 Y93.666 Z-3.673
X13.204 Y93.6 Z-3.679
X13.049 Y93.52 Z-3.685
X12.903 Y93.427 Z-3.692
X12.765 Y93.32 Z-3.698
X12.638 Y93.201 Z-3.704
X12.522 Y93.071 Z-3.71
X12.418 Y92.931 Z-3.716
X12.328 Y92.782 Z-3.722
X12.252 Y92.625 Z-3.728
X12.191 Y92.462 Z-3.734
X12.144 Y92.295 Z-3.74
X12.114 Y92.123 Z-3.746
X12.099 Y91.95 Z-3.752
X12.1 Y91.776 Z-3.758
X12.117 Y91.602 Z-3.765
X12.15 Y91.431 Z-3.771
X12.198 Y91.264 Z-3.777
X12.261 Y91.102 Z-3.783
X12.339 Y90.946 Z-3.789
X12.431 Y90.798 Z-3.795
X12.536 Y90.659 Z-3.801
X12.653 Y90.531 Z-3.807
X12.782 Y90.413 Z-3.813
X12.921 Y90.308 Z-3.819
X13.069 Y90.216 Z-3.825
X13.224 Y90.138 Z-3.831
X13.387 Y90.075 Z-3.838
X13.554 Y90.026 Z-3.844
X13.725 Y89.993 Z-3.85
X13.898 Y89.976 Z-3.856
X14.072 Y89.975 Z-3.862
X14.246 Y89.99 Z-3.868
X14.417 Y90.021 Z-3.874
X14.585 Y90.067 Z-3.88
X14.748 Y90.128 Z-3.886
X14.905 Y90.205 Z-3.892
X15.054 Y90.295 Z-3.898
X15.194 Y90.398 Z-3.904
X15.324 Y90.514 Z-3.911
X15.443 Y90.641 Z-3.917
X15.55 Y90.779 Z-3.923
X15.644 Y90.925 Z-3.929
X15.723 Y91.08 Z-3.935
X15.789 Y91.241 Z-3.941
X15.839 Y91.408 Z-3.947
X15.874 Y91.579 Z-3.953
X15.893 Y91.752 Z-3.959
X15.897 Y91.926 Z-3.965
X15.884 Y92.099 Z-3.971
X15.855 Y92.271 Z-3.977
X15.811 Y92.44 Z-3.984
X15.752 Y92.603 Z-3.99
X15.677 Y92.761 Z-3.996
X15.589 Y92.911 Z-4.002
X15.488 Y93.052 Z-4.008
X15.373 Y93.184 Z-4.014
X15.248 Y93.304 Z-4.02
X15.111 Y93.413 Z-4.026
X14.966 Y93.508 Z-4.032
X14.812 Y93.59 Z-4.038
X14.652 Y93.658 Z-4.044
X14.485 Y93.71 Z-4.05
X14.315 Y93.747 Z-4.057
X14.142 Y93.768 Z-4.063
X13.968 Y93.774 Z-4.069
X13.795 Y93.763 Z-4.075
X13.623 Y93.737 Z-4.081
X13.454 Y93.694 Z-4.087
X13.289 Y93.637 Z-4.093
X13.131 Y93.565 Z-4.099
X12.98 Y93.478 Z-4.105
X12.837 Y93.378 Z-4.111
X12.704 Y93.266 Z-4.117
X12.582 Y93.142 Z-4.123
X12.472 Y93.007 Z-4.13
X12.375 Y92.862 Z-4.136
X12.291 Y92.71 Z-4.142
X12.222 Y92.55 Z-4.148
X12.167 Y92.384 Z-4.154
X12.128 Y92.215 Z-4.16
X12.105 Y92.042 Z-4.166
X12.097 Y91.868 Z-4.172
X12.106 Y91.694 Z-4.178
X12.13 Y91.522 Z-4.184
X12.17 Y91.352 Z-4.19
X12.226 Y91.187 Z-4.196
X12.296 Y91.028 Z-4.203
X12.38 Y90.876 Z-4.209
X12.479 Y90.732 Z-4.215
X12.59 Y90.598 Z-4.221
X12.712 Y90.474 Z-4.227
X12.846 Y90.362 Z-4.233
X12.989 Y90.263 Z-4.239
X13.141 Y90.178 Z-4.245
X13.3 Y90.107 Z-4.251
X13.464 Y90.05 Z-4.257
X13.634 Y90.009 Z-4.263
X13.806 Y89.983 Z-4.269
X13.98 Y89.974 Z-4.276
X14.154 Y89.98 Z-4.282
X14.326 Y90.003 Z-4.288
X14.496 Y90.041 Z-4.294
X14.662 Y90.094 Z-4.3
X14.822 Y90.162 Z-4.306
X14.976 Y90.245 Z-4.312
X15.121 Y90.341 Z-4.318
X15.256 Y90.451 Z-4.324
X15.381 Y90.572 Z-4.33
X15.494 Y90.704 Z-4.336
X15.595 Y90.846 Z-4.342
X15.683 Y90.997 Z-4.349
X15.756 Y91.155 Z-4.355
X15.814 Y91.319 Z-4.361
X15.858 Y91.487 Z-4.367
X15.885 Y91.659 Z-4.373
X15.897 Y91.833 Z-4.379
X15.893 Y92.007 Z-4.385
X15.872 Y92.18 Z-4.391
X15.836 Y92.351 Z-4.397
X15.785 Y92.517 Z-4.403
X15.719 Y92.678 Z-4.409
X15.638 Y92.832 Z-4.415
X15.543 Y92.978 Z-4.422
X15.436 Y93.115 Z-4.428
X15.316 Y93.242 Z-4.434
X15.185 Y93.357 Z-4.44
X15.044 Y93.459 Z-4.446
X14.895 Y93.548 Z-4.452
X14.738 Y93.624 Z-4.458
X14.574 Y93.684 Z-4.464
X14.406 Y93.729 Z-4.47
X14.235 Y93.759 Z-4.476
X14.061 Y93.773 Z-4.482
X13.887 Y93.771 Z-4.488
X13.714 Y93.753 Z-4.495
X13.543 Y93.719 Z-4.501
X13.376 Y93.669 Z-4.507
X13.214 Y93.605 Z-4.513
X13.059 Y93.526 Z-4.519
X12.912 Y93.433 Z-4.525
X12.773 Y93.327 Z-4.531
X12.646 Y93.209 Z-4.537
X12.529 Y93.08 Z-4.543
X12.425 Y92.94 Z-4.549
X12.334 Y92.792 Z-4.555
X12.257 Y92.636 Z-4.561
X12.194 Y92.473 Z-4.568
X12.147 Y92.305 Z-4.574
X12.115 Y92.134 Z-4.58
X12.099 Y91.961 Z-4.586
Y91.787 Z-4.592
X12.115 Y91.613 Z-4.598
X12.147 Y91.442 Z-4.604
X12.194 Y91.274 Z-4.61
X12.257 Y91.112 Z-4.616
X12.334 Y90.956 Z-4.622
X12.425 Y90.807 Z-4.628
X12.529 Y90.668 Z-4.634
X12.646 Y90.539 Z-4.641
X12.774 Y90.42 Z-4.647
X12.912 Y90.314 Z-4.653
X13.059 Y90.222 Z-4.659
X13.214 Y90.143 Z-4.665
X13.376 Y90.078 Z-4.671
X13.543 Y90.029 Z-4.677
X13.714 Y89.995 Z-4.683
X13.887 Y89.977 Z-4.689
X14.061 Y89.975 Z-4.695
X14.235 Y89.989 Z-4.701
X14.406 Y90.018 Z-4.707
X14.575 Y90.064 Z-4.714
X14.738 Y90.124 Z-4.72
X14.895 Y90.199 Z-4.726
X15.044 Y90.288 Z-4.732
X15.185 Y90.391 Z-4.738
X15.316 Y90.506 Z-4.744
X15.436 Y90.633 Z-4.75
G3 X15.298 Y92.507 R1.329
X13.423 Y92.369 R1.329
X13.258 Y92.164 R3.684
X13.305 Y91.842 R0.23
X13.606 Y91.863 R0.23
G1 X14.109 Y92.366
G3 Y92.702 R0.238
X13.799 Y92.725 R0.238
X13.508 Y92.464 R2.109
G1 X13.423 Y92.369
G2 X11.859 Y91.826 R1.653
G3 X10.976 Y91.616 R1.105
X10.548 Y90.816 R1.105
G1 X10.522 Y90.438
X10.525 Y11.115
X10.624 Y10.126
X10.829 Y9.422
X10.915 Y9.173
X11.209 Y8.596
X11.397 Y8.277
X11.621 Y7.974
X11.787 Y7.791
X12.163 Y7.397
X12.835 Y6.893
X12.971 Y6.816
X13.553 Y6.522
X13.821 Y6.422
X14.257 Y6.292
X14.66 Y6.202
X15.088 Y6.163
X15.544 Y6.132
X136.905 Y6.136
X137.862 Y6.23
X137.893 Y6.236
X138.75 Y6.493
X138.832 Y6.523
X139.418 Y6.821
X139.736 Y7.009
X140.039 Y7.234
X140.223 Y7.401
X140.616 Y7.776
X141.132 Y8.468
X141.477 Y9.137
X141.59 Y9.439
X141.72 Y9.872
X141.809 Y10.276
X141.847 Y10.704
X141.878 Y11.162
X141.875 Y90.485
X141.776 Y91.474
X141.571 Y92.178
X141.486 Y92.426
X141.191 Y93.004
X141.003 Y93.323
X140.779 Y93.626
X140.613 Y93.809
X140.237 Y94.203
X139.565 Y94.707
X139.429 Y94.784
X138.847 Y95.078
X138.579 Y95.177
X138.144 Y95.308
X137.74 Y95.397
X137.312 Y95.437
X136.856 Y95.468
X15.495 Y95.464
X14.538 Y95.37
X14.507 Y95.364
X13.65 Y95.107
X13.568 Y95.077
X12.982 Y94.779
X12.664 Y94.591
X12.361 Y94.366
X12.178 Y94.2
X11.784 Y93.824
X11.269 Y93.133
X10.924 Y92.463
X10.81 Y92.161
X10.68 Y91.728
X10.591 Y91.324
X10.553 Y90.896
X10.548 Y90.816
G3 X10.598 Y90.668 R0.2
X10.74 Y90.602 R0.2
G1 X15.165 Y90.438
X15.219 Y90.443
X15.27 Y90.463
X15.314 Y90.496
X18.159 Y93.338
X18.227 Y93.399
X18.3 Y93.455
X18.455 Y93.561
X18.539 Y93.612
X18.627 Y93.655
X18.815 Y93.736
X18.908 Y93.77
X19.004 Y93.795
X19.192 Y93.835
X19.289 Y93.85
X19.387 Y93.856
X20.014 Y93.862
X20.024
X136.327 Y93.86
X136.396 Y93.858
X136.465 Y93.851
X137.468 Y93.711
X137.536 Y93.699
X137.602 Y93.682
X137.779 Y93.632
X137.853 Y93.608
X137.925 Y93.579
X138.04 Y93.526
X138.137 Y93.475
X138.848 Y93.047
X138.913 Y93.005
X138.974 Y92.958
X139.128 Y92.829
X139.2 Y92.763
X139.264 Y92.691
X139.382 Y92.545
X139.424 Y92.489
X139.463 Y92.43
X139.89 Y91.716
X139.926 Y91.651
X139.957 Y91.584
X140.027 Y91.412
X140.058 Y91.326
X140.081 Y91.237
X140.12 Y91.055
X140.132 Y90.985
X140.262 Y90.044
X140.269 Y89.976
X140.271 Y89.907
Y11.693
X140.268 Y11.622
X140.261 Y11.551
X140.108 Y10.484
X140.091 Y10.392
X140.065 Y10.302
X140.006 Y10.131
X139.969 Y10.038
X139.923 Y9.949
X139.582 Y9.367
X139.563 Y9.336
X139.403 Y9.085
X139.35 Y9.009
X139.29 Y8.939
X139.172 Y8.812
X139.104 Y8.746
X139.029 Y8.686
X138.858 Y8.561
X138.778 Y8.509
X138.073 Y8.093
X137.987 Y8.048
X137.897 Y8.011
X137.725 Y7.95
X137.633 Y7.923
X137.539 Y7.904
X136.536 Y7.756
X136.416 Y7.745
X136.166 Y7.738
X136.139
X19.459 Y7.739
X19.388 Y7.742
X19.318 Y7.749
X19.13 Y7.776
X19.034 Y7.795
X18.941 Y7.822
X18.753 Y7.888
X18.669 Y7.922
X18.589 Y7.963
X18.448 Y8.043
X18.383 Y8.083
X18.32 Y8.129
X18.204 Y8.222
X18.12 Y8.297
X12.796 Y13.62
X12.779 Y13.637
X12.628 Y13.795
X12.571 Y13.86
X12.52 Y13.93
X12.415 Y14.089
X12.364 Y14.173
X12.322 Y14.262
X12.245 Y14.451
X12.212 Y14.544
X12.188 Y14.64
X12.151 Y14.828
X12.137 Y14.924
X12.133 Y15.02
Y86.58
X12.137 Y86.676
X12.151 Y86.772
X12.188 Y86.96
X12.212 Y87.056
X12.245 Y87.149
X12.322 Y87.338
X12.364 Y87.427
X12.415 Y87.511
X12.52 Y87.67
X12.578 Y87.748
X12.643 Y87.82
X13.984 Y89.169
X15.314 Y90.496
G3 Y90.779 R0.2
X15.265 Y90.815 R0.2
G1 X13.814 Y91.569
X12.327 Y92.248
G3 X12.062 Y92.149 R0.2
X12.045 Y92.089 R0.2
G1 X12.033 Y91.916 Z-4.756
X12.037 Y91.743 Z-4.762
X12.056 Y91.571 Z-4.768
X12.091 Y91.401 Z-4.774
X12.141 Y91.235 Z-4.78
X12.207 Y91.074 Z-4.786
X12.286 Y90.92 Z-4.792
X12.38 Y90.774 Z-4.798
X12.486 Y90.636 Z-4.805
X12.604 Y90.51 Z-4.811
X12.734 Y90.394 Z-4.817
X12.873 Y90.291 Z-4.823
X13.022 Y90.201 Z-4.829
X13.178 Y90.125 Z-4.835
X13.34 Y90.063 Z-4.841
X13.507 Y90.017 Z-4.847
X13.678 Y89.986 Z-4.853
X13.85 Y89.97 Z-4.859
X14.024 Y89.971 Z-4.865
X14.197 Y89.987 Z-4.871
X14.367 Y90.019 Z-4.877
X14.534 Y90.066 Z-4.883
X14.696 Y90.129 Z-4.889
X14.852 Y90.206 Z-4.895
X14.999 Y90.296 Z-4.902
X15.138 Y90.4 Z-4.908
X15.267 Y90.516 Z-4.914
X15.385 Y90.644 Z-4.92
X15.491 Y90.781 Z-4.926
X15.583 Y90.928 Z-4.932
X15.662 Y91.083 Z-4.938
X15.727 Y91.244 Z-4.944
X15.776 Y91.41 Z-4.95
X15.81 Y91.58 Z-4.956
X15.829 Y91.753 Z-4.962
X15.832 Y91.926 Z-4.968
X15.818 Y92.099 Z-4.974
X15.79 Y92.27 Z-4.98
X15.745 Y92.438 Z-4.986
X15.686 Y92.601 Z-4.992
X15.612 Y92.758 Z-4.998
X15.523 Y92.907 Z-5.005
X15.422 Y93.048 Z-5.011
X15.308 Y93.179 Z-5.017
X15.183 Y93.299 Z-5.023
X15.047 Y93.407 Z-5.029
X14.902 Y93.502 Z-5.035
X14.749 Y93.584 Z-5.041
X14.589 Y93.651 Z-5.047
X14.424 Y93.704 Z-5.053
X14.255 Y93.741 Z-5.059
X14.082 Y93.763 Z-5.065
X13.909 Y93.768 Z-5.071
X13.736 Y93.758 Z-5.077
X13.564 Y93.733 Z-5.083
X13.396 Y93.691 Z-5.089
X13.232 Y93.635 Z-5.095
X13.074 Y93.563 Z-5.102
X12.923 Y93.478 Z-5.108
X12.78 Y93.379 Z-5.114
X12.647 Y93.268 Z-5.12
X12.525 Y93.145 Z-5.126
X12.414 Y93.011 Z-5.132
X12.316 Y92.868 Z-5.138
X12.232 Y92.716 Z-5.144
X12.162 Y92.557 Z-5.15
X12.106 Y92.393 Z-5.156
X12.066 Y92.224 Z-5.162
X12.041 Y92.053 Z-5.168
X12.032 Y91.879 Z-5.174
X12.039 Y91.706 Z-5.18
X12.062 Y91.534 Z-5.186
X12.1 Y91.365 Z-5.192
X12.154 Y91.2 Z-5.198
X12.222 Y91.04 Z-5.205
X12.305 Y90.888 Z-5.211
X12.401 Y90.743 Z-5.217
X12.51 Y90.608 Z-5.223
X12.631 Y90.484 Z-5.229
X12.763 Y90.371 Z-5.235
X12.904 Y90.271 Z-5.241
X13.054 Y90.184 Z-5.247
X13.212 Y90.111 Z-5.253
X13.375 Y90.052 Z-5.259
X13.543 Y90.009 Z-5.265
X13.714 Y89.981 Z-5.271
X13.888 Y89.969 Z-5.277
X14.061 Y89.973 Z-5.283
X14.233 Y89.993 Z-5.289
X14.403 Y90.028 Z-5.295
X14.569 Y90.078 Z-5.302
X14.73 Y90.144 Z-5.308
X14.884 Y90.224 Z-5.314
X15.03 Y90.318 Z-5.32
X15.167 Y90.424 Z-5.326
X15.293 Y90.543 Z-5.332
X15.409 Y90.672 Z-5.338
X15.512 Y90.812 Z-5.344
X15.601 Y90.961 Z-5.35
X15.677 Y91.117 Z-5.356
X15.739 Y91.279 Z-5.362
X15.785 Y91.446 Z-5.368
X15.816 Y91.617 Z-5.374
X15.831 Y91.79 Z-5.38
X15.83 Y91.963 Z-5.386
X15.814 Y92.136 Z-5.392
X15.781 Y92.306 Z-5.398
X15.734 Y92.473 Z-5.405
X15.671 Y92.635 Z-5.411
X15.594 Y92.79 Z-5.417
X15.503 Y92.938 Z-5.423
X15.399 Y93.077 Z-5.429
X15.282 Y93.206 Z-5.435
X15.155 Y93.323 Z-5.441
X15.017 Y93.429 Z-5.447
X14.87 Y93.521 Z-5.453
X14.716 Y93.6 Z-5.459
X14.554 Y93.664 Z-5.465
X14.388 Y93.713 Z-5.471
X14.218 Y93.747 Z-5.477
X14.045 Y93.765 Z-5.483
X13.872 Y93.768 Z-5.489
X13.699 Y93.754 Z-5.495
X13.528 Y93.725 Z-5.502
X13.36 Y93.68 Z-5.508
X13.197 Y93.621 Z-5.514
X13.041 Y93.546 Z-5.52
X12.891 Y93.458 Z-5.526
X12.751 Y93.356 Z-5.532
X12.62 Y93.242 Z-5.538
X12.5 Y93.117 Z-5.544
X12.392 Y92.981 Z-5.55
X12.297 Y92.836 Z-5.556
X12.216 Y92.683 Z-5.562
X12.149 Y92.523 Z-5.568
X12.096 Y92.357 Z-5.574
X12.059 Y92.188 Z-5.58
X12.038 Y92.016 Z-5.586
X12.033 Y91.842 Z-5.592
X12.043 Y91.669 Z-5.598
X12.069 Y91.498 Z-5.605
X12.111 Y91.329 Z-5.611
X12.167 Y91.165 Z-5.617
X12.239 Y91.007 Z-5.623
X12.325 Y90.856 Z-5.629
X12.424 Y90.714 Z-5.635
X12.535 Y90.581 Z-5.641
X12.659 Y90.459 Z-5.647
X12.792 Y90.349 Z-5.653
X12.936 Y90.251 Z-5.659
X13.088 Y90.167 Z-5.665
X13.246 Y90.097 Z-5.671
X13.411 Y90.042 Z-5.677
X13.58 Y90.002 Z-5.683
X13.751 Y89.977 Z-5.689
X13.925 Y89.969 Z-5.695
X14.098 Y89.976 Z-5.702
X14.27 Y89.999 Z-5.708
X14.439 Y90.037 Z-5.714
X14.604 Y90.091 Z-5.72
X14.763 Y90.16 Z-5.726
X14.916 Y90.243 Z-5.732
X15.06 Y90.339 Z-5.738
X15.195 Y90.449 Z-5.744
X15.319 Y90.57 Z-5.75
G3 X15.247 Y92.764 R1.553
X13.053 Y92.693 R1.553
X12.335 Y91.431 R3.11
X12.181 Y90.557 R4.158
X12.504 Y90.185 R0.348
X12.774 Y90.286 R0.348
G1 X15.702 Y93.212
G3 Y93.704 R0.348
X15.425 Y93.805 R0.348
X13.513 Y93.096 R3.882
X13.053 Y92.693 R3.11
G1 X12.97 Y92.601 Z-5.73
X12.899 Y92.515 Z-5.674
X12.844 Y92.445 Z-5.585
X12.81 Y92.4 Z-5.474
X12.799 Y92.384 Z-5.35
G0 Z5.
X14.925 Y11.264
Z-3.3
G1 X14.908 Y11.272 Z-3.421 F1500.
X14.859 Y11.294 Z-3.531
X14.78 Y11.325 Z-3.619
X14.678 Y11.36 Z-3.677
X14.562 Y11.391 Z-3.7
X14.391 Y11.424 Z-3.706
X14.217 Y11.441 Z-3.712
X14.043 Y11.442 Z-3.718
X13.87 Y11.427 Z-3.724
X13.698 Y11.396 Z-3.73
X13.53 Y11.35 Z-3.736
X13.368 Y11.288 Z-3.743
X13.211 Y11.212 Z-3.749
X13.062 Y11.122 Z-3.755
X12.922 Y11.018 Z-3.761
X12.792 Y10.902 Z-3.767
X12.673 Y10.775 Z-3.773
X12.566 Y10.637 Z-3.779
X12.473 Y10.491 Z-3.785
X12.393 Y10.336 Z-3.791
X12.328 Y10.174 Z-3.797
X12.277 Y10.008 Z-3.803
X12.243 Y9.837 Z-3.809
X12.224 Y9.664 Z-3.816
X12.221 Y9.49 Z-3.822
X12.233 Y9.316 Z-3.828
X12.262 Y9.144 Z-3.834
X12.306 Y8.976 Z-3.84
X12.366 Y8.812 Z-3.846
X12.44 Y8.655 Z-3.852
X12.529 Y8.505 Z-3.858
X12.63 Y8.364 Z-3.864
X12.745 Y8.232 Z-3.87
X12.871 Y8.112 Z-3.876
X13.007 Y8.003 Z-3.882
X13.153 Y7.908 Z-3.889
X13.306 Y7.826 Z-3.895
X13.467 Y7.759 Z-3.901
X13.633 Y7.707 Z-3.907
X13.803 Y7.67 Z-3.913
X13.976 Y7.649 Z-3.919
X14.15 Y7.644 Z-3.925
X14.324 Y7.654 Z-3.931
X14.496 Y7.681 Z-3.937
X14.665 Y7.723 Z-3.943
X14.829 Y7.781 Z-3.949
X14.988 Y7.853 Z-3.955
X15.139 Y7.94 Z-3.962
X15.281 Y8.04 Z-3.968
X15.414 Y8.152 Z-3.974
X15.536 Y8.277 Z-3.98
X15.646 Y8.412 Z-3.986
X15.743 Y8.556 Z-3.992
X15.827 Y8.709 Z-3.998
X15.896 Y8.869 Z-4.004
X15.95 Y9.034 Z-4.01
X15.989 Y9.204 Z-4.016
X16.012 Y9.376 Z-4.022
X16.02 Y9.55 Z-4.028
X16.011 Y9.724 Z-4.035
X15.987 Y9.897 Z-4.041
X15.946 Y10.066 Z-4.047
X15.891 Y10.231 Z-4.053
X15.82 Y10.39 Z-4.059
X15.736 Y10.543 Z-4.065
X15.638 Y10.686 Z-4.071
X15.526 Y10.821 Z-4.077
X15.404 Y10.944 Z-4.083
X15.27 Y11.056 Z-4.089
X15.127 Y11.155 Z-4.095
X14.975 Y11.24 Z-4.101
X14.816 Y11.311 Z-4.108
X14.651 Y11.367 Z-4.114
X14.482 Y11.408 Z-4.12
X14.31 Y11.434 Z-4.126
X14.136 Y11.443 Z-4.132
X13.962 Y11.437 Z-4.138
X13.789 Y11.414 Z-4.144
X13.619 Y11.376 Z-4.15
X13.454 Y11.323 Z-4.156
X13.293 Y11.254 Z-4.162
X13.14 Y11.171 Z-4.168
X12.995 Y11.075 Z-4.174
X12.86 Y10.965 Z-4.181
X12.735 Y10.844 Z-4.187
X12.622 Y10.712 Z-4.193
X12.521 Y10.57 Z-4.199
X12.434 Y10.419 Z-4.205
X12.361 Y10.261 Z-4.211
X12.302 Y10.097 Z-4.217
X12.259 Y9.928 Z-4.223
X12.232 Y9.756 Z-4.229
X12.22 Y9.583 Z-4.235
X12.225 Y9.408 Z-4.241
X12.245 Y9.235 Z-4.247
X12.281 Y9.065 Z-4.254
X12.332 Y8.899 Z-4.26
X12.399 Y8.738 Z-4.266
X12.48 Y8.584 Z-4.272
X12.575 Y8.438 Z-4.278
X12.682 Y8.301 Z-4.284
X12.802 Y8.174 Z-4.29
X12.933 Y8.059 Z-4.296
X13.074 Y7.957 Z-4.302
X13.224 Y7.868 Z-4.308
X13.381 Y7.793 Z-4.314
X13.544 Y7.733 Z-4.32
X13.712 Y7.688 Z-4.327
X13.884 Y7.658 Z-4.333
X14.057 Y7.644 Z-4.339
X14.232 Y7.647 Z-4.345
X14.405 Y7.665 Z-4.351
X14.576 Y7.699 Z-4.357
X14.743 Y7.748 Z-4.363
X14.904 Y7.813 Z-4.369
X15.059 Y7.892 Z-4.375
X15.207 Y7.985 Z-4.381
X15.345 Y8.091 Z-4.387
X15.473 Y8.209 Z-4.393
X15.589 Y8.339 Z-4.4
X15.693 Y8.478 Z-4.406
X15.784 Y8.627 Z-4.412
X15.861 Y8.783 Z-4.418
X15.923 Y8.945 Z-4.424
X15.97 Y9.113 Z-4.43
X16.002 Y9.284 Z-4.436
X16.018 Y9.458 Z-4.442
Y9.632 Z-4.448
X16.002 Y9.805 Z-4.454
X15.97 Y9.977 Z-4.46
X15.922 Y10.144 Z-4.466
X15.86 Y10.307 Z-4.473
X15.783 Y10.463 Z-4.479
X15.691 Y10.611 Z-4.485
X15.587 Y10.75 Z-4.491
X15.47 Y10.88 Z-4.497
X15.342 Y10.998 Z-4.503
X15.204 Y11.104 Z-4.509
X15.057 Y11.196 Z-4.515
X14.901 Y11.275 Z-4.521
X14.74 Y11.339 Z-4.527
X14.573 Y11.389 Z-4.533
X14.402 Y11.422 Z-4.539
X14.228 Y11.44 Z-4.546
X14.054 Y11.442 Z-4.552
X13.881 Y11.428 Z-4.558
X13.709 Y11.398 Z-4.564
X13.541 Y11.353 Z-4.57
X13.378 Y11.292 Z-4.576
X13.221 Y11.217 Z-4.582
X13.071 Y11.128 Z-4.588
X12.931 Y11.025 Z-4.594
X12.8 Y10.91 Z-4.6
X12.68 Y10.783 Z-4.606
X12.573 Y10.647 Z-4.612
X12.478 Y10.5 Z-4.619
X12.398 Y10.346 Z-4.625
X12.331 Y10.185 Z-4.631
X12.28 Y10.018 Z-4.637
X12.244 Y9.848 Z-4.643
X12.224 Y9.675 Z-4.649
X12.22 Y9.501 Z-4.655
X12.232 Y9.327 Z-4.661
X12.26 Y9.155 Z-4.667
X12.303 Y8.987 Z-4.673
X12.362 Y8.823 Z-4.679
X12.435 Y8.665 Z-4.685
X12.523 Y8.514 Z-4.692
X12.624 Y8.372 Z-4.698
X12.737 Y8.24 Z-4.704
X12.862 Y8.119 Z-4.71
X12.998 Y8.01 Z-4.716
X13.143 Y7.914 Z-4.722
X13.296 Y7.831 Z-4.728
X13.456 Y7.763 Z-4.734
X13.622 Y7.71 Z-4.74
X13.792 Y7.672 Z-4.746
X13.965 Y7.65 Z-4.752
X14.139 Y7.643 Z-4.758
X14.313 Y7.653 Z-4.765
X14.485 Y7.679 Z-4.771
X14.654 Y7.72 Z-4.777
X14.819 Y7.777 Z-4.783
X14.978 Y7.848 Z-4.789
X15.129 Y7.934 Z-4.795
X15.272 Y8.033 Z-4.801
X15.406 Y8.145 Z-4.807
X15.529 Y8.268 Z-4.813
X15.639 Y8.403 Z-4.819
X15.737 Y8.547 Z-4.825
X15.822 Y8.699 Z-4.831
X15.892 Y8.858 Z-4.838
X15.947 Y9.023 Z-4.844
X15.987 Y9.193 Z-4.85
X16.011 Y9.365 Z-4.856
X16.02 Y9.539 Z-4.862
X16.012 Y9.713 Z-4.868
X15.989 Y9.886 Z-4.874
X15.949 Y10.055 Z-4.88
X15.895 Y10.221 Z-4.886
X15.825 Y10.38 Z-4.892
X15.742 Y10.533 Z-4.898
X15.644 Y10.677 Z-4.904
X15.534 Y10.812 Z-4.911
X15.412 Y10.936 Z-4.917
X15.279 Y11.049 Z-4.923
X15.136 Y11.149 Z-4.929
X14.985 Y11.235 Z-4.935
X14.826 Y11.307 Z-4.941
X14.662 Y11.364 Z-4.947
X14.493 Y11.406 Z-4.953
X14.321 Y11.433 Z-4.959
X14.147 Y11.443 Z-4.965
X13.973 Y11.438 Z-4.971
X13.8 Y11.416 Z-4.977
X13.63 Y11.379 Z-4.984
X13.464 Y11.327 Z-4.99
X13.303 Y11.259 Z-4.996
X13.15 Y11.177 Z-5.002
X13.004 Y11.081 Z-5.008
X12.868 Y10.973 Z-5.014
X12.743 Y10.852 Z-5.02
X12.629 Y10.721 Z-5.026
X12.527 Y10.579 Z-5.032
X12.439 Y10.429 Z-5.038
X12.365 Y10.271 Z-5.044
X12.306 Y10.108 Z-5.05
X12.262 Y9.939 Z-5.057
X12.233 Y9.767 Z-5.063
X12.22 Y9.594 Z-5.069
X12.224 Y9.42 Z-5.075
X12.243 Y9.246 Z-5.081
X12.278 Y9.076 Z-5.087
X12.329 Y8.909 Z-5.093
X12.394 Y8.748 Z-5.099
X12.474 Y8.593 Z-5.105
X12.568 Y8.447 Z-5.111
X12.675 Y8.309 Z-5.117
X12.794 Y8.182 Z-5.123
X12.924 Y8.066 Z-5.13
X13.065 Y7.963 Z-5.136
X13.214 Y7.873 Z-5.142
X13.37 Y7.797 Z-5.148
X13.533 Y7.736 Z-5.154
X13.701 Y7.69 Z-5.16
X13.873 Y7.659 Z-5.166
X14.046 Y7.645 Z-5.172
X14.22 Y7.646 Z-5.178
X14.394 Y7.663 Z-5.184
X14.565 Y7.696 Z-5.19
X14.732 Y7.745 Z-5.196
X14.894 Y7.808 Z-5.203
X15.05 Y7.886 Z-5.209
X15.197 Y7.978 Z-5.215
X15.336 Y8.084 Z-5.221
X15.465 Y8.201 Z-5.227
X15.582 Y8.33 Z-5.233
X15.687 Y8.469 Z-5.239
X15.779 Y8.617 Z-5.245
X15.857 Y8.773 Z-5.251
X15.92 Y8.935 Z-5.257
X15.968 Y9.102 Z-5.263
X16.001 Y9.273 Z-5.269
X16.017 Y9.447 Z-5.276
X16.018 Y9.621 Z-5.282
X16.003 Y9.794 Z-5.288
X15.972 Y9.966 Z-5.294
X15.926 Y10.133 Z-5.3
X15.864 Y10.296 Z-5.306
X15.788 Y10.453 Z-5.312
X15.698 Y10.602 Z-5.318
X15.594 Y10.742 Z-5.324
X15.478 Y10.872 Z-5.33
X15.351 Y10.991 Z-5.336
X15.213 Y11.097 Z-5.342
X15.066 Y11.191 Z-5.349
X14.912 Y11.27 Z-5.355
X14.75 Y11.336 Z-5.361
X14.583 Y11.386 Z-5.367
X14.413 Y11.421 Z-5.373
X14.24 Y11.44 Z-5.379
X14.065 Y11.443 Z-5.385
X13.892 Y11.43 Z-5.391
X13.72 Y11.401 Z-5.397
X13.552 Y11.356 Z-5.403
X13.388 Y11.297 Z-5.409
X13.231 Y11.222 Z-5.415
X13.081 Y11.134 Z-5.422
X12.939 Y11.032 Z-5.428
X12.808 Y10.918 Z-5.434
X12.688 Y10.792 Z-5.44
X12.579 Y10.656 Z-5.446
X12.484 Y10.51 Z-5.452
X12.402 Y10.356 Z-5.458
X12.335 Y10.195 Z-5.464
X12.283 Y10.029 Z-5.47
X12.246 Y9.859 Z-5.476
X12.225 Y9.686 Z-5.482
X12.22 Y9.512 Z-5.488
X12.231 Y9.338 Z-5.495
X12.258 Y9.166 Z-5.501
X12.3 Y8.997 Z-5.507
X12.358 Y8.833 Z-5.513
X12.43 Y8.675 Z-5.519
X12.517 Y8.524 Z-5.525
X12.617 Y8.381 Z-5.531
X12.729 Y8.248 Z-5.537
X12.854 Y8.127 Z-5.543
X12.989 Y8.017 Z-5.549
X13.133 Y7.919 Z-5.555
X13.286 Y7.836 Z-5.561
X13.446 Y7.767 Z-5.568
X13.612 Y7.713 Z-5.574
X13.781 Y7.674 Z-5.58
X13.954 Y7.651 Z-5.586
X14.128 Y7.643 Z-5.592
X14.302 Y7.652 Z-5.598
X14.474 Y7.677 Z-5.604
X14.644 Y7.717 Z-5.61
X14.809 Y7.773 Z-5.616
X14.968 Y7.843 Z-5.622
X15.12 Y7.928 Z-5.628
X15.264 Y8.026 Z-5.634
X15.398 Y8.137 Z-5.641
X15.521 Y8.26 Z-5.647
X15.633 Y8.394 Z-5.653
X15.732 Y8.537 Z-5.659
X15.817 Y8.689 Z-5.665
X15.888 Y8.848 Z-5.671
X15.944 Y9.013 Z-5.677
X15.985 Y9.182 Z-5.683
X16.01 Y9.354 Z-5.689
X16.02 Y9.528 Z-5.695
X16.013 Y9.702 Z-5.701
X15.991 Y9.875 Z-5.707
X15.952 Y10.045 Z-5.714
X15.899 Y10.21 Z-5.72
X15.83 Y10.37 Z-5.726
X15.747 Y10.524 Z-5.732
X15.651 Y10.668 Z-5.738
X15.541 Y10.804 Z-5.744
X15.42 Y10.929 Z-5.75
G3 X13.226 Y10.859 R1.552
X13.295 Y8.665 R1.552
X14.557 Y7.945 R3.117
X15.433 Y7.79 R4.119
X15.805 Y8.113 R0.348
X15.704 Y8.384 R0.348
G1 X12.777 Y11.311
G3 X12.285 R0.348
X12.185 Y11.034 R0.348
X12.894 Y9.123 R3.878
X13.295 Y8.665 R3.117
G2 X13.658 Y7.418 R1.276
G3 X13.765 Y6.721 R0.901
X14.341 Y6.315 R0.901
G1 X14.773 Y6.221
X15.545 Y6.167
X136.909 Y6.171
X137.775 Y6.249
X138.709 Y6.511
X139.601 Y6.962
X140.104 Y7.328
X140.612 Y7.825
X141.063 Y8.423
X141.393 Y9.03
X141.644 Y9.712
X141.789 Y10.389
X141.843 Y11.163
X141.84 Y89.97
Y90.49
X141.762 Y91.359
X141.501 Y92.295
X141.05 Y93.187
X140.684 Y93.691
X140.188 Y94.2
X139.59 Y94.651
X138.984 Y94.981
X138.303 Y95.233
X137.627 Y95.379
X136.856 Y95.433
X15.491 Y95.429
X14.625 Y95.351
X13.692 Y95.089
X12.799 Y94.638
X12.296 Y94.272
X11.788 Y93.775
X11.337 Y93.177
X11.007 Y92.57
X10.756 Y91.888
X10.611 Y91.211
X10.557 Y90.437
X10.56 Y11.11
X10.638 Y10.241
X10.9 Y9.304
X11.35 Y8.412
X11.716 Y7.909
X12.212 Y7.4
X12.81 Y6.949
X13.416 Y6.619
X14.097 Y6.367
X14.341 Y6.315
G3 X14.578 Y6.466 R0.2
G1 X15.54 Y10.694
X15.545 Y10.745
X15.537 Y10.794
X15.517 Y10.84
X15.486 Y10.88
X12.796 Y13.57
X12.785 Y13.582
X12.608 Y13.764
X12.555 Y13.823
X12.508 Y13.886
X12.411 Y14.023
X12.363 Y14.098
X12.322 Y14.177
X12.243 Y14.348
X12.207 Y14.437
X12.179 Y14.529
X12.133 Y14.717
X12.115 Y14.808
X12.105 Y14.901
X12.095 Y15.09
X12.093 Y15.145
X12.097 Y86.58
X12.101 Y86.669
X12.112 Y86.757
X12.146 Y86.945
X12.168 Y87.041
X12.2 Y87.135
X12.274 Y87.323
X12.311 Y87.406
X12.356 Y87.486
X12.441 Y87.623
X12.489 Y87.693
X12.542 Y87.758
X12.664 Y87.895
X12.705 Y87.938
X18.134 Y93.364
X18.193 Y93.418
X18.256 Y93.467
X18.39 Y93.564
X18.464 Y93.613
X18.543 Y93.655
X18.713 Y93.737
X18.801 Y93.774
X18.893 Y93.803
X19.081 Y93.852
X19.174 Y93.871
X19.268 Y93.882
X19.456 Y93.895
X19.522 Y93.897
X136.389 Y93.893
X136.461 Y93.891
X136.531 Y93.883
X137.535 Y93.739
X137.617 Y93.724
X137.698 Y93.702
X137.886 Y93.641
X137.949 Y93.619
X138.01 Y93.592
X138.073 Y93.562
X138.16 Y93.516
X138.912 Y93.062
X138.984 Y93.014
X139.052 Y92.96
X139.182 Y92.847
X139.241 Y92.792
X139.294 Y92.732
X139.389 Y92.619
X139.436 Y92.558
X139.478 Y92.494
X139.93 Y91.741
X139.972 Y91.665
X140.006 Y91.586
X140.079 Y91.398
X140.101 Y91.335
X140.119 Y91.271
X140.134 Y91.208
X140.151 Y91.115
X140.294 Y90.111
X140.302 Y90.041
X140.304 Y89.97
Y11.63
X140.302 Y11.559
X140.294 Y11.489
X140.151 Y10.485
X140.137 Y10.406
X140.116 Y10.328
X140.057 Y10.14
X140.035 Y10.077
X140.009 Y10.015
X139.98 Y9.953
X139.93 Y9.859
X139.478 Y9.106
X139.436 Y9.042
X139.389 Y8.981
X139.294 Y8.868
X139.241 Y8.808
X139.182 Y8.753
X139.052 Y8.64
X138.984 Y8.586
X138.912 Y8.538
X138.16 Y8.084
X138.087 Y8.045
X138.012 Y8.011
X137.824 Y7.936
X137.761 Y7.914
X137.697 Y7.896
X137.634 Y7.88
X137.535 Y7.861
X136.531 Y7.717
X136.461 Y7.709
X136.389 Y7.707
X19.397 Y7.708
X19.301 Y7.712
X19.207 Y7.726
X19.019 Y7.762
X18.923 Y7.786
X18.829 Y7.819
X18.641 Y7.896
X18.559 Y7.934
X18.48 Y7.98
X18.346 Y8.066
X18.27 Y8.12
X18.2 Y8.18
X17.975 Y8.392
X17.954 Y8.412
X15.486 Y10.88
X15.456 Y10.838
X13.882 Y7.644
X13.878 Y7.631
X14.051 Y7.619 Z-5.756
X14.225 Y7.623 Z-5.762
X14.397 Y7.643 Z-5.768
X14.567 Y7.678 Z-5.774
X14.733 Y7.729 Z-5.78
X14.894 Y7.794 Z-5.786
X15.048 Y7.874 Z-5.792
X15.194 Y7.968 Z-5.798
X15.331 Y8.074 Z-5.805
X15.457 Y8.193 Z-5.811
X15.572 Y8.323 Z-5.817
X15.675 Y8.462 Z-5.823
X15.765 Y8.611 Z-5.829
X15.841 Y8.767 Z-5.835
X15.902 Y8.929 Z-5.841
X15.949 Y9.096 Z-5.847
X15.979 Y9.267 Z-5.853
X15.994 Y9.44 Z-5.859
Y9.613 Z-5.865
X15.977 Y9.786 Z-5.871
X15.945 Y9.957 Z-5.877
X15.897 Y10.123 Z-5.883
X15.835 Y10.285 Z-5.889
X15.758 Y10.441 Z-5.895
X15.667 Y10.588 Z-5.902
X15.562 Y10.727 Z-5.908
X15.446 Y10.856 Z-5.914
X15.319 Y10.973 Z-5.92
X15.181 Y11.079 Z-5.926
X15.034 Y11.171 Z-5.932
X14.879 Y11.25 Z-5.938
X14.718 Y11.314 Z-5.944
X14.552 Y11.363 Z-5.95
X14.382 Y11.397 Z-5.956
X14.209 Y11.415 Z-5.962
X14.036 Y11.418 Z-5.968
X13.863 Y11.404 Z-5.974
X13.692 Y11.375 Z-5.98
X13.524 Y11.331 Z-5.986
X13.361 Y11.271 Z-5.992
X13.204 Y11.196 Z-5.998
X13.055 Y11.108 Z-6.005
X12.914 Y11.007 Z-6.011
X12.784 Y10.893 Z-6.017
X12.664 Y10.767 Z-6.023
X12.556 Y10.631 Z-6.029
X12.461 Y10.486 Z-6.035
X12.379 Y10.333 Z-6.041
X12.312 Y10.173 Z-6.047
X12.26 Y10.007 Z-6.053
X12.223 Y9.838 Z-6.059
X12.202 Y9.666 Z-6.065
X12.196 Y9.492 Z-6.071
X12.207 Y9.319 Z-6.077
X12.233 Y9.148 Z-6.083
X12.274 Y8.979 Z-6.089
X12.331 Y8.815 Z-6.095
X12.403 Y8.657 Z-6.102
X12.488 Y8.506 Z-6.108
X12.587 Y8.364 Z-6.114
X12.699 Y8.231 Z-6.12
X12.822 Y8.109 Z-6.126
X12.956 Y7.999 Z-6.132
X13.1 Y7.901 Z-6.138
X13.251 Y7.817 Z-6.144
X13.41 Y7.747 Z-6.15
X13.575 Y7.692 Z-6.156
X13.743 Y7.652 Z-6.162
X13.915 Y7.627 Z-6.168
X14.088 Y7.619 Z-6.174
X14.262 Y7.626 Z-6.18
X14.434 Y7.649 Z-6.186
X14.603 Y7.688 Z-6.192
X14.768 Y7.741 Z-6.198
X14.927 Y7.81 Z-6.205
X15.08 Y7.893 Z-6.211
X15.224 Y7.99 Z-6.217
X15.359 Y8.099 Z-6.223
X15.483 Y8.22 Z-6.229
X15.595 Y8.352 Z-6.235
X15.696 Y8.493 Z-6.241
X15.783 Y8.644 Z-6.247
X15.855 Y8.801 Z-6.253
X15.913 Y8.965 Z-6.259
X15.956 Y9.133 Z-6.265
X15.984 Y9.304 Z-6.271
X15.996 Y9.477 Z-6.277
X15.992 Y9.65 Z-6.283
X15.972 Y9.823 Z-6.289
X15.936 Y9.993 Z-6.295
X15.885 Y10.158 Z-6.302
X15.819 Y10.319 Z-6.308
X15.739 Y10.473 Z-6.314
X15.645 Y10.619 Z-6.32
X15.539 Y10.755 Z-6.326
X15.42 Y10.882 Z-6.332
X15.29 Y10.997 Z-6.338
X15.15 Y11.1 Z-6.344
X15.001 Y11.189 Z-6.35
X14.845 Y11.265 Z-6.356
X14.683 Y11.326 Z-6.362
X14.516 Y11.372 Z-6.368
X14.345 Y11.402 Z-6.374
X14.172 Y11.417 Z-6.38
X13.999 Y11.416 Z-6.386
X13.826 Y11.399 Z-6.392
X13.655 Y11.367 Z-6.398
X13.489 Y11.319 Z-6.405
X13.327 Y11.256 Z-6.411
X13.172 Y11.179 Z-6.417
X13.024 Y11.088 Z-6.423
X12.886 Y10.983 Z-6.429
X12.757 Y10.867 Z-6.435
X12.64 Y10.739 Z-6.441
X12.534 Y10.601 Z-6.447
X12.442 Y10.454 Z-6.453
X12.364 Y10.299 Z-6.459
X12.3 Y10.138 Z-6.465
X12.251 Y9.972 Z-6.471
X12.217 Y9.801 Z-6.477
X12.199 Y9.629 Z-6.483
X12.197 Y9.455 Z-6.489
X12.211 Y9.282 Z-6.495
X12.24 Y9.111 Z-6.502
X12.285 Y8.944 Z-6.508
X12.345 Y8.781 Z-6.514
X12.42 Y8.624 Z-6.52
X12.508 Y8.475 Z-6.526
X12.61 Y8.335 Z-6.532
X12.724 Y8.204 Z-6.538
X12.85 Y8.084 Z-6.544
X12.986 Y7.977 Z-6.55
X13.131 Y7.882 Z-6.556
X13.285 Y7.801 Z-6.562
X13.445 Y7.734 Z-6.568
X13.61 Y7.682 Z-6.574
X13.78 Y7.645 Z-6.58
X13.952 Y7.624 Z-6.586
X14.126 Y7.619 Z-6.592
X14.299 Y7.63 Z-6.598
X14.47 Y7.656 Z-6.605
X14.639 Y7.698 Z-6.611
X14.802 Y7.755 Z-6.617
X14.96 Y7.827 Z-6.623
X15.111 Y7.913 Z-6.629
X15.253 Y8.012 Z-6.635
X15.386 Y8.124 Z-6.641
X15.508 Y8.247 Z-6.647
X15.618 Y8.381 Z-6.653
X15.715 Y8.525 Z-6.659
X15.799 Y8.677 Z-6.665
X15.869 Y8.836 Z-6.671
X15.924 Y9. Z-6.677
X15.964 Y9.169 Z-6.683
X15.988 Y9.341 Z-6.689
X15.996 Y9.514 Z-6.695
X15.989 Y9.687 Z-6.702
X15.965 Y9.859 Z-6.708
X15.926 Y10.028 Z-6.714
X15.872 Y10.193 Z-6.72
X15.803 Y10.352 Z-6.726
X15.72 Y10.505 Z-6.732
X15.624 Y10.649 Z-6.738
X15.514 Y10.783 Z-6.744
X15.393 Y10.907 Z-6.75
G3 X13.228 Y10.833 R1.532
X13.302 Y8.668 R1.532
X14.55 Y7.957 R3.101
X15.407 Y7.803 R4.128
X15.778 Y8.125 R0.347
X15.677 Y8.395 R0.347
G1 X12.787 Y11.284
G3 X12.298 R0.346
X12.198 Y11.008 R0.346
X12.904 Y9.12 R3.809
X13.302 Y8.668 R3.101
G1 X13.394 Y8.586 Z-6.73
X13.48 Y8.514 Z-6.674
X13.549 Y8.46 Z-6.585
X13.595 Y8.426 Z-6.474
X13.611 Y8.415 Z-6.35
G0 Z5.
X15.632 Y91.092
Z-1.75
G1 Z-4.3 F380.
X15.64 Y91.109 Z-4.421 F1500.
X15.661 Y91.159 Z-4.531
X15.692 Y91.238 Z-4.619
X15.726 Y91.341 Z-4.677
X15.758 Y91.457 Z-4.7
X15.79 Y91.628 Z-4.706
X15.806 Y91.801 Z-4.712
Y91.975 Z-4.718
X15.79 Y92.149 Z-4.724
X15.759 Y92.32 Z-4.73
X15.712 Y92.488 Z-4.736
X15.65 Y92.65 Z-4.743
X15.573 Y92.807 Z-4.749
X15.482 Y92.955 Z-4.755
X15.378 Y93.095 Z-4.761
X15.262 Y93.224 Z-4.767
X15.134 Y93.343 Z-4.773
X14.996 Y93.449 Z-4.779
X14.849 Y93.542 Z-4.785
X14.694 Y93.621 Z-4.791
X14.532 Y93.686 Z-4.797
X14.365 Y93.735 Z-4.803
X14.194 Y93.769 Z-4.809
X14.021 Y93.788 Z-4.816
X13.847 Y93.79 Z-4.822
X13.673 Y93.777 Z-4.828
X13.502 Y93.747 Z-4.834
X13.333 Y93.702 Z-4.84
X13.17 Y93.642 Z-4.846
X13.013 Y93.567 Z-4.852
X12.863 Y93.478 Z-4.858
X12.722 Y93.376 Z-4.864
X12.591 Y93.261 Z-4.87
X12.471 Y93.135 Z-4.876
X12.364 Y92.998 Z-4.882
X12.269 Y92.852 Z-4.889
X12.188 Y92.698 Z-4.895
X12.121 Y92.537 Z-4.901
X12.069 Y92.371 Z-4.907
X12.033 Y92.2 Z-4.913
X12.013 Y92.027 Z-4.919
X12.008 Y91.853 Z-4.925
X12.02 Y91.68 Z-4.931
X12.047 Y91.508 Z-4.937
X12.09 Y91.339 Z-4.943
X12.148 Y91.175 Z-4.949
X12.221 Y91.017 Z-4.955
X12.308 Y90.866 Z-4.962
X12.409 Y90.724 Z-4.968
X12.522 Y90.591 Z-4.974
X12.647 Y90.47 Z-4.98
X12.782 Y90.36 Z-4.986
X12.927 Y90.264 Z-4.992
X13.08 Y90.181 Z-4.998
X13.24 Y90.112 Z-5.004
X13.406 Y90.059 Z-5.01
X13.576 Y90.02 Z-5.016
X13.749 Y89.998 Z-5.022
X13.923 Y89.991 Z-5.028
X14.097 Y90.001 Z-5.035
X14.269 Y90.026 Z-5.041
X14.438 Y90.067 Z-5.047
X14.603 Y90.123 Z-5.053
X14.762 Y90.194 Z-5.059
X14.914 Y90.279 Z-5.065
X15.057 Y90.378 Z-5.071
X15.191 Y90.49 Z-5.077
X15.314 Y90.613 Z-5.083
X15.425 Y90.747 Z-5.089
X15.523 Y90.891 Z-5.095
X15.608 Y91.043 Z-5.101
X15.679 Y91.202 Z-5.108
X15.734 Y91.367 Z-5.114
X15.775 Y91.536 Z-5.12
X15.799 Y91.709 Z-5.126
X15.808 Y91.883 Z-5.132
X15.801 Y92.057 Z-5.138
X15.778 Y92.229 Z-5.144
X15.739 Y92.399 Z-5.15
X15.685 Y92.565 Z-5.156
X15.615 Y92.724 Z-5.162
X15.532 Y92.877 Z-5.168
X15.435 Y93.022 Z-5.174
X15.325 Y93.157 Z-5.181
X15.203 Y93.281 Z-5.187
X15.07 Y93.394 Z-5.193
X14.928 Y93.494 Z-5.199
X14.777 Y93.581 Z-5.205
X14.619 Y93.653 Z-5.211
X14.454 Y93.711 Z-5.217
X14.285 Y93.753 Z-5.223
X14.113 Y93.78 Z-5.229
X13.94 Y93.791 Z-5.235
X13.765 Y93.786 Z-5.241
X13.593 Y93.765 Z-5.247
X13.422 Y93.728 Z-5.254
X13.256 Y93.676 Z-5.26
X13.096 Y93.609 Z-5.266
X12.942 Y93.527 Z-5.272
X12.796 Y93.432 Z-5.278
X12.66 Y93.324 Z-5.284
X12.534 Y93.203 Z-5.29
X12.419 Y93.072 Z-5.296
X12.318 Y92.931 Z-5.302
X12.229 Y92.781 Z-5.308
X12.155 Y92.623 Z-5.314
X12.095 Y92.46 Z-5.32
X12.051 Y92.291 Z-5.327
X12.022 Y92.12 Z-5.333
X12.009 Y91.946 Z-5.339
X12.012 Y91.772 Z-5.345
X12.031 Y91.599 Z-5.351
X12.065 Y91.428 Z-5.357
X12.115 Y91.261 Z-5.363
X12.181 Y91.1 Z-5.369
X12.26 Y90.945 Z-5.375
X12.354 Y90.798 Z-5.381
X12.46 Y90.66 Z-5.387
X12.579 Y90.533 Z-5.393
X12.709 Y90.417 Z-5.4
X12.849 Y90.314 Z-5.406
X12.998 Y90.223 Z-5.412
X13.154 Y90.147 Z-5.418
X13.317 Y90.085 Z-5.424
X13.485 Y90.039 Z-5.43
X13.656 Y90.008 Z-5.436
X13.83 Y89.993 Z-5.442
X14.004 Y89.994 Z-5.448
X14.177 Y90.01 Z-5.454
X14.348 Y90.043 Z-5.46
X14.516 Y90.091 Z-5.466
X14.678 Y90.154 Z-5.473
X14.834 Y90.232 Z-5.479
X14.982 Y90.324 Z-5.485
X15.121 Y90.429 Z-5.491
X15.25 Y90.546 Z-5.497
X15.367 Y90.674 Z-5.503
X15.472 Y90.813 Z-5.509
X15.565 Y90.961 Z-5.515
X15.643 Y91.116 Z-5.521
X15.706 Y91.279 Z-5.527
X15.755 Y91.446 Z-5.533
X15.788 Y91.617 Z-5.539
X15.805 Y91.79 Z-5.546
X15.807 Y91.964 Z-5.552
X15.792 Y92.138 Z-5.558
X15.761 Y92.309 Z-5.564
X15.715 Y92.477 Z-5.57
X15.654 Y92.64 Z-5.576
X15.578 Y92.797 Z-5.582
X15.488 Y92.946 Z-5.588
X15.385 Y93.086 Z-5.594
X15.269 Y93.216 Z-5.6
X15.142 Y93.336 Z-5.606
X15.005 Y93.442 Z-5.612
X14.858 Y93.536 Z-5.619
X14.704 Y93.616 Z-5.625
X14.542 Y93.682 Z-5.631
X14.376 Y93.733 Z-5.637
X14.205 Y93.768 Z-5.643
X14.032 Y93.787 Z-5.649
X13.858 Y93.791 Z-5.655
X13.684 Y93.778 Z-5.661
X13.513 Y93.75 Z-5.667
X13.344 Y93.706 Z-5.673
X13.18 Y93.646 Z-5.679
X13.023 Y93.572 Z-5.685
X12.872 Y93.484 Z-5.692
X12.731 Y93.383 Z-5.698
X12.599 Y93.269 Z-5.704
X12.479 Y93.143 Z-5.71
X12.37 Y93.007 Z-5.716
X12.274 Y92.862 Z-5.722
X12.192 Y92.708 Z-5.728
X12.125 Y92.547 Z-5.734
X12.072 Y92.381 Z-5.74
X12.035 Y92.211 Z-5.746
X12.014 Y92.039 Z-5.752
X12.008 Y91.864 Z-5.758
X12.019 Y91.691 Z-5.765
X12.045 Y91.518 Z-5.771
X12.087 Y91.349 Z-5.777
X12.144 Y91.185 Z-5.783
X12.216 Y91.026 Z-5.789
X12.302 Y90.875 Z-5.795
X12.402 Y90.733 Z-5.801
X12.515 Y90.6 Z-5.807
X12.639 Y90.477 Z-5.813
X12.773 Y90.367 Z-5.819
X12.918 Y90.27 Z-5.825
X13.07 Y90.186 Z-5.831
X13.23 Y90.116 Z-5.838
X13.395 Y90.062 Z-5.844
X13.565 Y90.022 Z-5.85
X13.738 Y89.999 Z-5.856
X13.911 Y89.991 Z-5.862
X14.085 Y89.999 Z-5.868
X14.258 Y90.024 Z-5.874
X14.427 Y90.064 Z-5.88
X14.593 Y90.119 Z-5.886
X14.752 Y90.189 Z-5.892
X14.904 Y90.273 Z-5.898
X15.048 Y90.371 Z-5.904
X15.182 Y90.482 Z-5.911
X15.306 Y90.605 Z-5.917
X15.418 Y90.738 Z-5.923
X15.517 Y90.881 Z-5.929
X15.603 Y91.033 Z-5.935
X15.674 Y91.192 Z-5.941
X15.731 Y91.356 Z-5.947
X15.772 Y91.525 Z-5.953
X15.798 Y91.698 Z-5.959
X15.808 Y91.872 Z-5.965
X15.802 Y92.046 Z-5.971
X15.78 Y92.218 Z-5.977
X15.742 Y92.388 Z-5.984
X15.689 Y92.554 Z-5.99
X15.62 Y92.714 Z-5.996
X15.538 Y92.868 Z-6.002
X15.442 Y93.013 Z-6.008
X15.332 Y93.148 Z-6.014
X15.211 Y93.274 Z-6.02
X15.079 Y93.387 Z-6.026
X14.937 Y93.488 Z-6.032
X14.787 Y93.576 Z-6.038
X14.629 Y93.649 Z-6.044
X14.465 Y93.708 Z-6.05
X14.296 Y93.751 Z-6.057
X14.124 Y93.779 Z-6.063
X13.951 Y93.791 Z-6.069
X13.777 Y93.787 Z-6.075
X13.604 Y93.767 Z-6.081
X13.433 Y93.731 Z-6.087
X13.267 Y93.68 Z-6.093
X13.106 Y93.614 Z-6.099
X12.951 Y93.533 Z-6.105
X12.805 Y93.438 Z-6.111
X12.668 Y93.331 Z-6.117
X12.541 Y93.211 Z-6.123
X12.426 Y93.081 Z-6.13
X12.324 Y92.94 Z-6.136
X12.234 Y92.791 Z-6.142
X12.159 Y92.634 Z-6.148
X12.098 Y92.47 Z-6.154
X12.053 Y92.302 Z-6.16
X12.023 Y92.131 Z-6.166
X12.009 Y91.957 Z-6.172
X12.011 Y91.783 Z-6.178
X12.029 Y91.61 Z-6.184
X12.063 Y91.439 Z-6.19
X12.112 Y91.272 Z-6.196
X12.176 Y91.11 Z-6.203
X12.255 Y90.955 Z-6.209
X12.347 Y90.807 Z-6.215
X12.453 Y90.669 Z-6.221
X12.571 Y90.541 Z-6.227
X12.7 Y90.424 Z-6.233
X12.84 Y90.32 Z-6.239
X12.988 Y90.229 Z-6.245
X13.144 Y90.151 Z-6.251
X13.307 Y90.089 Z-6.257
X13.474 Y90.041 Z-6.263
X13.645 Y90.009 Z-6.269
X13.819 Y89.993 Z-6.276
X13.993 Z-6.282
X14.166 Y90.009 Z-6.288
X14.338 Y90.04 Z-6.294
X14.505 Y90.088 Z-6.3
X14.668 Y90.15 Z-6.306
X14.824 Y90.227 Z-6.312
X14.973 Y90.318 Z-6.318
X15.112 Y90.422 Z-6.324
X15.242 Y90.538 Z-6.33
X15.36 Y90.666 Z-6.336
X15.466 Y90.804 Z-6.342
X15.559 Y90.951 Z-6.349
X15.638 Y91.106 Z-6.355
X15.703 Y91.268 Z-6.361
X15.752 Y91.435 Z-6.367
X15.786 Y91.606 Z-6.373
X15.805 Y91.779 Z-6.379
X15.807 Y91.953 Z-6.385
X15.793 Y92.127 Z-6.391
X15.764 Y92.298 Z-6.397
X15.719 Y92.467 Z-6.403
X15.658 Y92.63 Z-6.409
X15.583 Y92.787 Z-6.415
X15.494 Y92.937 Z-6.422
X15.392 Y93.078 Z-6.428
X15.277 Y93.208 Z-6.434
X15.151 Y93.328 Z-6.44
X15.014 Y93.436 Z-6.446
X14.868 Y93.531 Z-6.452
X14.714 Y93.612 Z-6.458
X14.553 Y93.678 Z-6.464
X14.387 Y93.73 Z-6.47
X14.216 Y93.766 Z-6.476
X14.043 Y93.786 Z-6.482
X13.869 Y93.791 Z-6.488
X13.695 Y93.779 Z-6.495
X13.523 Y93.752 Z-6.501
X13.355 Y93.709 Z-6.507
X13.191 Y93.651 Z-6.513
X13.033 Y93.578 Z-6.519
X12.882 Y93.49 Z-6.525
X12.74 Y93.39 Z-6.531
X12.607 Y93.276 Z-6.537
X12.486 Y93.152 Z-6.543
X12.377 Y93.016 Z-6.549
X12.28 Y92.871 Z-6.555
X12.197 Y92.718 Z-6.561
X12.129 Y92.558 Z-6.568
X12.075 Y92.392 Z-6.574
X12.037 Y92.222 Z-6.58
X12.015 Y92.05 Z-6.586
X12.008 Y91.876 Z-6.592
X12.017 Y91.702 Z-6.598
X12.043 Y91.529 Z-6.604
X12.084 Y91.36 Z-6.61
X12.14 Y91.195 Z-6.616
X12.211 Y91.036 Z-6.622
X12.296 Y90.885 Z-6.628
X12.395 Y90.741 Z-6.634
X12.507 Y90.608 Z-6.641
X12.63 Y90.485 Z-6.647
X12.764 Y90.374 Z-6.653
X12.908 Y90.275 Z-6.659
X13.06 Y90.191 Z-6.665
X13.22 Y90.12 Z-6.671
X13.385 Y90.065 Z-6.677
X13.554 Y90.024 Z-6.683
X13.726 Y90. Z-6.689
X13.9 Y89.991 Z-6.695
X14.074 Y89.998 Z-6.701
X14.247 Y90.022 Z-6.707
X14.417 Y90.061 Z-6.714
X14.582 Y90.115 Z-6.72
X14.742 Y90.184 Z-6.726
X14.895 Y90.268 Z-6.732
X15.039 Y90.365 Z-6.738
X15.174 Y90.475 Z-6.744
X15.299 Y90.597 Z-6.75
G3 X15.221 Y92.762 R1.532
X13.056 Y92.684 R1.532
X12.348 Y91.436 R3.101
X12.194 Y90.58 R4.143
X12.516 Y90.21 R0.347
X12.785 Y90.311 R0.347
G1 X15.674 Y93.201
G3 Y93.691 R0.346
X15.398 Y93.791 R0.346
X13.509 Y93.085 R3.807
X13.056 Y92.684 R3.101
G2 X11.828 Y92.324 R1.253
G3 X11.141 Y92.219 R0.888
X10.741 Y91.651 R0.888
G1 X10.646 Y91.21
X10.592 Y90.437
X10.595 Y11.11
X10.673 Y10.242
X10.929 Y9.326
X11.374 Y8.438
X11.759 Y7.912
X12.239 Y7.423
X12.834 Y6.975
X13.46 Y6.638
X14.097 Y6.403
X14.774 Y6.256
X15.545 Y6.202
X136.909 Y6.206
X137.775 Y6.284
X138.689 Y6.54
X139.576 Y6.987
X140.101 Y7.372
X140.59 Y7.853
X141.039 Y8.448
X141.373 Y9.074
X141.608 Y9.712
X141.754 Y10.39
X141.808 Y11.163
X141.805 Y90.49
X141.727 Y91.358
X141.471 Y92.273
X141.026 Y93.161
X140.641 Y93.688
X140.161 Y94.177
X139.566 Y94.625
X138.94 Y94.962
X138.303 Y95.197
X137.627 Y95.344
X136.856 Y95.398
X15.491 Y95.394
X14.625 Y95.316
X13.711 Y95.06
X12.825 Y94.613
X12.299 Y94.228
X11.811 Y93.747
X11.362 Y93.152
X11.027 Y92.526
X10.792 Y91.888
X10.741 Y91.651
G3 X10.892 Y91.413 R0.2
G1 X15.059 Y90.471
X15.109 Y90.466
X15.159 Y90.474
X15.205 Y90.494
X15.245 Y90.524
X18.109 Y93.389
X18.167 Y93.443
X18.229 Y93.492
X18.382 Y93.603
X18.463 Y93.655
X18.548 Y93.7
X18.724 Y93.782
X18.814 Y93.819
X18.907 Y93.846
X19.096 Y93.893
X19.187 Y93.911
X19.279 Y93.92
X19.467 Y93.93
X19.522 Y93.932
X136.389 Y93.931
X136.46 Y93.928
X136.531 Y93.921
X137.597 Y93.768
X137.694 Y93.749
X137.789 Y93.721
X137.977 Y93.654
X138.067 Y93.617
X138.154 Y93.571
X138.906 Y93.125
X138.962 Y93.089
X139.015 Y93.05
X139.143 Y92.949
X139.212 Y92.89
X139.274 Y92.824
X139.406 Y92.675
X139.461 Y92.606
X139.511 Y92.532
X139.95 Y91.805
X139.985 Y91.742
X140.015 Y91.677
X140.094 Y91.489
X140.124 Y91.41
X140.146 Y91.33
X140.176 Y91.205
X140.193 Y91.111
X140.332 Y90.106
X140.339 Y90.038
X140.341 Y89.97
X140.337 Y11.567
X140.334 Y11.495
X140.326 Y11.423
X140.18 Y10.418
X140.162 Y10.327
X140.136 Y10.237
X140.071 Y10.049
X140.034 Y9.958
X139.989 Y9.871
X139.761 Y9.48
X139.751 Y9.462
X139.509 Y9.065
X139.46 Y8.993
X139.406 Y8.925
X139.274 Y8.776
X139.212 Y8.71
X139.143 Y8.651
X139.015 Y8.55
X138.962 Y8.511
X138.906 Y8.475
X138.154 Y8.029
X138.067 Y7.983
X137.977 Y7.946
X137.789 Y7.879
X137.694 Y7.851
X137.597 Y7.832
X136.531 Y7.679
X136.46 Y7.672
X136.389 Y7.669
X19.397 Y7.672
X19.309 Y7.675
X19.221 Y7.687
X19.033 Y7.721
X18.937 Y7.743
X18.844 Y7.774
X18.656 Y7.847
X18.568 Y7.887
X18.485 Y7.934
X18.332 Y8.031
X18.252 Y8.088
X18.177 Y8.152
X17.922 Y8.395
X17.905 Y8.412
X12.796 Y13.521
X12.789 Y13.528
X12.586 Y13.736
X12.531 Y13.795
X12.482 Y13.859
X12.373 Y14.015
X12.321 Y14.096
X12.277 Y14.182
X12.198 Y14.359
X12.163 Y14.45
X12.136 Y14.543
X12.093 Y14.732
X12.076 Y14.821
X12.068 Y14.912
X12.059 Y15.1
X12.058 Y15.145
X12.061 Y86.58
X12.064 Y86.662
X12.074 Y86.743
X12.105 Y86.931
X12.125 Y87.027
X12.155 Y87.12
X12.226 Y87.309
X12.264 Y87.397
X12.311 Y87.481
X12.406 Y87.637
X12.478 Y87.738
X12.52 Y87.79
X12.592 Y87.871
X15.245 Y90.524
G3 Y90.807 R0.2
X15.199 Y90.841 R0.2
G1 X13.766 Y91.622
X12.308 Y92.335
G3 X12.04 Y92.243 R0.2
X12.022 Y92.181 R0.2
G1 X12.007 Y92.008 Z-6.756
X12.009 Y91.835 Z-6.762
X12.026 Y91.662 Z-6.768
X12.059 Y91.492 Z-6.774
X12.108 Y91.325 Z-6.78
X12.171 Y91.164 Z-6.786
X12.249 Y91.009 Z-6.792
X12.341 Y90.861 Z-6.798
X12.446 Y90.723 Z-6.805
X12.563 Y90.595 Z-6.811
X12.691 Y90.478 Z-6.817
X12.829 Y90.373 Z-6.823
X12.976 Y90.282 Z-6.829
X13.131 Y90.204 Z-6.835
X13.293 Y90.14 Z-6.841
X13.46 Y90.092 Z-6.847
X13.63 Y90.059 Z-6.853
X13.802 Y90.042 Z-6.859
X13.976 Y90.04 Z-6.865
X14.149 Y90.054 Z-6.871
X14.32 Y90.084 Z-6.877
X14.487 Y90.13 Z-6.883
X14.65 Y90.19 Z-6.889
X14.806 Y90.265 Z-6.895
X14.955 Y90.354 Z-6.902
X15.095 Y90.457 Z-6.908
X15.225 Y90.571 Z-6.914
X15.345 Y90.697 Z-6.92
X15.452 Y90.834 Z-6.926
X15.546 Y90.979 Z-6.932
X15.627 Y91.133 Z-6.938
X15.693 Y91.293 Z-6.944
X15.745 Y91.459 Z-6.95
X15.781 Y91.629 Z-6.956
X15.801 Y91.801 Z-6.962
X15.806 Y91.974 Z-6.968
X15.795 Y92.148 Z-6.974
X15.768 Y92.319 Z-6.98
X15.725 Y92.487 Z-6.986
X15.668 Y92.651 Z-6.992
X15.595 Y92.809 Z-6.998
X15.509 Y92.959 Z-7.005
X15.409 Y93.101 Z-7.011
X15.297 Y93.233 Z-7.017
X15.173 Y93.355 Z-7.023
X15.038 Y93.464 Z-7.029
X14.895 Y93.561 Z-7.035
X14.742 Y93.645 Z-7.041
X14.583 Y93.714 Z-7.047
X14.419 Y93.768 Z-7.053
X14.25 Y93.807 Z-7.059
X14.078 Y93.831 Z-7.065
X13.904 Y93.839 Z-7.071
X13.731 Y93.831 Z-7.077
X13.559 Y93.807 Z-7.083
X13.39 Y93.767 Z-7.089
X13.226 Y93.713 Z-7.095
X13.067 Y93.643 Z-7.102
X12.915 Y93.56 Z-7.108
X12.771 Y93.462 Z-7.114
X12.637 Y93.352 Z-7.12
X12.513 Y93.231 Z-7.126
X12.401 Y93.098 Z-7.132
X12.301 Y92.956 Z-7.138
X12.215 Y92.806 Z-7.144
X12.143 Y92.648 Z-7.15
X12.086 Y92.484 Z-7.156
X12.044 Y92.316 Z-7.162
X12.017 Y92.144 Z-7.168
X12.006 Y91.971 Z-7.174
X12.011 Y91.798 Z-7.18
X12.032 Y91.625 Z-7.186
X12.068 Y91.456 Z-7.192
X12.12 Y91.29 Z-7.198
X12.187 Y91.13 Z-7.205
X12.268 Y90.977 Z-7.211
X12.362 Y90.831 Z-7.217
X12.47 Y90.695 Z-7.223
X12.589 Y90.569 Z-7.229
X12.72 Y90.455 Z-7.235
X12.86 Y90.353 Z-7.241
X13.009 Y90.264 Z-7.247
X13.165 Y90.189 Z-7.253
X13.328 Y90.129 Z-7.259
X13.496 Y90.084 Z-7.265
X13.667 Y90.054 Z-7.271
X13.84 Y90.04 Z-7.277
X14.013 Y90.042 Z-7.283
X14.186 Y90.059 Z-7.289
X14.356 Y90.093 Z-7.295
X14.522 Y90.141 Z-7.302
X14.684 Y90.205 Z-7.308
X14.839 Y90.283 Z-7.314
X14.986 Y90.375 Z-7.32
X15.124 Y90.48 Z-7.326
X15.252 Y90.597 Z-7.332
X15.369 Y90.726 Z-7.338
X15.473 Y90.864 Z-7.344
X15.565 Y91.012 Z-7.35
X15.642 Y91.167 Z-7.356
X15.705 Y91.328 Z-7.362
X15.754 Y91.495 Z-7.368
X15.786 Y91.665 Z-7.374
X15.803 Y91.838 Z-7.38
X15.805 Y92.012 Z-7.386
X15.79 Y92.184 Z-7.392
X15.76 Y92.355 Z-7.398
X15.714 Y92.523 Z-7.405
X15.653 Y92.685 Z-7.411
X15.578 Y92.841 Z-7.417
X15.489 Y92.99 Z-7.423
X15.386 Y93.13 Z-7.429
X15.271 Y93.26 Z-7.435
X15.145 Y93.379 Z-7.441
X15.008 Y93.486 Z-7.447
X14.863 Y93.58 Z-7.453
X14.709 Y93.661 Z-7.459
X14.549 Y93.727 Z-7.465
X14.383 Y93.778 Z-7.471
X14.213 Y93.814 Z-7.477
X14.041 Y93.834 Z-7.483
X13.867 Y93.838 Z-7.489
X13.694 Y93.827 Z-7.495
X13.523 Y93.8 Z-7.502
X13.355 Y93.757 Z-7.508
X13.191 Y93.699 Z-7.514
X13.033 Y93.626 Z-7.52
X12.883 Y93.54 Z-7.526
X12.741 Y93.44 Z-7.532
X12.609 Y93.327 Z-7.538
X12.488 Y93.203 Z-7.544
X12.379 Y93.069 Z-7.55
X12.282 Y92.925 Z-7.556
X12.199 Y92.772 Z-7.562
X12.13 Y92.613 Z-7.568
X12.076 Y92.448 Z-7.574
X12.037 Y92.279 Z-7.58
X12.014 Y92.107 Z-7.586
X12.006 Y91.934 Z-7.592
X12.014 Y91.761 Z-7.598
X12.039 Y91.589 Z-7.605
X12.078 Y91.42 Z-7.611
X12.133 Y91.255 Z-7.617
X12.203 Y91.097 Z-7.623
X12.287 Y90.945 Z-7.629
X12.384 Y90.801 Z-7.635
X12.494 Y90.667 Z-7.641
X12.616 Y90.544 Z-7.647
X12.749 Y90.432 Z-7.653
X12.891 Y90.332 Z-7.659
X13.042 Y90.247 Z-7.665
X13.2 Y90.175 Z-7.671
X13.364 Y90.118 Z-7.677
X13.532 Y90.076 Z-7.683
X13.703 Y90.05 Z-7.689
X13.877 Y90.039 Z-7.695
X14.05 Y90.044 Z-7.702
X14.222 Y90.065 Z-7.708
X14.392 Y90.102 Z-7.714
X14.557 Y90.154 Z-7.72
X14.717 Y90.221 Z-7.726
X14.871 Y90.302 Z-7.732
X15.016 Y90.397 Z-7.738
X15.152 Y90.504 Z-7.744
X15.278 Y90.624 Z-7.75
G3 X15.232 Y92.76 R1.511
X13.097 Y92.715 R1.511
X12.36 Y91.439 R3.096
X12.262 Y91.028 R4.231
X12.208 Y90.609 R3.716
X12.528 Y90.24 R0.345
X12.796 Y90.341 R0.345
G1 X15.645 Y93.19
G3 Y93.677 R0.344
X15.371 Y93.776 R0.344
X13.505 Y93.072 R3.735
X13.097 Y92.715 R3.096
G1 X13.013 Y92.624 Z-7.73
X12.94 Y92.539 Z-7.674
X12.885 Y92.47 Z-7.585
X12.851 Y92.424 Z-7.474
X12.839 Y92.409 Z-7.35
G0 Z5.
X14.852 Y11.242
G1 Z-5.3 F380.
X14.835 Y11.249 Z-5.421 F1500.
X14.785 Y11.271 Z-5.531
X14.706 Y11.302 Z-5.619
X14.604 Y11.336 Z-5.677
X14.488 Y11.368 Z-5.7
X14.317 Y11.4 Z-5.706
X14.143 Y11.416 Z-5.712
X13.969 Z-5.718
X13.796 Y11.401 Z-5.724
X13.624 Y11.369 Z-5.73
X13.457 Y11.323 Z-5.736
X13.294 Y11.26 Z-5.743
X13.138 Y11.184 Z-5.749
X12.989 Y11.093 Z-5.755
X12.849 Y10.989 Z-5.761
X12.72 Y10.873 Z-5.767
X12.601 Y10.745 Z-5.773
X12.495 Y10.607 Z-5.779
X12.402 Y10.46 Z-5.785
X12.322 Y10.305 Z-5.791
X12.258 Y10.143 Z-5.797
X12.208 Y9.977 Z-5.803
X12.174 Y9.806 Z-5.809
X12.155 Y9.633 Z-5.816
X12.153 Y9.459 Z-5.822
X12.166 Y9.285 Z-5.828
X12.195 Y9.113 Z-5.834
X12.24 Y8.945 Z-5.84
X12.3 Y8.782 Z-5.846
X12.375 Y8.624 Z-5.852
X12.464 Y8.475 Z-5.858
X12.566 Y8.334 Z-5.864
X12.681 Y8.203 Z-5.87
X12.807 Y8.083 Z-5.876
X12.944 Y7.975 Z-5.882
X13.09 Y7.88 Z-5.889
X13.244 Y7.799 Z-5.895
X13.405 Y7.732 Z-5.901
X13.571 Y7.68 Z-5.907
X13.741 Y7.644 Z-5.913
X13.914 Y7.623 Z-5.919
X14.088 Y7.619 Z-5.925
X14.262 Y7.63 Z-5.931
X14.434 Y7.657 Z-5.937
X14.603 Y7.7 Z-5.943
X14.767 Y7.758 Z-5.949
X14.925 Y7.831 Z-5.955
X15.076 Y7.918 Z-5.962
X15.218 Y8.018 Z-5.968
X15.351 Y8.131 Z-5.974
X15.472 Y8.256 Z-5.98
X15.582 Y8.392 Z-5.986
X15.678 Y8.536 Z-5.992
X15.762 Y8.689 Z-5.998
X15.83 Y8.849 Z-6.004
X15.884 Y9.015 Z-6.01
X15.922 Y9.185 Z-6.016
X15.945 Y9.358 Z-6.022
X15.952 Y9.532 Z-6.028
X15.943 Y9.705 Z-6.035
X15.917 Y9.878 Z-6.041
X15.877 Y10.047 Z-6.047
X15.821 Y10.212 Z-6.053
X15.75 Y10.371 Z-6.059
X15.665 Y10.523 Z-6.065
X15.566 Y10.666 Z-6.071
X15.454 Y10.8 Z-6.077
X15.331 Y10.923 Z-6.083
X15.197 Y11.034 Z-6.089
X15.053 Y11.133 Z-6.095
X14.901 Y11.218 Z-6.101
X14.742 Y11.288 Z-6.108
X14.577 Y11.344 Z-6.114
X14.408 Y11.385 Z-6.12
X14.236 Y11.409 Z-6.126
X14.062 Y11.418 Z-6.132
X13.888 Y11.411 Z-6.138
X13.715 Y11.388 Z-6.144
X13.545 Y11.349 Z-6.15
X13.38 Y11.295 Z-6.156
X13.22 Y11.226 Z-6.162
X13.067 Y11.143 Z-6.168
X12.922 Y11.046 Z-6.174
X12.787 Y10.936 Z-6.181
X12.663 Y10.814 Z-6.187
X12.55 Y10.682 Z-6.193
X12.45 Y10.539 Z-6.199
X12.363 Y10.388 Z-6.205
X12.29 Y10.23 Z-6.211
X12.232 Y10.066 Z-6.217
X12.19 Y9.897 Z-6.223
X12.163 Y9.725 Z-6.229
X12.152 Y9.551 Z-6.235
X12.157 Y9.377 Z-6.241
X12.178 Y9.204 Z-6.247
X12.215 Y9.034 Z-6.254
X12.267 Y8.868 Z-6.26
X12.334 Y8.707 Z-6.266
X12.415 Y8.553 Z-6.272
X12.51 Y8.407 Z-6.278
X12.618 Y8.271 Z-6.284
X12.739 Y8.145 Z-6.29
X12.87 Y8.031 Z-6.296
X13.011 Y7.929 Z-6.302
X13.161 Y7.84 Z-6.308
X13.318 Y7.765 Z-6.314
X13.482 Y7.706 Z-6.32
X13.65 Y7.661 Z-6.327
X13.822 Y7.632 Z-6.333
X13.996 Y7.619 Z-6.339
X14.17 Y7.622 Z-6.345
X14.343 Y7.641 Z-6.351
X14.514 Y7.675 Z-6.357
X14.68 Y7.725 Z-6.363
X14.842 Y7.79 Z-6.369
X14.997 Y7.87 Z-6.375
X15.144 Y7.963 Z-6.381
X15.281 Y8.07 Z-6.387
X15.409 Y8.188 Z-6.393
X15.525 Y8.318 Z-6.4
X15.629 Y8.458 Z-6.406
X15.719 Y8.607 Z-6.412
X15.795 Y8.763 Z-6.418
X15.857 Y8.926 Z-6.424
X15.904 Y9.094 Z-6.43
X15.935 Y9.265 Z-6.436
X15.95 Y9.439 Z-6.442
X15.949 Y9.613 Z-6.448
X15.933 Y9.786 Z-6.454
X15.9 Y9.957 Z-6.46
X15.852 Y10.125 Z-6.466
X15.789 Y10.287 Z-6.473
X15.712 Y10.443 Z-6.479
X15.62 Y10.591 Z-6.485
X15.515 Y10.73 Z-6.491
X15.398 Y10.859 Z-6.497
X15.27 Y10.977 Z-6.503
X15.131 Y11.082 Z-6.509
X14.983 Y11.174 Z-6.515
X14.828 Y11.253 Z-6.521
X14.666 Y11.316 Z-6.527
X14.499 Y11.365 Z-6.533
X14.328 Y11.398 Z-6.539
X14.154 Y11.415 Z-6.546
X13.98 Y11.417 Z-6.552
X13.807 Y11.402 Z-6.558
X13.635 Y11.372 Z-6.564
X13.467 Y11.326 Z-6.57
X13.304 Y11.265 Z-6.576
X13.147 Y11.189 Z-6.582
X12.998 Y11.099 Z-6.588
X12.858 Y10.996 Z-6.594
X12.728 Y10.881 Z-6.6
X12.608 Y10.754 Z-6.606
X12.501 Y10.616 Z-6.612
X12.407 Y10.47 Z-6.619
X12.327 Y10.315 Z-6.625
X12.261 Y10.154 Z-6.631
X12.211 Y9.987 Z-6.637
X12.175 Y9.817 Z-6.643
X12.156 Y9.644 Z-6.649
X12.152 Y9.47 Z-6.655
X12.165 Y9.296 Z-6.661
X12.193 Y9.124 Z-6.667
X12.237 Y8.956 Z-6.673
X12.296 Y8.792 Z-6.679
X12.37 Y8.634 Z-6.685
X12.458 Y8.484 Z-6.692
X12.559 Y8.342 Z-6.698
X12.673 Y8.211 Z-6.704
X12.799 Y8.09 Z-6.71
X12.935 Y7.981 Z-6.716
X13.08 Y7.885 Z-6.722
X13.234 Y7.803 Z-6.728
X13.394 Y7.736 Z-6.734
X13.56 Y7.683 Z-6.74
X13.73 Y7.646 Z-6.746
X13.903 Y7.624 Z-6.752
X14.077 Y7.618 Z-6.758
X14.251 Y7.629 Z-6.765
X14.423 Y7.655 Z-6.771
X14.592 Y7.697 Z-6.777
X14.757 Y7.754 Z-6.783
X14.915 Y7.826 Z-6.789
X15.067 Y7.912 Z-6.795
X15.209 Y8.012 Z-6.801
X15.342 Y8.124 Z-6.807
X15.465 Y8.248 Z-6.813
X15.575 Y8.383 Z-6.819
X15.673 Y8.527 Z-6.825
X15.757 Y8.679 Z-6.831
X15.826 Y8.839 Z-6.838
X15.881 Y9.004 Z-6.844
X15.92 Y9.174 Z-6.85
X15.944 Y9.346 Z-6.856
X15.952 Y9.52 Z-6.862
X15.944 Y9.694 Z-6.868
X15.92 Y9.867 Z-6.874
X15.88 Y10.036 Z-6.88
X15.825 Y10.202 Z-6.886
X15.755 Y10.361 Z-6.892
X15.67 Y10.513 Z-6.898
X15.572 Y10.657 Z-6.904
X15.462 Y10.792 Z-6.911
X15.339 Y10.915 Z-6.917
X15.206 Y11.028 Z-6.923
X15.063 Y11.127 Z-6.929
X14.911 Y11.213 Z-6.935
X14.753 Y11.284 Z-6.941
X14.588 Y11.341 Z-6.947
X14.419 Y11.382 Z-6.953
X14.247 Y11.408 Z-6.959
X14.073 Y11.418 Z-6.965
X13.899 Y11.412 Z-6.971
X13.726 Y11.39 Z-6.977
X13.556 Y11.352 Z-6.984
X13.39 Y11.299 Z-6.99
X13.23 Y11.231 Z-6.996
X13.077 Y11.149 Z-7.002
X12.931 Y11.053 Z-7.008
X12.796 Y10.944 Z-7.014
X12.67 Y10.823 Z-7.02
X12.557 Y10.691 Z-7.026
X12.456 Y10.549 Z-7.032
X12.368 Y10.398 Z-7.038
X12.294 Y10.241 Z-7.044
X12.236 Y10.077 Z-7.05
X12.192 Y9.908 Z-7.057
X12.164 Y9.736 Z-7.063
X12.152 Y9.562 Z-7.069
X12.156 Y9.388 Z-7.075
X12.176 Y9.215 Z-7.081
X12.212 Y9.045 Z-7.087
X12.263 Y8.878 Z-7.093
X12.329 Y8.717 Z-7.099
X12.409 Y8.563 Z-7.105
X12.504 Y8.417 Z-7.111
X12.611 Y8.279 Z-7.117
X12.731 Y8.153 Z-7.123
X12.861 Y8.037 Z-7.13
X13.002 Y7.935 Z-7.136
X13.151 Y7.845 Z-7.142
X13.308 Y7.77 Z-7.148
X13.471 Y7.709 Z-7.154
X13.639 Y7.663 Z-7.16
X13.811 Y7.634 Z-7.166
X13.985 Y7.619 Z-7.172
X14.159 Y7.621 Z-7.178
X14.332 Y7.639 Z-7.184
X14.503 Y7.672 Z-7.19
X14.67 Y7.722 Z-7.196
X14.832 Y7.786 Z-7.203
X14.987 Y7.864 Z-7.209
X15.135 Y7.957 Z-7.215
X15.273 Y8.063 Z-7.221
X15.401 Y8.18 Z-7.227
X15.518 Y8.31 Z-7.233
X15.622 Y8.449 Z-7.239
X15.714 Y8.597 Z-7.245
X15.791 Y8.753 Z-7.251
X15.854 Y8.916 Z-7.257
X15.901 Y9.083 Z-7.263
X15.933 Y9.254 Z-7.269
X15.95 Y9.428 Z-7.276
Y9.602 Z-7.282
X15.934 Y9.775 Z-7.288
X15.903 Y9.947 Z-7.294
X15.856 Y10.114 Z-7.3
X15.794 Y10.277 Z-7.306
X15.717 Y10.433 Z-7.312
X15.626 Y10.582 Z-7.318
X15.522 Y10.721 Z-7.324
X15.406 Y10.851 Z-7.33
X15.278 Y10.969 Z-7.336
X15.14 Y11.076 Z-7.342
X14.993 Y11.169 Z-7.349
X14.838 Y11.248 Z-7.355
X14.676 Y11.313 Z-7.361
X14.509 Y11.362 Z-7.367
X14.339 Y11.396 Z-7.373
X14.165 Y11.415 Z-7.379
X13.991 Y11.417 Z-7.385
X13.818 Y11.404 Z-7.391
X13.646 Y11.374 Z-7.397
X13.478 Y11.329 Z-7.403
X13.314 Y11.269 Z-7.409
X13.157 Y11.194 Z-7.415
X13.007 Y11.105 Z-7.422
X12.867 Y11.003 Z-7.428
X12.736 Y10.888 Z-7.434
X12.616 Y10.762 Z-7.44
X12.508 Y10.625 Z-7.446
X12.413 Y10.479 Z-7.452
X12.332 Y10.325 Z-7.458
X12.265 Y10.164 Z-7.464
X12.213 Y9.998 Z-7.47
X12.177 Y9.828 Z-7.476
X12.157 Y9.655 Z-7.482
X12.152 Y9.481 Z-7.488
X12.164 Y9.307 Z-7.495
X12.191 Y9.135 Z-7.501
X12.234 Y8.966 Z-7.507
X12.292 Y8.802 Z-7.513
X12.365 Y8.644 Z-7.519
X12.452 Y8.493 Z-7.525
X12.553 Y8.351 Z-7.531
X12.666 Y8.219 Z-7.537
X12.79 Y8.097 Z-7.543
X12.926 Y7.988 Z-7.549
X13.071 Y7.891 Z-7.555
X13.224 Y7.808 Z-7.561
X13.384 Y7.739 Z-7.568
X13.549 Y7.686 Z-7.574
X13.719 Y7.648 Z-7.58
X13.892 Y7.625 Z-7.586
X14.066 Y7.618 Z-7.592
X14.24 Y7.628 Z-7.598
X14.412 Y7.653 Z-7.604
X14.581 Y7.694 Z-7.61
X14.746 Y7.75 Z-7.616
X14.905 Y7.821 Z-7.622
X15.057 Y7.906 Z-7.628
X15.201 Y8.005 Z-7.634
X15.334 Y8.116 Z-7.641
X15.457 Y8.24 Z-7.647
X15.568 Y8.374 Z-7.653
X15.667 Y8.517 Z-7.659
X15.752 Y8.669 Z-7.665
X15.822 Y8.829 Z-7.671
X15.878 Y8.994 Z-7.677
X15.918 Y9.163 Z-7.683
X15.943 Y9.335 Z-7.689
X15.952 Y9.509 Z-7.695
X15.945 Y9.683 Z-7.701
X15.922 Y9.856 Z-7.707
X15.883 Y10.026 Z-7.714
X15.829 Y10.191 Z-7.72
X15.76 Y10.351 Z-7.726
X15.676 Y10.504 Z-7.732
X15.579 Y10.648 Z-7.738
X15.469 Y10.783 Z-7.744
X15.347 Y10.908 Z-7.75
G3 X13.216 Y10.833 R1.508
X13.29 Y8.701 R1.508
X14.138 Y8.137 R3.143
X14.745 Y7.922 R3.802
X15.381 Y7.817 R3.492
X15.749 Y8.138 R0.345
X15.649 Y8.406 R0.345
G1 X12.799 Y11.255
G3 X12.312 R0.344
X12.213 Y10.981 R0.344
X12.791 Y9.299 R3.723
X13.29 Y8.701 R3.143
G2 X13.642 Y7.479 R1.235
G3 X13.74 Y6.795 R0.879
X14.304 Y6.394 R0.879
G1 X14.774 Y6.292
X15.545 Y6.237
X136.908 Y6.241
X137.775 Y6.32
X138.677 Y6.574
X139.561 Y7.02
X140.051 Y7.376
X140.525 Y7.833
X141.006 Y8.464
X141.341 Y9.088
X141.572 Y9.714
X141.719 Y10.39
X141.773 Y11.163
X141.77 Y90.49
X141.692 Y91.358
X141.438 Y92.261
X140.993 Y93.147
X140.637 Y93.637
X140.173 Y94.119
X140.07 Y94.202
X139.552 Y94.592
X138.926 Y94.929
X138.302 Y95.161
X137.626 Y95.308
X136.856 Y95.363
X15.492 Y95.359
X14.626 Y95.28
X13.723 Y95.026
X12.839 Y94.58
X12.349 Y94.224
X11.875 Y93.767
X11.394 Y93.136
X11.059 Y92.512
X10.828 Y91.886
X10.681 Y91.21
X10.627 Y90.437
X10.63 Y11.11
X10.708 Y10.242
X10.955 Y9.365
X10.962 Y9.338
X11.407 Y8.453
X11.763 Y7.963
X12.221 Y7.487
X12.604 Y7.192
X12.848 Y7.008
X13.474 Y6.671
X14.098 Y6.439
X14.304 Y6.394
G3 X14.541 Y6.546 R0.2
G1 X15.468 Y10.668
X15.473 Y10.718
X15.465 Y10.768
X15.445 Y10.814
X15.415 Y10.853
X12.796 Y13.471
X12.792 Y13.475
X12.562 Y13.708
X12.518 Y13.755
X12.477 Y13.805
X12.389 Y13.922
X12.339 Y13.993
X12.296 Y14.068
X12.204 Y14.247
X12.163 Y14.338
X12.131 Y14.432
X12.077 Y14.62
X12.058 Y14.699
X12.046 Y14.778
X12.031 Y14.904
X12.024 Y15.02
Y86.58
X12.027 Y86.654
X12.035 Y86.728
X12.063 Y86.916
X12.083 Y87.012
X12.111 Y87.106
X12.178 Y87.294
X12.217 Y87.387
X12.265 Y87.476
X12.371 Y87.651
X12.41 Y87.709
X12.452 Y87.764
X12.499 Y87.823
X12.566 Y87.896
X18.084 Y93.415
X18.176 Y93.496
X18.29 Y93.586
X18.361 Y93.636
X18.435 Y93.68
X18.613 Y93.775
X18.703 Y93.817
X18.796 Y93.85
X18.984 Y93.907
X19.063 Y93.927
X19.142 Y93.94
X19.268 Y93.956
X19.332 Y93.963
X19.397 Y93.965
X136.452 Y93.964
X136.523 Y93.962
X136.593 Y93.954
X137.596 Y93.811
X137.675 Y93.797
X137.753 Y93.776
X137.941 Y93.717
X138.037 Y93.682
X138.129 Y93.637
X138.379 Y93.498
X138.412 Y93.479
X138.966 Y93.144
X139.021 Y93.108
X139.074 Y93.068
X139.18 Y92.983
X139.241 Y92.93
X139.297 Y92.873
X139.422 Y92.734
X139.483 Y92.66
X139.536 Y92.581
X140.004 Y91.805
X140.047 Y91.725
X140.083 Y91.641
X140.154 Y91.453
X140.18 Y91.375
X140.199 Y91.295
X140.224 Y91.17
X140.234 Y91.113
X140.365 Y90.171
X140.372 Y90.102
X140.375 Y90.033
Y11.567
X140.372 Y11.497
X140.365 Y11.427
X140.223 Y10.423
X140.209 Y10.347
X140.19 Y10.273
X140.133 Y10.085
X140.105 Y10.005
X140.071 Y9.928
X140.008 Y9.802
X139.968 Y9.729
X139.534 Y9.016
X139.481 Y8.938
X139.422 Y8.866
X139.297 Y8.727
X139.229 Y8.659
X139.155 Y8.597
X138.996 Y8.478
X138.908 Y8.419
X138.218 Y8.008
X138.144 Y7.968
X138.067 Y7.934
X137.879 Y7.861
X137.801 Y7.835
X137.721 Y7.815
X137.595 Y7.789
X137.532 Y7.777
X136.591 Y7.645
X136.522 Y7.638
X136.452 Y7.636
X19.397 Y7.635
X19.316 Y7.638
X19.236 Y7.648
X19.048 Y7.679
X18.952 Y7.699
X18.859 Y7.729
X18.671 Y7.799
X18.578 Y7.839
X18.49 Y7.888
X18.318 Y7.996
X18.26 Y8.035
X18.206 Y8.078
X18.148 Y8.126
X18.084 Y8.184
X15.415 Y10.853
G3 X15.132 R0.2
X15.096 Y10.804 R0.2
G1 X14.342 Y9.36
X13.668 Y7.88
G3 X13.767 Y7.615 R0.2
X13.829 Y7.598 R0.2
G1 X14.002 Y7.588 Z-7.756
X14.175 Y7.593 Z-7.762
X14.348 Y7.614 Z-7.768
X14.517 Y7.65 Z-7.774
X14.683 Y7.702 Z-7.78
X14.843 Y7.769 Z-7.786
X14.996 Y7.85 Z-7.792
X15.142 Y7.945 Z-7.798
X15.278 Y8.053 Z-7.805
X15.403 Y8.172 Z-7.811
X15.518 Y8.303 Z-7.817
X15.619 Y8.443 Z-7.823
X15.708 Y8.592 Z-7.829
X15.783 Y8.749 Z-7.835
X15.843 Y8.912 Z-7.841
X15.888 Y9.079 Z-7.847
X15.917 Y9.25 Z-7.853
X15.931 Y9.423 Z-7.859
X15.929 Y9.597 Z-7.865
X15.911 Y9.769 Z-7.871
X15.878 Y9.939 Z-7.877
X15.829 Y10.106 Z-7.883
X15.765 Y10.267 Z-7.889
X15.686 Y10.422 Z-7.895
X15.594 Y10.569 Z-7.902
X15.489 Y10.707 Z-7.908
X15.372 Y10.835 Z-7.914
X15.243 Y10.951 Z-7.92
X15.105 Y11.056 Z-7.926
X14.957 Y11.147 Z-7.932
X14.802 Y11.225 Z-7.938
X14.64 Y11.288 Z-7.944
X14.474 Y11.336 Z-7.95
X14.303 Y11.368 Z-7.956
X14.131 Y11.385 Z-7.962
X13.957 Y11.386 Z-7.968
X13.784 Y11.371 Z-7.974
X13.613 Y11.341 Z-7.98
X13.446 Y11.295 Z-7.986
X13.284 Y11.234 Z-7.992
X13.128 Y11.158 Z-7.998
X12.979 Y11.069 Z-8.005
X12.839 Y10.966 Z-8.011
X12.709 Y10.851 Z-8.017
X12.59 Y10.725 Z-8.023
X12.483 Y10.588 Z-8.029
X12.389 Y10.442 Z-8.035
X12.309 Y10.288 Z-8.041
X12.243 Y10.128 Z-8.047
X12.192 Y9.962 Z-8.053
X12.157 Y9.792 Z-8.059
X12.137 Y9.62 Z-8.065
X12.133 Y9.447 Z-8.071
X12.144 Y9.273 Z-8.077
X12.172 Y9.102 Z-8.083
X12.215 Y8.934 Z-8.089
X12.273 Y8.771 Z-8.095
X12.345 Y8.613 Z-8.102
X12.432 Y8.463 Z-8.108
X12.532 Y8.321 Z-8.114
X12.645 Y8.189 Z-8.12
X12.769 Y8.068 Z-8.126
X12.904 Y7.959 Z-8.132
X13.048 Y7.862 Z-8.138
X13.2 Y7.779 Z-8.144
X13.36 Y7.71 Z-8.15
X13.525 Y7.657 Z-8.156
X13.694 Y7.618 Z-8.162
X13.866 Y7.595 Z-8.168
X14.039 Y7.588 Z-8.174
X14.212 Y7.596 Z-8.18
X14.384 Y7.62 Z-8.186
X14.553 Y7.66 Z-8.192
X14.717 Y7.715 Z-8.198
X14.876 Y7.785 Z-8.205
X15.028 Y7.869 Z-8.211
X15.171 Y7.967 Z-8.217
X15.305 Y8.077 Z-8.223
X15.429 Y8.199 Z-8.229
X15.54 Y8.332 Z-8.235
X15.64 Y8.474 Z-8.241
X15.725 Y8.625 Z-8.247
X15.797 Y8.783 Z-8.253
X15.854 Y8.947 Z-8.259
X15.895 Y9.116 Z-8.265
X15.922 Y9.287 Z-8.271
X15.932 Y9.46 Z-8.277
X15.927 Y9.634 Z-8.283
X15.905 Y9.806 Z-8.289
X15.868 Y9.975 Z-8.295
X15.816 Y10.141 Z-8.302
X15.749 Y10.301 Z-8.308
X15.668 Y10.454 Z-8.314
X15.573 Y10.599 Z-8.32
X15.465 Y10.735 Z-8.326
X15.345 Y10.861 Z-8.332
X15.215 Y10.975 Z-8.338
X15.074 Y11.076 Z-8.344
X14.925 Y11.165 Z-8.35
X14.768 Y11.239 Z-8.356
X14.605 Y11.299 Z-8.362
X14.437 Y11.344 Z-8.368
X14.266 Y11.373 Z-8.374
X14.093 Y11.387 Z-8.38
X13.92 Y11.384 Z-8.386
X13.747 Y11.366 Z-8.392
X13.577 Y11.332 Z-8.398
X13.411 Y11.283 Z-8.405
X13.25 Y11.219 Z-8.411
X13.095 Y11.14 Z-8.417
X12.948 Y11.048 Z-8.423
X12.81 Y10.943 Z-8.429
X12.683 Y10.825 Z-8.435
X12.566 Y10.696 Z-8.441
X12.462 Y10.558 Z-8.447
X12.371 Y10.41 Z-8.453
X12.294 Y10.255 Z-8.459
X12.231 Y10.093 Z-8.465
X12.183 Y9.926 Z-8.471
X12.151 Y9.756 Z-8.477
X12.135 Y9.583 Z-8.483
X12.134 Y9.409 Z-8.489
X12.149 Y9.237 Z-8.495
X12.18 Y9.066 Z-8.502
X12.226 Y8.899 Z-8.508
X12.287 Y8.736 Z-8.514
X12.363 Y8.58 Z-8.52
X12.453 Y8.432 Z-8.526
X12.555 Y8.292 Z-8.532
X12.671 Y8.162 Z-8.538
X12.797 Y8.044 Z-8.544
X12.934 Y7.937 Z-8.55
X13.08 Y7.843 Z-8.556
X13.234 Y7.763 Z-8.562
X13.395 Y7.698 Z-8.568
X13.56 Y7.647 Z-8.574
X13.73 Y7.612 Z-8.58
X13.903 Y7.592 Z-8.586
X14.076 Y7.588 Z-8.592
X14.249 Y7.6 Z-8.598
X14.421 Y7.628 Z-8.605
X14.589 Y7.671 Z-8.611
X14.752 Y7.729 Z-8.617
X14.909 Y7.802 Z-8.623
X15.059 Y7.889 Z-8.629
X15.201 Y7.99 Z-8.635
X15.333 Y8.102 Z-8.641
X15.454 Y8.227 Z-8.647
X15.563 Y8.362 Z-8.653
X15.659 Y8.506 Z-8.659
X15.742 Y8.658 Z-8.665
X15.81 Y8.818 Z-8.671
X15.864 Y8.983 Z-8.677
X15.902 Y9.152 Z-8.683
X15.925 Y9.324 Z-8.689
X15.932 Y9.497 Z-8.695
X15.923 Y9.671 Z-8.702
X15.899 Y9.842 Z-8.708
X15.859 Y10.011 Z-8.714
X15.803 Y10.176 Z-8.72
X15.733 Y10.334 Z-8.726
X15.649 Y10.486 Z-8.732
X15.551 Y10.629 Z-8.738
X15.44 Y10.763 Z-8.744
X15.318 Y10.886 Z-8.75
G3 X13.217 Y10.798 R1.487
X13.305 Y8.697 R1.487
X14.128 Y8.153 R3.093
X14.726 Y7.938 R4.068
X15.353 Y7.831 R3.247
X15.721 Y8.15 R0.344
X15.621 Y8.418 R0.344
G1 X12.81 Y11.229
G3 X12.326 R0.342
X12.228 Y10.956 R0.342
X12.799 Y9.298 R3.674
X13.305 Y8.697 R3.093
G1 X13.398 Y8.615 Z-8.73
X13.484 Y8.544 Z-8.674
X13.554 Y8.49 Z-8.585
X13.6 Y8.457 Z-8.474
X13.616 Y8.446 Z-8.35
G0 Z5.
X15.606 Y91.169
G1 Z-6.3 F380.
X15.614 Y91.186 Z-6.421 F1500.
X15.635 Y91.236 Z-6.531
X15.666 Y91.315 Z-6.619
X15.699 Y91.418 Z-6.677
X15.73 Y91.534 Z-6.7
X15.761 Y91.705 Z-6.706
X15.776 Y91.879 Z-6.712
X15.775 Y92.053 Z-6.718
X15.758 Y92.226 Z-6.724
X15.726 Y92.397 Z-6.73
X15.678 Y92.565 Z-6.736
X15.615 Y92.727 Z-6.743
X15.537 Y92.883 Z-6.749
X15.445 Y93.031 Z-6.755
X15.34 Y93.17 Z-6.761
X15.223 Y93.299 Z-6.767
X15.095 Y93.416 Z-6.773
X14.956 Y93.522 Z-6.779
X14.808 Y93.614 Z-6.785
X14.653 Y93.692 Z-6.791
X14.491 Y93.756 Z-6.797
X14.323 Y93.804 Z-6.803
X14.153 Y93.837 Z-6.809
X13.979 Y93.855 Z-6.816
X13.805 Y93.856 Z-6.822
X13.632 Y93.841 Z-6.828
X13.46 Y93.811 Z-6.834
X13.292 Y93.765 Z-6.84
X13.129 Y93.704 Z-6.846
X12.972 Y93.628 Z-6.852
X12.823 Y93.538 Z-6.858
X12.683 Y93.435 Z-6.864
X12.553 Y93.319 Z-6.87
X12.434 Y93.192 Z-6.876
X12.327 Y93.055 Z-6.882
X12.233 Y92.909 Z-6.889
X12.152 Y92.754 Z-6.895
X12.087 Y92.593 Z-6.901
X12.036 Y92.426 Z-6.907
X12.001 Y92.255 Z-6.913
X11.981 Y92.082 Z-6.919
X11.978 Y91.908 Z-6.925
X11.99 Y91.735 Z-6.931
X12.019 Y91.563 Z-6.937
X12.063 Y91.394 Z-6.943
X12.122 Y91.231 Z-6.949
X12.196 Y91.073 Z-6.955
X12.284 Y90.923 Z-6.962
X12.385 Y90.781 Z-6.968
X12.499 Y90.649 Z-6.974
X12.625 Y90.529 Z-6.98
X12.761 Y90.42 Z-6.986
X12.906 Y90.324 Z-6.992
X13.06 Y90.242 Z-6.998
X13.22 Y90.175 Z-7.004
X13.386 Y90.122 Z-7.01
X13.556 Y90.085 Z-7.016
X13.729 Y90.063 Z-7.022
X13.903 Y90.058 Z-7.028
X14.077 Y90.068 Z-7.035
X14.249 Y90.094 Z-7.041
X14.418 Y90.136 Z-7.047
X14.583 Y90.193 Z-7.053
X14.741 Y90.265 Z-7.059
X14.893 Y90.351 Z-7.065
X15.035 Y90.451 Z-7.071
X15.168 Y90.563 Z-7.077
X15.291 Y90.688 Z-7.083
X15.401 Y90.822 Z-7.089
X15.498 Y90.967 Z-7.095
X15.582 Y91.119 Z-7.101
X15.652 Y91.279 Z-7.108
X15.707 Y91.444 Z-7.114
X15.746 Y91.614 Z-7.12
X15.77 Y91.786 Z-7.126
X15.777 Y91.96 Z-7.132
X15.769 Y92.134 Z-7.138
X15.745 Y92.307 Z-7.144
X15.705 Y92.476 Z-7.15
X15.65 Y92.641 Z-7.156
X15.58 Y92.801 Z-7.162
X15.496 Y92.953 Z-7.168
X15.398 Y93.097 Z-7.174
X15.287 Y93.231 Z-7.181
X15.164 Y93.355 Z-7.187
X15.031 Y93.467 Z-7.193
X14.888 Y93.566 Z-7.199
X14.736 Y93.652 Z-7.205
X14.578 Y93.724 Z-7.211
X14.413 Y93.78 Z-7.217
X14.244 Y93.822 Z-7.223
X14.072 Y93.847 Z-7.229
X13.898 Y93.857 Z-7.235
X13.724 Y93.851 Z-7.241
X13.551 Y93.829 Z-7.247
X13.381 Y93.791 Z-7.254
X13.215 Y93.738 Z-7.26
X13.055 Y93.67 Z-7.266
X12.902 Y93.588 Z-7.272
X12.756 Y93.492 Z-7.278
X12.621 Y93.382 Z-7.284
X12.495 Y93.261 Z-7.29
X12.382 Y93.129 Z-7.296
X12.281 Y92.988 Z-7.302
X12.193 Y92.837 Z-7.308
X12.12 Y92.679 Z-7.314
X12.061 Y92.515 Z-7.32
X12.018 Y92.347 Z-7.327
X11.99 Y92.175 Z-7.333
X11.978 Y92.001 Z-7.339
X11.982 Y91.827 Z-7.345
X12.002 Y91.654 Z-7.351
X12.037 Y91.483 Z-7.357
X12.089 Y91.317 Z-7.363
X12.155 Y91.156 Z-7.369
X12.235 Y91.002 Z-7.375
X12.33 Y90.855 Z-7.381
X12.437 Y90.718 Z-7.387
X12.557 Y90.592 Z-7.393
X12.687 Y90.476 Z-7.4
X12.828 Y90.374 Z-7.406
X12.977 Y90.284 Z-7.412
X13.134 Y90.209 Z-7.418
X13.297 Y90.148 Z-7.424
X13.465 Y90.103 Z-7.43
X13.637 Y90.073 Z-7.436
X13.811 Y90.059 Z-7.442
X13.985 Y90.06 Z-7.448
X14.158 Y90.078 Z-7.454
X14.329 Y90.112 Z-7.46
X14.496 Y90.161 Z-7.466
X14.658 Y90.225 Z-7.473
X14.813 Y90.304 Z-7.479
X14.961 Y90.396 Z-7.485
X15.099 Y90.502 Z-7.491
X15.227 Y90.62 Z-7.497
X15.344 Y90.749 Z-7.503
X15.448 Y90.889 Z-7.509
X15.539 Y91.037 Z-7.515
X15.617 Y91.193 Z-7.521
X15.679 Y91.355 Z-7.527
X15.727 Y91.523 Z-7.533
X15.759 Y91.694 Z-7.539
X15.775 Y91.868 Z-7.546
Y92.042 Z-7.552
X15.76 Y92.215 Z-7.558
X15.728 Y92.386 Z-7.564
X15.681 Y92.554 Z-7.57
X15.619 Y92.717 Z-7.576
X15.542 Y92.873 Z-7.582
X15.451 Y93.022 Z-7.588
X15.347 Y93.161 Z-7.594
X15.231 Y93.291 Z-7.6
X15.103 Y93.409 Z-7.606
X14.965 Y93.515 Z-7.612
X14.818 Y93.608 Z-7.619
X14.663 Y93.687 Z-7.625
X14.501 Y93.752 Z-7.631
X14.334 Y93.802 Z-7.637
X14.164 Y93.836 Z-7.643
X13.99 Y93.854 Z-7.649
X13.816 Y93.856 Z-7.655
X13.643 Y93.843 Z-7.661
X13.471 Y93.813 Z-7.667
X13.303 Y93.768 Z-7.673
X13.139 Y93.708 Z-7.679
X12.982 Y93.633 Z-7.685
X12.833 Y93.544 Z-7.692
X12.692 Y93.442 Z-7.698
X12.561 Y93.327 Z-7.704
X12.441 Y93.201 Z-7.71
X12.333 Y93.064 Z-7.716
X12.238 Y92.918 Z-7.722
X12.157 Y92.764 Z-7.728
X12.09 Y92.603 Z-7.734
X12.039 Y92.437 Z-7.74
X12.003 Y92.266 Z-7.746
X11.982 Y92.094 Z-7.752
X11.978 Y91.919 Z-7.758
X11.989 Y91.746 Z-7.765
X12.016 Y91.574 Z-7.771
X12.059 Y91.405 Z-7.777
X12.118 Y91.241 Z-7.783
X12.191 Y91.083 Z-7.789
X12.278 Y90.932 Z-7.795
X12.378 Y90.79 Z-7.801
X12.492 Y90.658 Z-7.807
X12.616 Y90.536 Z-7.813
X12.752 Y90.427 Z-7.819
X12.897 Y90.33 Z-7.825
X13.05 Y90.247 Z-7.831
X13.21 Y90.179 Z-7.838
X13.376 Y90.125 Z-7.844
X13.545 Y90.087 Z-7.85
X13.718 Y90.064 Z-7.856
X13.892 Y90.057 Z-7.862
X14.066 Y90.067 Z-7.868
X14.238 Y90.092 Z-7.874
X14.408 Y90.133 Z-7.88
X14.572 Y90.189 Z-7.886
X14.731 Y90.26 Z-7.892
X14.883 Y90.345 Z-7.898
X15.027 Y90.444 Z-7.904
X15.16 Y90.556 Z-7.911
X15.283 Y90.679 Z-7.917
X15.394 Y90.813 Z-7.923
X15.493 Y90.957 Z-7.929
X15.577 Y91.109 Z-7.935
X15.648 Y91.268 Z-7.941
X15.704 Y91.433 Z-7.947
X15.744 Y91.603 Z-7.953
X15.769 Y91.775 Z-7.959
X15.777 Y91.949 Z-7.965
X15.77 Y92.123 Z-7.971
X15.747 Y92.296 Z-7.977
X15.708 Y92.465 Z-7.984
X15.654 Y92.631 Z-7.99
X15.585 Y92.791 Z-7.996
X15.501 Y92.944 Z-8.002
X15.404 Y93.088 Z-8.008
X15.294 Y93.223 Z-8.014
X15.173 Y93.348 Z-8.02
X15.04 Y93.46 Z-8.026
X14.897 Y93.56 Z-8.032
X14.746 Y93.647 Z-8.038
X14.588 Y93.72 Z-8.044
X14.424 Y93.777 Z-8.05
X14.255 Y93.82 Z-8.057
X14.083 Y93.846 Z-8.063
X13.909 Y93.857 Z-8.069
X13.735 Y93.852 Z-8.075
X13.562 Y93.831 Z-8.081
X13.392 Y93.794 Z-8.087
X13.226 Y93.742 Z-8.093
X13.065 Y93.675 Z-8.099
X12.911 Y93.593 Z-8.105
X12.765 Y93.498 Z-8.111
X12.629 Y93.39 Z-8.117
X12.503 Y93.269 Z-8.123
X12.389 Y93.138 Z-8.13
X12.287 Y92.997 Z-8.136
X12.198 Y92.847 Z-8.142
X12.124 Y92.689 Z-8.148
X12.064 Y92.526 Z-8.154
X12.02 Y92.358 Z-8.16
X11.991 Y92.186 Z-8.166
X11.978 Y92.012 Z-8.172
X11.981 Y91.838 Z-8.178
X12. Y91.665 Z-8.184
X12.035 Y91.494 Z-8.19
X12.085 Y91.328 Z-8.196
X12.15 Y91.166 Z-8.203
X12.23 Y91.011 Z-8.209
X12.323 Y90.864 Z-8.215
X12.43 Y90.727 Z-8.221
X12.549 Y90.599 Z-8.227
X12.679 Y90.483 Z-8.233
X12.819 Y90.38 Z-8.239
X12.967 Y90.289 Z-8.245
X13.124 Y90.213 Z-8.251
X13.287 Y90.152 Z-8.257
X13.455 Y90.105 Z-8.263
X13.626 Y90.074 Z-8.269
X13.799 Y90.059 Z-8.276
X13.974 Y90.06 Z-8.282
X14.147 Y90.077 Z-8.288
X14.318 Y90.109 Z-8.294
X14.485 Y90.157 Z-8.3
X14.648 Y90.221 Z-8.306
X14.803 Y90.298 Z-8.312
X14.951 Y90.39 Z-8.318
X15.09 Y90.495 Z-8.324
X15.219 Y90.612 Z-8.33
X15.337 Y90.741 Z-8.336
X15.442 Y90.879 Z-8.342
X15.534 Y91.027 Z-8.349
X15.612 Y91.183 Z-8.355
X15.676 Y91.345 Z-8.361
X15.724 Y91.512 Z-8.367
X15.757 Y91.683 Z-8.373
X15.775 Y91.856 Z-8.379
X15.776 Y92.031 Z-8.385
X15.761 Y92.204 Z-8.391
X15.731 Y92.375 Z-8.397
X15.685 Y92.543 Z-8.403
X15.623 Y92.706 Z-8.409
X15.548 Y92.863 Z-8.415
X15.458 Y93.012 Z-8.422
X15.354 Y93.153 Z-8.428
X15.239 Y93.283 Z-8.434
X15.112 Y93.402 Z-8.44
X14.974 Y93.509 Z-8.446
X14.828 Y93.603 Z-8.452
X14.673 Y93.683 Z-8.458
X14.512 Y93.748 Z-8.464
X14.345 Y93.799 Z-8.47
X14.175 Y93.834 Z-8.476
X14.001 Y93.853 Z-8.482
X13.827 Y93.857 Z-8.488
X13.654 Y93.844 Z-8.495
X13.482 Y93.816 Z-8.501
X13.313 Y93.772 Z-8.507
X13.15 Y93.713 Z-8.513
X12.992 Y93.639 Z-8.519
X12.842 Y93.55 Z-8.525
X12.7 Y93.449 Z-8.531
X12.569 Y93.335 Z-8.537
X12.448 Y93.209 Z-8.543
X12.339 Y93.073 Z-8.549
X12.244 Y92.928 Z-8.555
X12.162 Y92.774 Z-8.561
X12.094 Y92.614 Z-8.568
X12.042 Y92.448 Z-8.574
X12.004 Y92.277 Z-8.58
X11.983 Y92.105 Z-8.586
X11.978 Y91.931 Z-8.592
X11.988 Y91.757 Z-8.598
X12.014 Y91.585 Z-8.604
X12.056 Y91.416 Z-8.61
X12.113 Y91.251 Z-8.616
X12.186 Y91.093 Z-8.622
X12.272 Y90.941 Z-8.628
X12.372 Y90.799 Z-8.634
X12.484 Y90.666 Z-8.641
X12.608 Y90.544 Z-8.647
X12.743 Y90.433 Z-8.653
X12.887 Y90.336 Z-8.659
X13.04 Y90.252 Z-8.665
X13.199 Y90.182 Z-8.671
X13.365 Y90.128 Z-8.677
X13.534 Y90.089 Z-8.683
X13.707 Y90.065 Z-8.689
X13.881 Y90.057 Z-8.695
X14.055 Y90.066 Z-8.701
X14.227 Y90.09 Z-8.707
X14.397 Y90.13 Z-8.714
X14.562 Y90.185 Z-8.72
X14.721 Y90.255 Z-8.726
X14.874 Y90.34 Z-8.732
X15.018 Y90.438 Z-8.738
X15.152 Y90.548 Z-8.744
X15.276 Y90.671 Z-8.75
G3 X15.188 Y92.772 R1.487
X14.119 Y93.164 R1.487
X13.087 Y92.685 R1.487
X12.542 Y91.859 R3.09
X12.328 Y91.261 R4.078
X12.222 Y90.636 R3.236
X12.54 Y90.269 R0.344
X12.807 Y90.369 R0.344
G1 X15.617 Y93.179
G3 Y93.663 R0.342
X15.344 Y93.762 R0.342
X13.686 Y93.189 R3.682
X13.087 Y92.685 R3.09
G2 X11.884 Y92.331 R1.217
G3 X11.211 Y92.23 R0.869
X10.817 Y91.674 R0.869
G1 X10.716 Y91.209
X10.662 Y90.437
X10.665 Y11.11
X10.744 Y10.243
X10.955 Y9.493
X10.993 Y9.355
X11.415 Y8.508
X11.814 Y7.955
X12.24 Y7.517
X12.386 Y7.4
X12.9 Y7.017
X13.476 Y6.707
X14.124 Y6.468
X14.774 Y6.326
X15.545 Y6.272
X136.908 Y6.276
X137.774 Y6.356
X138.661 Y6.605
X139.506 Y7.027
X140.058 Y7.427
X140.496 Y7.852
X140.612 Y7.999
X140.995 Y8.514
X141.305 Y9.091
X141.543 Y9.739
X141.684 Y10.391
X141.738 Y11.163
X141.735 Y90.49
X141.656 Y91.357
X141.407 Y92.245
X140.985 Y93.092
X140.587 Y93.644
X140.142 Y94.102
X140.131 Y94.112
X139.5 Y94.583
X138.924 Y94.893
X138.276 Y95.132
X137.626 Y95.274
X136.856 Y95.328
X15.493 Y95.324
X14.626 Y95.244
X13.74 Y94.995
X12.894 Y94.573
X12.342 Y94.173
X11.904 Y93.748
X11.788 Y93.602
X11.405 Y93.087
X11.095 Y92.509
X10.857 Y91.861
X10.817 Y91.674
G3 X10.969 Y91.437 R0.2
G1 X15.028 Y90.539
X15.078 Y90.534
X15.127 Y90.542
X15.173 Y90.562
X15.212 Y90.593
X18.062 Y93.443
X18.152 Y93.522
X18.277 Y93.621
X18.352 Y93.674
X18.432 Y93.721
X18.616 Y93.817
X18.705 Y93.859
X18.798 Y93.891
X18.976 Y93.943
X19.053 Y93.962
X19.132 Y93.975
X19.264 Y93.992
X19.389 Y94.
X136.501 Y93.998
X136.573 Y93.995
X136.645 Y93.987
X137.662 Y93.839
X137.754 Y93.821
X137.844 Y93.795
X138.032 Y93.73
X138.126 Y93.692
X138.215 Y93.645
X138.968 Y93.199
X139.071 Y93.13
X139.197 Y93.032
X139.258 Y92.981
X139.314 Y92.926
X139.42 Y92.813
X139.473 Y92.752
X139.521 Y92.686
X139.622 Y92.537
X139.65 Y92.492
X140.026 Y91.864
X140.061 Y91.8
X140.092 Y91.733
X140.169 Y91.544
X140.202 Y91.453
X140.225 Y91.36
X140.263 Y91.172
X140.273 Y91.112
X140.4 Y90.205
X140.407 Y90.136
X140.41 Y90.067
Y11.533
X140.407 Y11.462
X140.399 Y11.392
X140.251 Y10.358
X140.234 Y10.269
X140.209 Y10.182
X140.146 Y9.993
X140.109 Y9.898
X140.062 Y9.807
X139.761 Y9.292
X139.75 Y9.275
X139.582 Y9.
X139.546 Y8.946
X139.507 Y8.894
X139.427 Y8.794
X139.378 Y8.737
X139.324 Y8.685
X139.198 Y8.569
X139.128 Y8.51
X139.053 Y8.458
X138.755 Y8.272
X138.73 Y8.257
X138.212 Y7.953
X138.124 Y7.907
X138.032 Y7.87
X137.844 Y7.805
X137.754 Y7.779
X137.662 Y7.761
X136.645 Y7.613
X136.573 Y7.605
X136.501 Y7.602
X19.389 Y7.6
X19.312 Y7.603
X19.234 Y7.612
X19.042 Y7.642
X18.949 Y7.662
X18.857 Y7.69
X18.68 Y7.754
X18.603 Y7.786
X18.529 Y7.824
X18.403 Y7.895
X18.339 Y7.934
X18.277 Y7.979
X18.152 Y8.078
X18.062 Y8.157
X12.535 Y13.685
X12.489 Y13.734
X12.447 Y13.787
X12.351 Y13.912
X12.308 Y13.974
X12.269 Y14.038
X12.201 Y14.164
X12.163 Y14.241
X12.132 Y14.322
X12.067 Y14.512
X12.048 Y14.576
X12.033 Y14.641
X12.02 Y14.704
X12.006 Y14.798
X11.994 Y14.922
X11.989 Y15.021
X11.993 Y86.641
X11.998 Y86.739
X12.012 Y86.835
X12.05 Y87.024
X12.074 Y87.121
X12.108 Y87.215
X12.187 Y87.405
X12.225 Y87.485
X12.27 Y87.562
X12.351 Y87.687
X12.419 Y87.781
X12.47 Y87.843
X12.535 Y87.915
X15.212 Y90.593
G3 X15.22 Y90.867 R0.2
G1 X14.344 Y91.846
X14.325 Y91.87
X14.31 Y91.897
X13.604 Y93.46
X13.562 Y93.783
X13.553 Y93.809
X13.535 Y93.83
X13.51 Y93.841
X13.483
X13.317 Y93.802 Z-8.756
X13.156 Y93.747 Z-8.762
X13. Y93.678 Z-8.768
X12.851 Y93.596 Z-8.774
X12.71 Y93.5 Z-8.78
X12.578 Y93.392 Z-8.786
X12.456 Y93.273 Z-8.792
X12.345 Y93.143 Z-8.798
X12.247 Y93.004 Z-8.804
X12.161 Y92.857 Z-8.81
X12.089 Y92.703 Z-8.815
X12.031 Y92.543 Z-8.821
X11.987 Y92.378 Z-8.827
X11.959 Y92.21 Z-8.833
X11.946 Y92.04 Z-8.839
X11.948 Y91.87 Z-8.845
X11.965 Y91.7 Z-8.851
X11.997 Y91.533 Z-8.857
X12.044 Y91.369 Z-8.863
X12.106 Y91.21 Z-8.869
X12.181 Y91.057 Z-8.875
X12.27 Y90.912 Z-8.881
X12.372 Y90.775 Z-8.887
X12.486 Y90.648 Z-8.893
X12.61 Y90.532 Z-8.899
X12.744 Y90.427 Z-8.905
X12.888 Y90.335 Z-8.911
X13.039 Y90.256 Z-8.917
X13.196 Y90.19 Z-8.923
X13.359 Y90.139 Z-8.929
X13.525 Y90.103 Z-8.935
X13.694 Y90.082 Z-8.94
X13.864 Y90.076 Z-8.946
X14.035 Y90.086 Z-8.952
X14.203 Y90.11 Z-8.958
X14.369 Y90.15 Z-8.964
X14.53 Y90.204 Z-8.97
X14.686 Y90.273 Z-8.976
X14.836 Y90.355 Z-8.982
X14.977 Y90.45 Z-8.988
X15.109 Y90.558 Z-8.994
X15.231 Y90.677 Z-9.
G3 X15.164 Y92.751 R1.468
X13.089 Y92.684 R1.468
X12.367 Y91.416 R3.129
X12.276 Y91.033 R4.156
X12.225 Y90.642 R3.36
X12.543 Y90.275 R0.343
X12.81 Y90.375 R0.343
G1 X15.611 Y93.177
G3 Y93.66 R0.342
X15.338 Y93.758 R0.342
X13.492 Y93.045 R3.627
X13.089 Y92.684 R3.129
G1 X13.007 Y92.592 Z-8.98
X12.935 Y92.506 Z-8.924
X12.881 Y92.437 Z-8.835
X12.847 Y92.391 Z-8.724
X12.835 Y92.375 Z-8.6
G0 Z5.
X15.896 Y9.234
G1 Z-7.3 F380.
X15.898 Y9.253 Z-7.421 F1500.
X15.903 Y9.307 Z-7.531
X15.908 Y9.392 Z-7.619
X15.909 Y9.499 Z-7.677
X15.902 Y9.619 Z-7.7
X15.88 Y9.792 Z-7.706
X15.842 Y9.961 Z-7.712
X15.788 Y10.127 Z-7.718
X15.72 Y10.287 Z-7.724
X15.637 Y10.44 Z-7.73
X15.54 Y10.584 Z-7.736
X15.431 Y10.72 Z-7.743
X15.31 Y10.844 Z-7.749
X15.178 Y10.957 Z-7.755
X15.036 Y11.058 Z-7.761
X14.886 Y11.145 Z-7.767
X14.728 Y11.218 Z-7.773
X14.564 Y11.277 Z-7.779
X14.395 Y11.32 Z-7.785
X14.224 Y11.347 Z-7.791
X14.05 Y11.359 Z-7.797
X13.876 Y11.355 Z-7.803
X13.704 Y11.335 Z-7.809
X13.534 Y11.299 Z-7.815
X13.367 Y11.248 Z-7.821
X13.207 Y11.181 Z-7.828
X13.052 Y11.101 Z-7.834
X12.906 Y11.007 Z-7.84
X12.77 Y10.899 Z-7.846
X12.643 Y10.78 Z-7.852
X12.528 Y10.649 Z-7.858
X12.425 Y10.509 Z-7.864
X12.336 Y10.36 Z-7.87
X12.261 Y10.203 Z-7.876
X12.2 Y10.04 Z-7.882
X12.155 Y9.872 Z-7.888
X12.125 Y9.701 Z-7.894
X12.11 Y9.528 Z-7.9
X12.112 Y9.354 Z-7.907
X12.13 Y9.181 Z-7.913
X12.163 Y9.01 Z-7.919
X12.212 Y8.843 Z-7.925
X12.276 Y8.681 Z-7.931
X12.354 Y8.526 Z-7.937
X12.446 Y8.379 Z-7.943
X12.552 Y8.24 Z-7.949
X12.669 Y8.112 Z-7.955
X12.798 Y7.995 Z-7.961
X12.937 Y7.891 Z-7.967
X13.085 Y7.799 Z-7.973
X13.241 Y7.722 Z-7.979
X13.403 Y7.659 Z-7.986
X13.57 Y7.611 Z-7.992
X13.741 Y7.578 Z-7.998
X13.914 Y7.562 Z-8.004
X14.088 Y7.561 Z-8.01
X14.261 Y7.576 Z-8.016
X14.432 Y7.607 Z-8.022
X14.6 Y7.653 Z-8.028
X14.762 Y7.715 Z-8.034
X14.919 Y7.791 Z-8.04
X15.067 Y7.881 Z-8.046
X15.207 Y7.985 Z-8.052
X15.337 Y8.1 Z-8.058
X15.456 Y8.227 Z-8.064
X15.562 Y8.365 Z-8.071
X15.656 Y8.511 Z-8.077
X15.736 Y8.666 Z-8.083
X15.801 Y8.827 Z-8.089
X15.851 Y8.994 Z-8.095
X15.886 Y9.164 Z-8.101
X15.905 Y9.337 Z-8.107
X15.909 Y9.511 Z-8.113
X15.896 Y9.684 Z-8.119
X15.867 Y9.856 Z-8.125
X15.823 Y10.024 Z-8.131
X15.764 Y10.187 Z-8.137
X15.69 Y10.345 Z-8.143
X15.602 Y10.495 Z-8.15
X15.501 Y10.636 Z-8.156
X15.387 Y10.768 Z-8.162
X15.262 Y10.888 Z-8.168
X15.126 Y10.997 Z-8.174
X14.981 Y11.092 Z-8.18
X14.827 Y11.174 Z-8.186
X14.667 Y11.242 Z-8.192
X14.501 Y11.294 Z-8.198
X14.332 Y11.332 Z-8.204
X14.159 Y11.353 Z-8.21
X13.985 Y11.359 Z-8.216
X13.812 Y11.349 Z-8.222
X13.64 Y11.323 Z-8.229
X13.471 Y11.281 Z-8.235
X13.306 Y11.225 Z-8.241
X13.148 Y11.153 Z-8.247
X12.997 Y11.067 Z-8.253
X12.854 Y10.968 Z-8.259
X12.721 Y10.856 Z-8.265
X12.599 Y10.732 Z-8.271
X12.488 Y10.598 Z-8.277
X12.39 Y10.454 Z-8.283
X12.306 Y10.302 Z-8.289
X12.236 Y10.143 Z-8.295
X12.181 Y9.978 Z-8.301
X12.142 Y9.808 Z-8.307
X12.117 Y9.636 Z-8.314
X12.109 Y9.463 Z-8.32
X12.117 Y9.289 Z-8.326
X12.14 Y9.117 Z-8.332
X12.18 Y8.947 Z-8.338
X12.234 Y8.782 Z-8.344
X12.303 Y8.622 Z-8.35
X12.387 Y8.47 Z-8.356
X12.484 Y8.326 Z-8.362
X12.594 Y8.191 Z-8.368
X12.716 Y8.067 Z-8.374
X12.849 Y7.955 Z-8.38
X12.991 Y7.855 Z-8.386
X13.142 Y7.769 Z-8.393
X13.3 Y7.696 Z-8.399
X13.465 Y7.639 Z-8.405
X13.633 Y7.597 Z-8.411
X13.805 Y7.57 Z-8.417
X13.979 Y7.56 Z-8.423
X14.153 Y7.565 Z-8.429
X14.325 Y7.586 Z-8.435
X14.495 Y7.623 Z-8.441
X14.661 Y7.675 Z-8.447
X14.822 Y7.742 Z-8.453
X14.975 Y7.823 Z-8.459
X15.121 Y7.918 Z-8.465
X15.257 Y8.026 Z-8.471
X15.383 Y8.147 Z-8.478
X15.497 Y8.278 Z-8.484
X15.599 Y8.419 Z-8.49
X15.687 Y8.568 Z-8.496
X15.762 Y8.725 Z-8.502
X15.822 Y8.889 Z-8.508
X15.866 Y9.057 Z-8.514
X15.895 Y9.228 Z-8.52
X15.908 Y9.402 Z-8.526
X15.906 Y9.576 Z-8.532
X15.887 Y9.748 Z-8.538
X15.853 Y9.919 Z-8.544
X15.803 Y10.086 Z-8.55
X15.738 Y10.247 Z-8.557
X15.659 Y10.402 Z-8.563
X15.566 Y10.549 Z-8.569
X15.46 Y10.686 Z-8.575
X15.342 Y10.814 Z-8.581
X15.212 Y10.93 Z-8.587
X15.073 Y11.034 Z-8.593
X14.924 Y11.125 Z-8.599
X14.768 Y11.201 Z-8.605
X14.606 Y11.263 Z-8.611
X14.438 Y11.31 Z-8.617
X14.267 Y11.342 Z-8.623
X14.094 Y11.357 Z-8.629
X13.92 Z-8.636
X13.747 Y11.341 Z-8.642
X13.576 Y11.309 Z-8.648
X13.409 Y11.262 Z-8.654
X13.246 Y11.2 Z-8.66
X13.09 Y11.122 Z-8.666
X12.942 Y11.032 Z-8.672
X12.803 Y10.927 Z-8.678
X12.674 Y10.811 Z-8.684
X12.556 Y10.683 Z-8.69
X12.45 Y10.545 Z-8.696
X12.357 Y10.398 Z-8.702
X12.278 Y10.243 Z-8.708
X12.214 Y10.082 Z-8.714
X12.165 Y9.915 Z-8.721
X12.131 Y9.744 Z-8.727
X12.113 Y9.571 Z-8.733
X12.11 Y9.397 Z-8.739
X12.124 Y9.224 Z-8.745
X12.153 Y9.053 Z-8.751
X12.198 Y8.885 Z-8.757
X12.258 Y8.722 Z-8.763
X12.333 Y8.565 Z-8.769
X12.422 Y8.415 Z-8.775
X12.524 Y8.274 Z-8.781
X12.639 Y8.143 Z-8.787
X12.765 Y8.024 Z-8.793
X12.901 Y7.916 Z-8.8
X13.047 Y7.821 Z-8.806
X13.201 Y7.74 Z-8.812
X13.361 Y7.673 Z-8.818
X13.527 Y7.621 Z-8.824
X13.697 Y7.585 Z-8.83
X13.87 Y7.564 Z-8.836
X14.044 Y7.56 Z-8.842
X14.217 Y7.571 Z-8.848
X14.389 Y7.598 Z-8.854
X14.558 Y7.64 Z-8.86
X14.722 Y7.698 Z-8.866
X14.88 Y7.771 Z-8.872
X15.031 Y7.857 Z-8.879
X15.173 Y7.957 Z-8.885
X15.305 Y8.07 Z-8.891
X15.427 Y8.194 Z-8.897
X15.537 Y8.329 Z-8.903
X15.634 Y8.474 Z-8.909
X15.717 Y8.626 Z-8.915
X15.786 Y8.786 Z-8.921
X15.84 Y8.951 Z-8.927
X15.879 Y9.121 Z-8.933
X15.902 Y9.293 Z-8.939
X15.909 Y9.467 Z-8.945
X15.901 Y9.64 Z-8.951
X15.876 Y9.813 Z-8.957
X15.836 Y9.982 Z-8.964
X15.781 Y10.147 Z-8.97
X15.71 Y10.306 Z-8.976
X15.626 Y10.458 Z-8.982
X15.528 Y10.601 Z-8.988
X15.417 Y10.735 Z-8.994
X15.294 Y10.859 Z-9.
G3 X13.222 Y10.771 R1.467
X12.837 Y9.716 R1.467
X13.31 Y8.698 R1.467
X14.128 Y8.156 R3.118
X14.723 Y7.941 R3.961
X15.347 Y7.835 R3.229
X15.714 Y8.153 R0.344
X15.614 Y8.42 R0.344
G1 X12.813 Y11.222
G3 X12.33 R0.341
X12.231 Y10.95 R0.341
X12.803 Y9.298 R3.644
X13.31 Y8.698 R3.118
G2 X13.664 Y7.499 R1.215
