(NMJPLATE0PT0PT1_TOP_STEP3_332IN_SIDE2)
(T8  D=2.381 CR=0. - ZMIN=-11.75 - FLAT END MILL)
G0 G90 G94 G17
G21
G53 G0 Z0.

(ELECTRODE CAVITY)
M5
T8
M3 S8000
G55
M8
G0 X88.342 Y54.849
Z15.
Z1.5
G1 Z0.763 F381.
X88.352 Y54.835 Z0.674 F333.
X88.379 Y54.793 Z0.598
X88.424 Y54.734 Z0.545
X88.481 Y54.667 Z0.525
X88.579 Y54.575 Z0.52
X88.686 Y54.495 Z0.516
X88.802 Y54.428 Z0.511
X88.926 Y54.376 Z0.506
X89.054 Y54.338 Z0.502
X89.186 Y54.316 Z0.497
X89.32 Y54.31 Z0.492
X89.454 Y54.319 Z0.488
X89.585 Y54.344 Z0.483
X89.713 Y54.385 Z0.478
X89.835 Y54.44 Z0.474
X89.949 Y54.51 Z0.469
X90.055 Y54.592 Z0.464
X90.15 Y54.687 Z0.459
X90.233 Y54.792 Z0.455
X90.303 Y54.906 Z0.45
X90.359 Y55.027 Z0.445
X90.401 Y55.155 Z0.441
X90.427 Y55.286 Z0.436
X90.437 Y55.42 Z0.431
X90.432 Y55.554 Z0.427
X90.411 Y55.686 Z0.422
X90.374 Y55.815 Z0.417
X90.322 Y55.938 Z0.413
X90.256 Y56.055 Z0.408
X90.177 Y56.163 Z0.403
X90.086 Y56.261 Z0.399
X89.983 Y56.347 Z0.394
X89.871 Y56.421 Z0.389
X89.751 Y56.481 Z0.385
X89.625 Y56.526 Z0.38
X89.495 Y56.556 Z0.375
X89.362 Y56.57 Z0.371
X89.228 Y56.569 Z0.366
X89.095 Y56.552 Z0.361
X88.965 Y56.519 Z0.357
X88.84 Y56.471 Z0.352
X88.721 Y56.409 Z0.347
X88.611 Y56.333 Z0.342
X88.51 Y56.244 Z0.338
X88.421 Y56.144 Z0.333
X88.344 Y56.035 Z0.328
X88.281 Y55.917 Z0.324
X88.231 Y55.792 Z0.319
X88.197 Y55.663 Z0.314
X88.179 Y55.53 Z0.31
X88.176 Y55.396 Z0.305
X88.19 Y55.263 Z0.3
X88.218 Y55.132 Z0.296
X88.262 Y55.005 Z0.291
X88.321 Y54.885 Z0.286
X88.394 Y54.773 Z0.282
X88.479 Y54.669 Z0.277
X88.576 Y54.577 Z0.272
X88.683 Y54.497 Z0.268
X88.799 Y54.43 Z0.263
X88.922 Y54.377 Z0.258
X89.051 Y54.339 Z0.254
X89.183 Y54.316 Z0.249
X89.317 Y54.31 Z0.244
X89.45 Y54.319 Z0.239
X89.582 Y54.344 Z0.235
X89.71 Y54.384 Z0.23
X89.832 Y54.439 Z0.225
X89.947 Y54.508 Z0.221
X90.052 Y54.59 Z0.216
X90.148 Y54.684 Z0.211
X90.231 Y54.789 Z0.207
X90.302 Y54.903 Z0.202
X90.358 Y55.024 Z0.197
X90.4 Y55.152 Z0.193
X90.427 Y55.283 Z0.188
X90.437 Y55.416 Z0.183
X90.432 Y55.55 Z0.179
X90.411 Y55.683 Z0.174
X90.375 Y55.811 Z0.169
X90.324 Y55.935 Z0.165
X90.258 Y56.052 Z0.16
X90.179 Y56.16 Z0.155
X90.088 Y56.258 Z0.151
X89.986 Y56.345 Z0.146
X89.874 Y56.419 Z0.141
X89.755 Y56.479 Z0.137
X89.629 Y56.525 Z0.132
X89.498 Y56.555 Z0.127
X89.365 Y56.57 Z0.122
X89.231 Y56.569 Z0.118
X89.098 Y56.552 Z0.113
X88.968 Y56.52 Z0.108
X88.843 Y56.472 Z0.104
X88.724 Y56.41 Z0.099
X88.614 Y56.335 Z0.094
X88.513 Y56.247 Z0.09
X88.423 Y56.147 Z0.085
X88.346 Y56.038 Z0.08
X88.282 Y55.92 Z0.076
X88.233 Y55.795 Z0.071
X88.198 Y55.666 Z0.066
X88.179 Y55.533 Z0.062
X88.176 Y55.399 Z0.057
X88.189 Y55.266 Z0.052
X88.217 Y55.135 Z0.048
X88.261 Y55.009 Z0.043
X88.32 Y54.888 Z0.038
X88.392 Y54.775 Z0.034
X88.477 Y54.672 Z0.029
X88.574 Y54.579 Z0.024
X88.681 Y54.499 Z0.02
X88.796 Y54.431 Z0.015
X88.919 Y54.378 Z0.01
X89.048 Y54.34 Z0.005
X89.18 Y54.317 Z0.001
X89.313 Y54.31 Z-0.004
X89.447 Y54.318 Z-0.009
X89.579 Y54.343 Z-0.013
X89.707 Y54.383 Z-0.018
X89.829 Y54.437 Z-0.023
X89.944 Y54.506 Z-0.027
X90.05 Y54.588 Z-0.032
X90.145 Y54.682 Z-0.037
X90.229 Y54.786 Z-0.041
X90.3 Y54.9 Z-0.046
X90.357 Y55.021 Z-0.051
X90.399 Y55.148 Z-0.055
X90.426 Y55.28 Z-0.06
X90.437 Y55.413 Z-0.065
X90.433 Y55.547 Z-0.069
X90.412 Y55.679 Z-0.074
X90.376 Y55.808 Z-0.079
X90.325 Y55.932 Z-0.083
X90.26 Y56.049 Z-0.088
X90.181 Y56.158 Z-0.093
X90.09 Y56.256 Z-0.097
X89.989 Y56.343 Z-0.102
X89.877 Y56.417 Z-0.107
X89.758 Y56.478 Z-0.112
X89.632 Y56.524 Z-0.116
X89.502 Y56.555 Z-0.121
X89.368 Y56.57 Z-0.126
X89.234 Y56.569 Z-0.13
X89.102 Y56.553 Z-0.135
X88.971 Y56.521 Z-0.14
X88.846 Y56.474 Z-0.144
X88.727 Y56.412 Z-0.149
X88.616 Y56.337 Z-0.154
X88.515 Y56.249 Z-0.158
X88.425 Y56.15 Z-0.163
X88.348 Y56.041 Z-0.168
X88.283 Y55.923 Z-0.172
X88.234 Y55.799 Z-0.177
X88.199 Y55.669 Z-0.182
X88.18 Y55.537 Z-0.186
X88.176 Y55.403 Z-0.191
X88.188 Y55.269 Z-0.196
X88.217 Y55.138 Z-0.2
X88.26 Y55.012 Z-0.205
X88.318 Y54.891 Z-0.21
X88.39 Y54.778 Z-0.214
X88.475 Y54.674 Z-0.219
X88.571 Y54.581 Z-0.224
X88.678 Y54.5 Z-0.229
X88.793 Y54.433 Z-0.233
X88.916 Y54.379 Z-0.238
X89.044 Y54.34 Z-0.243
X89.176 Y54.317 Z-0.247
X89.31 Y54.309 Z-0.252
X89.444 Y54.318 Z-0.257
X89.575 Y54.342 Z-0.261
X89.703 Y54.381 Z-0.266
X89.826 Y54.436 Z-0.271
X89.941 Y54.504 Z-0.275
X90.047 Y54.586 Z-0.28
X90.143 Y54.679 Z-0.285
X90.227 Y54.784 Z-0.289
X90.298 Y54.897 Z-0.294
X90.356 Y55.018 Z-0.299
X90.398 Y55.145 Z-0.303
X90.426 Y55.276 Z-0.308
X90.437 Y55.41 Z-0.313
X90.433 Y55.544 Z-0.317
X90.413 Y55.676 Z-0.322
X90.377 Y55.805 Z-0.327
X90.327 Y55.929 Z-0.332
X90.262 Y56.046 Z-0.336
X90.183 Y56.155 Z-0.341
X90.093 Y56.254 Z-0.346
X89.991 Y56.341 Z-0.35
X89.88 Y56.416 Z-0.355
X89.761 Y56.476 Z-0.36
X89.635 Y56.523 Z-0.364
X89.505 Y56.554 Z-0.369
X89.372 Y56.57 Z-0.374
X89.238 Z-0.378
X89.105 Y56.554 Z-0.383
X88.975 Y56.522 Z-0.388
X88.849 Y56.475 Z-0.392
X88.73 Y56.414 Z-0.397
X88.619 Y56.339 Z-0.402
X88.518 Y56.251 Z-0.406
X88.427 Y56.152 Z-0.411
X88.349 Y56.043 Z-0.416
X88.285 Y55.926 Z-0.42
X88.235 Y55.802 Z-0.425
X88.199 Y55.673 Z-0.43
X88.18 Y55.54 Z-0.434
X88.176 Y55.406 Z-0.439
X88.188 Y55.273 Z-0.444
X88.216 Y55.142 Z-0.449
X88.259 Y55.015 Z-0.453
X88.316 Y54.894 Z-0.458
X88.388 Y54.781 Z-0.463
X88.472 Y54.677 Z-0.467
X88.568 Y54.584 Z-0.472
X88.675 Y54.502 Z-0.477
X88.79 Y54.434 Z-0.481
X88.913 Y54.38 Z-0.486
X89.041 Y54.341 Z-0.491
X89.173 Y54.317 Z-0.495
X89.307 Y54.309 Z-0.5
G3 X90.086 Y55.089 R0.78
X89.307 Y55.869 R0.78
G1 X89.261 F1499.
G3 X88.925 Y55.533 R0.336
G1 Y55.239
G3 X89.178 Y54.986 R0.253
X89.325 Y55.033 R0.253
G1 X90.021 Y55.528
G3 X90.065 Y55.79 R0.188
X89.911 Y55.869 R0.188
G1 X89.307
G2 X88.82 Y56.299 R0.49
G3 X88.435 Y56.6 R0.346
X88.189 Y56.449 R0.346
G1 X88.179 Y56.434
X88.129 Y56.173
Y53.611
X88.237 Y53.635
X89.564 Y54.225
X90.745 Y55.066
X91.739 Y56.131
X92.067 Y56.665
X88.618
X88.359 Y56.614
X88.252 Y56.542
X88.189 Y56.449
X88.184 Y56.433
X88.188 Y56.418
X88.199 Y56.406
X88.323 Y56.333
X89.476 Y55.058
X89.495 Y55.029
X89.727 Y54.539
X89.749 Y54.507
X89.781 Y54.483
X89.818 Y54.472
X89.857 Y54.473
X89.894 Y54.487
X90.005 Y54.561 Z-0.505 F333.
X90.107 Y54.648 Z-0.509
X90.198 Y54.746 Z-0.514
X90.277 Y54.854 Z-0.519
X90.342 Y54.971 Z-0.523
X90.393 Y55.094 Z-0.528
X90.429 Y55.223 Z-0.533
X90.45 Y55.355 Z-0.537
X90.455 Y55.489 Z-0.542
X90.444 Y55.622 Z-0.547
X90.418 Y55.753 Z-0.551
X90.376 Y55.88 Z-0.556
X90.32 Y56.001 Z-0.561
X90.249 Y56.115 Z-0.565
X90.166 Y56.22 Z-0.57
X90.071 Y56.314 Z-0.575
X89.965 Y56.396 Z-0.579
X89.851 Y56.465 Z-0.584
X89.729 Y56.52 Z-0.589
X89.602 Y56.561 Z-0.593
X89.47 Y56.586 Z-0.598
X89.337 Y56.595 Z-0.603
X89.203 Y56.589 Z-0.607
X89.071 Y56.566 Z-0.612
X88.943 Y56.529 Z-0.617
X88.82 Y56.476 Z-0.621
X88.704 Y56.41 Z-0.626
X88.597 Y56.33 Z-0.631
X88.5 Y56.238 Z-0.636
X88.414 Y56.135 Z-0.64
X88.341 Y56.023 Z-0.645
X88.282 Y55.903 Z-0.65
X88.237 Y55.777 Z-0.654
X88.208 Y55.647 Z-0.659
X88.194 Y55.514 Z-0.664
X88.196 Y55.38 Z-0.668
X88.214 Y55.247 Z-0.673
X88.247 Y55.118 Z-0.678
X88.296 Y54.993 Z-0.682
X88.359 Y54.875 Z-0.687
X88.435 Y54.765 Z-0.692
X88.523 Y54.665 Z-0.696
X88.623 Y54.576 Z-0.701
X88.733 Y54.5 Z-0.706
X88.851 Y54.437 Z-0.71
X88.976 Y54.388 Z-0.715
X89.105 Y54.354 Z-0.72
X89.238 Y54.336 Z-0.724
X89.371 Y54.334 Z-0.729
X89.504 Y54.347 Z-0.734
X89.635 Y54.376 Z-0.738
X89.761 Y54.421 Z-0.743
X89.881 Y54.479 Z-0.748
X89.993 Y54.552 Z-0.752
X90.096 Y54.637 Z-0.757
X90.189 Y54.734 Z-0.762
X90.269 Y54.841 Z-0.766
X90.336 Y54.957 Z-0.771
X90.388 Y55.08 Z-0.776
X90.426 Y55.208 Z-0.78
X90.449 Y55.34 Z-0.785
X90.455 Y55.474 Z-0.79
X90.446 Y55.607 Z-0.794
X90.421 Y55.739 Z-0.799
X90.381 Y55.866 Z-0.804
X90.327 Y55.988 Z-0.808
X90.258 Y56.103 Z-0.813
X90.176 Y56.209 Z-0.818
X90.082 Y56.304 Z-0.822
X89.977 Y56.387 Z-0.827
X89.864 Y56.458 Z-0.832
X89.743 Y56.515 Z-0.836
X89.616 Y56.557 Z-0.841
X89.485 Y56.584 Z-0.846
X89.352 Y56.595 Z-0.85
X89.218 Y56.59 Z-0.855
X89.086 Y56.57 Z-0.86
X88.957 Y56.534 Z-0.864
X88.833 Y56.483 Z-0.869
X88.716 Y56.418 Z-0.874
X88.608 Y56.339 Z-0.879
X88.51 Y56.249 Z-0.883
X88.423 Y56.147 Z-0.888
X88.348 Y56.036 Z-0.893
X88.288 Y55.917 Z-0.897
X88.242 Y55.791 Z-0.902
X88.21 Y55.661 Z-0.907
X88.195 Y55.528 Z-0.911
Y55.395 Z-0.916
X88.211 Y55.262 Z-0.921
X88.243 Y55.132 Z-0.925
X88.29 Y55.007 Z-0.93
X88.351 Y54.888 Z-0.935
X88.426 Y54.777 Z-0.939
X88.513 Y54.676 Z-0.944
X88.612 Y54.585 Z-0.949
X88.721 Y54.507 Z-0.953
X88.838 Y54.443 Z-0.958
X88.962 Y54.393 Z-0.963
X89.091 Y54.357 Z-0.967
X89.223 Y54.337 Z-0.972
X89.357 Y54.333 Z-0.977
X89.49 Y54.345 Z-0.981
X89.621 Y54.372 Z-0.986
X89.747 Y54.415 Z-0.991
X89.868 Y54.472 Z-0.995
X89.982 Y54.543 Z-1.
X90.732 Y55.079 F1499.
X90.968 Y55.326
X91.752 Y56.174
X92.04 Y56.648
X88.62
X88.36 Y56.595
X88.264 Y56.531
X88.195 Y56.429
X88.147 Y56.189
X88.146 Y53.63
X88.217 Y53.646
X89.563 Y54.245
X89.982 Y54.543
X90.009 Y54.57
X90.026 Y54.604
X90.031 Y54.642
X90.025 Y54.68
X90.006 Y54.713
X89.978 Y54.739
X89.189 Y55.265
X88.341 Y55.687
X88.305 Y55.699
X88.267 Y55.698
X88.23 Y55.685
X88.2 Y55.661
X88.18 Y55.629
X88.17 Y55.592
X88.165 Y55.458 Z-1.005 F333.
X88.177 Y55.325 Z-1.009
X88.204 Y55.194 Z-1.014
X88.246 Y55.067 Z-1.019
X88.303 Y54.946 Z-1.023
X88.374 Y54.832 Z-1.028
X88.457 Y54.728 Z-1.033
X88.553 Y54.634 Z-1.037
X88.659 Y54.553 Z-1.042
X88.773 Y54.484 Z-1.047
X88.895 Y54.429 Z-1.051
X89.023 Y54.389 Z-1.056
X89.155 Y54.365 Z-1.061
X89.288 Y54.356 Z-1.065
X89.422 Y54.363 Z-1.07
X89.553 Y54.385 Z-1.075
X89.682 Y54.424 Z-1.079
X89.804 Y54.476 Z-1.084
X89.92 Y54.544 Z-1.089
X90.027 Y54.624 Z-1.093
X90.124 Y54.716 Z-1.098
X90.209 Y54.819 Z-1.103
X90.281 Y54.932 Z-1.107
X90.34 Y55.052 Z-1.112
X90.384 Y55.178 Z-1.117
X90.413 Y55.309 Z-1.121
X90.426 Y55.442 Z-1.126
X90.424 Y55.575 Z-1.131
X90.405 Y55.708 Z-1.136
X90.372 Y55.837 Z-1.14
X90.323 Y55.962 Z-1.145
X90.26 Y56.08 Z-1.15
X90.183 Y56.189 Z-1.154
X90.094 Y56.289 Z-1.159
X89.994 Y56.377 Z-1.164
X89.884 Y56.454 Z-1.168
X89.765 Y56.516 Z-1.173
X89.641 Y56.564 Z-1.178
X89.511 Y56.597 Z-1.182
X89.378 Y56.615 Z-1.187
X89.245 Y56.617 Z-1.192
X89.112 Y56.603 Z-1.196
X88.981 Y56.573 Z-1.201
X88.855 Y56.529 Z-1.206
X88.735 Y56.469 Z-1.21
X88.623 Y56.396 Z-1.215
X88.521 Y56.31 Z-1.22
X88.429 Y56.213 Z-1.224
X88.349 Y56.106 Z-1.229
X88.283 Y55.99 Z-1.234
X88.231 Y55.867 Z-1.238
X88.193 Y55.738 Z-1.243
X88.171 Y55.606 Z-1.248
X88.165 Y55.473 Z-1.252
X88.175 Y55.339 Z-1.257
X88.2 Y55.208 Z-1.262
X88.241 Y55.081 Z-1.266
X88.296 Y54.959 Z-1.271
X88.365 Y54.844 Z-1.276
X88.448 Y54.739 Z-1.28
X88.542 Y54.644 Z-1.285
X88.647 Y54.561 Z-1.29
X88.76 Y54.491 Z-1.294
X88.882 Y54.435 Z-1.299
X89.009 Y54.393 Z-1.304
X89.14 Y54.367 Z-1.308
X89.273 Y54.356 Z-1.313
X89.407 Y54.361 Z-1.318
X89.539 Y54.382 Z-1.322
X89.668 Y54.419 Z-1.327
X89.791 Y54.47 Z-1.332
X89.908 Y54.535 Z-1.336
X90.016 Y54.614 Z-1.341
X90.114 Y54.705 Z-1.346
X90.2 Y54.807 Z-1.35
X90.274 Y54.919 Z-1.355
X90.334 Y55.038 Z-1.36
X90.38 Y55.164 Z-1.364
X90.411 Y55.294 Z-1.369
X90.426 Y55.427 Z-1.374
X90.425 Y55.561 Z-1.379
X90.408 Y55.693 Z-1.383
X90.376 Y55.823 Z-1.388
X90.329 Y55.948 Z-1.393
X90.267 Y56.067 Z-1.397
X90.192 Y56.178 Z-1.402
X90.104 Y56.278 Z-1.407
X90.005 Y56.368 Z-1.411
X89.896 Y56.446 Z-1.416
X89.779 Y56.51 Z-1.421
X89.655 Y56.56 Z-1.425
X89.525 Y56.595 Z-1.43
X89.393 Y56.614 Z-1.435
X89.259 Y56.617 Z-1.439
X89.126 Y56.605 Z-1.444
X88.995 Y56.577 Z-1.449
X88.869 Y56.534 Z-1.453
X88.748 Y56.477 Z-1.458
X88.635 Y56.405 Z-1.463
X88.532 Y56.321 Z-1.467
X88.439 Y56.224 Z-1.472
X88.357 Y56.118 Z-1.477
X88.29 Y56.003 Z-1.481
X88.236 Y55.88 Z-1.486
X88.197 Y55.753 Z-1.491
X88.173 Y55.621 Z-1.495
X88.165 Y55.487 Z-1.5
X88.164 Y53.654 F1499.
X88.23 Y53.669
X89.229 Y54.11
X89.56 Y54.264
X90.656 Y55.042
X90.758 Y55.125
X91.729 Y56.176
X92.008 Y56.63
X88.621
X88.361 Y56.576
X88.275 Y56.519
X88.212 Y56.424
X88.165 Y56.189
Y55.487
X88.172 Y55.446
X88.193 Y55.41
X88.226 Y55.384
X88.265 Y55.37
X89.096 Y55.234
X89.125 Y55.226
X89.151 Y55.21
X89.172 Y55.189
X89.679 Y54.52
X89.71 Y54.492
X89.748 Y54.476
X89.789 Y54.474
X89.829 Y54.487
X89.944 Y54.555 Z-1.505 F333.
X90.05 Y54.637 Z-1.509
X90.145 Y54.731 Z-1.514
X90.229 Y54.835 Z-1.519
X90.299 Y54.949 Z-1.523
X90.356 Y55.07 Z-1.528
X90.398 Y55.197 Z-1.533
X90.424 Y55.328 Z-1.537
X90.435 Y55.461 Z-1.542
X90.43 Y55.595 Z-1.547
X90.41 Y55.727 Z-1.551
X90.373 Y55.856 Z-1.556
X90.322 Y55.979 Z-1.561
X90.256 Y56.096 Z-1.565
X90.178 Y56.204 Z-1.57
X90.086 Y56.302 Z-1.575
X89.984 Y56.388 Z-1.579
X89.873 Y56.462 Z-1.584
X89.753 Y56.522 Z-1.589
X89.627 Y56.567 Z-1.593
X89.497 Y56.597 Z-1.598
X89.364 Y56.612 Z-1.603
X89.23 Y56.61 Z-1.607
X89.098 Y56.593 Z-1.612
X88.968 Y56.56 Z-1.617
X88.843 Y56.512 Z-1.621
X88.725 Y56.45 Z-1.626
X88.615 Y56.374 Z-1.631
X88.515 Y56.285 Z-1.636
X88.426 Y56.186 Z-1.64
X88.349 Y56.076 Z-1.645
X88.286 Y55.958 Z-1.65
X88.237 Y55.834 Z-1.654
X88.203 Y55.704 Z-1.659
X88.185 Y55.572 Z-1.664
X88.183 Y55.438 Z-1.668
X88.197 Y55.305 Z-1.673
X88.226 Y55.174 Z-1.678
X88.271 Y55.048 Z-1.682
X88.33 Y54.928 Z-1.687
X88.403 Y54.816 Z-1.692
X88.489 Y54.714 Z-1.696
X88.586 Y54.622 Z-1.701
X88.693 Y54.542 Z-1.706
X88.809 Y54.476 Z-1.71
X88.933 Y54.424 Z-1.715
X89.061 Y54.387 Z-1.72
X89.193 Y54.365 Z-1.724
X89.327 Y54.36 Z-1.729
X89.46 Y54.37 Z-1.734
X89.591 Y54.395 Z-1.738
X89.719 Y54.437 Z-1.743
X89.84 Y54.492 Z-1.748
X89.954 Y54.562 Z-1.752
X90.059 Y54.645 Z-1.757
X90.153 Y54.74 Z-1.762
X90.236 Y54.845 Z-1.766
X90.305 Y54.96 Z-1.771
X90.36 Y55.081 Z-1.776
X90.401 Y55.209 Z-1.78
X90.426 Y55.34 Z-1.785
X90.436 Y55.474 Z-1.79
X90.429 Y55.607 Z-1.794
X90.407 Y55.739 Z-1.799
X90.369 Y55.867 Z-1.804
X90.317 Y55.99 Z-1.808
X90.25 Y56.106 Z-1.813
X90.17 Y56.213 Z-1.818
X90.077 Y56.31 Z-1.822
X89.974 Y56.395 Z-1.827
X89.862 Y56.468 Z-1.832
X89.742 Y56.526 Z-1.836
X89.615 Y56.57 Z-1.841
X89.485 Y56.599 Z-1.846
X89.352 Y56.612 Z-1.85
X89.218 Y56.609 Z-1.855
X89.086 Y56.591 Z-1.86
X88.956 Y56.556 Z-1.864
X88.832 Y56.507 Z-1.869
X88.714 Y56.443 Z-1.874
X88.605 Y56.366 Z-1.879
X88.506 Y56.277 Z-1.883
X88.418 Y56.176 Z-1.888
X88.342 Y56.065 Z-1.893
X88.281 Y55.947 Z-1.897
X88.233 Y55.822 Z-1.902
X88.201 Y55.692 Z-1.907
X88.184 Y55.559 Z-1.911
Y55.425 Z-1.916
X88.199 Y55.293 Z-1.921
X88.23 Y55.162 Z-1.925
X88.276 Y55.037 Z-1.93
X88.336 Y54.918 Z-1.935
X88.41 Y54.806 Z-1.939
X88.497 Y54.705 Z-1.944
X88.595 Y54.614 Z-1.949
X88.704 Y54.536 Z-1.953
X88.821 Y54.471 Z-1.958
X88.944 Y54.42 Z-1.963
X89.073 Y54.384 Z-1.967
X89.206 Y54.364 Z-1.972
X89.339 Y54.36 Z-1.977
X89.472 Y54.371 Z-1.981
X89.603 Y54.399 Z-1.986
X89.73 Y54.441 Z-1.991
X89.851 Y54.498 Z-1.995
X89.964 Y54.57 Z-2.
X90.652 Y55.061 F1499.
X90.769 Y55.159
X91.394 Y55.83
X91.741 Y56.219
X91.982 Y56.613
X88.618
X88.373 Y56.565
X88.287 Y56.507
X88.228 Y56.42
X88.182 Y56.189
X88.181 Y53.677
X88.243 Y53.692
X89.224 Y54.125
X89.597 Y54.307
X89.964 Y54.57
X89.982 Y54.592
X89.987 Y54.62
X89.976 Y54.646
X89.954 Y54.663
X89.926 Y54.667
X89.72 Y54.639
X89.565 Y54.514
X89.551 Y54.494
X89.546 Y54.47
X89.552 Y54.447
X89.568 Y54.428
X89.59 Y54.419
X89.615 Y54.42
X89.74 Y54.464 Z-2.005 F333.
X89.859 Y54.523 Z-2.009
X89.97 Y54.595 Z-2.014
X90.071 Y54.68 Z-2.019
X90.162 Y54.777 Z-2.023
X90.24 Y54.884 Z-2.028
X90.305 Y54.999 Z-2.032
X90.356 Y55.121 Z-2.037
X90.392 Y55.249 Z-2.042
X90.413 Y55.38 Z-2.046
X90.418 Y55.512 Z-2.051
X90.407 Y55.644 Z-2.056
X90.38 Y55.774 Z-2.06
X90.338 Y55.9 Z-2.065
X90.281 Y56.019 Z-2.069
X90.211 Y56.132 Z-2.074
X90.127 Y56.235 Z-2.079
X90.032 Y56.327 Z-2.083
X89.927 Y56.407 Z-2.088
X89.813 Y56.474 Z-2.093
X89.691 Y56.527 Z-2.097
X89.564 Y56.565 Z-2.102
X89.434 Y56.588 Z-2.106
X89.301 Y56.595 Z-2.111
X89.169 Y56.586 Z-2.116
X89.039 Y56.562 Z-2.12
X88.913 Y56.522 Z-2.125
X88.792 Y56.467 Z-2.13
X88.679 Y56.399 Z-2.134
X88.574 Y56.317 Z-2.139
X88.48 Y56.223 Z-2.144
X88.398 Y56.119 Z-2.148
X88.329 Y56.006 Z-2.153
X88.274 Y55.886 Z-2.157
X88.234 Y55.759 Z-2.162
X88.209 Y55.629 Z-2.167
X88.2 Y55.497 Z-2.171
X88.207 Y55.365 Z-2.176
X88.229 Y55.234 Z-2.181
X88.267 Y55.107 Z-2.185
X88.319 Y54.986 Z-2.19
X88.386 Y54.871 Z-2.194
X88.466 Y54.765 Z-2.199
X88.558 Y54.67 Z-2.204
X88.661 Y54.586 Z-2.208
X88.773 Y54.515 Z-2.213
X88.892 Y54.458 Z-2.218
X89.018 Y54.416 Z-2.222
X89.147 Y54.389 Z-2.227
X89.279 Y54.377 Z-2.231
X89.412 Y54.382 Z-2.236
X89.543 Y54.402 Z-2.241
X89.67 Y54.438 Z-2.245
X89.793 Y54.488 Z-2.25
X89.908 Y54.553 Z-2.255
X90.015 Y54.631 Z-2.259
X90.112 Y54.722 Z-2.264
X90.198 Y54.823 Z-2.269
X90.271 Y54.934 Z-2.273
X90.33 Y55.052 Z-2.278
X90.374 Y55.177 Z-2.282
X90.403 Y55.306 Z-2.287
X90.417 Y55.438 Z-2.292
X90.415 Y55.57 Z-2.296
X90.397 Y55.702 Z-2.301
X90.363 Y55.83 Z-2.306
X90.315 Y55.953 Z-2.31
X90.252 Y56.07 Z-2.315
X90.176 Y56.178 Z-2.319
X90.087 Y56.277 Z-2.324
X89.987 Y56.364 Z-2.329
X89.878 Y56.438 Z-2.333
X89.76 Y56.499 Z-2.338
X89.636 Y56.546 Z-2.343
X89.507 Y56.577 Z-2.347
X89.376 Y56.593 Z-2.352
X89.243 Z-2.356
X89.112 Y56.577 Z-2.361
X88.983 Y56.546 Z-2.366
X88.859 Y56.5 Z-2.37
X88.741 Y56.439 Z-2.375
X88.632 Y56.364 Z-2.38
X88.532 Y56.277 Z-2.384
X88.443 Y56.179 Z-2.389
X88.366 Y56.071 Z-2.394
X88.303 Y55.954 Z-2.398
X88.255 Y55.831 Z-2.403
X88.221 Y55.703 Z-2.407
X88.203 Y55.571 Z-2.412
X88.201 Y55.439 Z-2.417
X88.214 Y55.307 Z-2.421
X88.244 Y55.178 Z-2.426
X88.288 Y55.053 Z-2.431
X88.347 Y54.934 Z-2.435
X88.42 Y54.823 Z-2.44
X88.505 Y54.722 Z-2.444
X88.602 Y54.632 Z-2.449
X88.709 Y54.553 Z-2.454
X88.824 Y54.489 Z-2.458
X88.947 Y54.438 Z-2.463
X89.074 Y54.402 Z-2.468
X89.205 Y54.382 Z-2.472
X89.338 Y54.377 Z-2.477
X89.47 Y54.389 Z-2.481
X89.599 Y54.416 Z-2.486
X89.725 Y54.458 Z-2.491
X89.845 Y54.515 Z-2.495
X89.957 Y54.586 Z-2.5
X90.649 Y55.084 F1499.
X90.783 Y55.198
X91.371 Y55.829
X91.73 Y56.235
X91.951 Y56.595
X88.618
X88.378 Y56.548
X88.301 Y56.497
X88.244 Y56.407
X88.2 Y56.189
X88.199 Y53.7
X88.244 Y53.711
X88.289 Y53.728
X89.223 Y54.142
X89.589 Y54.321
X89.957 Y54.586
X89.986 Y54.617
X90.003 Y54.656
X90.005 Y54.699
X89.992 Y54.74
X89.965 Y54.773
X89.238 Y55.395
X88.554 Y56.063
X88.518 Y56.087
X88.477 Y56.097
X88.434 Y56.091
X88.396 Y56.071
X88.368 Y56.038
X88.309 Y55.922 Z-2.505 F333.
X88.263 Y55.798 Z-2.509
X88.233 Y55.67 Z-2.514
X88.219 Y55.54 Z-2.518
X88.22 Y55.409 Z-2.523
X88.237 Y55.279 Z-2.528
X88.269 Y55.151 Z-2.532
X88.317 Y55.029 Z-2.537
X88.379 Y54.913 Z-2.541
X88.454 Y54.805 Z-2.546
X88.541 Y54.708 Z-2.55
X88.64 Y54.621 Z-2.555
X88.748 Y54.547 Z-2.56
X88.865 Y54.486 Z-2.564
X88.988 Y54.44 Z-2.569
X89.115 Y54.409 Z-2.573
X89.246 Y54.393 Z-2.578
X89.377 Z-2.583
X89.507 Y54.409 Z-2.587
X89.635 Y54.44 Z-2.592
X89.757 Y54.487 Z-2.596
X89.874 Y54.547 Z-2.601
X89.982 Y54.622 Z-2.606
X90.081 Y54.708 Z-2.61
X90.168 Y54.806 Z-2.615
X90.243 Y54.914 Z-2.619
X90.305 Y55.03 Z-2.624
X90.352 Y55.152 Z-2.628
X90.384 Y55.28 Z-2.633
X90.401 Y55.41 Z-2.638
X90.402 Y55.541 Z-2.642
X90.388 Y55.672 Z-2.647
X90.357 Y55.799 Z-2.651
X90.312 Y55.923 Z-2.656
X90.252 Y56.039 Z-2.661
X90.179 Y56.148 Z-2.665
X90.093 Y56.248 Z-2.67
X89.996 Y56.336 Z-2.674
X89.889 Y56.412 Z-2.679
X89.774 Y56.475 Z-2.683
X89.652 Y56.523 Z-2.688
X89.525 Y56.556 Z-2.693
X89.395 Y56.574 Z-2.697
X89.263 Y56.577 Z-2.702
X89.133 Y56.563 Z-2.706
X89.005 Y56.534 Z-2.711
X88.881 Y56.49 Z-2.716
X88.764 Y56.431 Z-2.72
X88.654 Y56.359 Z-2.725
X88.554 Y56.274 Z-2.729
X88.465 Y56.177 Z-2.734
X88.388 Y56.071 Z-2.739
X88.324 Y55.956 Z-2.743
X88.275 Y55.835 Z-2.748
X88.24 Y55.708 Z-2.752
X88.221 Y55.578 Z-2.757
X88.218 Y55.447 Z-2.761
X88.23 Y55.316 Z-2.766
X88.258 Y55.188 Z-2.771
X88.302 Y55.064 Z-2.775
X88.359 Y54.946 Z-2.78
X88.431 Y54.836 Z-2.784
X88.515 Y54.735 Z-2.789
X88.61 Y54.645 Z-2.794
X88.716 Y54.567 Z-2.798
X88.83 Y54.502 Z-2.803
X88.951 Y54.452 Z-2.807
X89.078 Y54.416 Z-2.812
X89.208 Y54.396 Z-2.817
X89.339 Y54.392 Z-2.821
X89.47 Y54.403 Z-2.826
X89.598 Y54.43 Z-2.83
X89.722 Y54.472 Z-2.835
X89.841 Y54.528 Z-2.839
X89.952 Y54.599 Z-2.844
X90.053 Y54.682 Z-2.849
X90.144 Y54.777 Z-2.853
X90.223 Y54.882 Z-2.858
X90.288 Y54.996 Z-2.862
X90.34 Y55.116 Z-2.867
X90.377 Y55.242 Z-2.872
X90.398 Y55.372 Z-2.876
X90.404 Y55.503 Z-2.881
X90.394 Y55.634 Z-2.885
X90.368 Y55.763 Z-2.89
X90.327 Y55.887 Z-2.894
X90.271 Y56.006 Z-2.899
X90.202 Y56.118 Z-2.904
X90.119 Y56.22 Z-2.908
X90.025 Y56.312 Z-2.913
X89.921 Y56.391 Z-2.917
X89.808 Y56.458 Z-2.922
X89.688 Y56.511 Z-2.927
X89.562 Y56.548 Z-2.931
X89.433 Y56.571 Z-2.936
X89.302 Y56.578 Z-2.94
X89.171 Y56.569 Z-2.945
X89.042 Y56.544 Z-2.95
X88.917 Y56.504 Z-2.954
X88.797 Y56.45 Z-2.959
X88.685 Y56.381 Z-2.963
X88.582 Y56.3 Z-2.968
X88.49 Y56.206 Z-2.972
X88.409 Y56.103 Z-2.977
X88.341 Y55.99 Z-2.982
X88.288 Y55.87 Z-2.986
X88.249 Y55.745 Z-2.991
X88.225 Y55.616 Z-2.995
X88.217 Y55.485 Z-3.
Y53.724 F1499.
X88.247 Y53.731
X88.294 Y53.747
X89.22 Y54.158
X89.61 Y54.355
X90.278 Y54.832
X90.742 Y55.183
X90.796 Y55.235
X91.348 Y55.827
X91.726 Y56.259
X91.921 Y56.578
X88.62
X88.377 Y56.528
X88.31 Y56.484
X88.264 Y56.414
X88.218 Y56.188
X88.217 Y55.485
X88.224 Y55.447
X88.241 Y55.413
X88.269 Y55.387
X88.303 Y55.37
X88.341 Y55.366
X88.379 Y55.374
X89.211 Y55.691
X90.007 Y56.086
X90.039 Y56.108
X90.061 Y56.139
X90.072 Y56.176
Y56.215
X90.058 Y56.251
X90.035 Y56.281
X89.933 Y56.362 Z-3.005 F333.
X89.823 Y56.431 Z-3.009
X89.705 Y56.486 Z-3.014
X89.581 Y56.526 Z-3.018
X89.453 Y56.551 Z-3.023
X89.324 Y56.56 Z-3.027
X89.194 Y56.554 Z-3.032
X89.065 Y56.532 Z-3.036
X88.941 Y56.494 Z-3.041
X88.822 Y56.442 Z-3.045
X88.71 Y56.376 Z-3.05
X88.606 Y56.297 Z-3.055
X88.513 Y56.206 Z-3.059
X88.432 Y56.105 Z-3.064
X88.363 Y55.994 Z-3.068
X88.309 Y55.876 Z-3.073
X88.269 Y55.752 Z-3.077
X88.244 Y55.625 Z-3.082
X88.235 Y55.495 Z-3.086
X88.241 Y55.365 Z-3.091
X88.264 Y55.237 Z-3.095
X88.301 Y55.112 Z-3.1
X88.353 Y54.993 Z-3.105
X88.42 Y54.881 Z-3.109
X88.499 Y54.778 Z-3.114
X88.59 Y54.685 Z-3.118
X88.692 Y54.604 Z-3.123
X88.802 Y54.536 Z-3.127
X88.92 Y54.481 Z-3.132
X89.044 Y54.441 Z-3.136
X89.172 Y54.417 Z-3.141
X89.302 Y54.408 Z-3.145
X89.432 Y54.414 Z-3.15
X89.56 Y54.437 Z-3.155
X89.684 Y54.474 Z-3.159
X89.803 Y54.527 Z-3.164
X89.915 Y54.593 Z-3.168
X90.018 Y54.673 Z-3.173
X90.111 Y54.764 Z-3.177
X90.192 Y54.866 Z-3.182
X90.26 Y54.976 Z-3.186
X90.315 Y55.095 Z-3.191
X90.354 Y55.219 Z-3.195
X90.379 Y55.346 Z-3.2
X90.387 Y55.476 Z-3.205
X90.38 Y55.606 Z-3.209
X90.358 Y55.734 Z-3.214
X90.32 Y55.859 Z-3.218
X90.267 Y55.978 Z-3.223
X90.201 Y56.089 Z-3.227
X90.121 Y56.192 Z-3.232
X90.03 Y56.285 Z-3.236
X89.928 Y56.366 Z-3.241
X89.817 Y56.434 Z-3.245
X89.699 Y56.488 Z-3.25
X89.575 Y56.527 Z-3.255
X89.447 Y56.552 Z-3.259
X89.317 Y56.56 Z-3.264
X89.187 Y56.553 Z-3.268
X89.059 Y56.53 Z-3.273
X88.935 Y56.492 Z-3.277
X88.816 Y56.44 Z-3.282
X88.704 Y56.373 Z-3.286
X88.602 Y56.293 Z-3.291
X88.509 Y56.202 Z-3.295
X88.428 Y56.1 Z-3.3
X88.361 Y55.989 Z-3.305
X88.307 Y55.87 Z-3.309
X88.267 Y55.746 Z-3.314
X88.243 Y55.618 Z-3.318
X88.235 Y55.489 Z-3.323
X88.242 Y55.359 Z-3.327
X88.265 Y55.231 Z-3.332
X88.303 Y55.106 Z-3.336
X88.356 Y54.987 Z-3.341
X88.423 Y54.876 Z-3.345
X88.503 Y54.773 Z-3.35
X88.595 Y54.681 Z-3.355
X88.697 Y54.6 Z-3.359
X88.808 Y54.533 Z-3.364
X88.926 Y54.479 Z-3.368
X89.05 Y54.44 Z-3.373
X89.178 Y54.416 Z-3.377
X89.308 Y54.408 Z-3.382
X89.438 Y54.415 Z-3.386
X89.566 Y54.438 Z-3.391
X89.69 Y54.477 Z-3.395
X89.809 Y54.53 Z-3.4
X89.92 Y54.597 Z-3.405
X90.023 Y54.677 Z-3.409
X90.115 Y54.769 Z-3.414
X90.196 Y54.871 Z-3.418
X90.263 Y54.982 Z-3.423
X90.317 Y55.1 Z-3.427
X90.356 Y55.225 Z-3.432
X90.379 Y55.353 Z-3.436
X90.387 Y55.482 Z-3.441
X90.38 Y55.612 Z-3.445
X90.356 Y55.74 Z-3.45
X90.318 Y55.864 Z-3.455
X90.265 Y55.983 Z-3.459
X90.197 Y56.095 Z-3.464
X90.117 Y56.197 Z-3.468
X90.025 Y56.289 Z-3.473
X89.923 Y56.369 Z-3.477
X89.812 Y56.437 Z-3.482
X89.693 Y56.49 Z-3.486
X89.569 Y56.529 Z-3.491
X89.441 Y56.552 Z-3.495
X89.311 Y56.56 Z-3.5
X88.62 F1499.
X88.387 Y56.512
X88.32 Y56.469
X88.279 Y56.407
X88.235 Y56.189
X88.234 Y53.749
X88.305 Y53.77
X89.22 Y54.175
X89.596 Y54.366
X90.277 Y54.85
X90.759 Y55.221
X91.344 Y55.846
X91.721 Y56.283
X91.89 Y56.56
X89.311
X89.28 Y56.554
X89.254 Y56.537
X89.235 Y56.512
X89.123 Y56.268
X89.103 Y56.241
X89.074 Y56.224
X89.04 Y56.22
X89.008 Y56.229
X88.781 Y56.349
X88.751 Y56.358
X88.721 Y56.356
X88.693 Y56.343
X88.592 Y56.261 Z-3.505 F333.
X88.502 Y56.167 Z-3.509
X88.425 Y56.062 Z-3.514
X88.36 Y55.949 Z-3.518
X88.31 Y55.829 Z-3.523
X88.276 Y55.704 Z-3.527
X88.256 Y55.575 Z-3.532
X88.253 Y55.445 Z-3.536
X88.266 Y55.316 Z-3.541
X88.294 Y55.189 Z-3.545
X88.338 Y55.066 Z-3.55
X88.396 Y54.95 Z-3.555
X88.468 Y54.842 Z-3.559
X88.553 Y54.743 Z-3.564
X88.65 Y54.656 Z-3.568
X88.756 Y54.581 Z-3.573
X88.871 Y54.52 Z-3.577
X88.992 Y54.473 Z-3.582
X89.118 Y54.441 Z-3.586
X89.247 Y54.425 Z-3.591
X89.378 Y54.426 Z-3.595
X89.507 Y54.442 Z-3.6
X89.633 Y54.473 Z-3.605
X89.754 Y54.52 Z-3.609
X89.869 Y54.582 Z-3.614
X89.975 Y54.657 Z-3.618
X90.071 Y54.744 Z-3.623
X90.156 Y54.843 Z-3.627
X90.228 Y54.951 Z-3.632
X90.287 Y55.067 Z-3.636
X90.33 Y55.19 Z-3.641
X90.358 Y55.317 Z-3.645
X90.371 Y55.446 Z-3.65
X90.367 Y55.576 Z-3.655
X90.348 Y55.705 Z-3.659
X90.313 Y55.83 Z-3.664
X90.263 Y55.95 Z-3.668
X90.198 Y56.063 Z-3.673
X90.121 Y56.168 Z-3.677
X90.031 Y56.262 Z-3.682
X89.93 Y56.344 Z-3.686
X89.82 Y56.413 Z-3.691
X89.702 Y56.468 Z-3.695
X89.578 Y56.509 Z-3.7
X89.451 Y56.534 Z-3.705
X89.321 Y56.543 Z-3.709
X89.191 Y56.536 Z-3.714
X89.063 Y56.513 Z-3.718
X88.939 Y56.475 Z-3.723
X88.82 Y56.422 Z-3.727
X88.709 Y56.354 Z-3.732
X88.606 Y56.274 Z-3.736
X88.515 Y56.181 Z-3.741
X88.435 Y56.078 Z-3.745
X88.369 Y55.966 Z-3.75
X88.317 Y55.847 Z-3.755
X88.28 Y55.723 Z-3.759
X88.258 Y55.594 Z-3.764
X88.252 Y55.464 Z-3.768
X88.263 Y55.335 Z-3.773
X88.289 Y55.207 Z-3.777
X88.33 Y55.084 Z-3.782
X88.387 Y54.967 Z-3.786
X88.457 Y54.857 Z-3.791
X88.54 Y54.757 Z-3.795
X88.635 Y54.668 Z-3.8
X88.74 Y54.591 Z-3.805
X88.853 Y54.528 Z-3.809
X88.974 Y54.479 Z-3.814
X89.099 Y54.445 Z-3.818
X89.228 Y54.427 Z-3.823
X89.358 Y54.425 Z-3.827
X89.488 Y54.438 Z-3.832
X89.614 Y54.468 Z-3.836
X89.737 Y54.512 Z-3.841
X89.852 Y54.572 Z-3.845
X89.96 Y54.645 Z-3.85
X90.058 Y54.731 Z-3.855
X90.144 Y54.828 Z-3.859
X90.218 Y54.935 Z-3.864
X90.279 Y55.05 Z-3.868
X90.325 Y55.172 Z-3.873
X90.355 Y55.298 Z-3.877
X90.37 Y55.427 Z-3.882
X90.369 Y55.557 Z-3.886
X90.352 Y55.686 Z-3.891
X90.319 Y55.812 Z-3.895
X90.271 Y55.933 Z-3.9
X90.209 Y56.047 Z-3.905
X90.133 Y56.153 Z-3.909
X90.045 Y56.248 Z-3.914
X89.945 Y56.332 Z-3.918
X89.837 Y56.404 Z-3.923
X89.72 Y56.461 Z-3.927
X89.597 Y56.504 Z-3.932
X89.47 Y56.531 Z-3.936
X89.34 Y56.542 Z-3.941
X89.21 Y56.538 Z-3.945
X89.082 Y56.517 Z-3.95
X88.957 Y56.481 Z-3.955
X88.837 Y56.43 Z-3.959
X88.724 Y56.365 Z-3.964
X88.621 Y56.286 Z-3.968
X88.528 Y56.196 Z-3.973
X88.446 Y56.094 Z-3.977
X88.378 Y55.983 Z-3.982
X88.324 Y55.865 Z-3.986
X88.284 Y55.741 Z-3.991
X88.26 Y55.613 Z-3.995
X88.252 Y55.484 Z-4.
Y53.772 F1499.
X88.307 Y53.788
X89.218 Y54.193
X89.611 Y54.396
X90.275 Y54.868
X90.753 Y55.24
X91.342 Y55.867
X91.742 Y56.34
X91.864 Y56.543
X88.621
X88.386 Y56.494
X88.33 Y56.455
X88.298 Y56.406
X88.253 Y56.188
X88.252 Y55.484
X88.259 Y55.444
X88.278 Y55.409
X88.308 Y55.382
X88.346 Y55.367
X88.386 Y55.365
X88.424 Y55.377
X88.456 Y55.4
X88.837 Y55.791
X89.057 Y56.283
X89.066 Y56.322
X89.063 Y56.363
X89.045 Y56.399
X89.017 Y56.428
X88.98 Y56.446
X88.94 Y56.45
X88.901 Y56.44
X88.786 Y56.382 Z-4.005 F333.
X88.679 Y56.31 Z-4.009
X88.581 Y56.226 Z-4.014
X88.495 Y56.13 Z-4.018
X88.422 Y56.024 Z-4.023
X88.361 Y55.91 Z-4.027
X88.316 Y55.79 Z-4.032
X88.286 Y55.664 Z-4.036
X88.271 Y55.536 Z-4.041
X88.272 Y55.407 Z-4.045
X88.29 Y55.279 Z-4.05
X88.323 Y55.155 Z-4.054
X88.371 Y55.035 Z-4.059
X88.433 Y54.922 Z-4.063
X88.509 Y54.818 Z-4.068
X88.597 Y54.724 Z-4.072
X88.696 Y54.642 Z-4.077
X88.804 Y54.572 Z-4.081
X88.921 Y54.516 Z-4.086
X89.043 Y54.475 Z-4.09
X89.169 Y54.45 Z-4.095
X89.298 Y54.44 Z-4.099
X89.427 Y54.446 Z-4.104
X89.554 Y54.468 Z-4.108
X89.677 Y54.505 Z-4.113
X89.795 Y54.558 Z-4.117
X89.905 Y54.624 Z-4.122
X90.006 Y54.704 Z-4.126
X90.097 Y54.796 Z-4.131
X90.176 Y54.898 Z-4.135
X90.241 Y55.009 Z-4.14
X90.293 Y55.127 Z-4.144
X90.329 Y55.251 Z-4.149
X90.35 Y55.378 Z-4.153
X90.355 Y55.507 Z-4.158
X90.344 Y55.635 Z-4.162
X90.317 Y55.761 Z-4.167
X90.275 Y55.883 Z-4.171
X90.219 Y55.999 Z-4.176
X90.148 Y56.107 Z-4.18
X90.065 Y56.205 Z-4.185
X89.97 Y56.292 Z-4.189
X89.865 Y56.367 Z-4.194
X89.751 Y56.428 Z-4.198
X89.631 Y56.475 Z-4.203
X89.506 Y56.507 Z-4.207
X89.378 Y56.523 Z-4.212
X89.25 Z-4.216
X89.122 Y56.508 Z-4.221
X88.997 Y56.476 Z-4.225
X88.876 Y56.43 Z-4.23
X88.763 Y56.369 Z-4.234
X88.658 Y56.294 Z-4.239
X88.563 Y56.207 Z-4.243
X88.479 Y56.109 Z-4.248
X88.408 Y56.001 Z-4.252
X88.351 Y55.886 Z-4.257
X88.308 Y55.764 Z-4.261
X88.281 Y55.638 Z-4.266
X88.27 Y55.51 Z-4.27
X88.275 Y55.381 Z-4.275
X88.295 Y55.253 Z-4.279
X88.331 Y55.13 Z-4.284
X88.382 Y55.011 Z-4.288
X88.448 Y54.9 Z-4.293
X88.526 Y54.798 Z-4.297
X88.616 Y54.706 Z-4.302
X88.718 Y54.626 Z-4.306
X88.828 Y54.559 Z-4.311
X88.945 Y54.506 Z-4.315
X89.069 Y54.469 Z-4.32
X89.196 Y54.446 Z-4.324
X89.324 Y54.44 Z-4.329
X89.453 Y54.449 Z-4.333
X89.579 Y54.474 Z-4.338
X89.702 Y54.515 Z-4.342
X89.818 Y54.57 Z-4.347
X89.927 Y54.64 Z-4.351
X90.026 Y54.722 Z-4.356
X90.114 Y54.816 Z-4.36
X90.191 Y54.92 Z-4.365
X90.253 Y55.033 Z-4.369
X90.302 Y55.152 Z-4.374
X90.335 Y55.277 Z-4.378
X90.352 Y55.404 Z-4.383
X90.354 Y55.533 Z-4.387
X90.34 Y55.661 Z-4.392
X90.31 Y55.787 Z-4.396
X90.265 Y55.907 Z-4.401
X90.205 Y56.022 Z-4.405
X90.132 Y56.128 Z-4.41
X90.046 Y56.224 Z-4.414
X89.949 Y56.309 Z-4.419
X89.842 Y56.381 Z-4.423
X89.727 Y56.439 Z-4.428
X89.606 Y56.483 Z-4.432
X89.48 Y56.512 Z-4.437
X89.352 Y56.525 Z-4.441
X89.223 Y56.521 Z-4.446
X89.096 Y56.502 Z-4.45
X88.971 Y56.468 Z-4.455
X88.852 Y56.418 Z-4.459
X88.74 Y56.354 Z-4.464
X88.637 Y56.277 Z-4.468
X88.544 Y56.188 Z-4.473
X88.463 Y56.087 Z-4.477
X88.395 Y55.978 Z-4.482
X88.341 Y55.861 Z-4.486
X88.302 Y55.738 Z-4.491
X88.278 Y55.612 Z-4.495
X88.27 Y55.483 Z-4.5
X88.269 Y53.796 F1499.
X88.309 Y53.807
X89.217 Y54.214
X89.617 Y54.419
X90.273 Y54.886
X90.786 Y55.294
X91.34 Y55.889
X91.737 Y56.362
X91.836 Y56.525
X88.622
X88.388 Y56.476
X88.354 Y56.453
X88.335 Y56.433
X88.316 Y56.405
X88.27 Y56.186
Y55.483
X88.277 Y55.446
X88.298 Y55.415
X88.329 Y55.394
X88.63 Y55.268
X88.66 Y55.247
X88.681 Y55.217
X88.689 Y55.181
X88.683 Y55.145
X88.575 Y54.848
X88.569 Y54.812
X88.578 Y54.776
X88.599 Y54.746
X88.696 Y54.662 Z-4.504 F333.
X88.802 Y54.592 Z-4.509
X88.917 Y54.535 Z-4.513
X89.038 Y54.494 Z-4.518
X89.163 Y54.467 Z-4.522
X89.29 Y54.456 Z-4.527
X89.417 Y54.461 Z-4.531
X89.544 Y54.482 Z-4.536
X89.666 Y54.518 Z-4.54
X89.783 Y54.57 Z-4.545
X89.893 Y54.635 Z-4.549
X89.993 Y54.714 Z-4.554
X90.084 Y54.804 Z-4.558
X90.162 Y54.905 Z-4.563
X90.227 Y55.015 Z-4.567
X90.278 Y55.132 Z-4.571
X90.314 Y55.255 Z-4.576
X90.334 Y55.381 Z-4.58
X90.339 Y55.509 Z-4.585
X90.328 Y55.636 Z-4.589
X90.3 Y55.761 Z-4.594
X90.258 Y55.881 Z-4.598
X90.201 Y55.996 Z-4.603
X90.13 Y56.102 Z-4.607
X90.047 Y56.199 Z-4.612
X89.952 Y56.285 Z-4.616
X89.847 Y56.358 Z-4.621
X89.734 Y56.417 Z-4.625
X89.615 Y56.462 Z-4.629
X89.491 Y56.492 Z-4.634
X89.364 Y56.507 Z-4.638
X89.236 Y56.505 Z-4.643
X89.109 Y56.487 Z-4.647
X88.986 Y56.454 Z-4.652
X88.868 Y56.406 Z-4.656
X88.756 Y56.344 Z-4.661
X88.654 Y56.268 Z-4.665
X88.561 Y56.18 Z-4.67
X88.48 Y56.081 Z-4.674
X88.412 Y55.972 Z-4.679
X88.358 Y55.857 Z-4.683
X88.319 Y55.735 Z-4.688
X88.295 Y55.61 Z-4.692
X88.287 Y55.482 Z-4.696
X88.295 Y55.355 Z-4.701
X88.319 Y55.229 Z-4.705
X88.358 Y55.107 Z-4.71
X88.412 Y54.992 Z-4.714
X88.48 Y54.883 Z-4.719
X88.561 Y54.784 Z-4.723
X88.653 Y54.696 Z-4.728
X88.756 Y54.62 Z-4.732
X88.867 Y54.558 Z-4.737
X88.986 Y54.51 Z-4.741
X89.109 Y54.476 Z-4.746
X89.236 Y54.459 Z-4.75
X89.363 Y54.457 Z-4.754
X89.49 Y54.471 Z-4.759
X89.614 Y54.501 Z-4.763
X89.734 Y54.546 Z-4.768
X89.847 Y54.606 Z-4.772
X89.952 Y54.679 Z-4.777
X90.047 Y54.764 Z-4.781
X90.13 Y54.861 Z-4.786
X90.201 Y54.967 Z-4.79
X90.258 Y55.082 Z-4.795
X90.3 Y55.202 Z-4.799
X90.327 Y55.327 Z-4.804
X90.339 Y55.454 Z-4.808
X90.334 Y55.582 Z-4.813
X90.314 Y55.708 Z-4.817
X90.278 Y55.831 Z-4.821
X90.227 Y55.948 Z-4.826
X90.162 Y56.058 Z-4.83
X90.084 Y56.159 Z-4.835
X89.994 Y56.25 Z-4.839
X89.893 Y56.328 Z-4.844
X89.783 Y56.394 Z-4.848
X89.666 Y56.445 Z-4.853
X89.544 Y56.482 Z-4.857
X89.418 Y56.502 Z-4.862
X89.29 Y56.508 Z-4.866
X89.163 Y56.497 Z-4.871
X89.038 Y56.47 Z-4.875
X88.917 Y56.428 Z-4.879
X88.803 Y56.372 Z-4.884
X88.696 Y56.301 Z-4.888
X88.599 Y56.218 Z-4.893
X88.513 Y56.124 Z-4.897
X88.439 Y56.019 Z-4.902
X88.379 Y55.907 Z-4.906
X88.334 Y55.787 Z-4.911
X88.303 Y55.663 Z-4.915
X88.289 Y55.536 Z-4.92
X88.29 Y55.409 Z-4.924
X88.307 Y55.282 Z-4.929
X88.34 Y55.158 Z-4.933
X88.387 Y55.04 Z-4.938
X88.449 Y54.928 Z-4.942
X88.525 Y54.825 Z-4.946
X88.613 Y54.732 Z-4.951
X88.711 Y54.651 Z-4.955
X88.819 Y54.583 Z-4.96
X88.935 Y54.528 Z-4.964
X89.056 Y54.489 Z-4.969
X89.181 Y54.464 Z-4.973
X89.309 Y54.456 Z-4.978
X89.436 Y54.463 Z-4.982
X89.562 Y54.486 Z-4.987
X89.684 Y54.525 Z-4.991
X89.8 Y54.579 Z-4.996
X89.908 Y54.646 Z-5.
X90.272 Y54.905 F1499.
X90.775 Y55.306
X91.339 Y55.911
X91.731 Y56.384
X91.807 Y56.508
X88.623
X88.396 Y56.46
X88.364 Y56.437
X88.341 Y56.412
X88.288 Y56.181
X88.286 Y53.821
X88.313 Y53.828
X88.844 Y54.061
X89.211 Y54.233
X89.645 Y54.459
X89.908 Y54.646
X89.934 Y54.671
X89.952 Y54.703
X89.958 Y54.739
X89.954 Y54.775
X89.939 Y54.808
X89.496 Y55.491
X89.482 Y55.522
X89.477 Y55.556
X89.482 Y56.369
X89.477 Y56.405
X89.461 Y56.437
X89.436 Y56.464
X89.405 Y56.481
X89.37 Y56.489
X89.243 Y56.488 Z-5.004 F333.
X89.118 Y56.471 Z-5.009
X88.995 Y56.439 Z-5.013
X88.878 Y56.391 Z-5.018
X88.767 Y56.33 Z-5.022
X88.665 Y56.254 Z-5.027
X88.574 Y56.167 Z-5.031
X88.493 Y56.069 Z-5.035
X88.426 Y55.962 Z-5.04
X88.373 Y55.847 Z-5.044
X88.335 Y55.726 Z-5.049
X88.312 Y55.602 Z-5.053
X88.305 Y55.475 Z-5.058
X88.313 Y55.349 Z-5.062
X88.338 Y55.225 Z-5.066
X88.378 Y55.104 Z-5.071
X88.432 Y54.99 Z-5.075
X88.501 Y54.884 Z-5.08
X88.582 Y54.787 Z-5.084
X88.675 Y54.7 Z-5.088
X88.778 Y54.627 Z-5.093
X88.889 Y54.566 Z-5.097
X89.007 Y54.52 Z-5.102
X89.13 Y54.489 Z-5.106
X89.256 Y54.474 Z-5.111
X89.382 Y54.475 Z-5.115
X89.508 Y54.492 Z-5.119
X89.63 Y54.524 Z-5.124
X89.748 Y54.571 Z-5.128
X89.858 Y54.632 Z-5.133
X89.961 Y54.707 Z-5.137
X90.052 Y54.795 Z-5.142
X90.133 Y54.893 Z-5.146
X90.2 Y55. Z-5.15
X90.253 Y55.115 Z-5.155
X90.292 Y55.235 Z-5.159
X90.315 Y55.36 Z-5.164
X90.322 Y55.486 Z-5.168
X90.314 Y55.612 Z-5.173
X90.29 Y55.737 Z-5.177
X90.25 Y55.857 Z-5.181
X90.195 Y55.971 Z-5.186
X90.127 Y56.078 Z-5.19
X90.046 Y56.175 Z-5.195
X89.953 Y56.261 Z-5.199
X89.851 Y56.335 Z-5.204
X89.739 Y56.396 Z-5.208
X89.622 Y56.442 Z-5.212
X89.499 Y56.473 Z-5.217
X89.373 Y56.489 Z-5.221
X89.246 Y56.488 Z-5.226
X89.121 Y56.472 Z-5.23
X88.998 Y56.44 Z-5.235
X88.881 Y56.393 Z-5.239
X88.77 Y56.331 Z-5.243
X88.668 Y56.257 Z-5.248
X88.576 Y56.17 Z-5.252
X88.495 Y56.072 Z-5.257
X88.428 Y55.965 Z-5.261
X88.374 Y55.85 Z-5.265
X88.336 Y55.729 Z-5.27
X88.312 Y55.605 Z-5.274
X88.305 Y55.479 Z-5.279
X88.313 Y55.352 Z-5.283
X88.337 Y55.228 Z-5.288
X88.377 Y55.108 Z-5.292
X88.431 Y54.993 Z-5.296
X88.499 Y54.886 Z-5.301
X88.58 Y54.789 Z-5.305
X88.672 Y54.703 Z-5.31
X88.775 Y54.628 Z-5.314
X88.886 Y54.568 Z-5.319
X89.004 Y54.521 Z-5.323
X89.127 Y54.49 Z-5.327
X89.252 Y54.474 Z-5.332
X89.379 Y54.475 Z-5.336
X89.505 Y54.491 Z-5.341
X89.627 Y54.523 Z-5.345
X89.745 Y54.569 Z-5.35
X89.856 Y54.631 Z-5.354
X89.958 Y54.705 Z-5.358
X90.05 Y54.792 Z-5.363
X90.131 Y54.89 Z-5.367
X90.198 Y54.997 Z-5.372
X90.252 Y55.111 Z-5.376
X90.291 Y55.232 Z-5.381
X90.315 Y55.356 Z-5.385
X90.322 Y55.483 Z-5.389
X90.314 Y55.609 Z-5.394
X90.29 Y55.733 Z-5.398
X90.251 Y55.854 Z-5.403
X90.197 Y55.968 Z-5.407
X90.129 Y56.075 Z-5.412
X90.048 Y56.173 Z-5.416
X89.956 Y56.259 Z-5.42
X89.854 Y56.334 Z-5.425
X89.742 Y56.395 Z-5.429
X89.625 Y56.441 Z-5.434
X89.502 Y56.473 Z-5.438
X89.376 Y56.488 Z-5.442
X89.25 Z-5.447
X89.124 Y56.472 Z-5.451
X89.002 Y56.441 Z-5.456
X88.884 Y56.394 Z-5.46
X88.773 Y56.333 Z-5.465
X88.67 Y56.259 Z-5.469
X88.578 Y56.172 Z-5.473
X88.497 Y56.075 Z-5.478
X88.43 Y55.968 Z-5.482
X88.376 Y55.853 Z-5.487
X88.336 Y55.733 Z-5.491
X88.313 Y55.608 Z-5.496
X88.305 Y55.482 Z-5.5
X88.304 Y53.848 F1499.
X88.358 Y53.863
X88.841 Y54.077
X89.21 Y54.253
X89.645 Y54.478
X90.27 Y54.925
X90.802 Y55.358
X91.339 Y55.939
X91.726 Y56.406
X91.777 Y56.49
X88.617
X88.453 Y56.459
X88.404 Y56.445
X88.397 Y56.442
X88.355 Y56.398
X88.305 Y56.181
Y55.482
X88.311 Y55.458
X88.33 Y55.441
X88.452 Y55.377
X88.467 Y55.363
X88.476 Y55.344
X88.475 Y55.323
X88.465 Y55.305
X88.383 Y55.21
X88.372 Y55.189
X88.374 Y55.165
X88.421 Y55.049 Z-5.504 F333.
X88.483 Y54.94 Z-5.509
X88.558 Y54.839 Z-5.513
X88.645 Y54.749 Z-5.518
X88.743 Y54.67 Z-5.522
X88.85 Y54.605 Z-5.526
X88.965 Y54.553 Z-5.531
X89.085 Y54.516 Z-5.535
X89.209 Y54.495 Z-5.539
X89.334 Y54.49 Z-5.544
X89.459 Y54.5 Z-5.548
X89.582 Y54.527 Z-5.553
X89.7 Y54.568 Z-5.557
X89.812 Y54.624 Z-5.561
X89.917 Y54.694 Z-5.566
X90.011 Y54.777 Z-5.57
X90.095 Y54.87 Z-5.575
X90.166 Y54.974 Z-5.579
X90.223 Y55.086 Z-5.583
X90.266 Y55.204 Z-5.588
X90.293 Y55.326 Z-5.592
X90.305 Y55.451 Z-5.596
X90.301 Y55.576 Z-5.601
X90.281 Y55.7 Z-5.605
X90.245 Y55.821 Z-5.61
X90.195 Y55.936 Z-5.614
X90.131 Y56.043 Z-5.618
X90.053 Y56.142 Z-5.623
X89.964 Y56.23 Z-5.627
X89.864 Y56.306 Z-5.632
X89.755 Y56.369 Z-5.636
X89.639 Y56.418 Z-5.64
X89.519 Y56.451 Z-5.645
X89.394 Y56.47 Z-5.649
X89.269 Y56.472 Z-5.654
X89.144 Y56.458 Z-5.658
X89.022 Y56.429 Z-5.662
X88.905 Y56.385 Z-5.667
X88.794 Y56.326 Z-5.671
X88.691 Y56.253 Z-5.675
X88.599 Y56.168 Z-5.68
X88.518 Y56.073 Z-5.684
X88.449 Y55.967 Z-5.689
X88.395 Y55.854 Z-5.693
X88.355 Y55.735 Z-5.697
X88.331 Y55.612 Z-5.702
X88.322 Y55.487 Z-5.706
X88.329 Y55.361 Z-5.711
X88.352 Y55.238 Z-5.715
X88.391 Y55.119 Z-5.719
X88.444 Y55.005 Z-5.724
X88.511 Y54.899 Z-5.728
X88.591 Y54.802 Z-5.732
X88.683 Y54.716 Z-5.737
X88.784 Y54.643 Z-5.741
X88.895 Y54.583 Z-5.746
X89.011 Y54.537 Z-5.75
X89.133 Y54.506 Z-5.754
X89.258 Y54.491 Z-5.759
X89.383 Y54.492 Z-5.763
X89.508 Y54.509 Z-5.768
X89.629 Y54.541 Z-5.772
X89.745 Y54.588 Z-5.776
X89.855 Y54.65 Z-5.781
X89.955 Y54.725 Z-5.785
X90.046 Y54.812 Z-5.789
X90.124 Y54.91 Z-5.794
X90.19 Y55.017 Z-5.798
X90.242 Y55.131 Z-5.803
X90.278 Y55.251 Z-5.807
X90.3 Y55.375 Z-5.811
X90.305 Y55.5 Z-5.816
X90.295 Y55.626 Z-5.82
X90.269 Y55.748 Z-5.825
X90.227 Y55.867 Z-5.829
X90.171 Y55.979 Z-5.833
X90.102 Y56.083 Z-5.838
X90.019 Y56.178 Z-5.842
X89.925 Y56.262 Z-5.846
X89.822 Y56.333 Z-5.851
X89.71 Y56.39 Z-5.855
X89.592 Y56.433 Z-5.86
X89.47 Y56.46 Z-5.864
X89.345 Y56.472 Z-5.868
X89.22 Y56.468 Z-5.873
X89.096 Y56.449 Z-5.877
X88.975 Y56.413 Z-5.882
X88.86 Y56.363 Z-5.886
X88.752 Y56.299 Z-5.89
X88.654 Y56.221 Z-5.895
X88.565 Y56.132 Z-5.899
X88.489 Y56.032 Z-5.904
X88.426 Y55.924 Z-5.908
X88.377 Y55.808 Z-5.912
X88.344 Y55.687 Z-5.917
X88.325 Y55.563 Z-5.921
X88.323 Y55.437 Z-5.925
X88.337 Y55.313 Z-5.93
X88.366 Y55.19 Z-5.934
X88.41 Y55.073 Z-5.939
X88.469 Y54.962 Z-5.943
X88.541 Y54.86 Z-5.947
X88.626 Y54.767 Z-5.952
X88.722 Y54.686 Z-5.956
X88.827 Y54.617 Z-5.961
X88.94 Y54.563 Z-5.965
X89.059 Y54.523 Z-5.969
X89.182 Y54.498 Z-5.974
X89.307 Y54.49 Z-5.978
X89.433 Y54.497 Z-5.982
X89.556 Y54.52 Z-5.987
X89.675 Y54.558 Z-5.991
X89.789 Y54.611 Z-5.996
X89.895 Y54.678 Z-6.
X90.269 Y54.949 F1499.
X90.789 Y55.368
X91.212 Y55.821
X91.745 Y56.467
X91.749 Y56.473
X88.624
X88.406 Y56.425
X88.371 Y56.389
X88.322 Y56.18
X88.321 Y53.87
X88.358 Y53.881
X88.836 Y54.092
X89.612 Y54.48
X89.716 Y54.548
X89.895 Y54.678
X89.909 Y54.693
X89.917 Y54.711
Y54.731
X89.892 Y54.895
X89.894 Y54.918
X89.906 Y54.939
X89.925 Y54.953
X89.948 Y54.958
X90.104 Y54.953
X90.132 Y54.96
X90.153 Y54.98
X90.209 Y55.091 Z-6.004 F333.
X90.251 Y55.208 Z-6.009
X90.278 Y55.33 Z-6.013
X90.29 Y55.453 Z-6.017
X90.285 Y55.578 Z-6.022
X90.265 Y55.701 Z-6.026
X90.229 Y55.82 Z-6.03
X90.178 Y55.933 Z-6.035
X90.113 Y56.04 Z-6.039
X90.036 Y56.137 Z-6.043
X89.946 Y56.223 Z-6.048
X89.846 Y56.298 Z-6.052
X89.738 Y56.359 Z-6.057
X89.623 Y56.405 Z-6.061
X89.502 Y56.437 Z-6.065
X89.379 Y56.453 Z-6.07
X89.255 Y56.454 Z-6.074
X89.131 Y56.438 Z-6.078
X89.011 Y56.407 Z-6.083
X88.895 Y56.361 Z-6.087
X88.786 Y56.3 Z-6.091
X88.686 Y56.226 Z-6.096
X88.596 Y56.14 Z-6.1
X88.518 Y56.044 Z-6.104
X88.453 Y55.938 Z-6.109
X88.402 Y55.824 Z-6.113
X88.365 Y55.706 Z-6.117
X88.344 Y55.583 Z-6.122
X88.339 Y55.459 Z-6.126
X88.349 Y55.335 Z-6.13
X88.376 Y55.213 Z-6.135
X88.417 Y55.096 Z-6.139
X88.473 Y54.985 Z-6.143
X88.543 Y54.882 Z-6.148
X88.626 Y54.788 Z-6.152
X88.719 Y54.706 Z-6.157
X88.822 Y54.637 Z-6.161
X88.934 Y54.581 Z-6.165
X89.051 Y54.54 Z-6.17
X89.173 Y54.514 Z-6.174
X89.297 Y54.504 Z-6.178
X89.421 Y54.51 Z-6.183
X89.544 Y54.531 Z-6.187
X89.662 Y54.568 Z-6.191
X89.776 Y54.62 Z-6.196
X89.881 Y54.686 Z-6.2
X89.978 Y54.764 Z-6.204
X90.063 Y54.855 Z-6.209
X90.137 Y54.955 Z-6.213
X90.197 Y55.064 Z-6.217
X90.243 Y55.18 Z-6.222
X90.273 Y55.3 Z-6.226
X90.288 Y55.424 Z-6.23
Y55.548 Z-6.235
X90.271 Y55.671 Z-6.239
X90.239 Y55.792 Z-6.243
X90.192 Y55.907 Z-6.248
X90.13 Y56.015 Z-6.252
X90.055 Y56.114 Z-6.257
X89.969 Y56.203 Z-6.261
X89.871 Y56.281 Z-6.265
X89.765 Y56.345 Z-6.27
X89.651 Y56.396 Z-6.274
X89.532 Y56.431 Z-6.278
X89.409 Y56.451 Z-6.283
X89.284 Y56.455 Z-6.287
X89.161 Y56.443 Z-6.291
X89.039 Y56.416 Z-6.296
X88.922 Y56.373 Z-6.3
X88.812 Y56.316 Z-6.304
X88.709 Y56.245 Z-6.309
X88.617 Y56.162 Z-6.313
X88.536 Y56.068 Z-6.317
X88.467 Y55.964 Z-6.322
X88.412 Y55.852 Z-6.326
X88.372 Y55.734 Z-6.33
X88.348 Y55.613 Z-6.335
X88.339 Y55.488 Z-6.339
X88.345 Y55.364 Z-6.343
X88.368 Y55.242 Z-6.348
X88.406 Y55.123 Z-6.352
X88.459 Y55.011 Z-6.357
X88.525 Y54.906 Z-6.361
X88.605 Y54.81 Z-6.365
X88.696 Y54.725 Z-6.37
X88.797 Y54.652 Z-6.374
X88.906 Y54.593 Z-6.378
X89.022 Y54.549 Z-6.383
X89.143 Y54.519 Z-6.387
X89.267 Y54.505 Z-6.391
X89.391 Y54.507 Z-6.396
X89.515 Y54.525 Z-6.4
X89.634 Y54.558 Z-6.404
X89.749 Y54.606 Z-6.409
X89.857 Y54.669 Z-6.413
X89.956 Y54.744 Z-6.417
X90.044 Y54.832 Z-6.422
X90.12 Y54.93 Z-6.426
X90.184 Y55.037 Z-6.43
X90.233 Y55.151 Z-6.435
X90.267 Y55.271 Z-6.439
X90.286 Y55.394 Z-6.443
X90.289 Y55.518 Z-6.448
X90.276 Y55.642 Z-6.452
X90.248 Y55.763 Z-6.457
X90.204 Y55.88 Z-6.461
X90.146 Y55.99 Z-6.465
X90.074 Y56.091 Z-6.47
X89.99 Y56.183 Z-6.474
X89.895 Y56.263 Z-6.478
X89.791 Y56.331 Z-6.483
X89.679 Y56.385 Z-6.487
X89.561 Y56.424 Z-6.491
X89.438 Y56.447 Z-6.496
X89.314 Y56.455 Z-6.5
X88.627 F1499.
X88.415 Y56.407
X88.387 Y56.378
X88.342 Y56.192
X88.339 Y56.166
Y53.894
X88.359 Y53.899
X88.835 Y54.109
X89.648 Y54.52
X89.972 Y54.75
X90.457 Y55.124
X90.805 Y55.408
X91.191 Y55.821
X91.714 Y56.455
X89.314
X89.278 Y56.448
X89.247 Y56.426
X89.229 Y56.394
X89.224 Y56.356
X89.236 Y56.321
X89.261 Y56.293
X89.561 Y56.072
X89.918 Y55.998
X89.951 Y55.997
X89.981 Y56.008
X90.006 Y56.03
X90.022 Y56.058
X90.026 Y56.091
X90.019 Y56.122
X90. Y56.149
X89.909 Y56.232 Z-6.504 F333.
X89.807 Y56.302 Z-6.509
X89.697 Y56.358 Z-6.513
X89.581 Y56.4 Z-6.517
X89.461 Y56.427 Z-6.522
X89.338 Y56.438 Z-6.526
X89.215 Y56.433 Z-6.53
X89.093 Y56.412 Z-6.534
X88.975 Y56.376 Z-6.539
X88.863 Y56.325 Z-6.543
X88.758 Y56.26 Z-6.547
X88.663 Y56.182 Z-6.552
X88.578 Y56.092 Z-6.556
X88.505 Y55.993 Z-6.56
X88.446 Y55.884 Z-6.565
X88.401 Y55.769 Z-6.569
X88.371 Y55.65 Z-6.573
X88.357 Y55.527 Z-6.578
X88.359 Y55.404 Z-6.582
X88.377 Y55.282 Z-6.586
X88.41 Y55.163 Z-6.591
X88.458 Y55.049 Z-6.595
X88.52 Y54.943 Z-6.599
X88.595 Y54.845 Z-6.603
X88.683 Y54.758 Z-6.608
X88.781 Y54.683 Z-6.612
X88.887 Y54.621 Z-6.616
X89.001 Y54.573 Z-6.621
X89.12 Y54.54 Z-6.625
X89.242 Y54.523 Z-6.629
X89.365 Y54.522 Z-6.634
X89.488 Y54.536 Z-6.638
X89.607 Y54.566 Z-6.642
X89.722 Y54.611 Z-6.647
X89.83 Y54.671 Z-6.651
X89.93 Y54.744 Z-6.655
X90.019 Y54.829 Z-6.659
X90.097 Y54.924 Z-6.664
X90.162 Y55.029 Z-6.668
X90.212 Y55.142 Z-6.672
X90.248 Y55.26 Z-6.677
X90.269 Y55.382 Z-6.681
X90.273 Y55.505 Z-6.685
X90.262 Y55.628 Z-6.69
X90.235 Y55.748 Z-6.694
X90.193 Y55.864 Z-6.698
X90.136 Y55.974 Z-6.703
X90.066 Y56.075 Z-6.707
X89.983 Y56.166 Z-6.711
X89.89 Y56.247 Z-6.716
X89.786 Y56.314 Z-6.72
X89.675 Y56.368 Z-6.724
X89.558 Y56.407 Z-6.728
X89.437 Y56.43 Z-6.733
X89.314 Y56.438 Z-6.737
X89.191 Y56.43 Z-6.741
X89.07 Y56.406 Z-6.746
X88.953 Y56.367 Z-6.75
X88.842 Y56.313 Z-6.754
X88.739 Y56.246 Z-6.759
X88.645 Y56.165 Z-6.763
X88.563 Y56.074 Z-6.767
X88.492 Y55.972 Z-6.772
X88.436 Y55.862 Z-6.776
X88.394 Y55.746 Z-6.78
X88.367 Y55.626 Z-6.784
X88.356 Y55.503 Z-6.789
X88.361 Y55.38 Z-6.793
X88.382 Y55.258 Z-6.797
X88.418 Y55.14 Z-6.802
X88.469 Y55.028 Z-6.806
X88.534 Y54.923 Z-6.81
X88.612 Y54.827 Z-6.815
X88.701 Y54.743 Z-6.819
X88.801 Y54.67 Z-6.823
X88.909 Y54.611 Z-6.828
X89.024 Y54.566 Z-6.832
X89.143 Y54.536 Z-6.836
X89.266 Y54.522 Z-6.841
X89.389 Y54.523 Z-6.845
X89.511 Y54.541 Z-6.849
X89.63 Y54.574 Z-6.853
X89.744 Y54.622 Z-6.858
X89.85 Y54.684 Z-6.862
X89.948 Y54.759 Z-6.866
X90.035 Y54.847 Z-6.871
X90.11 Y54.944 Z-6.875
X90.173 Y55.051 Z-6.879
X90.22 Y55.165 Z-6.884
X90.253 Y55.283 Z-6.888
X90.271 Y55.406 Z-6.892
X90.272 Y55.529 Z-6.897
X90.258 Y55.651 Z-6.901
X90.228 Y55.771 Z-6.905
X90.183 Y55.886 Z-6.909
X90.124 Y55.994 Z-6.914
X90.051 Y56.094 Z-6.918
X89.966 Y56.183 Z-6.922
X89.87 Y56.261 Z-6.927
X89.765 Y56.326 Z-6.931
X89.653 Y56.376 Z-6.935
X89.535 Y56.412 Z-6.94
X89.413 Y56.433 Z-6.944
X89.29 Y56.438 Z-6.948
X89.167 Y56.427 Z-6.953
X89.047 Y56.4 Z-6.957
X88.931 Y56.358 Z-6.961
X88.821 Y56.301 Z-6.966
X88.72 Y56.231 Z-6.97
X88.628 Y56.148 Z-6.974
X88.548 Y56.055 Z-6.978
X88.48 Y55.951 Z-6.983
X88.427 Y55.84 Z-6.987
X88.388 Y55.723 Z-6.991
X88.364 Y55.602 Z-6.996
X88.356 Y55.479 Z-7.
Y53.922 F1499.
X88.405 Y53.936
X88.834 Y54.126
X89.648 Y54.541
X89.945 Y54.75
X90.428 Y55.125
X90.79 Y55.415
X91.166 Y55.821
X91.677 Y56.438
X88.63
X88.424 Y56.389
X88.403 Y56.367
X88.359 Y56.191
X88.356 Y56.166
Y55.479
X88.362 Y55.443
X88.378 Y55.41
X88.404 Y55.384
X88.436 Y55.367
X88.472 Y55.36
X88.508 Y55.365
X89.278 Y55.588
X90.064 Y55.744
X90.099 Y55.756
X90.128 Y55.779
X90.149 Y55.809
X90.159 Y55.844
Y55.881
X90.147 Y55.916
X90.083 Y56.02 Z-7.004 F333.
X90.005 Y56.115 Z-7.009
X89.917 Y56.199 Z-7.013
X89.818 Y56.271 Z-7.017
X89.71 Y56.33 Z-7.021
X89.596 Y56.374 Z-7.026
X89.478 Y56.403 Z-7.03
X89.356 Y56.416 Z-7.034
X89.234 Y56.413 Z-7.038
X89.113 Y56.395 Z-7.043
X88.995 Y56.361 Z-7.047
X88.883 Y56.312 Z-7.051
X88.779 Y56.249 Z-7.056
X88.683 Y56.173 Z-7.06
X88.598 Y56.085 Z-7.064
X88.525 Y55.986 Z-7.068
X88.465 Y55.88 Z-7.073
X88.42 Y55.766 Z-7.077
X88.39 Y55.647 Z-7.081
X88.376 Y55.526 Z-7.085
X88.377 Y55.404 Z-7.09
X88.395 Y55.283 Z-7.094
X88.427 Y55.165 Z-7.098
X88.475 Y55.052 Z-7.103
X88.537 Y54.947 Z-7.107
X88.613 Y54.851 Z-7.111
X88.7 Y54.765 Z-7.115
X88.797 Y54.691 Z-7.12
X88.903 Y54.63 Z-7.124
X89.017 Y54.584 Z-7.128
X89.135 Y54.553 Z-7.132
X89.256 Y54.537 Z-7.137
X89.378 Y54.538 Z-7.141
X89.5 Y54.554 Z-7.145
X89.618 Y54.585 Z-7.15
X89.731 Y54.632 Z-7.154
X89.837 Y54.693 Z-7.158
X89.934 Y54.768 Z-7.162
X90.021 Y54.854 Z-7.167
X90.095 Y54.951 Z-7.171
X90.157 Y55.056 Z-7.175
X90.204 Y55.169 Z-7.179
X90.237 Y55.287 Z-7.184
X90.253 Y55.408 Z-7.188
X90.254 Y55.53 Z-7.192
X90.239 Y55.652 Z-7.197
X90.209 Y55.77 Z-7.201
X90.163 Y55.884 Z-7.205
X90.103 Y55.99 Z-7.209
X90.03 Y56.088 Z-7.214
X89.944 Y56.175 Z-7.218
X89.848 Y56.251 Z-7.222
X89.743 Y56.314 Z-7.226
X89.631 Y56.362 Z-7.231
X89.513 Y56.396 Z-7.235
X89.392 Y56.414 Z-7.239
X89.27 Y56.416 Z-7.244
X89.149 Y56.402 Z-7.248
X89.03 Y56.373 Z-7.252
X88.916 Y56.328 Z-7.256
X88.809 Y56.269 Z-7.261
X88.71 Y56.197 Z-7.265
X88.622 Y56.112 Z-7.269
X88.545 Y56.017 Z-7.274
X88.482 Y55.912 Z-7.278
X88.432 Y55.8 Z-7.282
X88.398 Y55.683 Z-7.286
X88.378 Y55.562 Z-7.291
X88.375 Y55.44 Z-7.295
X88.388 Y55.318 Z-7.299
X88.416 Y55.2 Z-7.303
X88.46 Y55.085 Z-7.308
X88.518 Y54.978 Z-7.312
X88.589 Y54.878 Z-7.316
X88.673 Y54.789 Z-7.321
X88.767 Y54.712 Z-7.325
X88.871 Y54.647 Z-7.329
X88.982 Y54.596 Z-7.333
X89.099 Y54.561 Z-7.338
X89.22 Y54.54 Z-7.342
X89.342 Y54.536 Z-7.346
X89.464 Y54.547 Z-7.35
X89.583 Y54.574 Z-7.355
X89.698 Y54.617 Z-7.359
X89.806 Y54.674 Z-7.363
X89.906 Y54.744 Z-7.368
X89.996 Y54.827 Z-7.372
X90.074 Y54.921 Z-7.376
X90.14 Y55.024 Z-7.38
X90.192 Y55.135 Z-7.385
X90.229 Y55.251 Z-7.389
X90.25 Y55.372 Z-7.393
X90.256 Y55.494 Z-7.397
X90.245 Y55.616 Z-7.402
X90.219 Y55.735 Z-7.406
X90.178 Y55.85 Z-7.41
X90.122 Y55.959 Z-7.415
X90.053 Y56.06 Z-7.419
X89.971 Y56.151 Z-7.423
X89.878 Y56.23 Z-7.427
X89.775 Y56.297 Z-7.432
X89.665 Y56.349 Z-7.436
X89.549 Y56.387 Z-7.44
X89.429 Y56.41 Z-7.444
X89.307 Y56.417 Z-7.449
X89.185 Y56.408 Z-7.453
X89.065 Y56.383 Z-7.457
X88.949 Y56.343 Z-7.462
X88.84 Y56.288 Z-7.466
X88.739 Y56.219 Z-7.47
X88.647 Y56.138 Z-7.474
X88.567 Y56.046 Z-7.479
X88.499 Y55.944 Z-7.483
X88.445 Y55.834 Z-7.487
X88.406 Y55.719 Z-7.491
X88.383 Y55.599 Z-7.496
X88.375 Y55.477 Z-7.5
X88.374 Y53.945 F1499.
X88.405 Y53.954
X88.831 Y54.144
X89.694 Y54.591
X89.914 Y54.748
X90.743 Y55.402
X90.817 Y55.468
X91.14 Y55.819
X91.633 Y56.419
X88.603 Y56.416
X88.441 Y56.376
X88.419 Y56.354
X88.375 Y56.176
Y55.477
X88.382 Y55.443
X88.402 Y55.415
X88.432 Y55.398
X88.466 Y55.394
X88.499 Y55.405
X88.524 Y55.428
X88.719 Y55.704
X88.776 Y56.03
X88.774 Y56.065
X88.758 Y56.096
X88.731 Y56.117
X88.697 Y56.126
X88.662 Y56.119
X88.634 Y56.099
X88.558 Y56.004 Z-7.504 F333.
X88.495 Y55.9 Z-7.508
X88.447 Y55.789 Z-7.513
X88.413 Y55.673 Z-7.517
X88.395 Y55.553 Z-7.521
X88.393 Y55.432 Z-7.525
X88.407 Y55.311 Z-7.53
X88.436 Y55.194 Z-7.534
X88.481 Y55.081 Z-7.538
X88.539 Y54.975 Z-7.542
X88.612 Y54.877 Z-7.547
X88.696 Y54.79 Z-7.551
X88.791 Y54.715 Z-7.555
X88.895 Y54.653 Z-7.559
X89.007 Y54.605 Z-7.564
X89.123 Y54.572 Z-7.568
X89.243 Y54.555 Z-7.572
X89.365 Y54.553 Z-7.576
X89.485 Y54.567 Z-7.581
X89.602 Y54.597 Z-7.585
X89.715 Y54.642 Z-7.589
X89.821 Y54.702 Z-7.593
X89.918 Y54.775 Z-7.597
X90.004 Y54.859 Z-7.602
X90.079 Y54.955 Z-7.606
X90.141 Y55.059 Z-7.61
X90.188 Y55.171 Z-7.614
X90.221 Y55.288 Z-7.619
X90.237 Y55.408 Z-7.623
X90.238 Y55.529 Z-7.627
X90.223 Y55.649 Z-7.631
X90.193 Y55.767 Z-7.636
X90.147 Y55.879 Z-7.64
X90.087 Y55.984 Z-7.644
X90.014 Y56.081 Z-7.648
X89.929 Y56.167 Z-7.653
X89.833 Y56.241 Z-7.657
X89.728 Y56.303 Z-7.661
X89.616 Y56.349 Z-7.665
X89.499 Y56.381 Z-7.669
X89.379 Y56.397 Z-7.674
X89.258 Y56.398 Z-7.678
X89.138 Y56.382 Z-7.682
X89.02 Y56.351 Z-7.686
X88.908 Y56.305 Z-7.691
X88.803 Y56.244 Z-7.695
X88.707 Y56.171 Z-7.699
X88.621 Y56.085 Z-7.703
X88.547 Y55.989 Z-7.708
X88.487 Y55.884 Z-7.712
X88.441 Y55.771 Z-7.716
X88.409 Y55.654 Z-7.72
X88.394 Y55.534 Z-7.725
Y55.413 Z-7.729
X88.41 Y55.293 Z-7.733
X88.442 Y55.176 Z-7.737
X88.489 Y55.064 Z-7.742
X88.55 Y54.959 Z-7.746
X88.624 Y54.863 Z-7.75
X88.71 Y54.778 Z-7.754
X88.807 Y54.705 Z-7.758
X88.912 Y54.645 Z-7.763
X89.025 Y54.599 Z-7.767
X89.142 Y54.568 Z-7.771
X89.262 Y54.553 Z-7.775
X89.383 Y54.554 Z-7.78
X89.504 Y54.571 Z-7.784
X89.62 Y54.603 Z-7.788
X89.732 Y54.651 Z-7.792
X89.836 Y54.712 Z-7.797
X89.932 Y54.787 Z-7.801
X90.017 Y54.874 Z-7.805
X90.09 Y54.971 Z-7.809
X90.149 Y55.076 Z-7.814
X90.194 Y55.189 Z-7.818
X90.224 Y55.306 Z-7.822
X90.239 Y55.427 Z-7.826
X90.237 Y55.548 Z-7.831
X90.22 Y55.668 Z-7.835
X90.187 Y55.785 Z-7.839
X90.139 Y55.896 Z-7.843
X90.077 Y56. Z-7.847
X90.001 Y56.095 Z-7.852
X89.914 Y56.18 Z-7.856
X89.817 Y56.252 Z-7.86
X89.711 Y56.311 Z-7.864
X89.598 Y56.355 Z-7.869
X89.481 Y56.385 Z-7.873
X89.36 Y56.399 Z-7.877
X89.239 Y56.396 Z-7.881
X89.119 Y56.378 Z-7.886
X89.003 Y56.345 Z-7.89
X88.891 Y56.296 Z-7.894
X88.788 Y56.234 Z-7.898
X88.693 Y56.158 Z-7.903
X88.609 Y56.07 Z-7.907
X88.537 Y55.973 Z-7.911
X88.479 Y55.867 Z-7.915
X88.435 Y55.754 Z-7.919
X88.406 Y55.636 Z-7.924
X88.393 Y55.515 Z-7.928
X88.396 Y55.394 Z-7.932
X88.414 Y55.274 Z-7.936
X88.448 Y55.158 Z-7.941
X88.497 Y55.047 Z-7.945
X88.561 Y54.943 Z-7.949
X88.637 Y54.849 Z-7.953
X88.725 Y54.766 Z-7.958
X88.823 Y54.694 Z-7.962
X88.929 Y54.636 Z-7.966
X89.043 Y54.593 Z-7.97
X89.16 Y54.565 Z-7.975
X89.281 Y54.552 Z-7.979
X89.402 Y54.556 Z-7.983
X89.522 Y54.575 Z-7.987
X89.638 Y54.61 Z-7.992
X89.749 Y54.659 Z-7.996
X89.852 Y54.723 Z-8.
X89.887 Y54.748 F1499.
X90.806 Y55.479
X91.116 Y55.819
X91.599 Y56.402
X88.606 Y56.399
X88.447 Y56.359
X88.436 Y56.347
X88.392 Y56.174
X88.391 Y53.967
X88.404 Y53.971
X88.83 Y54.165
X89.694 Y54.61
X89.852 Y54.723
X89.88 Y54.752
X89.898 Y54.788
X89.902 Y54.828
X89.892 Y54.868
X89.87 Y54.901
X89.332 Y55.477
X89.006 Y56.194
X88.983 Y56.228
X88.95 Y56.252
X88.911 Y56.263
X88.871 Y56.261
X88.834 Y56.246
X88.736 Y56.175 Z-8.004 F333.
X88.649 Y56.092 Z-8.008
X88.574 Y55.999 Z-8.013
X88.512 Y55.896 Z-8.017
X88.463 Y55.786 Z-8.021
X88.43 Y55.67 Z-8.025
X88.412 Y55.551 Z-8.029
X88.411 Y55.431 Z-8.034
X88.425 Y55.311 Z-8.038
X88.454 Y55.195 Z-8.042
X88.499 Y55.083 Z-8.046
X88.558 Y54.979 Z-8.05
X88.631 Y54.883 Z-8.055
X88.715 Y54.797 Z-8.059
X88.811 Y54.724 Z-8.063
X88.915 Y54.663 Z-8.067
X89.026 Y54.617 Z-8.071
X89.142 Y54.586 Z-8.076
X89.261 Y54.571 Z-8.08
X89.381 Z-8.084
X89.5 Y54.588 Z-8.088
X89.616 Y54.619 Z-8.092
X89.727 Y54.666 Z-8.097
X89.83 Y54.728 Z-8.101
X89.925 Y54.802 Z-8.105
X90.009 Y54.888 Z-8.109
X90.081 Y54.984 Z-8.113
X90.139 Y55.089 Z-8.118
X90.183 Y55.201 Z-8.122
X90.212 Y55.318 Z-8.126
X90.225 Y55.438 Z-8.13
X90.222 Y55.558 Z-8.134
X90.204 Y55.677 Z-8.139
X90.17 Y55.792 Z-8.143
X90.121 Y55.902 Z-8.147
X90.058 Y56.004 Z-8.151
X89.982 Y56.097 Z-8.155
X89.894 Y56.179 Z-8.16
X89.796 Y56.249 Z-8.164
X89.69 Y56.306 Z-8.168
X89.577 Y56.348 Z-8.172
X89.46 Y56.374 Z-8.176
X89.34 Y56.385 Z-8.181
X89.22 Y56.38 Z-8.185
X89.102 Y56.36 Z-8.189
X88.987 Y56.323 Z-8.193
X88.878 Y56.272 Z-8.197
X88.777 Y56.207 Z-8.202
X88.685 Y56.129 Z-8.206
X88.605 Y56.04 Z-8.21
X88.537 Y55.941 Z-8.214
X88.482 Y55.834 Z-8.218
X88.443 Y55.72 Z-8.223
X88.418 Y55.603 Z-8.227
X88.409 Y55.483 Z-8.231
X88.417 Y55.363 Z-8.235
X88.44 Y55.245 Z-8.239
X88.478 Y55.131 Z-8.244
X88.531 Y55.023 Z-8.248
X88.598 Y54.923 Z-8.252
X88.678 Y54.833 Z-8.256
X88.768 Y54.754 Z-8.261
X88.869 Y54.688 Z-8.265
X88.977 Y54.635 Z-8.269
X89.091 Y54.598 Z-8.273
X89.209 Y54.575 Z-8.277
X89.329 Y54.569 Z-8.282
X89.449 Y54.579 Z-8.286
X89.567 Y54.604 Z-8.29
X89.68 Y54.644 Z-8.294
X89.787 Y54.699 Z-8.298
X89.885 Y54.768 Z-8.303
X89.974 Y54.849 Z-8.307
X90.051 Y54.942 Z-8.311
X90.116 Y55.043 Z-8.315
X90.166 Y55.152 Z-8.319
X90.201 Y55.267 Z-8.324
X90.221 Y55.386 Z-8.328
X90.226 Y55.506 Z-8.332
X90.214 Y55.626 Z-8.336
X90.186 Y55.743 Z-8.34
X90.144 Y55.855 Z-8.345
X90.087 Y55.961 Z-8.349
X90.016 Y56.058 Z-8.353
X89.933 Y56.145 Z-8.357
X89.84 Y56.221 Z-8.361
X89.737 Y56.283 Z-8.366
X89.627 Y56.331 Z-8.37
X89.511 Y56.365 Z-8.374
X89.392 Y56.383 Z-8.378
X89.272 Y56.384 Z-8.382
X89.153 Y56.37 Z-8.387
X89.036 Y56.341 Z-8.391
X88.924 Y56.296 Z-8.395
X88.82 Y56.237 Z-8.399
X88.724 Y56.164 Z-8.403
X88.638 Y56.08 Z-8.408
X88.565 Y55.985 Z-8.412
X88.504 Y55.881 Z-8.416
X88.458 Y55.77 Z-8.42
X88.427 Y55.654 Z-8.424
X88.411 Y55.535 Z-8.429
X88.412 Y55.414 Z-8.433
X88.428 Y55.295 Z-8.437
X88.46 Y55.179 Z-8.441
X88.507 Y55.069 Z-8.445
X88.568 Y54.965 Z-8.45
X88.642 Y54.871 Z-8.454
X88.728 Y54.787 Z-8.458
X88.824 Y54.715 Z-8.462
X88.929 Y54.656 Z-8.466
X89.041 Y54.612 Z-8.471
X89.158 Y54.583 Z-8.475
X89.277 Y54.57 Z-8.479
X89.398 Y54.572 Z-8.483
X89.516 Y54.591 Z-8.487
X89.632 Y54.625 Z-8.492
X89.742 Y54.674 Z-8.496
X89.844 Y54.737 Z-8.5
X89.887 Y54.767 F1499.
X90.806 Y55.503
X91.089 Y55.817
X91.558 Y56.386
X88.629
X88.458 Y56.342
X88.451 Y56.335
X88.41 Y56.173
X88.409 Y53.993
X88.83 Y54.186
X89.684 Y54.623
X89.844 Y54.737
X89.87 Y54.765
X89.883 Y54.802
X89.881 Y54.84
X89.863 Y54.874
X89.833 Y54.899
X89.796 Y54.91
X89.394 Y54.939
X89.016 Y54.82
X88.986 Y54.804
X88.964 Y54.779
X88.951 Y54.748
Y54.714
X88.962 Y54.682
X88.983 Y54.656
X89.012 Y54.639
X89.127 Y54.606 Z-8.504 F333.
X89.244 Y54.588 Z-8.508
X89.364 Y54.586 Z-8.512
X89.482 Y54.6 Z-8.517
X89.598 Y54.63 Z-8.521
X89.708 Y54.675 Z-8.525
X89.812 Y54.734 Z-8.529
X89.906 Y54.807 Z-8.533
X89.99 Y54.891 Z-8.537
X90.063 Y54.986 Z-8.542
X90.121 Y55.09 Z-8.546
X90.166 Y55.2 Z-8.55
X90.195 Y55.316 Z-8.554
X90.209 Y55.434 Z-8.558
X90.206 Y55.554 Z-8.563
X90.188 Y55.671 Z-8.567
X90.155 Y55.786 Z-8.571
X90.106 Y55.895 Z-8.575
X90.043 Y55.996 Z-8.579
X89.967 Y56.088 Z-8.583
X89.88 Y56.169 Z-8.588
X89.783 Y56.238 Z-8.592
X89.677 Y56.293 Z-8.596
X89.565 Y56.334 Z-8.6
X89.448 Y56.359 Z-8.604
X89.329 Y56.368 Z-8.608
X89.21 Y56.362 Z-8.613
X89.093 Y56.34 Z-8.617
X88.98 Y56.302 Z-8.621
X88.873 Y56.249 Z-8.625
X88.774 Y56.183 Z-8.629
X88.685 Y56.104 Z-8.633
X88.607 Y56.014 Z-8.637
X88.541 Y55.914 Z-8.642
X88.49 Y55.807 Z-8.646
X88.453 Y55.693 Z-8.65
X88.432 Y55.576 Z-8.654
X88.427 Y55.457 Z-8.658
X88.437 Y55.338 Z-8.662
X88.464 Y55.222 Z-8.667
X88.505 Y55.11 Z-8.671
X88.562 Y55.005 Z-8.675
X88.631 Y54.908 Z-8.679
X88.713 Y54.822 Z-8.683
X88.806 Y54.747 Z-8.688
X88.908 Y54.685 Z-8.692
X89.017 Y54.637 Z-8.696
X89.132 Y54.605 Z-8.7
X89.25 Y54.588 Z-8.704
X89.369 Y54.587 Z-8.708
X89.488 Y54.601 Z-8.713
X89.603 Y54.632 Z-8.717
X89.713 Y54.677 Z-8.721
X89.816 Y54.737 Z-8.725
X89.91 Y54.81 Z-8.729
X89.994 Y54.895 Z-8.733
X90.066 Y54.991 Z-8.738
X90.124 Y55.095 Z-8.742
X90.168 Y55.206 Z-8.746
X90.196 Y55.321 Z-8.75
X90.209 Y55.44 Z-8.754
X90.206 Y55.559 Z-8.758
X90.187 Y55.677 Z-8.762
X90.153 Y55.791 Z-8.767
X90.103 Y55.9 Z-8.771
X90.04 Y56. Z-8.775
X89.963 Y56.092 Z-8.779
X89.876 Y56.173 Z-8.783
X89.778 Y56.241 Z-8.787
X89.672 Y56.295 Z-8.792
X89.559 Y56.335 Z-8.796
X89.443 Y56.36 Z-8.8
X89.324 Y56.368 Z-8.804
X89.205 Y56.361 Z-8.808
X89.088 Y56.338 Z-8.813
X88.975 Y56.3 Z-8.817
X88.868 Y56.247 Z-8.821
X88.77 Y56.18 Z-8.825
X88.681 Y56.1 Z-8.829
X88.603 Y56.01 Z-8.833
X88.539 Y55.909 Z-8.838
X88.488 Y55.802 Z-8.842
X88.452 Y55.688 Z-8.846
X88.431 Y55.57 Z-8.85
X88.427 Y55.451 Z-8.854
X88.438 Y55.333 Z-8.858
X88.465 Y55.216 Z-8.863
X88.508 Y55.105 Z-8.867
X88.565 Y55. Z-8.871
X88.635 Y54.904 Z-8.875
X88.717 Y54.818 Z-8.879
X88.811 Y54.744 Z-8.883
X88.913 Y54.682 Z-8.887
X89.023 Y54.636 Z-8.892
X89.138 Y54.604 Z-8.896
X89.256 Y54.587 Z-8.9
X89.375 Z-8.904
X89.493 Y54.603 Z-8.908
X89.608 Y54.634 Z-8.912
X89.718 Y54.68 Z-8.917
X89.821 Y54.74 Z-8.921
X89.915 Y54.814 Z-8.925
X89.998 Y54.9 Z-8.929
X90.069 Y54.995 Z-8.933
X90.126 Y55.1 Z-8.938
X90.169 Y55.211 Z-8.942
X90.197 Y55.327 Z-8.946
X90.209 Y55.446 Z-8.95
X90.205 Y55.565 Z-8.954
X90.186 Y55.682 Z-8.958
X90.151 Y55.796 Z-8.963
X90.101 Y55.904 Z-8.967
X90.036 Y56.005 Z-8.971
X89.96 Y56.096 Z-8.975
X89.871 Y56.176 Z-8.979
X89.773 Y56.244 Z-8.983
X89.667 Y56.298 Z-8.988
X89.554 Y56.337 Z-8.992
X89.437 Y56.36 Z-8.996
X89.318 Y56.368 Z-9.
X88.635 F1499.
X88.475 Y56.328
X88.467 Y56.32
X88.427 Y56.17
X88.426 Y54.019
X88.446 Y54.025
X88.826 Y54.205
X89.714 Y54.663
X89.885 Y54.786
X90.815 Y55.535
X90.954 Y55.683
X91.521 Y56.368
X89.318
X89.282 Y56.363
X89.249 Y56.346
X89.223 Y56.321
X89.206 Y56.288
X89.199 Y56.252
X89.183 Y55.573
X89.176 Y55.536
X89.159 Y55.503
X88.745 Y54.967
X88.727 Y54.934
X88.72 Y54.899
X88.724 Y54.862
X88.739 Y54.829
X88.764 Y54.802
X88.859 Y54.734 Z-9.004 F333.
X88.963 Y54.679 Z-9.008
X89.073 Y54.639 Z-9.012
X89.188 Y54.614 Z-9.016
X89.305 Y54.604 Z-9.02
X89.422 Y54.61 Z-9.025
X89.537 Y54.632 Z-9.029
X89.648 Y54.669 Z-9.033
X89.754 Y54.721 Z-9.037
X89.851 Y54.786 Z-9.041
X89.939 Y54.864 Z-9.045
X90.015 Y54.952 Z-9.049
X90.079 Y55.051 Z-9.053
X90.13 Y55.157 Z-9.057
X90.165 Y55.268 Z-9.061
X90.186 Y55.384 Z-9.066
X90.19 Y55.501 Z-9.07
X90.179 Y55.618 Z-9.074
X90.153 Y55.732 Z-9.078
X90.111 Y55.842 Z-9.082
X90.055 Y55.945 Z-9.086
X89.986 Y56.039 Z-9.09
X89.904 Y56.124 Z-9.094
X89.813 Y56.197 Z-9.098
X89.712 Y56.257 Z-9.102
X89.604 Y56.302 Z-9.107
X89.491 Y56.333 Z-9.111
X89.374 Y56.349 Z-9.115
X89.257 Z-9.119
X89.141 Y56.333 Z-9.123
X89.028 Y56.301 Z-9.127
X88.92 Y56.255 Z-9.131
X88.82 Y56.195 Z-9.135
X88.728 Y56.122 Z-9.139
X88.647 Y56.037 Z-9.143
X88.578 Y55.942 Z-9.148
X88.522 Y55.839 Z-9.152
X88.481 Y55.729 Z-9.156
X88.455 Y55.615 Z-9.16
X88.444 Y55.498 Z-9.164
X88.449 Y55.381 Z-9.168
X88.47 Y55.265 Z-9.172
X88.506 Y55.154 Z-9.176
X88.557 Y55.048 Z-9.18
X88.621 Y54.95 Z-9.184
X88.698 Y54.861 Z-9.189
X88.786 Y54.784 Z-9.193
X88.884 Y54.719 Z-9.197
X88.989 Y54.668 Z-9.201
X89.101 Y54.631 Z-9.205
X89.216 Y54.61 Z-9.209
X89.333 Y54.604 Z-9.213
X89.45 Y54.614 Z-9.217
X89.564 Y54.64 Z-9.221
X89.674 Y54.68 Z-9.225
X89.778 Y54.735 Z-9.23
X89.873 Y54.804 Z-9.234
X89.959 Y54.884 Z-9.238
X90.032 Y54.976 Z-9.242
X90.093 Y55.076 Z-9.246
X90.14 Y55.183 Z-9.25
X90.172 Y55.296 Z-9.254
X90.188 Y55.412 Z-9.258
X90.189 Y55.53 Z-9.262
X90.174 Y55.646 Z-9.266
X90.144 Y55.759 Z-9.27
X90.099 Y55.867 Z-9.275
X90.039 Y55.969 Z-9.279
X89.967 Y56.061 Z-9.283
X89.883 Y56.143 Z-9.287
X89.789 Y56.212 Z-9.291
X89.686 Y56.269 Z-9.295
X89.577 Y56.311 Z-9.299
X89.463 Y56.338 Z-9.303
X89.346 Y56.35 Z-9.307
X89.229 Y56.346 Z-9.311
X89.113 Y56.326 Z-9.316
X89.001 Y56.291 Z-9.32
X88.895 Y56.242 Z-9.324
X88.796 Y56.178 Z-9.328
X88.707 Y56.102 Z-9.332
X88.629 Y56.015 Z-9.336
X88.563 Y55.918 Z-9.34
X88.511 Y55.813 Z-9.344
X88.473 Y55.702 Z-9.348
X88.451 Y55.586 Z-9.352
X88.444 Y55.469 Z-9.357
X88.453 Y55.352 Z-9.361
X88.477 Y55.238 Z-9.365
X88.517 Y55.127 Z-9.369
X88.571 Y55.023 Z-9.373
X88.639 Y54.927 Z-9.377
X88.719 Y54.842 Z-9.381
X88.809 Y54.767 Z-9.385
X88.909 Y54.705 Z-9.389
X89.016 Y54.658 Z-9.393
X89.129 Y54.625 Z-9.398
X89.244 Y54.607 Z-9.402
X89.362 Y54.605 Z-9.406
X89.478 Y54.619 Z-9.41
X89.592 Y54.648 Z-9.414
X89.7 Y54.692 Z-9.418
X89.802 Y54.751 Z-9.422
X89.895 Y54.822 Z-9.426
X89.978 Y54.906 Z-9.43
X90.048 Y54.999 Z-9.434
X90.106 Y55.101 Z-9.439
X90.149 Y55.21 Z-9.443
X90.177 Y55.324 Z-9.447
X90.19 Y55.441 Z-9.451
X90.187 Y55.558 Z-9.455
X90.168 Y55.674 Z-9.459
X90.134 Y55.786 Z-9.463
X90.086 Y55.893 Z-9.467
X90.023 Y55.992 Z-9.471
X89.948 Y56.082 Z-9.475
X89.861 Y56.161 Z-9.48
X89.765 Y56.227 Z-9.484
X89.66 Y56.281 Z-9.488
X89.549 Y56.319 Z-9.492
X89.434 Y56.343 Z-9.496
X89.317 Y56.351 Z-9.5
X88.636 F1499.
X88.482 Y56.311
X88.444 Y56.168
Y54.042
X88.825 Y54.226
X89.697 Y54.673
X89.883 Y54.809
X90.791 Y55.537
X91.039 Y55.816
X91.481 Y56.351
X89.317
X89.295 Y56.345
X89.278 Y56.328
X89.272 Y56.305
X89.278 Y56.283
X89.295 Y56.266
X89.448 Y56.182
X89.614 Y56.187
X89.638 Y56.195
X89.653 Y56.213
X89.657 Y56.237
X89.648 Y56.259
X89.629 Y56.274
X89.518 Y56.309 Z-9.504 F333.
X89.403 Y56.329 Z-9.508
X89.287 Y56.333 Z-9.512
X89.171 Y56.321 Z-9.516
X89.058 Y56.293 Z-9.52
X88.95 Y56.251 Z-9.524
X88.849 Y56.194 Z-9.528
X88.756 Y56.124 Z-9.533
X88.673 Y56.042 Z-9.537
X88.603 Y55.949 Z-9.541
X88.545 Y55.848 Z-9.545
X88.502 Y55.74 Z-9.549
X88.474 Y55.627 Z-9.553
X88.461 Y55.512 Z-9.557
X88.465 Y55.395 Z-9.561
X88.484 Y55.281 Z-9.565
X88.518 Y55.17 Z-9.569
X88.567 Y55.064 Z-9.573
X88.63 Y54.966 Z-9.577
X88.706 Y54.878 Z-9.581
X88.793 Y54.801 Z-9.585
X88.889 Y54.736 Z-9.589
X88.994 Y54.685 Z-9.593
X89.104 Y54.648 Z-9.598
X89.219 Y54.627 Z-9.602
X89.335 Y54.622 Z-9.606
X89.451 Y54.632 Z-9.61
X89.564 Y54.658 Z-9.614
X89.673 Y54.7 Z-9.618
X89.775 Y54.755 Z-9.622
X89.869 Y54.824 Z-9.626
X89.952 Y54.905 Z-9.63
X90.024 Y54.996 Z-9.634
X90.083 Y55.097 Z-9.638
X90.127 Y55.204 Z-9.642
X90.157 Y55.317 Z-9.646
X90.171 Y55.432 Z-9.65
X90.169 Y55.549 Z-9.654
X90.152 Y55.664 Z-9.659
X90.119 Y55.775 Z-9.663
X90.071 Y55.881 Z-9.667
X90.009 Y55.98 Z-9.671
X89.935 Y56.069 Z-9.675
X89.849 Y56.147 Z-9.679
X89.753 Y56.213 Z-9.683
X89.649 Y56.266 Z-9.687
X89.539 Y56.304 Z-9.691
X89.425 Y56.326 Z-9.695
X89.309 Y56.333 Z-9.699
X89.193 Y56.324 Z-9.703
X89.079 Y56.3 Z-9.707
X88.97 Y56.26 Z-9.711
X88.867 Y56.206 Z-9.715
X88.772 Y56.138 Z-9.72
X88.688 Y56.058 Z-9.724
X88.615 Y55.967 Z-9.728
X88.555 Y55.868 Z-9.732
X88.509 Y55.761 Z-9.736
X88.478 Y55.649 Z-9.74
X88.463 Y55.534 Z-9.744
Y55.417 Z-9.748
X88.479 Y55.302 Z-9.752
X88.511 Y55.19 Z-9.756
X88.557 Y55.083 Z-9.76
X88.617 Y54.984 Z-9.764
X88.691 Y54.894 Z-9.768
X88.776 Y54.814 Z-9.772
X88.871 Y54.747 Z-9.776
X88.974 Y54.693 Z-9.78
X89.083 Y54.654 Z-9.785
X89.197 Y54.63 Z-9.789
X89.313 Y54.622 Z-9.793
X89.429 Y54.629 Z-9.797
X89.543 Y54.652 Z-9.801
X89.653 Y54.691 Z-9.805
X89.757 Y54.744 Z-9.809
X89.852 Y54.81 Z-9.813
X89.938 Y54.889 Z-9.817
X90.012 Y54.979 Z-9.821
X90.073 Y55.077 Z-9.825
X90.12 Y55.184 Z-9.829
X90.153 Y55.295 Z-9.833
X90.17 Y55.411 Z-9.837
X90.171 Y55.527 Z-9.841
X90.156 Y55.642 Z-9.846
X90.126 Y55.755 Z-9.85
X90.081 Y55.862 Z-9.854
X90.022 Y55.962 Z-9.858
X89.95 Y56.053 Z-9.862
X89.866 Y56.134 Z-9.866
X89.772 Y56.202 Z-9.87
X89.669 Y56.257 Z-9.874
X89.56 Y56.298 Z-9.878
X89.447 Y56.323 Z-9.882
X89.331 Y56.333 Z-9.886
X89.215 Y56.327 Z-9.89
X89.1 Y56.305 Z-9.894
X88.99 Y56.268 Z-9.898
X88.886 Y56.217 Z-9.902
X88.789 Y56.152 Z-9.907
X88.703 Y56.074 Z-9.911
X88.628 Y55.985 Z-9.915
X88.565 Y55.887 Z-9.919
X88.517 Y55.781 Z-9.923
X88.483 Y55.67 Z-9.927
X88.464 Y55.555 Z-9.931
X88.462 Y55.439 Z-9.935
X88.475 Y55.323 Z-9.939
X88.503 Y55.211 Z-9.943
X88.547 Y55.103 Z-9.947
X88.605 Y55.002 Z-9.951
X88.676 Y54.91 Z-9.955
X88.759 Y54.828 Z-9.959
X88.852 Y54.759 Z-9.963
X88.954 Y54.702 Z-9.967
X89.062 Y54.66 Z-9.972
X89.176 Y54.633 Z-9.976
X89.291 Y54.622 Z-9.98
X89.408 Y54.627 Z-9.984
X89.522 Y54.647 Z-9.988
X89.633 Y54.682 Z-9.992
X89.738 Y54.733 Z-9.996
X89.835 Y54.797 Z-10.
X89.879 Y54.83 F1499.
X90.809 Y55.578
X91.33 Y56.196
X91.443 Y56.333
X88.638
X88.497 Y56.296
X88.461 Y56.159
Y54.07
X89.206 Y54.442
X89.712 Y54.703
X89.835 Y54.797
X89.852 Y54.818
X89.856 Y54.846
X89.846 Y54.872
X89.824 Y54.889
X89.797 Y54.893
X89.585 Y54.869
X89.42 Y54.75
X89.403 Y54.728
X89.399 Y54.7
X89.41 Y54.673
X89.433 Y54.656
X89.462 Y54.654
X89.574 Y54.682 Z-10.004 F333.
X89.681 Y54.725 Z-10.008
X89.781 Y54.782 Z-10.012
X89.872 Y54.853 Z-10.016
X89.953 Y54.935 Z-10.02
X90.021 Y55.028 Z-10.024
X90.077 Y55.13 Z-10.028
X90.117 Y55.237 Z-10.032
X90.143 Y55.35 Z-10.036
X90.152 Y55.465 Z-10.04
X90.146 Y55.58 Z-10.044
X90.124 Y55.693 Z-10.048
X90.087 Y55.803 Z-10.052
X90.035 Y55.906 Z-10.056
X89.97 Y56.001 Z-10.06
X89.892 Y56.086 Z-10.065
X89.803 Y56.159 Z-10.069
X89.704 Y56.219 Z-10.073
X89.599 Y56.266 Z-10.077
X89.488 Y56.297 Z-10.081
X89.373 Y56.313 Z-10.085
X89.258 Z-10.089
X89.144 Y56.298 Z-10.093
X89.033 Y56.266 Z-10.097
X88.927 Y56.22 Z-10.101
X88.829 Y56.159 Z-10.105
X88.74 Y56.086 Z-10.109
X88.662 Y56.001 Z-10.113
X88.596 Y55.906 Z-10.117
X88.544 Y55.803 Z-10.121
X88.507 Y55.694 Z-10.125
X88.485 Y55.581 Z-10.129
X88.478 Y55.466 Z-10.133
X88.488 Y55.351 Z-10.137
X88.513 Y55.238 Z-10.141
X88.554 Y55.13 Z-10.145
X88.609 Y55.029 Z-10.149
X88.678 Y54.936 Z-10.153
X88.758 Y54.853 Z-10.157
X88.849 Y54.783 Z-10.161
X88.949 Y54.725 Z-10.165
X89.056 Y54.682 Z-10.169
X89.168 Y54.654 Z-10.173
X89.283 Y54.642 Z-10.177
X89.398 Y54.645 Z-10.181
X89.512 Y54.664 Z-10.185
X89.622 Y54.699 Z-10.19
X89.726 Y54.749 Z-10.194
X89.823 Y54.812 Z-10.198
X89.91 Y54.888 Z-10.202
X89.985 Y54.976 Z-10.206
X90.048 Y55.072 Z-10.21
X90.097 Y55.177 Z-10.214
X90.131 Y55.287 Z-10.218
X90.149 Y55.401 Z-10.222
X90.152 Y55.516 Z-10.226
X90.139 Y55.631 Z-10.23
X90.11 Y55.743 Z-10.234
X90.066 Y55.849 Z-10.238
X90.008 Y55.949 Z-10.242
X89.936 Y56.04 Z-10.246
X89.853 Y56.12 Z-10.25
X89.76 Y56.188 Z-10.254
X89.658 Y56.242 Z-10.258
X89.55 Y56.282 Z-10.262
X89.437 Y56.306 Z-10.266
X89.322 Y56.315 Z-10.27
X89.207 Y56.308 Z-10.274
X89.094 Y56.285 Z-10.278
X88.985 Y56.247 Z-10.282
X88.882 Y56.195 Z-10.286
X88.788 Y56.128 Z-10.29
X88.703 Y56.049 Z-10.294
X88.631 Y55.96 Z-10.298
X88.571 Y55.861 Z-10.302
X88.525 Y55.755 Z-10.306
X88.495 Y55.644 Z-10.31
X88.48 Y55.53 Z-10.315
X88.481 Y55.414 Z-10.319
X88.497 Y55.3 Z-10.323
X88.53 Y55.189 Z-10.327
X88.577 Y55.084 Z-10.331
X88.638 Y54.986 Z-10.335
X88.712 Y54.898 Z-10.339
X88.798 Y54.82 Z-10.343
X88.893 Y54.755 Z-10.347
X88.996 Y54.704 Z-10.351
X89.106 Y54.668 Z-10.355
X89.219 Y54.646 Z-10.359
X89.335 Y54.641 Z-10.363
X89.449 Y54.652 Z-10.367
X89.562 Y54.678 Z-10.371
X89.669 Y54.72 Z-10.375
X89.77 Y54.775 Z-10.379
X89.863 Y54.845 Z-10.383
X89.945 Y54.926 Z-10.387
X90.015 Y55.018 Z-10.391
X90.071 Y55.118 Z-10.395
X90.114 Y55.225 Z-10.399
X90.141 Y55.338 Z-10.403
X90.152 Y55.452 Z-10.407
X90.148 Y55.568 Z-10.411
X90.128 Y55.681 Z-10.415
X90.092 Y55.791 Z-10.419
X90.042 Y55.895 Z-10.423
X89.977 Y55.991 Z-10.427
X89.901 Y56.077 Z-10.431
X89.813 Y56.152 Z-10.435
X89.715 Y56.214 Z-10.44
X89.61 Y56.262 Z-10.444
X89.5 Y56.295 Z-10.448
X89.386 Y56.312 Z-10.452
X89.271 Y56.314 Z-10.456
X89.156 Y56.3 Z-10.46
X89.045 Y56.27 Z-10.464
X88.938 Y56.226 Z-10.468
X88.839 Y56.167 Z-10.472
X88.749 Y56.095 Z-10.476
X88.67 Y56.011 Z-10.48
X88.602 Y55.917 Z-10.484
X88.549 Y55.815 Z-10.488
X88.51 Y55.706 Z-10.492
X88.486 Y55.593 Z-10.496
X88.478 Y55.478 Z-10.5
Y54.094 F1499.
X88.485 Y54.096
X89.718 Y54.728
X90.795 Y55.589
X91.329 Y56.225
X91.404 Y56.316
X88.641 Y56.315
X88.512 Y56.28
X88.478 Y56.15
Y55.478
X88.484 Y55.46
X88.5 Y55.45
X88.519 Y55.451
X88.533 Y55.464
X88.586 Y55.563
X88.578 Y55.665
X88.569 Y55.683
X88.551 Y55.691
X88.532 Y55.686
X88.521 Y55.669
X88.502 Y55.557 Z-10.504 F333.
X88.499 Y55.443 Z-10.508
X88.512 Y55.33 Z-10.512
X88.54 Y55.221 Z-10.516
X88.583 Y55.116 Z-10.52
X88.641 Y55.018 Z-10.524
X88.711 Y54.929 Z-10.528
X88.793 Y54.85 Z-10.532
X88.885 Y54.784 Z-10.536
X88.986 Y54.731 Z-10.54
X89.093 Y54.692 Z-10.544
X89.204 Y54.669 Z-10.548
X89.317 Y54.661 Z-10.552
X89.43 Y54.669 Z-10.556
X89.541 Y54.693 Z-10.56
X89.648 Y54.732 Z-10.563
X89.748 Y54.785 Z-10.567
X89.84 Y54.852 Z-10.571
X89.922 Y54.931 Z-10.575
X89.992 Y55.02 Z-10.579
X90.049 Y55.118 Z-10.583
X90.092 Y55.223 Z-10.587
X90.12 Y55.333 Z-10.591
X90.133 Y55.446 Z-10.595
X90.129 Y55.56 Z-10.599
X90.11 Y55.671 Z-10.603
X90.076 Y55.78 Z-10.607
X90.027 Y55.882 Z-10.611
X89.964 Y55.977 Z-10.615
X89.889 Y56.062 Z-10.619
X89.803 Y56.136 Z-10.623
X89.707 Y56.197 Z-10.627
X89.604 Y56.244 Z-10.631
X89.495 Y56.276 Z-10.635
X89.383 Y56.294 Z-10.639
X89.269 Y56.295 Z-10.643
X89.156 Y56.281 Z-10.647
X89.047 Y56.251 Z-10.651
X88.943 Y56.206 Z-10.655
X88.845 Y56.147 Z-10.659
X88.757 Y56.076 Z-10.663
X88.68 Y55.993 Z-10.667
X88.615 Y55.9 Z-10.671
X88.563 Y55.799 Z-10.675
X88.526 Y55.691 Z-10.679
X88.504 Y55.58 Z-10.683
X88.498 Y55.466 Z-10.687
X88.508 Y55.353 Z-10.69
X88.533 Y55.243 Z-10.694
X88.573 Y55.136 Z-10.698
X88.628 Y55.037 Z-10.702
X88.696 Y54.946 Z-10.706
X88.776 Y54.865 Z-10.71
X88.866 Y54.796 Z-10.714
X88.965 Y54.74 Z-10.718
X89.071 Y54.699 Z-10.722
X89.181 Y54.672 Z-10.726
X89.294 Y54.662 Z-10.73
X89.407 Y54.666 Z-10.734
X89.519 Y54.687 Z-10.738
X89.627 Y54.723 Z-10.742
X89.729 Y54.773 Z-10.746
X89.822 Y54.837 Z-10.75
X89.906 Y54.914 Z-10.754
X89.979 Y55.001 Z-10.758
X90.039 Y55.097 Z-10.762
X90.085 Y55.201 Z-10.766
X90.116 Y55.311 Z-10.77
X90.131 Y55.423 Z-10.774
Y55.537 Z-10.778
X90.115 Y55.649 Z-10.782
X90.084 Y55.758 Z-10.786
X90.038 Y55.862 Z-10.79
X89.978 Y55.958 Z-10.794
X89.905 Y56.045 Z-10.798
X89.821 Y56.122 Z-10.802
X89.727 Y56.185 Z-10.806
X89.625 Y56.236 Z-10.81
X89.517 Y56.271 Z-10.813
X89.406 Y56.291 Z-10.817
X89.292 Y56.296 Z-10.821
X89.179 Y56.285 Z-10.825
X89.069 Y56.258 Z-10.829
X88.963 Y56.216 Z-10.833
X88.864 Y56.16 Z-10.837
X88.774 Y56.091 Z-10.841
X88.695 Y56.01 Z-10.845
X88.627 Y55.919 Z-10.849
X88.573 Y55.82 Z-10.853
X88.533 Y55.713 Z-10.857
X88.508 Y55.603 Z-10.861
X88.498 Y55.489 Z-10.865
X88.505 Y55.376 Z-10.869
X88.527 Y55.265 Z-10.873
X88.564 Y55.157 Z-10.877
X88.616 Y55.056 Z-10.881
X88.681 Y54.963 Z-10.885
X88.759 Y54.881 Z-10.889
X88.847 Y54.809 Z-10.893
X88.944 Y54.751 Z-10.897
X89.049 Y54.706 Z-10.901
X89.158 Y54.677 Z-10.905
X89.271 Y54.663 Z-10.909
X89.384 Y54.664 Z-10.913
X89.497 Y54.682 Z-10.917
X89.605 Y54.714 Z-10.921
X89.709 Y54.762 Z-10.925
X89.804 Y54.823 Z-10.929
X89.89 Y54.897 Z-10.933
X89.965 Y54.982 Z-10.937
X90.028 Y55.077 Z-10.94
X90.077 Y55.18 Z-10.944
X90.111 Y55.288 Z-10.948
X90.129 Y55.4 Z-10.952
X90.132 Y55.513 Z-10.956
X90.12 Y55.626 Z-10.96
X90.092 Y55.736 Z-10.964
X90.048 Y55.841 Z-10.968
X89.991 Y55.939 Z-10.972
X89.921 Y56.029 Z-10.976
X89.839 Y56.107 Z-10.98
X89.747 Y56.173 Z-10.984
X89.646 Y56.227 Z-10.988
X89.54 Y56.265 Z-10.992
X89.428 Y56.289 Z-10.996
X89.315 Y56.296 Z-11.
X88.639 F1499.
X88.528 Y56.266
X88.499 Y56.159
X88.497 Y54.127
X89.696 Y54.736
X90.807 Y55.625
X91.363 Y56.298
X89.315 Y56.296
X89.278 Y56.29
X89.244 Y56.273
X89.218 Y56.246
X89.201 Y56.212
X89.196 Y56.174
X89.203 Y56.137
X89.425 Y55.516
X89.57 Y54.872
X89.584 Y54.837
X89.608 Y54.808
X89.641 Y54.788
X89.678 Y54.78
X89.715 Y54.783
X89.75 Y54.798
X89.841 Y54.866 Z-11.004 F333.
X89.922 Y54.946 Z-11.008
X89.991 Y55.036 Z-11.012
X90.046 Y55.136 Z-11.016
X90.087 Y55.242 Z-11.02
X90.112 Y55.352 Z-11.024
X90.122 Y55.465 Z-11.028
X90.116 Y55.579 Z-11.032
X90.094 Y55.69 Z-11.036
X90.057 Y55.797 Z-11.04
X90.005 Y55.898 Z-11.044
X89.939 Y55.991 Z-11.048
X89.862 Y56.074 Z-11.052
X89.773 Y56.144 Z-11.056
X89.675 Y56.202 Z-11.06
X89.57 Y56.246 Z-11.063
X89.46 Y56.274 Z-11.067
X89.347 Y56.287 Z-11.071
X89.234 Y56.283 Z-11.075
X89.122 Y56.264 Z-11.079
X89.014 Y56.229 Z-11.083
X88.912 Y56.18 Z-11.087
X88.817 Y56.117 Z-11.091
X88.733 Y56.041 Z-11.095
X88.66 Y55.954 Z-11.099
X88.6 Y55.858 Z-11.103
X88.554 Y55.754 Z-11.107
X88.523 Y55.645 Z-11.111
X88.507 Y55.532 Z-11.115
X88.508 Y55.419 Z-11.119
X88.524 Y55.306 Z-11.123
X88.556 Y55.197 Z-11.127
X88.603 Y55.094 Z-11.131
X88.664 Y54.998 Z-11.135
X88.738 Y54.912 Z-11.139
X88.823 Y54.837 Z-11.143
X88.918 Y54.774 Z-11.147
X89.02 Y54.726 Z-11.151
X89.129 Y54.692 Z-11.155
X89.241 Y54.674 Z-11.159
X89.354 Y54.671 Z-11.163
X89.467 Y54.685 Z-11.167
X89.577 Y54.714 Z-11.171
X89.681 Y54.759 Z-11.175
X89.779 Y54.817 Z-11.179
X89.867 Y54.889 Z-11.183
X89.944 Y54.972 Z-11.187
X90.009 Y55.065 Z-11.19
X90.06 Y55.167 Z-11.194
X90.096 Y55.274 Z-11.198
X90.117 Y55.386 Z-11.202
X90.122 Y55.499 Z-11.206
X90.111 Y55.612 Z-11.21
X90.085 Y55.723 Z-11.214
X90.043 Y55.828 Z-11.218
X89.987 Y55.927 Z-11.222
X89.917 Y56.017 Z-11.226
X89.836 Y56.096 Z-11.23
X89.744 Y56.163 Z-11.234
X89.644 Y56.217 Z-11.238
X89.538 Y56.256 Z-11.242
X89.427 Y56.279 Z-11.246
X89.313 Y56.287 Z-11.25
X88.639 F1499.
X88.537 Y56.259
X88.506 Y56.148
X88.505 Y54.136
X89.684 Y54.74
X90.8 Y55.632
X91.343 Y56.289
X89.313 Y56.287
X89.273 Y56.28
X89.238 Y56.258
X89.214 Y56.225
X89.203 Y56.185
X89.207 Y56.145
X89.226 Y56.108
X89.537 Y55.708
X89.907 Y55.365
X89.942 Y55.343
X89.983 Y55.335
X90.023 Y55.343
X90.058 Y55.365
X90.083 Y55.399
X90.093 Y55.439
Y55.551 Z-11.254 F333.
X90.076 Y55.663 Z-11.258
X90.045 Y55.771 Z-11.262
X89.998 Y55.873 Z-11.266
X89.937 Y55.968 Z-11.27
X89.863 Y56.053 Z-11.274
X89.778 Y56.127 Z-11.278
X89.684 Y56.188 Z-11.281
X89.581 Y56.236 Z-11.285
X89.473 Y56.268 Z-11.289
X89.362 Y56.284 Z-11.293
X89.249 Y56.285 Z-11.297
X89.138 Y56.27 Z-11.301
X89.029 Y56.239 Z-11.305
X88.926 Y56.193 Z-11.309
X88.831 Y56.133 Z-11.313
X88.745 Y56.061 Z-11.317
X88.67 Y55.976 Z-11.321
X88.608 Y55.882 Z-11.325
X88.56 Y55.781 Z-11.329
X88.527 Y55.673 Z-11.333
X88.509 Y55.562 Z-11.337
X88.507 Y55.449 Z-11.341
X88.521 Y55.337 Z-11.344
X88.551 Y55.229 Z-11.348
X88.596 Y55.125 Z-11.352
X88.655 Y55.029 Z-11.356
X88.727 Y54.943 Z-11.36
X88.81 Y54.867 Z-11.364
X88.903 Y54.804 Z-11.368
X89.005 Y54.755 Z-11.372
X89.112 Y54.72 Z-11.376
X89.223 Y54.702 Z-11.38
X89.336 Y54.699 Z-11.384
X89.448 Y54.711 Z-11.388
X89.556 Y54.74 Z-11.392
X89.66 Y54.784 Z-11.396
X89.757 Y54.842 Z-11.4
X89.844 Y54.913 Z-11.404
X89.921 Y54.996 Z-11.407
X89.985 Y55.088 Z-11.411
X90.035 Y55.189 Z-11.415
X90.07 Y55.296 Z-11.419
X90.09 Y55.407 Z-11.423
X90.094 Y55.52 Z-11.427
X90.083 Y55.632 Z-11.431
X90.055 Y55.741 Z-11.435
X90.012 Y55.845 Z-11.439
X89.955 Y55.942 Z-11.443
X89.885 Y56.03 Z-11.447
X89.803 Y56.108 Z-11.451
X89.711 Y56.173 Z-11.455
X89.611 Y56.224 Z-11.459
X89.504 Y56.26 Z-11.463
X89.394 Y56.281 Z-11.467
X89.281 Y56.287 Z-11.47
X89.169 Y56.276 Z-11.474
X89.059 Y56.249 Z-11.478
X88.955 Y56.208 Z-11.482
X88.857 Y56.152 Z-11.486
X88.768 Y56.082 Z-11.49
X88.69 Y56.001 Z-11.494
X88.624 Y55.91 Z-11.498
X88.572 Y55.81 Z-11.502
X88.534 Y55.704 Z-11.506
X88.512 Y55.593 Z-11.51
X88.506 Y55.481 Z-11.514
X88.516 Y55.369 Z-11.518
X88.541 Y55.259 Z-11.522
X88.582 Y55.154 Z-11.526
X88.637 Y55.056 Z-11.53
X88.705 Y54.966 Z-11.533
X88.785 Y54.887 Z-11.537
X88.876 Y54.82 Z-11.541
X88.975 Y54.767 Z-11.545
X89.081 Y54.729 Z-11.549
X89.191 Y54.705 Z-11.553
X89.304 Y54.698 Z-11.557
X89.416 Y54.706 Z-11.561
X89.526 Y54.731 Z-11.565
X89.632 Y54.77 Z-11.569
X89.73 Y54.824 Z-11.573
X89.821 Y54.892 Z-11.577
X89.9 Y54.971 Z-11.581
X89.968 Y55.061 Z-11.585
X90.022 Y55.16 Z-11.589
X90.062 Y55.266 Z-11.593
X90.086 Y55.376 Z-11.596
X90.095 Y55.488 Z-11.6
X90.088 Y55.6 Z-11.604
X90.064 Y55.71 Z-11.608
X90.026 Y55.816 Z-11.612
X89.973 Y55.916 Z-11.616
X89.906 Y56.007 Z-11.62
X89.827 Y56.087 Z-11.624
X89.738 Y56.156 Z-11.628
X89.64 Y56.211 Z-11.632
X89.535 Y56.252 Z-11.636
X89.425 Y56.277 Z-11.64
X89.313 Y56.287 Z-11.644
X89.2 Y56.281 Z-11.648
X89.09 Y56.258 Z-11.652
X88.984 Y56.221 Z-11.656
X88.884 Y56.169 Z-11.659
X88.792 Y56.103 Z-11.663
X88.711 Y56.025 Z-11.667
X88.642 Y55.936 Z-11.671
X88.585 Y55.839 Z-11.675
X88.544 Y55.734 Z-11.679
X88.517 Y55.625 Z-11.683
X88.506 Y55.513 Z-11.687
X88.511 Y55.4 Z-11.691
X88.532 Y55.289 Z-11.695
X88.569 Y55.183 Z-11.699
X88.62 Y55.082 Z-11.703
X88.684 Y54.99 Z-11.707
X88.762 Y54.908 Z-11.711
X88.85 Y54.838 Z-11.715
X88.947 Y54.781 Z-11.719
X89.051 Y54.738 Z-11.722
X89.16 Y54.71 Z-11.726
X89.272 Y54.698 Z-11.73
X89.385 Y54.702 Z-11.734
X89.496 Y54.722 Z-11.738
X89.602 Y54.757 Z-11.742
X89.703 Y54.808 Z-11.746
X89.796 Y54.871 Z-11.75
X90.747 Y55.631 F1499.
X91.295 Y56.289
X88.639 Y56.286
X88.537 Y56.259
X88.506 Y56.148
X88.505 Y54.177
X89.674 Y54.774
X89.796 Y54.871
X89.829 Y54.903 Z-11.741
X89.855 Y54.94 Z-11.732
X89.871 Y54.975 Z-11.706
X89.881 Y55.013 Z-11.68
X89.886 Y55.064 Z-11.603
X89.884 Y55.082 Z-11.512
G0 Z5.
X90.273 Y46.75
Z0.763
G1 X90.264 Y46.765 Z0.674 F333.
X90.236 Y46.806 Z0.598
X90.192 Y46.866 Z0.545
X90.134 Y46.933 Z0.525
X90.036 Y47.025 Z0.52
X89.929 Y47.105 Z0.516
X89.813 Y47.171 Z0.511
X89.689 Y47.224 Z0.506
X89.561 Y47.261 Z0.502
X89.429 Y47.283 Z0.497
X89.295 Y47.29 Z0.492
X89.161 Y47.28 Z0.488
X89.03 Y47.255 Z0.483
X88.902 Y47.214 Z0.478
X88.78 Y47.159 Z0.474
X88.666 Y47.089 Z0.469
X88.56 Y47.007 Z0.464
X88.465 Y46.913 Z0.459
X88.382 Y46.808 Z0.455
X88.312 Y46.693 Z0.45
X88.256 Y46.572 Z0.445
X88.214 Y46.445 Z0.441
X88.188 Y46.313 Z0.436
X88.178 Y46.18 Z0.431
X88.183 Y46.046 Z0.427
X88.204 Y45.914 Z0.422
X88.241 Y45.785 Z0.417
X88.293 Y45.661 Z0.413
X88.359 Y45.545 Z0.408
X88.438 Y45.437 Z0.403
X88.53 Y45.339 Z0.399
X88.632 Y45.252 Z0.394
X88.744 Y45.179 Z0.389
X88.864 Y45.119 Z0.385
X88.99 Y45.074 Z0.38
X89.12 Y45.043 Z0.375
X89.253 Y45.029 Z0.371
X89.387 Y45.03 Z0.366
X89.52 Y45.048 Z0.361
X89.65 Y45.08 Z0.357
X89.775 Y45.128 Z0.352
X89.894 Y45.191 Z0.347
X90.004 Y45.267 Z0.342
X90.105 Y45.355 Z0.338
X90.194 Y45.455 Z0.333
X90.271 Y45.565 Z0.328
X90.334 Y45.683 Z0.324
X90.384 Y45.807 Z0.319
X90.418 Y45.937 Z0.314
X90.436 Y46.069 Z0.31
X90.439 Y46.203 Z0.305
X90.426 Y46.337 Z0.3
X90.397 Y46.467 Z0.296
X90.353 Y46.594 Z0.291
X90.294 Y46.714 Z0.286
X90.221 Y46.827 Z0.282
X90.136 Y46.93 Z0.277
X90.039 Y47.022 Z0.272
X89.932 Y47.103 Z0.268
X89.816 Y47.17 Z0.263
X89.693 Y47.223 Z0.258
X89.564 Y47.261 Z0.254
X89.432 Y47.283 Z0.249
X89.298 Y47.29 Z0.244
X89.165 Y47.281 Z0.239
X89.033 Y47.256 Z0.235
X88.905 Y47.216 Z0.23
X88.783 Y47.161 Z0.225
X88.668 Y47.091 Z0.221
X88.563 Y47.009 Z0.216
X88.467 Y46.915 Z0.211
X88.384 Y46.81 Z0.207
X88.313 Y46.696 Z0.202
X88.257 Y46.575 Z0.197
X88.215 Y46.448 Z0.193
X88.188 Y46.316 Z0.188
X88.178 Y46.183 Z0.183
X88.183 Y46.049 Z0.179
X88.204 Y45.917 Z0.174
X88.24 Y45.788 Z0.169
X88.291 Y45.664 Z0.165
X88.357 Y45.547 Z0.16
X88.436 Y45.439 Z0.155
X88.527 Y45.341 Z0.151
X88.629 Y45.254 Z0.146
X88.741 Y45.18 Z0.141
X88.861 Y45.12 Z0.137
X88.986 Y45.075 Z0.132
X89.117 Y45.044 Z0.127
X89.25 Y45.029 Z0.122
X89.384 Y45.03 Z0.118
X89.517 Y45.047 Z0.113
X89.647 Y45.079 Z0.108
X89.772 Y45.127 Z0.104
X89.891 Y45.189 Z0.099
X90.001 Y45.265 Z0.094
X90.102 Y45.353 Z0.09
X90.192 Y45.452 Z0.085
X90.269 Y45.562 Z0.08
X90.333 Y45.679 Z0.076
X90.382 Y45.804 Z0.071
X90.417 Y45.933 Z0.066
X90.436 Y46.066 Z0.062
X90.439 Y46.2 Z0.057
X90.426 Y46.333 Z0.052
X90.398 Y46.464 Z0.048
X90.354 Y46.591 Z0.043
X90.295 Y46.711 Z0.038
X90.223 Y46.824 Z0.034
X90.138 Y46.928 Z0.029
X90.041 Y47.02 Z0.024
X89.934 Y47.101 Z0.02
X89.819 Y47.168 Z0.015
X89.696 Y47.222 Z0.01
X89.567 Y47.26 Z0.005
X89.435 Y47.283 Z0.001
X89.302 Y47.29 Z-0.004
X89.168 Y47.281 Z-0.009
X89.036 Y47.257 Z-0.013
X88.908 Y47.217 Z-0.018
X88.786 Y47.162 Z-0.023
X88.671 Y47.093 Z-0.027
X88.565 Y47.011 Z-0.032
X88.47 Y46.918 Z-0.037
X88.386 Y46.813 Z-0.041
X88.315 Y46.699 Z-0.046
X88.258 Y46.578 Z-0.051
X88.216 Y46.451 Z-0.055
X88.189 Y46.32 Z-0.06
X88.178 Y46.186 Z-0.065
X88.182 Y46.052 Z-0.069
X88.203 Y45.92 Z-0.074
X88.239 Y45.791 Z-0.079
X88.29 Y45.667 Z-0.083
X88.355 Y45.55 Z-0.088
X88.434 Y45.442 Z-0.093
X88.525 Y45.343 Z-0.097
X88.626 Y45.256 Z-0.102
X88.738 Y45.182 Z-0.107
X88.857 Y45.122 Z-0.112
X88.983 Y45.075 Z-0.116
X89.114 Y45.045 Z-0.121
X89.247 Y45.029 Z-0.126
X89.381 Y45.03 Z-0.13
X89.513 Y45.046 Z-0.135
X89.644 Y45.078 Z-0.14
X89.769 Y45.126 Z-0.144
X89.888 Y45.187 Z-0.149
X89.999 Y45.263 Z-0.154
X90.1 Y45.35 Z-0.158
X90.19 Y45.45 Z-0.163
X90.267 Y45.559 Z-0.168
X90.332 Y45.676 Z-0.172
X90.381 Y45.801 Z-0.177
X90.416 Y45.93 Z-0.182
X90.436 Y46.063 Z-0.186
X90.439 Y46.197 Z-0.191
X90.427 Y46.33 Z-0.196
X90.399 Y46.461 Z-0.2
X90.355 Y46.588 Z-0.205
X90.297 Y46.708 Z-0.21
X90.225 Y46.821 Z-0.214
X90.14 Y46.925 Z-0.219
X90.044 Y47.018 Z-0.224
X89.937 Y47.099 Z-0.229
X89.822 Y47.167 Z-0.233
X89.699 Y47.22 Z-0.238
X89.571 Y47.259 Z-0.243
X89.439 Y47.282 Z-0.247
X89.305 Y47.29 Z-0.252
X89.171 Y47.282 Z-0.257
X89.04 Y47.257 Z-0.261
X88.912 Y47.218 Z-0.266
X88.789 Y47.164 Z-0.271
X88.674 Y47.095 Z-0.275
X88.568 Y47.014 Z-0.28
X88.472 Y46.92 Z-0.285
X88.388 Y46.816 Z-0.289
X88.317 Y46.702 Z-0.294
X88.259 Y46.581 Z-0.299
X88.217 Y46.454 Z-0.303
X88.189 Y46.323 Z-0.308
X88.178 Y46.19 Z-0.313
X88.182 Y46.056 Z-0.317
X88.202 Y45.923 Z-0.322
X88.238 Y45.794 Z-0.327
X88.288 Y45.67 Z-0.332
X88.353 Y45.553 Z-0.336
X88.432 Y45.444 Z-0.341
X88.522 Y45.346 Z-0.346
X88.624 Y45.258 Z-0.35
X88.735 Y45.184 Z-0.355
X88.854 Y45.123 Z-0.36
X88.98 Y45.076 Z-0.364
X89.11 Y45.045 Z-0.369
X89.243 Y45.03 Z-0.374
X89.377 Z-0.378
X89.51 Y45.046 Z-0.383
X89.64 Y45.077 Z-0.388
X89.766 Y45.124 Z-0.392
X89.885 Y45.186 Z-0.397
X89.996 Y45.261 Z-0.402
X90.097 Y45.348 Z-0.406
X90.188 Y45.447 Z-0.411
X90.266 Y45.556 Z-0.416
X90.33 Y45.673 Z-0.42
X90.38 Y45.798 Z-0.425
X90.416 Y45.927 Z-0.43
X90.435 Y46.059 Z-0.434
X90.439 Y46.193 Z-0.439
X90.427 Y46.327 Z-0.444
X90.399 Y46.458 Z-0.449
X90.356 Y46.584 Z-0.453
X90.299 Y46.705 Z-0.458
X90.227 Y46.819 Z-0.463
X90.143 Y46.923 Z-0.467
X90.047 Y47.016 Z-0.472
X89.94 Y47.097 Z-0.477
X89.825 Y47.165 Z-0.481
X89.702 Y47.219 Z-0.486
X89.574 Y47.258 Z-0.491
X89.442 Y47.282 Z-0.495
X89.309 Y47.29 Z-0.5
G3 X88.529 Y46.51 R0.78
X89.309 Y45.731 R0.78
G1 X89.913 F1499.
G3 X90.101 Y45.919 R0.188
X90.022 Y46.072 R0.188
G1 X89.326 Y46.567
G3 X88.974 Y46.508 R0.253
X88.927 Y46.361 R0.253
G1 Y46.067
G3 X89.263 Y45.731 R0.336
G1 X89.309
G2 X89.905 Y45.333 R0.646
G3 X90.502 Y44.935 R0.646
G1 X92.067
X91.739 Y45.469
X90.745 Y46.534
X89.564 Y47.375
X88.237 Y47.965
X88.13 Y47.989
X88.132 Y45.401
X88.179 Y45.167
X88.252 Y45.058
X88.359 Y44.986
X88.618 Y44.935
X90.502
X90.523 Y44.94
X90.539 Y44.955
X90.546 Y44.975
X90.543 Y44.997
X90.461 Y45.197
X89.992 Y46.642
X89.988 Y46.665
X89.993 Y46.688
X90.082 Y46.917
X90.087 Y46.945
X90.08 Y46.972
X90.063 Y46.994
X89.956 Y47.075 Z-0.505 F333.
X89.841 Y47.143 Z-0.509
X89.719 Y47.197 Z-0.514
X89.591 Y47.236 Z-0.519
X89.459 Y47.26 Z-0.523
X89.326 Y47.268 Z-0.528
X89.192 Y47.26 Z-0.533
X89.061 Y47.237 Z-0.537
X88.933 Y47.198 Z-0.542
X88.81 Y47.144 Z-0.547
X88.695 Y47.076 Z-0.551
X88.588 Y46.995 Z-0.556
X88.492 Y46.902 Z-0.561
X88.408 Y46.799 Z-0.565
X88.336 Y46.686 Z-0.57
X88.278 Y46.565 Z-0.575
X88.235 Y46.439 Z-0.579
X88.207 Y46.308 Z-0.584
X88.194 Y46.175 Z-0.589
X88.198 Y46.041 Z-0.593
X88.217 Y45.909 Z-0.598
X88.252 Y45.78 Z-0.603
X88.301 Y45.655 Z-0.607
X88.365 Y45.538 Z-0.612
X88.443 Y45.429 Z-0.617
X88.532 Y45.33 Z-0.621
X88.633 Y45.242 Z-0.626
X88.744 Y45.166 Z-0.631
X88.862 Y45.105 Z-0.636
X88.987 Y45.057 Z-0.64
X89.117 Y45.025 Z-0.645
X89.25 Y45.008 Z-0.65
X89.383 Y45.007 Z-0.654
X89.516 Y45.022 Z-0.659
X89.647 Y45.052 Z-0.664
X89.772 Y45.098 Z-0.668
X89.892 Y45.158 Z-0.673
X90.003 Y45.232 Z-0.678
X90.105 Y45.318 Z-0.682
X90.197 Y45.416 Z-0.687
X90.276 Y45.524 Z-0.692
X90.341 Y45.641 Z-0.696
X90.393 Y45.764 Z-0.701
X90.429 Y45.893 Z-0.706
X90.45 Y46.025 Z-0.71
X90.456 Y46.158 Z-0.715
X90.445 Y46.292 Z-0.72
X90.419 Y46.423 Z-0.724
X90.378 Y46.55 Z-0.729
X90.322 Y46.671 Z-0.734
X90.252 Y46.785 Z-0.738
X90.169 Y46.89 Z-0.743
X90.074 Y46.984 Z-0.748
X89.968 Y47.067 Z-0.752
X89.854 Y47.136 Z-0.757
X89.733 Y47.192 Z-0.762
X89.605 Y47.233 Z-0.766
X89.474 Y47.258 Z-0.771
X89.34 Y47.268 Z-0.776
X89.207 Y47.262 Z-0.78
X89.075 Y47.24 Z-0.785
X88.946 Y47.203 Z-0.79
X88.823 Y47.151 Z-0.794
X88.707 Y47.084 Z-0.799
X88.6 Y47.005 Z-0.804
X88.502 Y46.913 Z-0.808
X88.416 Y46.811 Z-0.813
X88.343 Y46.699 Z-0.818
X88.284 Y46.579 Z-0.822
X88.239 Y46.453 Z-0.827
X88.209 Y46.322 Z-0.832
X88.195 Y46.189 Z-0.836
X88.197 Y46.056 Z-0.841
X88.214 Y45.923 Z-0.846
X88.247 Y45.794 Z-0.85
X88.295 Y45.669 Z-0.855
X88.358 Y45.55 Z-0.86
X88.434 Y45.44 Z-0.864
X88.522 Y45.34 Z-0.869
X88.622 Y45.251 Z-0.874
X88.731 Y45.174 Z-0.879
X88.849 Y45.111 Z-0.883
X88.973 Y45.062 Z-0.888
X89.103 Y45.028 Z-0.893
X89.235 Y45.009 Z-0.897
X89.369 Y45.007 Z-0.902
X89.502 Y45.02 Z-0.907
X89.633 Y45.048 Z-0.911
X89.759 Y45.092 Z-0.916
X89.879 Y45.151 Z-0.921
X89.992 Y45.223 Z-0.925
X90.095 Y45.308 Z-0.93
X90.187 Y45.405 Z-0.935
X90.268 Y45.512 Z-0.939
X90.335 Y45.627 Z-0.944
X90.388 Y45.75 Z-0.949
X90.426 Y45.878 Z-0.953
X90.449 Y46.01 Z-0.958
X90.456 Y46.144 Z-0.963
X90.447 Y46.277 Z-0.967
X90.423 Y46.409 Z-0.972
X90.383 Y46.536 Z-0.977
X90.329 Y46.658 Z-0.981
X90.26 Y46.773 Z-0.986
X90.178 Y46.879 Z-0.991
X90.085 Y46.975 Z-0.995
X89.981 Y47.058 Z-1.
X89.564 Y47.355 F1499.
X88.217 Y47.954
X88.146 Y47.97
X88.147 Y45.411
X88.195 Y45.171
X88.263 Y45.069
X88.36 Y45.005
X88.62 Y44.952
X92.042
X91.753 Y45.425
X90.756 Y46.501
X90.662 Y46.574
X89.981 Y47.058
X89.943 Y47.076
X89.901 Y47.08
X89.86 Y47.069
X89.826 Y47.044
X89.221 Y46.42
X89.186 Y46.395
X89.144 Y46.384
X88.28 Y46.325
X88.24 Y46.315
X88.205 Y46.291
X88.181 Y46.257
X88.17 Y46.217
X88.165 Y46.083 Z-1.005 F333.
X88.177 Y45.95 Z-1.009
X88.204 Y45.819 Z-1.014
X88.246 Y45.692 Z-1.019
X88.303 Y45.571 Z-1.023
X88.374 Y45.458 Z-1.028
X88.458 Y45.353 Z-1.033
X88.554 Y45.26 Z-1.037
X88.659 Y45.178 Z-1.042
X88.774 Y45.11 Z-1.047
X88.896 Y45.055 Z-1.051
X89.024 Y45.015 Z-1.056
X89.155 Y44.991 Z-1.061
X89.289 Y44.982 Z-1.065
X89.422 Y44.989 Z-1.07
X89.554 Y45.012 Z-1.075
X89.682 Y45.05 Z-1.079
X89.805 Y45.103 Z-1.084
X89.921 Y45.17 Z-1.089
X90.028 Y45.25 Z-1.093
X90.124 Y45.343 Z-1.098
X90.21 Y45.446 Z-1.103
X90.282 Y45.558 Z-1.107
X90.34 Y45.679 Z-1.112
X90.384 Y45.805 Z-1.117
X90.413 Y45.936 Z-1.121
X90.426 Y46.069 Z-1.126
X90.424 Y46.202 Z-1.131
X90.405 Y46.335 Z-1.136
X90.371 Y46.464 Z-1.14
X90.322 Y46.589 Z-1.145
X90.259 Y46.706 Z-1.15
X90.182 Y46.816 Z-1.154
X90.093 Y46.916 Z-1.159
X89.993 Y47.004 Z-1.164
X89.883 Y47.08 Z-1.168
X89.764 Y47.143 Z-1.173
X89.64 Y47.191 Z-1.178
X89.51 Y47.224 Z-1.182
X89.378 Y47.241 Z-1.187
X89.244 Y47.243 Z-1.192
X89.111 Y47.229 Z-1.196
X88.98 Y47.199 Z-1.201
X88.854 Y47.154 Z-1.206
X88.735 Y47.095 Z-1.21
X88.623 Y47.022 Z-1.215
X88.52 Y46.936 Z-1.22
X88.428 Y46.839 Z-1.224
X88.349 Y46.731 Z-1.229
X88.282 Y46.615 Z-1.234
X88.23 Y46.492 Z-1.238
X88.193 Y46.363 Z-1.243
X88.171 Y46.231 Z-1.248
X88.165 Y46.098 Z-1.252
X88.175 Y45.964 Z-1.257
X88.2 Y45.833 Z-1.262
X88.241 Y45.706 Z-1.266
X88.296 Y45.584 Z-1.271
X88.366 Y45.47 Z-1.276
X88.448 Y45.364 Z-1.28
X88.542 Y45.27 Z-1.285
X88.647 Y45.187 Z-1.29
X88.761 Y45.116 Z-1.294
X88.883 Y45.06 Z-1.299
X89.01 Y45.019 Z-1.304
X89.141 Y44.993 Z-1.308
X89.274 Y44.982 Z-1.313
X89.408 Y44.987 Z-1.318
X89.54 Y45.009 Z-1.322
X89.669 Y45.045 Z-1.327
X89.792 Y45.096 Z-1.332
X89.909 Y45.162 Z-1.336
X90.016 Y45.241 Z-1.341
X90.114 Y45.332 Z-1.346
X90.201 Y45.434 Z-1.35
X90.275 Y45.546 Z-1.355
X90.335 Y45.665 Z-1.36
X90.38 Y45.791 Z-1.364
X90.411 Y45.921 Z-1.369
X90.426 Y46.054 Z-1.374
X90.425 Y46.188 Z-1.379
X90.408 Y46.32 Z-1.383
X90.376 Y46.45 Z-1.388
X90.328 Y46.575 Z-1.393
X90.267 Y46.694 Z-1.397
X90.191 Y46.804 Z-1.402
X90.103 Y46.905 Z-1.407
X90.004 Y46.995 Z-1.411
X89.895 Y47.072 Z-1.416
X89.778 Y47.136 Z-1.421
X89.654 Y47.186 Z-1.425
X89.525 Y47.221 Z-1.43
X89.392 Y47.24 Z-1.435
X89.259 Y47.244 Z-1.439
X89.125 Y47.231 Z-1.444
X88.995 Y47.203 Z-1.449
X88.868 Y47.16 Z-1.453
X88.747 Y47.102 Z-1.458
X88.635 Y47.03 Z-1.463
X88.531 Y46.946 Z-1.467
X88.438 Y46.85 Z-1.472
X88.357 Y46.743 Z-1.477
X88.289 Y46.628 Z-1.481
X88.235 Y46.506 Z-1.486
X88.196 Y46.378 Z-1.491
X88.173 Y46.246 Z-1.495
X88.165 Y46.113 Z-1.5
Y45.411 F1499.
X88.212 Y45.176
X88.275 Y45.081
X88.361 Y45.024
X88.621 Y44.97
X92.01
X91.729 Y45.424
X90.758 Y46.475
X90.656 Y46.558
X89.562 Y47.334
X88.847 Y47.66
X88.23 Y47.931
X88.164 Y47.946
X88.165 Y46.113
X88.171 Y46.075
X88.189 Y46.042
X88.216 Y46.015
X88.25 Y45.999
X88.287 Y45.994
X88.325 Y46.001
X89.211 Y46.322
X90.06 Y46.728
X90.091 Y46.75
X90.114 Y46.781
X90.126 Y46.817
Y46.855
X90.114 Y46.891
X90.092 Y46.921
X89.99 Y47.008 Z-1.505 F333.
X89.879 Y47.083 Z-1.509
X89.76 Y47.144 Z-1.514
X89.635 Y47.19 Z-1.519
X89.505 Y47.221 Z-1.523
X89.372 Y47.237 Z-1.528
X89.238 Z-1.533
X89.105 Y47.22 Z-1.537
X88.975 Y47.188 Z-1.542
X88.85 Y47.141 Z-1.547
X88.731 Y47.08 Z-1.551
X88.621 Y47.005 Z-1.556
X88.52 Y46.917 Z-1.561
X88.43 Y46.818 Z-1.565
X88.353 Y46.709 Z-1.57
X88.289 Y46.591 Z-1.575
X88.239 Y46.467 Z-1.579
X88.205 Y46.338 Z-1.584
X88.186 Y46.205 Z-1.589
X88.183 Y46.072 Z-1.593
X88.196 Y45.939 Z-1.598
X88.224 Y45.808 Z-1.603
X88.268 Y45.682 Z-1.607
X88.326 Y45.561 Z-1.612
X88.399 Y45.449 Z-1.617
X88.484 Y45.346 Z-1.621
X88.581 Y45.253 Z-1.626
X88.688 Y45.173 Z-1.631
X88.804 Y45.106 Z-1.636
X88.927 Y45.054 Z-1.64
X89.055 Y45.016 Z-1.645
X89.187 Y44.994 Z-1.65
X89.32 Y44.987 Z-1.654
X89.454 Y44.997 Z-1.659
X89.585 Y45.022 Z-1.664
X89.712 Y45.062 Z-1.668
X89.834 Y45.118 Z-1.673
X89.948 Y45.187 Z-1.678
X90.054 Y45.27 Z-1.682
X90.148 Y45.364 Z-1.687
X90.231 Y45.469 Z-1.692
X90.301 Y45.583 Z-1.696
X90.357 Y45.705 Z-1.701
X90.398 Y45.832 Z-1.706
X90.424 Y45.963 Z-1.71
X90.434 Y46.096 Z-1.715
X90.428 Y46.23 Z-1.72
X90.406 Y46.362 Z-1.724
X90.369 Y46.49 Z-1.729
X90.316 Y46.614 Z-1.734
X90.25 Y46.73 Z-1.738
X90.17 Y46.837 Z-1.743
X90.078 Y46.934 Z-1.748
X89.975 Y47.02 Z-1.752
X89.863 Y47.092 Z-1.757
X89.743 Y47.151 Z-1.762
X89.617 Y47.196 Z-1.766
X89.486 Y47.224 Z-1.771
X89.353 Y47.238 Z-1.776
X89.22 Y47.235 Z-1.78
X89.087 Y47.217 Z-1.785
X88.958 Y47.183 Z-1.79
X88.833 Y47.134 Z-1.794
X88.716 Y47.07 Z-1.799
X88.606 Y46.993 Z-1.804
X88.507 Y46.904 Z-1.808
X88.419 Y46.803 Z-1.813
X88.343 Y46.693 Z-1.818
X88.281 Y46.574 Z-1.822
X88.234 Y46.449 Z-1.827
X88.201 Y46.32 Z-1.832
X88.185 Y46.187 Z-1.836
X88.184 Y46.053 Z-1.841
X88.199 Y45.92 Z-1.846
X88.229 Y45.79 Z-1.85
X88.275 Y45.665 Z-1.855
X88.336 Y45.545 Z-1.86
X88.41 Y45.434 Z-1.864
X88.497 Y45.332 Z-1.869
X88.595 Y45.242 Z-1.874
X88.703 Y45.163 Z-1.879
X88.82 Y45.098 Z-1.883
X88.944 Y45.048 Z-1.888
X89.073 Y45.012 Z-1.893
X89.205 Y44.992 Z-1.897
X89.339 Y44.988 Z-1.902
X89.472 Y44.999 Z-1.907
X89.603 Y45.026 Z-1.911
X89.73 Y45.069 Z-1.916
X89.85 Y45.126 Z-1.921
X89.964 Y45.198 Z-1.925
X90.068 Y45.282 Z-1.93
X90.161 Y45.378 Z-1.935
X90.242 Y45.484 Z-1.939
X90.31 Y45.599 Z-1.944
X90.364 Y45.722 Z-1.949
X90.403 Y45.85 Z-1.953
X90.426 Y45.981 Z-1.958
X90.434 Y46.115 Z-1.963
X90.426 Y46.248 Z-1.967
X90.402 Y46.38 Z-1.972
X90.362 Y46.508 Z-1.977
X90.308 Y46.63 Z-1.981
X90.24 Y46.745 Z-1.986
X90.158 Y46.851 Z-1.991
X90.065 Y46.947 Z-1.995
X89.96 Y47.03 Z-2.
X89.56 Y47.315 F1499.
X89.038 Y47.558
X88.244 Y47.908
X88.181 Y47.923
X88.182 Y45.411
X88.227 Y45.186
X88.254 Y45.142
X88.287 Y45.093
X88.374 Y45.035
X88.617 Y44.987
X91.982
X91.742 Y45.381
X91.348 Y45.82
X90.734 Y46.473
X90.657 Y46.535
X89.96 Y47.03
X89.933 Y47.04
X89.905 Y47.035
X89.883 Y47.016
X89.873 Y46.989
X89.879 Y46.961
X89.975 Y46.772
X90.148 Y46.664
X90.172 Y46.657
X90.196 Y46.66
X90.217 Y46.674
X90.23 Y46.695
X90.232 Y46.72
X90.222 Y46.743
X90.141 Y46.847 Z-2.005 F333.
X90.047 Y46.941 Z-2.009
X89.944 Y47.023 Z-2.014
X89.831 Y47.093 Z-2.019
X89.71 Y47.148 Z-2.023
X89.584 Y47.188 Z-2.028
X89.454 Y47.213 Z-2.032
X89.322 Y47.223 Z-2.037
X89.189 Y47.216 Z-2.042
X89.059 Y47.194 Z-2.046
X88.932 Y47.157 Z-2.051
X88.81 Y47.104 Z-2.056
X88.695 Y47.038 Z-2.06
X88.59 Y46.958 Z-2.065
X88.494 Y46.866 Z-2.069
X88.41 Y46.764 Z-2.074
X88.339 Y46.652 Z-2.079
X88.282 Y46.532 Z-2.083
X88.239 Y46.407 Z-2.088
X88.212 Y46.277 Z-2.093
X88.2 Y46.145 Z-2.097
X88.205 Y46.013 Z-2.102
X88.224 Y45.882 Z-2.106
X88.26 Y45.754 Z-2.111
X88.31 Y45.632 Z-2.116
X88.375 Y45.516 Z-2.12
X88.453 Y45.409 Z-2.125
X88.543 Y45.312 Z-2.13
X88.644 Y45.226 Z-2.134
X88.755 Y45.153 Z-2.139
X88.873 Y45.094 Z-2.144
X88.998 Y45.049 Z-2.148
X89.127 Y45.02 Z-2.153
X89.259 Y45.006 Z-2.157
X89.392 Y45.008 Z-2.162
X89.523 Y45.026 Z-2.167
X89.651 Y45.059 Z-2.171
X89.775 Y45.107 Z-2.176
X89.891 Y45.17 Z-2.181
X90. Y45.246 Z-2.185
X90.098 Y45.335 Z-2.19
X90.185 Y45.434 Z-2.194
X90.26 Y45.544 Z-2.199
X90.321 Y45.661 Z-2.204
X90.368 Y45.785 Z-2.208
X90.4 Y45.914 Z-2.213
X90.416 Y46.046 Z-2.218
Y46.178 Z-2.222
X90.401 Y46.31 Z-2.227
X90.369 Y46.438 Z-2.231
X90.323 Y46.563 Z-2.236
X90.262 Y46.68 Z-2.241
X90.188 Y46.79 Z-2.245
X90.101 Y46.89 Z-2.25
X90.003 Y46.979 Z-2.255
X89.895 Y47.056 Z-2.259
X89.778 Y47.119 Z-2.264
X89.655 Y47.168 Z-2.269
X89.527 Y47.201 Z-2.273
X89.396 Y47.22 Z-2.278
X89.263 Y47.222 Z-2.282
X89.132 Y47.209 Z-2.287
X89.002 Y47.18 Z-2.292
X88.877 Y47.136 Z-2.296
X88.759 Y47.077 Z-2.301
X88.648 Y47.004 Z-2.306
X88.546 Y46.919 Z-2.31
X88.456 Y46.822 Z-2.315
X88.377 Y46.716 Z-2.319
X88.312 Y46.6 Z-2.324
X88.261 Y46.478 Z-2.329
X88.225 Y46.35 Z-2.333
X88.205 Y46.219 Z-2.338
X88.2 Y46.087 Z-2.343
X88.211 Y45.955 Z-2.347
X88.238 Y45.825 Z-2.352
X88.28 Y45.7 Z-2.356
X88.337 Y45.58 Z-2.361
X88.408 Y45.468 Z-2.366
X88.491 Y45.365 Z-2.37
X88.586 Y45.273 Z-2.375
X88.692 Y45.192 Z-2.38
X88.806 Y45.125 Z-2.384
X88.928 Y45.073 Z-2.389
X89.055 Y45.034 Z-2.394
X89.185 Y45.012 Z-2.398
X89.317 Y45.005 Z-2.403
X89.45 Y45.014 Z-2.407
X89.58 Y45.038 Z-2.412
X89.706 Y45.078 Z-2.417
X89.827 Y45.133 Z-2.421
X89.94 Y45.202 Z-2.426
X90.044 Y45.284 Z-2.431
X90.138 Y45.377 Z-2.435
X90.22 Y45.481 Z-2.44
X90.289 Y45.595 Z-2.444
X90.344 Y45.715 Z-2.449
X90.384 Y45.841 Z-2.454
X90.409 Y45.972 Z-2.458
X90.418 Y46.104 Z-2.463
X90.411 Y46.236 Z-2.468
X90.389 Y46.367 Z-2.472
X90.351 Y46.494 Z-2.477
X90.298 Y46.615 Z-2.481
X90.231 Y46.73 Z-2.486
X90.151 Y46.835 Z-2.491
X90.059 Y46.931 Z-2.495
X89.957 Y47.014 Z-2.5
X89.589 Y47.279 F1499.
X89.223 Y47.458
X88.27 Y47.88
X88.199 Y47.898
X88.2 Y45.411
X88.243 Y45.194
X88.302 Y45.102
X88.378 Y45.051
X88.617 Y45.005
X91.951
X91.73 Y45.365
X91.346 Y45.798
X90.747 Y46.438
X90.656 Y46.511
X89.957 Y47.014
X89.927 Y47.027
X89.894 Y47.026
X89.865 Y47.012
X89.844 Y46.986
X89.836 Y46.955
X89.843 Y46.923
X89.962 Y46.649
X90.193 Y46.47
X90.223 Y46.456
X90.256
X90.286 Y46.471
X90.307 Y46.496
X90.315 Y46.528
X90.308 Y46.561
X90.248 Y46.677 Z-2.505 F333.
X90.174 Y46.786 Z-2.509
X90.087 Y46.884 Z-2.514
X89.989 Y46.972 Z-2.518
X89.882 Y47.047 Z-2.523
X89.766 Y47.109 Z-2.528
X89.643 Y47.156 Z-2.532
X89.516 Y47.189 Z-2.537
X89.386 Y47.206 Z-2.541
X89.255 Y47.207 Z-2.546
X89.124 Y47.192 Z-2.55
X88.996 Y47.162 Z-2.555
X88.873 Y47.117 Z-2.56
X88.756 Y47.057 Z-2.564
X88.647 Y46.984 Z-2.569
X88.548 Y46.898 Z-2.573
X88.459 Y46.801 Z-2.578
X88.383 Y46.694 Z-2.583
X88.321 Y46.579 Z-2.587
X88.272 Y46.457 Z-2.592
X88.239 Y46.33 Z-2.596
X88.221 Y46.2 Z-2.601
X88.218 Y46.069 Z-2.606
X88.232 Y45.938 Z-2.61
X88.261 Y45.81 Z-2.615
X88.305 Y45.686 Z-2.619
X88.364 Y45.569 Z-2.624
X88.436 Y45.459 Z-2.628
X88.521 Y45.359 Z-2.633
X88.617 Y45.27 Z-2.638
X88.724 Y45.193 Z-2.642
X88.838 Y45.129 Z-2.647
X88.96 Y45.08 Z-2.651
X89.087 Y45.045 Z-2.656
X89.217 Y45.026 Z-2.661
X89.348 Y45.023 Z-2.665
X89.479 Y45.035 Z-2.67
X89.607 Y45.063 Z-2.674
X89.731 Y45.106 Z-2.679
X89.849 Y45.164 Z-2.683
X89.959 Y45.236 Z-2.688
X90.06 Y45.32 Z-2.693
X90.15 Y45.415 Z-2.697
X90.228 Y45.521 Z-2.702
X90.292 Y45.635 Z-2.706
X90.343 Y45.756 Z-2.711
X90.378 Y45.883 Z-2.716
X90.398 Y46.013 Z-2.72
X90.403 Y46.144 Z-2.725
X90.392 Y46.275 Z-2.729
X90.365 Y46.403 Z-2.734
X90.323 Y46.527 Z-2.739
X90.266 Y46.646 Z-2.743
X90.195 Y46.757 Z-2.748
X90.112 Y46.858 Z-2.752
X90.017 Y46.949 Z-2.757
X89.912 Y47.028 Z-2.761
X89.799 Y47.093 Z-2.766
X89.678 Y47.145 Z-2.771
X89.552 Y47.181 Z-2.775
X89.422 Y47.203 Z-2.78
X89.291 Y47.208 Z-2.784
X89.16 Y47.198 Z-2.789
X89.031 Y47.172 Z-2.794
X88.907 Y47.131 Z-2.798
X88.788 Y47.075 Z-2.803
X88.677 Y47.006 Z-2.807
X88.574 Y46.923 Z-2.812
X88.483 Y46.829 Z-2.817
X88.403 Y46.725 Z-2.821
X88.337 Y46.612 Z-2.826
X88.284 Y46.491 Z-2.83
X88.246 Y46.366 Z-2.835
X88.224 Y46.236 Z-2.839
X88.217 Y46.105 Z-2.844
X88.227 Y45.974 Z-2.849
X88.251 Y45.845 Z-2.853
X88.291 Y45.72 Z-2.858
X88.346 Y45.601 Z-2.862
X88.415 Y45.489 Z-2.867
X88.496 Y45.386 Z-2.872
X88.59 Y45.294 Z-2.876
X88.693 Y45.213 Z-2.881
X88.806 Y45.146 Z-2.885
X88.926 Y45.092 Z-2.89
X89.051 Y45.054 Z-2.894
X89.18 Y45.03 Z-2.899
X89.311 Y45.022 Z-2.904
X89.442 Y45.03 Z-2.908
X89.572 Y45.054 Z-2.913
X89.697 Y45.093 Z-2.917
X89.817 Y45.147 Z-2.922
X89.929 Y45.214 Z-2.927
X90.033 Y45.295 Z-2.931
X90.126 Y45.388 Z-2.936
X90.207 Y45.491 Z-2.94
X90.276 Y45.603 Z-2.945
X90.33 Y45.722 Z-2.95
X90.37 Y45.847 Z-2.954
X90.394 Y45.976 Z-2.959
X90.403 Y46.107 Z-2.963
X90.396 Y46.238 Z-2.968
X90.374 Y46.368 Z-2.972
X90.336 Y46.493 Z-2.977
X90.283 Y46.614 Z-2.982
X90.216 Y46.727 Z-2.986
X90.136 Y46.831 Z-2.991
X90.045 Y46.925 Z-2.995
X89.942 Y47.007 Z-3.
X89.583 Y47.262 F1499.
X89.222 Y47.441
X88.268 Y47.863
X88.217 Y47.876
X88.218 Y45.412
X88.263 Y45.191
X88.283 Y45.158
X88.312 Y45.115
X88.377 Y45.072
X88.62 Y45.022
X91.921
X91.726 Y45.341
X91.345 Y45.776
X90.767 Y46.396
X90.651 Y46.49
X90.169 Y46.846
X89.942 Y47.007
X89.908 Y47.024
X89.87 Y47.029
X89.833 Y47.022
X89.8 Y47.003
X89.323 Y46.626
X89.294 Y46.61
X89.262 Y46.601
X89.23 Y46.602
X89.198 Y46.612
X88.653 Y46.867
X88.616 Y46.877
X88.579 Y46.876
X88.543 Y46.863
X88.514 Y46.839
X88.433 Y46.738 Z-3.005 F333.
X88.364 Y46.627 Z-3.009
X88.309 Y46.509 Z-3.014
X88.269 Y46.386 Z-3.018
X88.244 Y46.258 Z-3.023
X88.235 Y46.128 Z-3.027
X88.241 Y45.998 Z-3.032
X88.263 Y45.87 Z-3.036
X88.301 Y45.745 Z-3.041
X88.353 Y45.626 Z-3.045
X88.419 Y45.514 Z-3.05
X88.498 Y45.411 Z-3.055
X88.589 Y45.318 Z-3.059
X88.691 Y45.237 Z-3.064
X88.801 Y45.168 Z-3.068
X88.919 Y45.114 Z-3.073
X89.043 Y45.074 Z-3.077
X89.171 Y45.049 Z-3.082
X89.301 Y45.04 Z-3.086
X89.431 Y45.046 Z-3.091
X89.559 Y45.069 Z-3.095
X89.683 Y45.106 Z-3.1
X89.802 Y45.159 Z-3.105
X89.914 Y45.225 Z-3.109
X90.017 Y45.304 Z-3.114
X90.11 Y45.395 Z-3.118
X90.191 Y45.497 Z-3.123
X90.26 Y45.608 Z-3.127
X90.314 Y45.726 Z-3.132
X90.354 Y45.85 Z-3.136
X90.378 Y45.977 Z-3.141
X90.387 Y46.107 Z-3.145
X90.381 Y46.237 Z-3.15
X90.358 Y46.365 Z-3.155
X90.32 Y46.49 Z-3.159
X90.268 Y46.609 Z-3.164
X90.202 Y46.721 Z-3.168
X90.122 Y46.824 Z-3.173
X90.031 Y46.916 Z-3.177
X89.929 Y46.997 Z-3.182
X89.818 Y47.065 Z-3.186
X89.7 Y47.12 Z-3.191
X89.576 Y47.159 Z-3.195
X89.448 Y47.184 Z-3.2
X89.318 Y47.192 Z-3.205
X89.189 Y47.185 Z-3.209
X89.06 Y47.163 Z-3.214
X88.936 Y47.125 Z-3.218
X88.817 Y47.072 Z-3.223
X88.705 Y47.006 Z-3.227
X88.602 Y46.926 Z-3.232
X88.51 Y46.835 Z-3.236
X88.429 Y46.733 Z-3.241
X88.361 Y46.622 Z-3.245
X88.307 Y46.503 Z-3.25
X88.268 Y46.379 Z-3.255
X88.243 Y46.252 Z-3.259
X88.235 Y46.122 Z-3.264
X88.242 Y45.992 Z-3.268
X88.265 Y45.864 Z-3.273
X88.303 Y45.74 Z-3.277
X88.356 Y45.621 Z-3.282
X88.422 Y45.509 Z-3.286
X88.502 Y45.406 Z-3.291
X88.594 Y45.314 Z-3.295
X88.696 Y45.233 Z-3.3
X88.807 Y45.165 Z-3.305
X88.925 Y45.111 Z-3.309
X89.049 Y45.072 Z-3.314
X89.177 Y45.048 Z-3.318
X89.307 Y45.04 Z-3.323
X89.437 Y45.047 Z-3.327
X89.565 Y45.07 Z-3.332
X89.689 Y45.108 Z-3.336
X89.808 Y45.161 Z-3.341
X89.92 Y45.228 Z-3.345
X90.022 Y45.308 Z-3.35
X90.114 Y45.4 Z-3.355
X90.195 Y45.502 Z-3.359
X90.263 Y45.613 Z-3.364
